; generated by Slic3r 1.2.9 on 2017-03-29 at 10:15:13

; external perimeters extrusion width = 0.30mm
; perimeters extrusion width = 0.40mm
; infill extrusion width = 0.40mm
; solid infill extrusion width = 0.40mm
; top infill extrusion width = 0.40mm

M107
M190 S85 ; set bed temperature
M104 S210 ; set temperature
G28 ; home all axes
G1 Z5 F5000 ; lift nozzle

M109 S210 ; wait for temperature to be reached
G21 ; set units to millimeters
G90 ; use absolute coordinates
M82 ; use absolute distances for extrusion
G92 E0
G1 Z0.300 F7800.000
G1 E-1.00000 F2400.00000
G92 E0
G1 X86.451 Y77.877 F7800.000
G1 E1.00000 F2400.00000
G1 X88.132 Y76.785 E1.13389 F1260.000
G1 X90.000 Y76.429 E1.26096
G1 X110.000 Y76.429 E2.59707
G1 X111.965 Y76.825 E2.73096
G1 X113.623 Y77.951 E2.86485 F1260.000
G1 X114.715 Y79.632 E2.99875
G1 X115.071 Y81.500 E3.12581
G1 X115.071 Y118.500 E5.59761
G1 X114.675 Y120.465 E5.73151
G1 X113.549 Y122.123 E5.86540
G1 X111.868 Y123.215 E5.99929
G1 X110.000 Y123.571 E6.12636
G1 X90.000 Y123.571 E7.46247
G1 X88.035 Y123.175 E7.59636
G1 X86.377 Y122.049 E7.73025
G1 X85.285 Y120.368 E7.86415
G1 X84.929 Y118.500 E7.99121
G1 X84.929 Y81.500 E10.46301
G1 X85.325 Y79.535 E10.59691
G1 X86.426 Y77.915 E10.72779
G1 X86.909 Y78.212 F7800.000
G1 X86.978 Y78.118 E10.73558 F1260.000
G1 X88.623 Y77.179 E10.86213
G1 X90.000 Y76.964 E10.95525
G1 X110.000 Y76.964 E12.29135
G1 X111.853 Y77.360 E12.41791
G1 X113.382 Y78.478 E12.54446 F1260.000
G1 X114.321 Y80.123 E12.67101
G1 X114.536 Y81.500 E12.76413
G1 X114.536 Y118.500 E15.23593
G1 X114.140 Y120.353 E15.36248
G1 X113.022 Y121.882 E15.48903
G1 X111.377 Y122.821 E15.61558
G1 X110.000 Y123.036 E15.70870
G1 X90.000 Y123.036 E17.04481
G1 X88.147 Y122.640 E17.17136
G1 X86.618 Y121.522 E17.29791
G1 X85.679 Y119.877 E17.42446
G1 X85.464 Y118.500 E17.51758
G1 X85.464 Y81.500 E19.98938
G1 X85.860 Y79.647 E20.11593
G1 X86.882 Y78.248 E20.23169
G1 E19.23169 F2400.00000
G92 E0
G1 X89.152 Y80.455 F7800.000
G1 E1.00000 F2400.00000
G1 X89.445 Y80.161 E1.02775 F1260.000
G1 X110.555 Y80.161 E2.43797
G1 X111.339 Y80.945 E2.51207
G1 X111.339 Y119.055 E5.05798 F1260.000
G1 X110.555 Y119.839 E5.13209
G1 X89.445 Y119.839 E6.54231
G1 X88.661 Y119.055 E6.61641
G1 X88.661 Y80.945 E9.16232
G1 X89.120 Y80.487 E9.20567
G1 X89.530 Y80.833 F7800.000
G1 X89.667 Y80.697 E9.21860 F1260.000
G1 X110.333 Y80.697 E10.59917
G1 X110.803 Y81.167 E10.64364 F1260.000
G1 X110.803 Y118.833 E13.15990
G1 X110.333 Y119.303 E13.20437
G1 X89.667 Y119.303 E14.58494
G1 X89.197 Y118.833 E14.62940
G1 X89.197 Y81.167 E17.14567
G1 X89.499 Y80.865 E17.17420
G1 X89.889 Y81.232 F7800.000
G1 X110.111 Y81.232 E18.52513 F1260.000
G1 X110.268 Y81.389 E18.53995
G1 X110.268 Y118.611 E21.02657 F1260.000
G1 X110.111 Y118.768 E21.04139
G1 X89.889 Y118.768 E22.39232
G1 X89.732 Y118.611 E22.40714
G1 X89.732 Y81.389 E24.89376
G1 X89.857 Y81.264 E24.90558
G1 E23.90558 F2400.00000
G92 E0
G1 X109.700 Y118.200 F7800.000
G1 E1.00000 F2400.00000
G1 X90.300 Y118.200 E2.29602 F315.000
G1 X90.300 Y81.800 E4.72774
G1 X109.700 Y81.800 E6.02377
G1 X109.700 Y118.155 E8.45248
G1 X109.440 Y118.050 F7800.000
G1 X109.164 Y117.664 F7800.000
G1 X90.836 Y117.664 E9.67694 F630.000
G1 X90.836 Y82.336 E12.03709
G1 X109.164 Y82.336 E13.26155
G1 X109.164 Y117.619 E15.61870
G1 X108.629 Y117.129 F7800.000
G1 X91.371 Y117.129 E16.77159 F630.000
G1 X91.371 Y82.871 E19.06018
G1 X108.629 Y82.871 E20.21308
G1 X108.629 Y117.084 E22.49866
G1 X107.940 Y105.882 F7800.000
G1 X106.298 Y100.730 F7800.000
G1 X104.494 Y99.945 F7800.000
G1 X103.474 Y99.945 F7800.000
G1 X103.211 Y99.947 F7800.000
G1 X103.135 Y99.948 F7800.000
G1 X102.477 Y98.261 F7800.000
G1 X102.237 Y97.603 F7800.000
G1 X101.456 Y97.835 E22.55309 F315.000
G1 X101.038 Y97.917 E22.58148
G1 X100.637 Y97.968 E22.60851
G1 X100.198 Y97.997 E22.63792
G1 X99.383 Y97.971 E22.69237
G1 X98.957 Y97.916 E22.72108
G1 X98.162 Y97.735 E22.77553
G1 X97.744 Y97.596 E22.80494
G1 X97.369 Y97.444 E22.83198
G1 X96.987 Y97.260 E22.86037
G1 X96.290 Y96.837 E22.91482
G1 X95.933 Y96.570 E22.94455
G1 X95.342 Y96.033 E22.99795
G1 X95.045 Y95.707 E23.02736
G1 X94.793 Y95.391 E23.05440
G1 X94.552 Y95.046 E23.08247
G1 X94.332 Y94.683 E23.11086
G1 X93.979 Y93.949 E23.16531
G1 X93.827 Y93.535 E23.19473
G1 X93.712 Y93.147 E23.22176
G1 X93.618 Y92.733 E23.25015
G1 X93.514 Y91.925 E23.30458
G1 X93.500 Y91.500 E23.33297
G1 X93.514 Y91.075 E23.36136
G1 X93.618 Y90.267 E23.41579
G1 X93.712 Y89.853 E23.44418
G1 X93.827 Y89.465 E23.47121
G1 X93.979 Y89.051 E23.50062
G1 X94.332 Y88.317 E23.55507
G1 X94.552 Y87.954 E23.58347
G1 X94.796 Y87.605 E23.61186
G1 X95.324 Y86.985 E23.66628
G1 X95.629 Y86.689 E23.69467
G1 X95.937 Y86.427 E23.72170
G1 X96.290 Y86.163 E23.75112
G1 X96.987 Y85.740 E23.80557
G1 X97.369 Y85.556 E23.83396
G1 X97.763 Y85.397 E23.86235
G1 X98.544 Y85.165 E23.91678
G1 X98.962 Y85.083 E23.94517
G1 X99.363 Y85.032 E23.97220
G1 X99.802 Y85.003 E24.00162 F315.000
G1 X100.617 Y85.029 E24.05607
G1 X101.043 Y85.084 E24.08477
G1 X101.838 Y85.265 E24.13922
G1 X102.256 Y85.404 E24.16864
G1 X102.631 Y85.556 E24.19567
G1 X103.013 Y85.740 E24.22406
G1 X103.710 Y86.163 E24.27851
G1 X104.067 Y86.430 E24.30825
G1 X104.658 Y86.967 E24.36164
G1 X104.955 Y87.293 E24.39105
G1 X105.207 Y87.609 E24.41810
G1 X105.448 Y87.954 E24.44617
G1 X105.668 Y88.317 E24.47456
G1 X106.021 Y89.051 E24.52901
G1 X106.173 Y89.465 E24.55842
G1 X106.288 Y89.853 E24.58545
G1 X106.382 Y90.267 E24.61384
G1 X106.486 Y91.075 E24.66827
G1 X106.500 Y91.500 E24.69666
G1 X106.486 Y91.925 E24.72505
G1 X106.382 Y92.733 E24.77948
G1 X106.288 Y93.147 E24.80787
G1 X106.173 Y93.535 E24.83490
G1 X106.021 Y93.949 E24.86432
G1 X105.668 Y94.683 E24.91877
G1 X105.448 Y95.046 E24.94716
G1 X105.204 Y95.395 E24.97555
G1 X104.676 Y96.015 E25.02998
G1 X104.371 Y96.311 E25.05837
G1 X104.063 Y96.573 E25.08540
G1 X103.710 Y96.837 E25.11482
G1 X103.013 Y97.260 E25.16927
G1 X102.631 Y97.444 E25.19766
G1 X102.278 Y97.587 E25.22304
G1 X102.176 Y97.897 F7800.000
G1 X102.389 Y98.117 F7800.000
G1 X101.583 Y98.356 E25.27918 F630.000
G1 X101.124 Y98.446 E25.31044
G1 X100.689 Y98.502 E25.33975
G1 X100.207 Y98.533 E25.37204
G1 X99.340 Y98.505 E25.42996
G1 X98.863 Y98.444 E25.46210
G1 X98.018 Y98.251 E25.52001
G1 X97.559 Y98.099 E25.55230
G1 X97.152 Y97.934 E25.58162
G1 X96.731 Y97.731 E25.61287
G1 X95.990 Y97.282 E25.67079
G1 X95.592 Y96.984 E25.70398
G1 X94.962 Y96.412 E25.76078
G1 X94.637 Y96.055 E25.79306
G1 X94.364 Y95.711 E25.82240
G1 X94.103 Y95.339 E25.85277
G1 X93.861 Y94.938 E25.88403
G1 X93.485 Y94.157 E25.94195
G1 X93.318 Y93.704 E25.97424
G1 X93.194 Y93.283 E26.00355
G1 X93.090 Y92.827 E26.03481
G1 X92.979 Y91.968 E26.09266
G1 X92.964 Y91.500 E26.12393
G1 X92.979 Y91.032 E26.15519
G1 X93.090 Y90.173 E26.21305
G1 X93.194 Y89.717 E26.24431
G1 X93.318 Y89.296 E26.27361
G1 X93.485 Y88.843 E26.30590
G1 X93.861 Y88.062 E26.36382
G1 X94.103 Y87.661 E26.39509
G1 X94.371 Y87.278 E26.42635
G1 X94.933 Y86.618 E26.48420
G1 X95.269 Y86.292 E26.51546
G1 X95.603 Y86.008 E26.54477
G1 X95.990 Y85.718 E26.57706
G1 X96.731 Y85.269 E26.63498
G1 X97.153 Y85.066 E26.66625
G1 X97.586 Y84.890 E26.69751
G1 X98.417 Y84.644 E26.75536
G1 X98.876 Y84.554 E26.78662
G1 X99.311 Y84.498 E26.81594
G1 X99.793 Y84.467 E26.84822 F630.000
G1 X100.660 Y84.495 E26.90614
G1 X101.137 Y84.556 E26.93828
G1 X101.982 Y84.749 E26.99619
G1 X102.441 Y84.901 E27.02848
G1 X102.848 Y85.066 E27.05780
G1 X103.269 Y85.269 E27.08905
G1 X104.010 Y85.718 E27.14697
G1 X104.408 Y86.016 E27.18016
G1 X105.038 Y86.588 E27.23696
G1 X105.363 Y86.945 E27.26924
G1 X105.636 Y87.289 E27.29858
G1 X105.897 Y87.661 E27.32895
G1 X106.139 Y88.062 E27.36021
G1 X106.515 Y88.843 E27.41813
G1 X106.682 Y89.296 E27.45042
G1 X106.806 Y89.717 E27.47973
G1 X106.910 Y90.173 E27.51099
G1 X107.021 Y91.032 E27.56884
G1 X107.036 Y91.500 E27.60011
G1 X107.021 Y91.968 E27.63137
G1 X106.910 Y92.827 E27.68923
G1 X106.806 Y93.283 E27.72049
G1 X106.682 Y93.704 E27.74979
G1 X106.515 Y94.157 E27.78208
G1 X106.139 Y94.938 E27.84000
G1 X105.897 Y95.339 E27.87127
G1 X105.629 Y95.722 E27.90253
G1 X105.067 Y96.382 E27.96038
G1 X104.731 Y96.708 E27.99164
G1 X104.397 Y96.992 E28.02095
G1 X104.010 Y97.282 E28.05324
G1 X103.269 Y97.731 E28.11116
G1 X102.847 Y97.934 E28.14243
G1 X102.431 Y98.102 E28.17240
G1 X102.541 Y98.630 F7800.000
G1 X101.711 Y98.877 E28.23025 F630.000
G1 X101.210 Y98.975 E28.26438
G1 X100.741 Y99.035 E28.29597
G1 X100.216 Y99.070 E28.33113
G1 X99.297 Y99.040 E28.39251
G1 X98.769 Y98.972 E28.42809
G1 X97.873 Y98.768 E28.48946
G1 X97.374 Y98.602 E28.52462
G1 X96.935 Y98.424 E28.55623
G1 X96.475 Y98.202 E28.59035
G1 X95.689 Y97.726 E28.65174
G1 X95.251 Y97.398 E28.68837
G1 X94.583 Y96.792 E28.74857
G1 X94.229 Y96.402 E28.78373
G1 X93.934 Y96.032 E28.81536
G1 X93.654 Y95.631 E28.84803
G1 X93.389 Y95.194 E28.88217
G1 X92.991 Y94.366 E28.94356
G1 X92.810 Y93.872 E28.97872
G1 X92.675 Y93.419 E29.01030
G1 X92.562 Y92.921 E29.04443
G1 X92.445 Y92.011 E29.10571
G1 X92.428 Y91.500 E29.13985
G1 X92.445 Y90.989 E29.17399
G1 X92.562 Y90.079 E29.23527
G1 X92.675 Y89.581 E29.26940
G1 X92.810 Y89.128 E29.30099
G1 X92.991 Y88.634 E29.33615
G1 X93.389 Y87.806 E29.39753
G1 X93.654 Y87.369 E29.43168
G1 X93.947 Y86.950 E29.46581
G1 X94.541 Y86.251 E29.52709
G1 X94.908 Y85.896 E29.56122
G1 X95.268 Y85.589 E29.59281
G1 X95.689 Y85.274 E29.62797
G1 X96.475 Y84.798 E29.68936
G1 X96.936 Y84.576 E29.72350
G1 X97.409 Y84.384 E29.75764
G1 X98.289 Y84.123 E29.81892
G1 X98.790 Y84.025 E29.85304
G1 X99.259 Y83.965 E29.88464
G1 X99.784 Y83.930 E29.91980 F630.000
G1 X100.703 Y83.960 E29.98118
G1 X101.231 Y84.028 E30.01675
G1 X102.127 Y84.232 E30.07812
G1 X102.626 Y84.398 E30.11329
G1 X103.065 Y84.576 E30.14489
G1 X103.525 Y84.798 E30.17902
G1 X104.311 Y85.274 E30.24040
G1 X104.749 Y85.602 E30.27703
G1 X105.417 Y86.208 E30.33724
G1 X105.771 Y86.598 E30.37239
G1 X106.066 Y86.968 E30.40402
G1 X106.346 Y87.369 E30.43669
G1 X106.611 Y87.806 E30.47084
G1 X107.009 Y88.634 E30.53222
G1 X107.190 Y89.128 E30.56738
G1 X107.325 Y89.581 E30.59897
G1 X107.438 Y90.079 E30.63310
G1 X107.555 Y90.989 E30.69438
G1 X107.572 Y91.500 E30.72852
G1 X107.555 Y92.011 E30.76266
G1 X107.438 Y92.921 E30.82394
G1 X107.325 Y93.419 E30.85807
G1 X107.190 Y93.872 E30.88965
G1 X107.009 Y94.366 E30.92481
G1 X106.611 Y95.194 E30.98620
G1 X106.346 Y95.631 E31.02034
G1 X106.053 Y96.050 E31.05448
G1 X105.459 Y96.749 E31.11576
G1 X105.092 Y97.104 E31.14989
G1 X104.732 Y97.411 E31.18148
G1 X104.311 Y97.726 E31.21664
G1 X103.525 Y98.202 E31.27802
G1 X103.064 Y98.424 E31.31216
G1 X102.585 Y98.618 E31.34672
G1 X101.645 Y102.108 F7800.000
G1 X102.417 Y102.358 E31.40093 F315.000
G1 X102.824 Y102.535 E31.43056
G1 X103.539 Y102.928 E31.48508
G1 X104.199 Y103.408 E31.53958
G1 X104.517 Y103.687 E31.56784
G1 X104.816 Y103.987 E31.59612
G1 X105.333 Y104.612 E31.65033
G1 X105.582 Y104.979 E31.67997
G1 X105.975 Y105.694 E31.73447
G1 X106.275 Y106.453 E31.78897
G1 X106.393 Y106.859 E31.81724
G1 X106.485 Y107.272 E31.84551
G1 X106.587 Y108.082 E31.90002
G1 X106.588 Y108.898 E31.95452
G1 X106.547 Y109.339 E31.98416
G1 X106.394 Y110.136 E32.03837
G1 X106.275 Y110.547 E32.06695
G1 X105.976 Y111.301 E32.12114
G1 X105.782 Y111.683 E32.14972
G1 X105.348 Y112.368 E32.20393
G1 X105.076 Y112.718 E32.23356
G1 X104.520 Y113.310 E32.28777
G1 X104.199 Y113.592 E32.31634
G1 X103.539 Y114.072 E32.37085
G1 X102.824 Y114.465 E32.42536
G1 X102.417 Y114.642 E32.45499
G1 X101.645 Y114.892 E32.50920
G1 X101.228 Y114.985 E32.53778
G1 X100.418 Y115.087 E32.59228
G1 X99.602 Y115.088 E32.64679
G1 X99.161 Y115.047 E32.67643
G1 X98.364 Y114.894 E32.73064
G1 X97.953 Y114.775 E32.75921
G1 X97.199 Y114.476 E32.81341
G1 X96.817 Y114.282 E32.84198
G1 X96.132 Y113.848 E32.89619
G1 X95.782 Y113.576 E32.92583
G1 X95.190 Y113.020 E32.98004
G1 X94.908 Y112.699 E33.00861
G1 X94.428 Y112.039 E33.06311
G1 X94.035 Y111.324 E33.11763
G1 X93.858 Y110.917 E33.14726
G1 X93.608 Y110.145 E33.20147
G1 X93.515 Y109.728 E33.23005
G1 X93.413 Y108.918 E33.28455
G1 X93.412 Y108.102 E33.33906
G1 X93.453 Y107.661 E33.36869
G1 X93.606 Y106.864 E33.42291
G1 X93.725 Y106.453 E33.45148
G1 X94.025 Y105.694 E33.50599
G1 X94.418 Y104.979 E33.56049
G1 X94.667 Y104.612 E33.59013
G1 X95.184 Y103.987 E33.64434
G1 X95.487 Y103.684 E33.67292
G1 X96.112 Y103.167 E33.72713
G1 X96.479 Y102.918 E33.75677
G1 X97.194 Y102.525 E33.81127
G1 X97.953 Y102.225 E33.86578
G1 X98.364 Y102.106 E33.89435
G1 X99.161 Y101.953 E33.94857
G1 X99.602 Y101.912 E33.97820 F315.000
G1 X100.418 Y101.913 E34.03271
G1 X101.228 Y102.015 E34.08721
G1 X101.601 Y102.098 E34.11278
G1 X101.862 Y101.900 F7800.000
G1 X101.762 Y101.585 F7800.000
G1 X102.607 Y101.857 E34.17206 F630.000
G1 X103.060 Y102.053 E34.20509
G1 X103.827 Y102.475 E34.26353
G1 X104.534 Y102.989 E34.32195
G1 X104.883 Y103.297 E34.35303
G1 X105.212 Y103.626 E34.38412
G1 X105.762 Y104.290 E34.44174
G1 X106.040 Y104.699 E34.47477
G1 X106.460 Y105.466 E34.53319
G1 X106.782 Y106.279 E34.59161
G1 X106.912 Y106.726 E34.62270
G1 X107.013 Y107.180 E34.65379
G1 X107.123 Y108.048 E34.71220
G1 X107.124 Y108.922 E34.77063
G1 X107.077 Y109.415 E34.80366
G1 X106.916 Y110.262 E34.86127
G1 X106.782 Y110.721 E34.89322
G1 X106.465 Y111.522 E34.95077
G1 X106.248 Y111.948 E34.98271
G1 X105.787 Y112.676 E35.04031
G1 X105.484 Y113.067 E35.07334
G1 X104.893 Y113.695 E35.13093
G1 X104.534 Y114.011 E35.16288
G1 X103.827 Y114.525 E35.22129
G1 X103.060 Y114.947 E35.27973
G1 X102.607 Y115.143 E35.31276
G1 X101.786 Y115.409 E35.37036
G1 X101.320 Y115.513 E35.40231
G1 X100.452 Y115.623 E35.46072
G1 X99.578 Y115.624 E35.51916
G1 X99.085 Y115.577 E35.55219
G1 X98.238 Y115.416 E35.60979
G1 X97.779 Y115.282 E35.64174
G1 X96.978 Y114.965 E35.69929
G1 X96.552 Y114.748 E35.73123
G1 X95.824 Y114.287 E35.78883
G1 X95.433 Y113.984 E35.82186
G1 X94.805 Y113.393 E35.87945
G1 X94.489 Y113.034 E35.91140
G1 X93.975 Y112.327 E35.96981
G1 X93.553 Y111.560 E36.02825
G1 X93.357 Y111.107 E36.06128
G1 X93.091 Y110.286 E36.11888
G1 X92.987 Y109.820 E36.15083
G1 X92.877 Y108.952 E36.20925
G1 X92.876 Y108.078 E36.26768
G1 X92.923 Y107.585 E36.30071
G1 X93.084 Y106.738 E36.35831
G1 X93.218 Y106.279 E36.39026
G1 X93.540 Y105.466 E36.44868
G1 X93.960 Y104.699 E36.50710
G1 X94.238 Y104.290 E36.54013
G1 X94.788 Y103.626 E36.59774
G1 X95.126 Y103.288 E36.62969
G1 X95.790 Y102.738 E36.68730
G1 X96.199 Y102.460 E36.72033
G1 X96.966 Y102.040 E36.77875
G1 X97.779 Y101.718 E36.83717
G1 X98.238 Y101.584 E36.86912
G1 X99.085 Y101.423 E36.92673
G1 X99.578 Y101.376 E36.95976 F630.000
G1 X100.452 Y101.377 E37.01819
G1 X101.320 Y101.487 E37.07660
G1 X101.718 Y101.575 E37.10385
G1 X101.878 Y101.062 F7800.000
G1 X102.796 Y101.355 E37.16821 F630.000
G1 X103.296 Y101.572 E37.20463
G1 X104.114 Y102.022 E37.26700
G1 X104.869 Y102.571 E37.32933
G1 X105.250 Y102.906 E37.36323
G1 X105.609 Y103.265 E37.39714
G1 X106.191 Y103.968 E37.45816
G1 X106.497 Y104.420 E37.49458
G1 X106.946 Y105.238 E37.55692
G1 X107.289 Y106.105 E37.61926
G1 X107.431 Y106.593 E37.65317
G1 X107.542 Y107.088 E37.68707
G1 X107.658 Y108.014 E37.74940
G1 X107.659 Y108.947 E37.81175
G1 X107.608 Y109.490 E37.84818
G1 X107.437 Y110.387 E37.90918
G1 X107.289 Y110.895 E37.94449
G1 X106.954 Y111.742 E38.00540
G1 X106.714 Y112.213 E38.04071
G1 X106.225 Y112.984 E38.10170
G1 X105.891 Y113.415 E38.13813
G1 X105.266 Y114.080 E38.19911
G1 X104.869 Y114.429 E38.23442
G1 X104.114 Y114.978 E38.29674
G1 X103.296 Y115.428 E38.35911
G1 X102.796 Y115.645 E38.39554
G1 X101.928 Y115.927 E38.45653
G1 X101.412 Y116.042 E38.49184
G1 X100.486 Y116.158 E38.55418
G1 X99.553 Y116.159 E38.61653
G1 X99.010 Y116.108 E38.65295
G1 X98.113 Y115.937 E38.71396
G1 X97.605 Y115.789 E38.74927
G1 X96.758 Y115.454 E38.81018
G1 X96.287 Y115.214 E38.84549
G1 X95.516 Y114.725 E38.90647
G1 X95.085 Y114.391 E38.94290
G1 X94.420 Y113.766 E39.00388
G1 X94.071 Y113.369 E39.03919
G1 X93.522 Y112.614 E39.10152
G1 X93.072 Y111.796 E39.16389
G1 X92.855 Y111.296 E39.20031
G1 X92.573 Y110.428 E39.26131
G1 X92.458 Y109.912 E39.29662
