; generated by Slic3r 1.2.9 on 2017-04-27 at 09:41:11

; external perimeters extrusion width = 0.40mm
; perimeters extrusion width = 0.67mm
; infill extrusion width = 0.67mm
; solid infill extrusion width = 0.67mm
; top infill extrusion width = 0.67mm

M107
M190 S85 ; set bed temperature
M104 S210 ; set temperature
G28 ; home all axes
G1 Z5 F5000 ; lift nozzle

M109 S210 ; wait for temperature to be reached
G21 ; set units to millimeters
G90 ; use absolute coordinates
M82 ; use absolute distances for extrusion
G92 E0
G1 Z0.300 F7800.000
G1 E-1.00000 F2400.00000
G92 E0
G1 X83.551 Y83.477 F7800.000
G1 E1.00000 F2400.00000
G1 X85.232 Y82.385 E1.13389 F1260.000
G1 X87.100 Y82.029 E1.26096
G1 X112.900 Y82.029 E2.98454
G1 X114.865 Y82.425 E3.11843
G1 X116.523 Y83.551 E3.25233 F1260.000
G1 X117.615 Y85.232 E3.38622
G1 X117.971 Y87.100 E3.51328
G1 X117.971 Y112.900 E5.23686
G1 X117.575 Y114.865 E5.37076
G1 X116.449 Y116.523 E5.50465
G1 X114.768 Y117.615 E5.63855
G1 X112.900 Y117.971 E5.76561
G1 X87.100 Y117.971 E7.48919
G1 X85.135 Y117.575 E7.62308
G1 X83.477 Y116.449 E7.75698
G1 X82.385 Y114.768 E7.89087
G1 X82.029 Y112.900 E8.01793
G1 X82.029 Y87.100 E9.74151
G1 X82.425 Y85.135 E9.87541
G1 X83.517 Y83.527 E10.00529
G1 X84.009 Y83.812 F7800.000
G1 X84.078 Y83.718 E10.01308 F1260.000
G1 X85.723 Y82.779 E10.13963
G1 X87.100 Y82.564 E10.23275
G1 X112.900 Y82.564 E11.95633
G1 X114.753 Y82.960 E12.08288
G1 X116.282 Y84.078 E12.20943 F1260.000
G1 X117.221 Y85.723 E12.33598
G1 X117.436 Y87.100 E12.42910
G1 X117.436 Y112.900 E14.15268
G1 X117.040 Y114.753 E14.27923
G1 X115.922 Y116.282 E14.40578
G1 X114.277 Y117.221 E14.53233
G1 X112.900 Y117.436 E14.62545
G1 X87.100 Y117.436 E16.34903
G1 X85.247 Y117.040 E16.47558
G1 X83.718 Y115.922 E16.60213
G1 X82.779 Y114.277 E16.72868
G1 X82.564 Y112.900 E16.82180
G1 X82.564 Y87.100 E18.54538
G1 X82.960 Y85.247 E18.67193
G1 X83.974 Y83.861 E18.78669
G1 E17.78669 F2400.00000
G92 E0
G1 X86.252 Y86.055 F7800.000
G1 E1.00000 F2400.00000
G1 X86.545 Y85.761 E1.02775 F1260.000
G1 X113.455 Y85.761 E2.82544
G1 X114.239 Y86.545 E2.89955
G1 X114.239 Y113.455 E4.69723 F1260.000
G1 X113.455 Y114.239 E4.77134
G1 X86.545 Y114.239 E6.56903
G1 X85.761 Y113.455 E6.64314
G1 X85.761 Y86.545 E8.44082
G1 X86.209 Y86.097 E8.48317
G1 X86.630 Y86.433 F7800.000
G1 X86.767 Y86.297 E8.49610 F1260.000
G1 X113.233 Y86.297 E10.26414
G1 X113.703 Y86.767 E10.30861 F1260.000
G1 X113.703 Y113.233 E12.07665
G1 X113.233 Y113.703 E12.12112
G1 X86.767 Y113.703 E13.88916
G1 X86.297 Y113.233 E13.93363
G1 X86.297 Y86.767 E15.70167
G1 X86.588 Y86.476 E15.72920
G1 X86.989 Y86.832 F7800.000
G1 X113.011 Y86.832 E17.46760 F1260.000
G1 X113.168 Y86.989 E17.48242
G1 X113.168 Y113.011 E19.22082
G1 X113.011 Y113.168 E19.23564
G1 X86.989 Y113.168 E20.97404
G1 X86.832 Y113.011 E20.98886
G1 X86.832 Y86.989 E22.72727
G1 X86.947 Y86.875 E22.73808
G1 X87.334 Y87.334 F7800.000
G1 X87.500 Y87.300 E22.74938 F315.000
G1 X112.500 Y87.300 E24.41952
G1 X112.666 Y87.334 E24.43082
G1 X112.700 Y87.500 E24.44212
G1 X112.700 Y112.500 E26.11226
G1 X112.666 Y112.666 E26.12356
G1 X112.500 Y112.700 E26.13487
G1 X87.500 Y112.700 E27.80500
G1 X87.334 Y112.666 E27.81631
G1 X87.300 Y112.500 E27.82761
G1 X87.300 Y87.500 E29.49775
G1 X87.334 Y87.334 E29.50905
M140 S50 ; wait for bed temperature to be reached
G1 Z0.500 F7800.000
G1 X87.500 Y87.300 E29.51789 F900.000
G1 X112.500 Y87.300 E30.82401
G1 X112.666 Y87.334 E30.83285
G1 X112.700 Y87.500 E30.84169
G1 X112.700 Y112.500 E32.14781
G1 X112.666 Y112.666 E32.15665
G1 X112.500 Y112.700 E32.16549
G1 X87.500 Y112.700 E33.47162
G1 X87.334 Y112.666 E33.48046
G1 X87.300 Y112.500 E33.48930
G1 X87.300 Y87.500 E34.79542
G1 X87.334 Y87.334 E34.80426
G1 Z0.700 F7800.000
G1 X87.500 Y87.300 E34.81310 F900.000
G1 X112.500 Y87.300 E36.11922
G1 X112.666 Y87.334 E36.12806
G1 X112.700 Y87.500 E36.13690
G1 X112.700 Y112.500 E37.44302
G1 X112.666 Y112.666 E37.45186
G1 X112.500 Y112.700 E37.46070
G1 X87.500 Y112.700 E38.76683
G1 X87.334 Y112.666 E38.77567
G1 X87.300 Y112.500 E38.78451
G1 X87.300 Y87.500 E40.09063
G1 X87.334 Y87.334 E40.09947
M106 S247.35
G1 Z0.900 F7800.000
G1 X87.500 Y87.300 E40.10831 F900.000
G1 X112.500 Y87.300 E41.41443
G1 X112.666 Y87.334 E41.42327
G1 X112.700 Y87.500 E41.43211
G1 X112.700 Y112.500 E42.73823
G1 X112.666 Y112.666 E42.74707
G1 X112.500 Y112.700 E42.75591
G1 X87.500 Y112.700 E44.06204
G1 X87.334 Y112.666 E44.07088
G1 X87.300 Y112.500 E44.07972
G1 X87.300 Y87.500 E45.38584
G1 X87.334 Y87.334 E45.39468
G1 Z1.100 F7800.000
G1 X87.500 Y87.300 E45.40352 F900.000
G1 X112.500 Y87.300 E46.70964
G1 X112.666 Y87.334 E46.71848
G1 X112.700 Y87.500 E46.72732
G1 X112.700 Y112.500 E48.03344
G1 X112.666 Y112.666 E48.04228
G1 X112.500 Y112.700 E48.05112
G1 X87.500 Y112.700 E49.35725
G1 X87.334 Y112.666 E49.36609
G1 X87.300 Y112.500 E49.37493
G1 X87.300 Y87.500 E50.68105
G1 X87.334 Y87.334 E50.68989
G1 Z1.300 F7800.000
G1 X87.500 Y87.300 E50.69873 F900.000
G1 X112.500 Y87.300 E52.00485
G1 X112.666 Y87.334 E52.01369
G1 X112.700 Y87.500 E52.02253
G1 X112.700 Y112.500 E53.32865
G1 X112.666 Y112.666 E53.33749
G1 X112.500 Y112.700 E53.34633
G1 X87.500 Y112.700 E54.65246
G1 X87.334 Y112.666 E54.66130
G1 X87.300 Y112.500 E54.67014
G1 X87.300 Y87.500 E55.97626
G1 X87.334 Y87.334 E55.98510
G1 Z1.500 F7800.000
G1 X87.500 Y87.300 E55.99394 F900.000
G1 X112.500 Y87.300 E57.30006
G1 X112.666 Y87.334 E57.30890
G1 X112.700 Y87.500 E57.31774
G1 X112.700 Y112.500 E58.62386
G1 X112.666 Y112.666 E58.63270
G1 X112.500 Y112.700 E58.64154
G1 X87.500 Y112.700 E59.94767
G1 X87.334 Y112.666 E59.95651
G1 X87.300 Y112.500 E59.96535
G1 X87.300 Y87.500 E61.27147
G1 X87.334 Y87.334 E61.28031
G1 Z1.700 F7800.000
G1 X87.500 Y87.300 E61.28915 F900.000
G1 X112.500 Y87.300 E62.59527
G1 X112.666 Y87.334 E62.60411
G1 X112.700 Y87.500 E62.61295
G1 X112.700 Y112.500 E63.91907
G1 X112.666 Y112.666 E63.92791
G1 X112.500 Y112.700 E63.93675
G1 X87.500 Y112.700 E65.24288
G1 X87.334 Y112.666 E65.25172
G1 X87.300 Y112.500 E65.26056
G1 X87.300 Y87.500 E66.56668
G1 X87.334 Y87.334 E66.57552
G1 Z1.900 F7800.000
G1 X87.500 Y87.300 E66.58436 F900.000
G1 X112.500 Y87.300 E67.89048
G1 X112.666 Y87.334 E67.89932
G1 X112.700 Y87.500 E67.90816
G1 X112.700 Y112.500 E69.21428
G1 X112.666 Y112.666 E69.22312
G1 X112.500 Y112.700 E69.23196
G1 X87.500 Y112.700 E70.53809
G1 X87.334 Y112.666 E70.54693
G1 X87.300 Y112.500 E70.55577
G1 X87.300 Y87.500 E71.86189
G1 X87.334 Y87.334 E71.87073
G1 Z2.100 F7800.000
G1 X87.500 Y87.300 E71.87957 F900.000
G1 X112.500 Y87.300 E73.18569
G1 X112.666 Y87.334 E73.19453
G1 X112.700 Y87.500 E73.20337
G1 X112.700 Y112.500 E74.50949
G1 X112.666 Y112.666 E74.51833
G1 X112.500 Y112.700 E74.52717
G1 X87.500 Y112.700 E75.83330
G1 X87.334 Y112.666 E75.84214
G1 X87.300 Y112.500 E75.85098
G1 X87.300 Y87.500 E77.15710
G1 X87.334 Y87.334 E77.16594
G1 Z2.300 F7800.000
G1 X87.500 Y87.300 E77.17478 F900.000
G1 X112.500 Y87.300 E78.48090
G1 X112.666 Y87.334 E78.48974
G1 X112.700 Y87.500 E78.49858
G1 X112.700 Y112.500 E79.80470
G1 X112.666 Y112.666 E79.81354
G1 X112.500 Y112.700 E79.82238
G1 X87.500 Y112.700 E81.12851
G1 X87.334 Y112.666 E81.13735
G1 X87.300 Y112.500 E81.14619
G1 X87.300 Y87.500 E82.45231
G1 X87.334 Y87.334 E82.46115
G1 Z2.500 F7800.000
G1 X87.500 Y87.300 E82.46999 F900.000
G1 X112.500 Y87.300 E83.77611
G1 X112.666 Y87.334 E83.78495
G1 X112.700 Y87.500 E83.79379
G1 X112.700 Y112.500 E85.09991
G1 X112.666 Y112.666 E85.10875
G1 X112.500 Y112.700 E85.11759
G1 X87.500 Y112.700 E86.42372
G1 X87.334 Y112.666 E86.43256
G1 X87.300 Y112.500 E86.44140
G1 X87.300 Y87.500 E87.74752
G1 X87.334 Y87.334 E87.75636
G1 Z2.700 F7800.000
G1 X87.500 Y87.300 E87.76520 F900.000
G1 X112.500 Y87.300 E89.07132
G1 X112.666 Y87.334 E89.08016
G1 X112.700 Y87.500 E89.08900
G1 X112.700 Y112.500 E90.39512
G1 X112.666 Y112.666 E90.40396
G1 X112.500 Y112.700 E90.41280
G1 X87.500 Y112.700 E91.71893
G1 X87.334 Y112.666 E91.72777
G1 X87.300 Y112.500 E91.73661
G1 X87.300 Y87.500 E93.04273
G1 X87.334 Y87.334 E93.05157
G1 Z2.900 F7800.000
G1 X87.500 Y87.300 E93.06041 F900.000
G1 X112.500 Y87.300 E94.36653
G1 X112.666 Y87.334 E94.37537
G1 X112.700 Y87.500 E94.38421
G1 X112.700 Y112.500 E95.69034
G1 X112.666 Y112.666 E95.69917
G1 X112.500 Y112.700 E95.70801
G1 X87.500 Y112.700 E97.01414
G1 X87.334 Y112.666 E97.02298
G1 X87.300 Y112.500 E97.03182
G1 X87.300 Y87.500 E98.33794
G1 X87.334 Y87.334 E98.34678
G1 Z3.100 F7800.000
G1 X87.500 Y87.300 E98.35562 F900.000
G1 X112.500 Y87.300 E99.66174
G1 X112.666 Y87.334 E99.67058
G1 X112.700 Y87.500 E99.67942
G1 X112.700 Y112.500 E100.98555
G1 X112.666 Y112.666 E100.99439
G1 X112.500 Y112.700 E101.00322
G1 X87.500 Y112.700 E102.30935
G1 X87.334 Y112.666 E102.31819
G1 X87.300 Y112.500 E102.32703
G1 X87.300 Y87.500 E103.63315
G1 X87.334 Y87.334 E103.64199
G1 Z3.300 F7800.000
G1 X87.500 Y87.300 E103.65083 F900.000
G1 X112.500 Y87.300 E104.95695
G1 X112.666 Y87.334 E104.96579
G1 X112.700 Y87.500 E104.97463
G1 X112.700 Y112.500 E106.28076
G1 X112.666 Y112.666 E106.28960
G1 X112.500 Y112.700 E106.29844
G1 X87.500 Y112.700 E107.60456
G1 X87.334 Y112.666 E107.61340
G1 X87.300 Y112.500 E107.62224
G1 X87.300 Y87.500 E108.92836
G1 X87.334 Y87.334 E108.93720
G1 Z3.500 F7800.000
G1 X87.500 Y87.300 E108.94604 F900.000
G1 X112.500 Y87.300 E110.25216
G1 X112.666 Y87.334 E110.26100
G1 X112.700 Y87.500 E110.26984
G1 X112.700 Y112.500 E111.57597
G1 X112.666 Y112.666 E111.58481
G1 X112.500 Y112.700 E111.59365
G1 X87.500 Y112.700 E112.89977
G1 X87.334 Y112.666 E112.90861
G1 X87.300 Y112.500 E112.91745
G1 X87.300 Y87.500 E114.22357
G1 X87.334 Y87.334 E114.23241
G1 Z3.700 F7800.000
G1 X87.500 Y87.300 E114.24125 F900.000
G1 X112.500 Y87.300 E115.54737
G1 X112.666 Y87.334 E115.55621
G1 X112.700 Y87.500 E115.56505
G1 X112.700 Y112.500 E116.87118
G1 X112.666 Y112.666 E116.88002
G1 X112.500 Y112.700 E116.88886
G1 X87.500 Y112.700 E118.19498
G1 X87.334 Y112.666 E118.20382
G1 X87.300 Y112.500 E118.21266
G1 X87.300 Y87.500 E119.51878
G1 X87.334 Y87.334 E119.52762
G1 Z3.900 F7800.000
G1 X87.500 Y87.300 E119.53646 F900.000
G1 X112.500 Y87.300 E120.84258
G1 X112.666 Y87.334 E120.85142
G1 X112.700 Y87.500 E120.86026
G1 X112.700 Y112.500 E122.16639
G1 X112.666 Y112.666 E122.17523
G1 X112.500 Y112.700 E122.18407
G1 X87.500 Y112.700 E123.49019
G1 X87.334 Y112.666 E123.49903
G1 X87.300 Y112.500 E123.50787
G1 X87.300 Y87.500 E124.81399
G1 X87.334 Y87.334 E124.82283
G1 Z4.100 F7800.000
G1 X87.500 Y87.300 E124.83167 F900.000
G1 X112.500 Y87.300 E126.13779
G1 X112.666 Y87.334 E126.14663
G1 X112.700 Y87.500 E126.15547
G1 X112.700 Y112.500 E127.46160
G1 X112.666 Y112.666 E127.47044
G1 X112.500 Y112.700 E127.47928
G1 X87.500 Y112.700 E128.78540
G1 X87.334 Y112.666 E128.79424
G1 X87.300 Y112.500 E128.80308
G1 X87.300 Y87.500 E130.10920
G1 X87.334 Y87.334 E130.11804
G1 Z4.300 F7800.000
G1 X87.500 Y87.300 E130.12688 F900.000
G1 X112.500 Y87.300 E131.43300
G1 X112.666 Y87.334 E131.44184
G1 X112.700 Y87.500 E131.45068
G1 X112.700 Y112.500 E132.75681
G1 X112.666 Y112.666 E132.76565
G1 X112.500 Y112.700 E132.77449
G1 X87.500 Y112.700 E134.08061
G1 X87.334 Y112.666 E134.08945
G1 X87.300 Y112.500 E134.09829
G1 X87.300 Y87.500 E135.40441
G1 X87.334 Y87.334 E135.41325
G1 Z4.500 F7800.000
G1 X87.500 Y87.300 E135.42209 F900.000
G1 X112.500 Y87.300 E136.72821
G1 X112.666 Y87.334 E136.73705
G1 X112.700 Y87.500 E136.74589
G1 X112.700 Y112.500 E138.05202
G1 X112.666 Y112.666 E138.06086
G1 X112.500 Y112.700 E138.06970
G1 X87.500 Y112.700 E139.37582
G1 X87.334 Y112.666 E139.38466
G1 X87.300 Y112.500 E139.39350
G1 X87.300 Y87.500 E140.69962
G1 X87.334 Y87.334 E140.70846
G1 Z4.700 F7800.000
G1 X87.500 Y87.300 E140.71730 F900.000
G1 X112.500 Y87.300 E142.02342
G1 X112.666 Y87.334 E142.03226
G1 X112.700 Y87.500 E142.04110
G1 X112.700 Y112.500 E143.34723
G1 X112.666 Y112.666 E143.35607
G1 X112.500 Y112.700 E143.36491
G1 X87.500 Y112.700 E144.67103
G1 X87.334 Y112.666 E144.67987
G1 X87.300 Y112.500 E144.68871
G1 X87.300 Y87.500 E145.99483
G1 X87.334 Y87.334 E146.00367
G1 Z4.900 F7800.000
G1 X87.500 Y87.300 E146.01251 F900.000
G1 X112.500 Y87.300 E147.31863
G1 X112.666 Y87.334 E147.32747
G1 X112.700 Y87.500 E147.33631
G1 X112.700 Y112.500 E148.64244
G1 X112.666 Y112.666 E148.65128
G1 X112.500 Y112.700 E148.66012
G1 X87.500 Y112.700 E149.96624
G1 X87.334 Y112.666 E149.97508
G1 X87.300 Y112.500 E149.98392
G1 X87.300 Y87.500 E151.29004
G1 X87.334 Y87.334 E151.29888
G1 Z5.100 F7800.000
G1 X87.500 Y87.300 E151.30772 F900.000
G1 X112.500 Y87.300 E152.61384
G1 X112.666 Y87.334 E152.62268
G1 X112.700 Y87.500 E152.63152
G1 X112.700 Y112.500 E153.93765
G1 X112.666 Y112.666 E153.94649
G1 X112.500 Y112.700 E153.95533
G1 X87.500 Y112.700 E155.26145
G1 X87.334 Y112.666 E155.27029
G1 X87.300 Y112.500 E155.27913
G1 X87.300 Y87.500 E156.58525
G1 X87.334 Y87.334 E156.59409
G1 Z5.300 F7800.000
G1 X87.500 Y87.300 E156.60293 F900.000
G1 X112.500 Y87.300 E157.90905
G1 X112.666 Y87.334 E157.91789
G1 X112.700 Y87.500 E157.92673
G1 X112.700 Y112.500 E159.23286
G1 X112.666 Y112.666 E159.24170
G1 X112.500 Y112.700 E159.25054
G1 X87.500 Y112.700 E160.55666
G1 X87.334 Y112.666 E160.56550
G1 X87.300 Y112.500 E160.57434
G1 X87.300 Y87.500 E161.88046
G1 X87.334 Y87.334 E161.88930
G1 Z5.500 F7800.000
G1 X87.500 Y87.300 E161.89814 F900.000
G1 X112.500 Y87.300 E163.20426
G1 X112.666 Y87.334 E163.21310
G1 X112.700 Y87.500 E163.22194
G1 X112.700 Y112.500 E164.52807
G1 X112.666 Y112.666 E164.53691
G1 X112.500 Y112.700 E164.54575
G1 X87.500 Y112.700 E165.85187
G1 X87.334 Y112.666 E165.86071
G1 X87.300 Y112.500 E165.86955
G1 X87.300 Y87.500 E167.17567
G1 X87.334 Y87.334 E167.18451
G1 Z5.700 F7800.000
G1 X87.500 Y87.300 E167.19335 F900.000
G1 X112.500 Y87.300 E168.49947
G1 X112.666 Y87.334 E168.50831
G1 X112.700 Y87.500 E168.51715
G1 X112.700 Y112.500 E169.82328
G1 X112.666 Y112.666 E169.83212
G1 X112.500 Y112.700 E169.84096
G1 X87.500 Y112.700 E171.14708
G1 X87.334 Y112.666 E171.15592
G1 X87.300 Y112.500 E171.16476
G1 X87.300 Y87.500 E172.47088
G1 X87.334 Y87.334 E172.47972
G1 Z5.900 F7800.000
G1 X87.500 Y87.300 E172.48856 F900.000
G1 X112.500 Y87.300 E173.79468
G1 X112.666 Y87.334 E173.80352
G1 X112.700 Y87.500 E173.81236
G1 X112.700 Y112.500 E175.11849
G1 X112.666 Y112.666 E175.12733
G1 X112.500 Y112.700 E175.13617
G1 X87.500 Y112.700 E176.44229
G1 X87.334 Y112.666 E176.45113
G1 X87.300 Y112.500 E176.45997
G1 X87.300 Y87.500 E177.76609
G1 X87.334 Y87.334 E177.77493
G1 Z6.100 F7800.000
G1 X87.500 Y87.300 E177.78377 F900.000
G1 X112.500 Y87.300 E179.08989
G1 X112.666 Y87.334 E179.09873
G1 X112.700 Y87.500 E179.10757
G1 X112.700 Y112.500 E180.41370
G1 X112.666 Y112.666 E180.42254
G1 X112.500 Y112.700 E180.43138
G1 X87.500 Y112.700 E181.73750
G1 X87.334 Y112.666 E181.74634
G1 X87.300 Y112.500 E181.75518
G1 X87.300 Y87.500 E183.06130
G1 X87.334 Y87.334 E183.07014
G1 Z6.300 F7800.000
G1 X87.500 Y87.300 E183.07898 F900.000
G1 X112.500 Y87.300 E184.38510
G1 X112.666 Y87.334 E184.39394
G1 X112.700 Y87.500 E184.40278
G1 X112.700 Y112.500 E185.70891
G1 X112.666 Y112.666 E185.71775
G1 X112.500 Y112.700 E185.72659
G1 X87.500 Y112.700 E187.03271
G1 X87.334 Y112.666 E187.04155
G1 X87.300 Y112.500 E187.05039
G1 X87.300 Y87.500 E188.35651
G1 X87.334 Y87.334 E188.36535
G1 Z6.500 F7800.000
G1 X87.500 Y87.300 E188.37419 F900.000
G1 X112.500 Y87.300 E189.68031
G1 X112.666 Y87.334 E189.68915
G1 X112.700 Y87.500 E189.69799
G1 X112.700 Y112.500 E191.00412
G1 X112.666 Y112.666 E191.01296
G1 X112.500 Y112.700 E191.02180
G1 X87.500 Y112.700 E192.32792
G1 X87.334 Y112.666 E192.33676
G1 X87.300 Y112.500 E192.34560
G1 X87.300 Y87.500 E193.65172
G1 X87.334 Y87.334 E193.66056
G1 Z6.700 F7800.000
G1 X87.500 Y87.300 E193.66940 F900.000
G1 X112.500 Y87.300 E194.97552
G1 X112.666 Y87.334 E194.98436
G1 X112.700 Y87.500 E194.99320
G1 X112.700 Y112.500 E196.29933
G1 X112.666 Y112.666 E196.30817
G1 X112.500 Y112.700 E196.31701
G1 X87.500 Y112.700 E197.62313
G1 X87.334 Y112.666 E197.63197
G1 X87.300 Y112.500 E197.64081
G1 X87.300 Y87.500 E198.94693
