; generated by Slic3r 1.2.9 on 2017-04-27 at 11:17:59

; external perimeters extrusion width = 0.40mm
; perimeters extrusion width = 0.67mm
; infill extrusion width = 0.67mm
; solid infill extrusion width = 0.67mm
; top infill extrusion width = 0.67mm

M107
M190 S85 ; set bed temperature
M104 S205 ; set temperature
G28 ; home all axes
G1 Z5 F5000 ; lift nozzle

M109 S205 ; wait for temperature to be reached
G21 ; set units to millimeters
G90 ; use absolute coordinates
M82 ; use absolute distances for extrusion
G92 E0
G1 Z0.300 F7800.000
G1 E-1.00000 F2400.00000
G92 E0
G1 X74.968 Y88.913 F7800.000
G1 E1.00000 F2400.00000
G1 X75.488 Y88.526 E1.04332 F1260.000
G1 X76.453 Y87.900 E1.12020
G1 X77.019 Y87.582 E1.16352
G1 X78.056 Y87.084 E1.24039
G1 X78.657 Y86.841 E1.28371
G1 X79.750 Y86.479 E1.36060
G1 X80.377 Y86.315 E1.40391
G1 X81.507 Y86.095 E1.48079
G1 X109.896 Y81.981 E3.39717
G1 X110.929 Y81.938 E3.46621
G1 X112.466 Y82.031 E3.56912
G1 X113.104 Y82.107 E3.61199 F1260.000
G1 X114.648 Y82.390 E3.71686
G1 X115.242 Y82.536 E3.75778
G1 X116.713 Y82.994 E3.86068
G1 X117.314 Y83.220 E3.90356
G1 X118.745 Y83.865 E4.00844
G1 X119.287 Y84.149 E4.04934
G1 X120.631 Y84.961 E4.15423
G1 X121.135 Y85.309 E4.19513
G1 X122.371 Y86.277 E4.30000
G1 X122.829 Y86.683 E4.34091
G1 X123.939 Y87.794 E4.44580
G1 X124.345 Y88.252 E4.48670
G1 X125.313 Y89.488 E4.59158
G1 X125.661 Y89.992 E4.63248
G1 X126.473 Y91.335 E4.73735
G1 X126.758 Y91.877 E4.77827
G1 X127.402 Y93.309 E4.88314
G1 X127.619 Y93.881 E4.92405
G1 X128.086 Y95.380 E5.02892
G1 X128.233 Y95.975 E5.06983
G1 X128.511 Y97.490 E5.17274
G1 X128.590 Y98.127 E5.21562
G1 X128.684 Y99.694 E5.32049
G1 X128.684 Y100.306 E5.36140
G1 X128.590 Y101.873 E5.46627
G1 X128.516 Y102.481 E5.50719
G1 X128.233 Y104.025 E5.61206
G1 X128.086 Y104.620 E5.65297
G1 X127.619 Y106.119 E5.75784
G1 X127.402 Y106.691 E5.79876
G1 X126.758 Y108.123 E5.90363
G1 X126.473 Y108.665 E5.94454
G1 X125.676 Y109.983 E6.04745
G1 X125.313 Y110.512 E6.09032
G1 X124.345 Y111.748 E6.19519
G1 X123.939 Y112.207 E6.23611
G1 X122.829 Y113.317 E6.34098
G1 X122.371 Y113.723 E6.38189
G1 X121.158 Y114.673 E6.48480
G1 X120.631 Y115.039 E6.52767
G1 X119.287 Y115.851 E6.63255
G1 X118.745 Y116.135 E6.67346
G1 X117.314 Y116.780 E6.77833
G1 X116.741 Y116.997 E6.81924
G1 X115.242 Y117.464 E6.92411
G1 X114.648 Y117.610 E6.96503
G1 X113.104 Y117.893 E7.06990
G1 X112.496 Y117.967 E7.11081
G1 X110.929 Y118.062 E7.21568
G1 X109.896 Y118.019 E7.28472
G1 X81.748 Y113.945 E9.18478
G1 X80.377 Y113.685 E9.27800
G1 X79.750 Y113.521 E9.32130
G1 X78.657 Y113.159 E9.39818
G1 X78.056 Y112.916 E9.44150
G1 X77.019 Y112.418 E9.51838
G1 X76.453 Y112.100 E9.56170
G1 X75.488 Y111.474 E9.63858
G1 X74.968 Y111.087 E9.68190
G1 X74.091 Y110.342 E9.75878
G1 X73.624 Y109.892 E9.80209
G1 X72.849 Y109.041 E9.87898
G1 X72.283 Y108.297 E9.94141
G1 X71.794 Y107.375 E10.01116
G1 X71.509 Y106.545 E10.06977
G1 X71.334 Y105.554 E10.13703
G1 X71.306 Y105.000 E10.17406
G1 X71.306 Y95.000 E10.84211
G1 X71.334 Y94.446 E10.87913
G1 X71.468 Y93.622 E10.93490
G1 X71.510 Y93.453 E10.94654
G1 X71.861 Y92.472 E11.01616
G1 X72.379 Y91.559 E11.08632
G1 X72.849 Y90.959 E11.13722
G1 X73.624 Y90.108 E11.21410
G1 X74.091 Y89.658 E11.25741
G1 X74.922 Y88.952 E11.33028
G1 X75.315 Y89.322 F7800.000
G1 X75.780 Y88.976 E11.36903 F1260.000
G1 X76.745 Y88.349 E11.44591
G1 X77.251 Y88.065 E11.48465
G1 X78.288 Y87.567 E11.56153
G1 X78.826 Y87.349 E11.60027
G1 X79.918 Y86.988 E11.67716
G1 X80.479 Y86.841 E11.71589
G1 X81.609 Y86.621 E11.79277
G1 X109.973 Y82.511 E13.70743
G1 X110.896 Y82.473 E13.76918
G1 X112.434 Y82.566 E13.87209
G1 X113.007 Y82.633 E13.91064 F1260.000
G1 X114.551 Y82.916 E14.01551
G1 X115.083 Y83.048 E14.05210
G1 X116.582 Y83.515 E14.15698
G1 X117.094 Y83.709 E14.19357
G1 X118.525 Y84.353 E14.29845
G1 X119.010 Y84.608 E14.33503
G1 X120.329 Y85.404 E14.43794
G1 X120.805 Y85.731 E14.47649
G1 X122.040 Y86.699 E14.58136
G1 X122.450 Y87.062 E14.61795
G1 X123.560 Y88.172 E14.72284
G1 X123.924 Y88.582 E14.75942
G1 X124.874 Y89.795 E14.86232
G1 X125.203 Y90.269 E14.90088
G1 X126.015 Y91.612 E15.00575
G1 X126.269 Y92.097 E15.04234
G1 X126.914 Y93.529 E15.14722
G1 X127.108 Y94.041 E15.18380
G1 X127.575 Y95.540 E15.28868
G1 X127.706 Y96.071 E15.32527
G1 X127.989 Y97.616 E15.43017
G1 X128.055 Y98.159 E15.46673
G1 X128.150 Y99.726 E15.57161
G1 X128.150 Y100.274 E15.60820
G1 X128.055 Y101.841 E15.71307
G1 X127.989 Y102.385 E15.74966
G1 X127.706 Y103.929 E15.85453
G1 X127.575 Y104.460 E15.89112
G1 X127.108 Y105.959 E15.99600
G1 X126.914 Y106.471 E16.03259
G1 X126.269 Y107.903 E16.13746
G1 X126.015 Y108.388 E16.17405
G1 X125.203 Y109.731 E16.27893
G1 X124.892 Y110.182 E16.31551
G1 X123.924 Y111.418 E16.42039
G1 X123.560 Y111.828 E16.45698
G1 X122.450 Y112.938 E16.56185
G1 X122.040 Y113.301 E16.59844
G1 X120.804 Y114.269 E16.70333
G1 X120.354 Y114.580 E16.73991
G1 X119.010 Y115.392 E16.84478
G1 X118.525 Y115.647 E16.88137
G1 X117.094 Y116.291 E16.98624
G1 X116.582 Y116.485 E17.02283
G1 X115.083 Y116.952 E17.12771
G1 X114.551 Y117.084 E17.16430
G1 X113.007 Y117.367 E17.26917
G1 X112.463 Y117.433 E17.30576
G1 X110.896 Y117.527 E17.41063
G1 X109.973 Y117.489 E17.47238
G1 X81.609 Y113.379 E19.38704
G1 X80.479 Y113.159 E19.46393
G1 X79.918 Y113.012 E19.50266
G1 X78.826 Y112.651 E19.57954
G1 X78.288 Y112.433 E19.61828
G1 X77.251 Y111.935 E19.69516
G1 X76.745 Y111.651 E19.73391
G1 X75.780 Y111.024 E19.81078
G1 X75.315 Y110.678 E19.84953
G1 X74.437 Y109.934 E19.92641
G1 X74.020 Y109.531 E19.96515
G1 X73.245 Y108.680 E20.04204
G1 X72.729 Y108.000 E20.09909
G1 X72.284 Y107.159 E20.16260
G1 X72.029 Y106.416 E20.21510
G1 X71.868 Y105.512 E20.27648
G1 X71.842 Y105.000 E20.31070
G1 X71.842 Y95.000 E20.97875
G1 X71.868 Y94.488 E21.01297
G1 X71.988 Y93.751 E21.06285
G1 X72.030 Y93.583 E21.07447
G1 X72.351 Y92.689 E21.13793
G1 X72.825 Y91.856 E21.20192
G1 X73.245 Y91.320 E21.24744
G1 X74.020 Y90.469 E21.32432
G1 X74.437 Y90.066 E21.36306
G1 X75.269 Y89.361 E21.43593
G1 E20.43593 F2400.00000
G92 E0
G1 X77.383 Y91.759 F7800.000
G1 E1.00000 F2400.00000
G1 X78.522 Y91.007 E1.09116 F1260.000
G1 X79.711 Y90.429 E1.17948
G1 X80.964 Y90.008 E1.26780
G1 X82.261 Y89.751 E1.35611
G1 X83.492 Y89.666 E1.43859
G1 X110.495 Y85.665 E3.26220
G1 X110.634 Y85.659 E3.27149
G1 X112.241 Y85.756 E3.37904
G1 X112.391 Y85.770 E3.38912 F1260.000
G1 X114.093 Y86.087 E3.50479
G1 X115.669 Y86.578 E3.61507
G1 X117.250 Y87.285 E3.73075
G1 X118.801 Y88.222 E3.85182
G1 X120.161 Y89.294 E3.96750
G1 X121.329 Y90.461 E4.07778
G1 X122.446 Y91.888 E4.19885
G1 X123.300 Y93.300 E4.30913
G1 X124.015 Y94.877 E4.42481
G1 X124.555 Y96.608 E4.54588
G1 X124.852 Y98.232 E4.65617
G1 X124.962 Y99.960 E4.77184
G1 X124.852 Y101.769 E4.89291
G1 X124.535 Y103.471 E5.00858
G1 X124.044 Y105.047 E5.11887
G1 X123.300 Y106.700 E5.23994
G1 X122.446 Y108.112 E5.35022
G1 X121.382 Y109.478 E5.46589
G1 X120.101 Y110.760 E5.58697
G1 X118.801 Y111.778 E5.69725
G1 X117.322 Y112.678 E5.81292
G1 X115.669 Y113.422 E5.93400
G1 X114.093 Y113.913 E6.04428
G1 X112.391 Y114.230 E6.15995
G1 X110.634 Y114.341 E6.27757
G1 X110.495 Y114.335 E6.28686
G1 X83.492 Y110.334 E8.11047
G1 X82.261 Y110.249 E8.19295
G1 X81.047 Y110.013 E8.27556
G1 X79.790 Y109.603 E8.36387
G1 X78.522 Y108.993 E8.45790
G1 X77.416 Y108.269 E8.54622
G1 X76.473 Y107.469 E8.62883
G1 X75.573 Y106.490 E8.71765
G1 X75.300 Y106.075 E8.75082
G1 X75.183 Y105.812 E8.77009
G1 X75.077 Y105.425 E8.79687
G1 X75.038 Y105.023 E8.82386
G1 X75.053 Y104.743 E8.84260
G1 X75.116 Y104.402 E8.86578
G1 X75.253 Y104.021 E8.89280
G1 X75.399 Y103.752 E8.91327
G1 X75.623 Y103.436 E8.93910
G1 X76.201 Y103.137 E8.98259
G1 X83.568 Y103.140 E9.47475
G1 X84.031 Y103.109 E9.50577
G1 X84.486 Y103.014 E9.53680
G1 X84.889 Y102.869 E9.56540
G1 X85.236 Y102.689 E9.59155
G1 X85.587 Y102.444 E9.62014
G1 X85.927 Y102.127 E9.65117
G1 X86.195 Y101.793 E9.67976
G1 X86.415 Y101.426 E9.70835
G1 X86.571 Y101.067 E9.73450
G1 X86.689 Y100.656 E9.76309
G1 X86.750 Y100.232 E9.79168
G1 X86.750 Y99.768 E9.82271
G1 X86.689 Y99.344 E9.85131
G1 X86.571 Y98.933 E9.87990
G1 X86.398 Y98.541 E9.90849
G1 X86.174 Y98.177 E9.93708
G1 X85.902 Y97.846 E9.96567
G1 X85.587 Y97.556 E9.99426
G1 X85.236 Y97.311 E10.02285
G1 X84.855 Y97.117 E10.05144
G1 X84.486 Y96.986 E10.07760
G1 X84.031 Y96.891 E10.10863
G1 X83.568 Y96.860 E10.13965
G1 X76.201 Y96.863 E10.63181
G1 X75.623 Y96.564 E10.67530
G1 X75.400 Y96.250 E10.70101
G1 X75.275 Y96.025 E10.71823
G1 X75.171 Y95.777 E10.73617
G1 X75.080 Y95.440 E10.75948
G1 X75.038 Y95.021 E10.78762
G1 X75.059 Y94.684 E10.81018
G1 X75.183 Y94.188 E10.84432
G1 X75.355 Y93.823 E10.87129
G1 X75.573 Y93.510 E10.89676
G1 X76.411 Y92.591 E10.97986
G1 X77.337 Y91.798 E11.06131
G1 E10.06131 F2400.00000
G92 E0
G1 X75.346 Y91.356 F7800.000
G1 X75.271 Y91.535 F7800.000
G1 X74.789 Y92.778 F7800.000
G1 X75.832 Y93.729 F7800.000
G1 X75.985 Y96.148 F7800.000
G1 E1.00000 F2400.00000
G1 X75.847 Y95.953 E1.01592 F1260.000
G1 X75.739 Y95.754 E1.03103
G1 X75.643 Y95.494 E1.04956
G1 X75.605 Y95.333 E1.06060
G1 X75.575 Y94.962 E1.08549
G1 X75.602 Y94.682 E1.10427
G1 X75.660 Y94.449 E1.12034
G1 X75.780 Y94.162 E1.14114
G1 X75.945 Y93.904 E1.16161
G1 X76.796 Y92.964 E1.24625
G1 X77.749 Y92.151 E1.33000
G1 X78.799 Y91.465 E1.41374
G1 X79.927 Y90.920 E1.49748
G1 X81.116 Y90.522 E1.58122
G1 X82.346 Y90.280 E1.66496
G1 X83.549 Y90.199 E1.74550
G1 X110.546 Y86.199 E3.56874
G1 X112.262 Y86.294 E3.68357
G1 X113.949 Y86.603 E3.79816
G1 X115.540 Y87.102 E3.90952
G1 X117.016 Y87.766 E4.01764
G1 X118.444 Y88.626 E4.12899
G1 X119.758 Y89.652 E4.24034
G1 X120.971 Y90.865 E4.35494
G1 X121.969 Y92.139 E4.46306
G1 X122.834 Y93.564 E4.57441
G1 X123.538 Y95.128 E4.68900
G1 X124.019 Y96.673 E4.79712
G1 X124.322 Y98.312 E4.90848
G1 X124.426 Y99.976 E5.01983
G1 X124.328 Y101.640 E5.13119
G1 X124.019 Y103.327 E5.24578
G1 X123.520 Y104.917 E5.35714
G1 X122.834 Y106.436 E5.46849
G1 X121.996 Y107.821 E5.57661
G1 X120.971 Y109.135 E5.68796
G1 X119.758 Y110.348 E5.80256
G1 X118.484 Y111.346 E5.91068
G1 X117.059 Y112.211 E6.02203
G1 X115.495 Y112.915 E6.13662
G1 X113.902 Y113.408 E6.24798
G1 X112.310 Y113.700 E6.35610
G1 X110.546 Y113.801 E6.47416
G1 X83.549 Y109.801 E8.29741
G1 X82.346 Y109.720 E8.37794
G1 X81.166 Y109.491 E8.45826
G1 X79.975 Y109.100 E8.54199
G1 X78.844 Y108.560 E8.62574
G1 X77.790 Y107.880 E8.70948
G1 X76.833 Y107.071 E8.79322
G1 X75.983 Y106.144 E8.87727
G1 X75.814 Y105.899 E8.89716
G1 X75.682 Y105.616 E8.91796
G1 X75.602 Y105.318 E8.93864
G1 X75.575 Y105.047 E8.95683
G1 X75.581 Y104.842 E8.97053
G1 X75.609 Y104.647 E8.98365
G1 X75.696 Y104.349 E9.00442
G1 X75.819 Y104.091 E9.02350
G1 X75.985 Y103.852 E9.04292
G1 X76.332 Y103.672 E9.06901
G1 X83.605 Y103.675 E9.55489
G1 X84.141 Y103.636 E9.59080
G1 X84.596 Y103.541 E9.62185
G1 X85.069 Y103.376 E9.65533
G1 X85.515 Y103.147 E9.68882
G1 X85.954 Y102.837 E9.72474
G1 X86.319 Y102.493 E9.75823
G1 X86.612 Y102.133 E9.78928
G1 X86.875 Y101.706 E9.82276
G1 X87.077 Y101.247 E9.85625
G1 X87.222 Y100.729 E9.89217
G1 X87.285 Y100.269 E9.92322
G1 X87.288 Y99.768 E9.95671
G1 X87.214 Y99.235 E9.99263
G1 X87.077 Y98.753 E10.02612
G1 X86.875 Y98.294 E10.05961
G1 X86.612 Y97.867 E10.09309
G1 X86.294 Y97.480 E10.12658
G1 X85.926 Y97.140 E10.16006
G1 X85.515 Y96.853 E10.19355
G1 X85.069 Y96.624 E10.22704
G1 X84.596 Y96.459 E10.26052
G1 X84.104 Y96.359 E10.29401
G1 X83.586 Y96.324 E10.32872
G1 X76.332 Y96.328 E10.81336
G1 X76.038 Y96.176 E10.83544
G1 X76.347 Y95.732 F7800.000
G1 X76.229 Y95.537 E10.85064 F1260.000
G1 X76.128 Y95.216 E10.87317
G1 X76.110 Y95.004 E10.88734
G1 X76.124 Y94.812 E10.90023
G1 X76.182 Y94.579 E10.91628
G1 X76.272 Y94.379 E10.93089
G1 X76.392 Y94.202 E10.94521
G1 X77.192 Y93.326 E11.02447
G1 X78.096 Y92.560 E11.10364
G1 X79.091 Y91.916 E11.18281
G1 X80.160 Y91.403 E11.26197
G1 X81.285 Y91.032 E11.34114
G1 X82.431 Y90.809 E11.41916
G1 X83.605 Y90.732 E11.49776
G1 X110.597 Y86.733 E13.32063
G1 X112.230 Y86.830 E13.42990
G1 X113.790 Y87.116 E13.53585
G1 X115.320 Y87.592 E13.64289
G1 X116.796 Y88.256 E13.75100
G1 X118.153 Y89.076 E13.85696
G1 X119.415 Y90.064 E13.96399
G1 X120.548 Y91.196 E14.07103
G1 X121.537 Y92.456 E14.17806
G1 X122.374 Y93.841 E14.28617
G1 X123.025 Y95.288 E14.39213
G1 X123.503 Y96.817 E14.49916
G1 X123.793 Y98.393 E14.60620
G1 X123.888 Y99.954 E14.71073
G1 X123.793 Y101.607 E14.82133
G1 X123.503 Y103.183 E14.92836
G1 X123.031 Y104.697 E15.03432
G1 X122.367 Y106.173 E15.14243
G1 X121.546 Y107.530 E15.24839
G1 X120.559 Y108.792 E15.35542
G1 X119.415 Y109.936 E15.46353
G1 X118.166 Y110.915 E15.56949
G1 X116.796 Y111.744 E15.67652
G1 X115.320 Y112.408 E15.78464
G1 X113.790 Y112.884 E15.89167
G1 X112.230 Y113.170 E15.99763
G1 X110.597 Y113.267 E16.10690
G1 X83.605 Y109.268 E17.92977
G1 X82.431 Y109.191 E18.00836
G1 X81.285 Y108.968 E18.08639
G1 X80.160 Y108.597 E18.16555
G1 X79.091 Y108.084 E18.24472
G1 X78.096 Y107.440 E18.32388
G1 X77.192 Y106.674 E18.40305
G1 X76.380 Y105.782 E18.48366
G1 X76.261 Y105.600 E18.49817
G1 X76.182 Y105.421 E18.51125
G1 X76.127 Y105.210 E18.52583
G1 X76.110 Y105.005 E18.53960
G1 X76.157 Y104.656 E18.56312
G1 X76.235 Y104.451 E18.57776
G1 X76.347 Y104.268 E18.59208
G1 X76.462 Y104.208 E18.60077
G1 X83.623 Y104.211 E19.07913
G1 X84.178 Y104.173 E19.11629
G1 X84.741 Y104.058 E19.15467
G1 X85.316 Y103.854 E19.19549
G1 X85.794 Y103.606 E19.23143
G1 X86.049 Y103.429 E19.25214
G1 X86.293 Y103.254 E19.27225
G1 X86.686 Y102.887 E19.30820
G1 X87.051 Y102.442 E19.34658
G1 X87.368 Y101.920 E19.38740
G1 X87.583 Y101.427 E19.42334
G1 X87.740 Y100.874 E19.46172
G1 X87.821 Y100.306 E19.50010
G1 X87.823 Y99.731 E19.53848
G1 X87.740 Y99.126 E19.57930
G1 X87.595 Y98.608 E19.61525
G1 X87.368 Y98.080 E19.65363
G1 X87.072 Y97.587 E19.69201
G1 X86.711 Y97.140 E19.73039
G1 X86.293 Y96.746 E19.76877
G1 X85.825 Y96.413 E19.80715
G1 X85.316 Y96.146 E19.84553
G1 X84.776 Y95.952 E19.88392
G1 X84.214 Y95.832 E19.92230
G1 X83.604 Y95.789 E19.96313
G1 X76.462 Y95.792 E20.44025
G1 X76.400 Y95.760 E20.44494
G1 E19.44494 F2400.00000
G92 E0
G1 X76.711 Y104.776 F7800.000
G1 E1.00000 F2400.00000
G1 X83.633 Y104.779 E1.46242 F315.000
G1 X84.273 Y104.735 E1.50532
G1 X84.912 Y104.603 E1.54890
G1 X85.527 Y104.384 E1.59249
G1 X86.106 Y104.084 E1.63607
G1 X86.639 Y103.708 E1.67965
G1 X87.116 Y103.262 E1.72323
G1 X87.527 Y102.756 E1.76681
G1 X87.866 Y102.199 E1.81040
G1 X88.126 Y101.601 E1.85398
G1 X88.302 Y100.972 E1.89756
G1 X88.391 Y100.326 E1.94114
G1 X88.391 Y99.674 E1.98472
G1 X88.302 Y99.028 E2.02830
G1 X88.126 Y98.399 E2.07189
G1 X87.866 Y97.801 E2.11547
G1 X87.527 Y97.244 E2.15905
G1 X87.116 Y96.738 E2.20263
G1 X86.639 Y96.292 E2.24621
G1 X86.106 Y95.916 E2.28980
G1 X85.527 Y95.616 E2.33338
G1 X84.912 Y95.397 E2.37696
G1 X84.273 Y95.265 E2.42054
G1 X83.633 Y95.221 E2.46344
G1 X76.711 Y95.224 E2.92586
G1 X76.679 Y94.991 E2.94155
G1 X76.687 Y94.892 E2.94822
G1 X76.765 Y94.663 E2.96435
G1 X76.834 Y94.560 E2.97263
G1 X77.581 Y93.741 E3.04671
G1 X78.429 Y93.021 E3.12103
G1 X79.362 Y92.415 E3.19534
G1 X80.365 Y91.934 E3.26965
G1 X81.421 Y91.584 E3.34396
G1 X82.512 Y91.372 E3.41827
G1 X83.654 Y91.299 E3.49470
G1 X110.636 Y87.301 E5.31688
G1 X112.124 Y87.391 E5.41651
G1 X113.662 Y87.670 E5.52091
G1 X115.126 Y88.126 E5.62334
G1 X116.524 Y88.755 E5.72578
G1 X117.812 Y89.534 E5.82629
G1 X119.044 Y90.495 E5.93069
G1 X120.128 Y91.579 E6.03312
G1 X121.074 Y92.786 E6.13557
G1 X121.867 Y94.098 E6.23802
G1 X122.485 Y95.470 E6.33852
G1 X122.953 Y96.961 E6.44292
G1 X123.229 Y98.469 E6.54535
G1 X123.320 Y99.971 E6.64586
G1 X123.229 Y101.531 E6.75026
G1 X122.953 Y103.039 E6.85268
G1 X122.497 Y104.503 E6.95513
G1 X121.867 Y105.902 E7.05758
G1 X121.089 Y107.189 E7.15809
G1 X120.128 Y108.422 E7.26249
G1 X119.044 Y109.506 E7.36492
G1 X117.860 Y110.433 E7.46542
G1 X116.524 Y111.245 E7.56982
G1 X115.126 Y111.874 E7.67225
G1 X113.662 Y112.330 E7.77470
G1 X112.153 Y112.607 E7.87715
G1 X110.636 Y112.699 E7.97872
G1 X83.654 Y108.701 E9.80090
G1 X82.512 Y108.628 E9.87733
G1 X81.421 Y108.416 E9.95164
G1 X80.365 Y108.066 E10.02595
