; generated by Slic3r 1.2.9 on 2017-04-20 at 14:05:01

; external perimeters extrusion width = 0.30mm
; perimeters extrusion width = 0.40mm
; infill extrusion width = 0.40mm
; solid infill extrusion width = 0.40mm
; top infill extrusion width = 0.40mm

M107
M190 S85 ; set bed temperature
M104 S210 ; set temperature
G28 ; home all axes
G1 Z5 F5000 ; lift nozzle

M109 S210 ; wait for temperature to be reached
G21 ; set units to millimeters
G90 ; use absolute coordinates
M82 ; use absolute distances for extrusion
G92 E0
G1 Z0.300 F7800.000
G1 E-1.00000 F2400.00000
G92 E0
G1 X83.551 Y83.477 F7800.000
G1 E1.00000 F2400.00000
G1 X85.232 Y82.385 E1.13389 F1260.000
G1 X87.100 Y82.029 E1.26096
G1 X112.900 Y82.029 E2.98454
G1 X114.865 Y82.425 E3.11843
G1 X116.523 Y83.551 E3.25233 F1260.000
G1 X117.615 Y85.232 E3.38622
G1 X117.971 Y87.100 E3.51328
G1 X117.971 Y112.900 E5.23686
G1 X117.575 Y114.865 E5.37076
G1 X116.449 Y116.523 E5.50465
G1 X114.768 Y117.615 E5.63855
G1 X112.900 Y117.971 E5.76561
G1 X87.100 Y117.971 E7.48919
G1 X85.135 Y117.575 E7.62308
G1 X83.477 Y116.449 E7.75698
G1 X82.385 Y114.768 E7.89087
G1 X82.029 Y112.900 E8.01793
G1 X82.029 Y87.100 E9.74151
G1 X82.425 Y85.135 E9.87541
G1 X83.526 Y83.515 E10.00630
G1 X84.009 Y83.812 F7800.000
G1 X84.078 Y83.718 E10.01408 F1260.000
G1 X85.723 Y82.779 E10.14063
G1 X87.100 Y82.564 E10.23375
G1 X112.900 Y82.564 E11.95733
G1 X114.753 Y82.960 E12.08388
G1 X116.282 Y84.078 E12.21043 F1260.000
G1 X117.221 Y85.723 E12.33698
G1 X117.436 Y87.100 E12.43010
G1 X117.436 Y112.900 E14.15368
G1 X117.040 Y114.753 E14.28023
G1 X115.922 Y116.282 E14.40678
G1 X114.277 Y117.221 E14.53333
G1 X112.900 Y117.436 E14.62645
G1 X87.100 Y117.436 E16.35003
G1 X85.247 Y117.040 E16.47658
G1 X83.718 Y115.922 E16.60313
G1 X82.779 Y114.277 E16.72969
G1 X82.564 Y112.900 E16.82280
G1 X82.564 Y87.100 E18.54638
G1 X82.960 Y85.247 E18.67293
G1 X83.982 Y83.848 E18.78870
G1 E17.78870 F2400.00000
G92 E0
G1 X86.252 Y86.055 F7800.000
G1 E1.00000 F2400.00000
G1 X86.545 Y85.761 E1.02775 F1260.000
G1 X113.455 Y85.761 E2.82544
G1 X114.239 Y86.545 E2.89955
G1 X114.239 Y113.455 E4.69723 F1260.000
G1 X113.455 Y114.239 E4.77134
G1 X86.545 Y114.239 E6.56903
G1 X85.761 Y113.455 E6.64314
G1 X85.761 Y86.545 E8.44082
G1 X86.220 Y86.087 E8.48417
G1 X86.630 Y86.433 F7800.000
G1 X86.767 Y86.297 E8.49710 F1260.000
G1 X113.233 Y86.297 E10.26515
G1 X113.703 Y86.767 E10.30961 F1260.000
G1 X113.703 Y113.233 E12.07766
G1 X113.233 Y113.703 E12.12212
G1 X86.767 Y113.703 E13.89016
G1 X86.297 Y113.233 E13.93463
G1 X86.297 Y86.767 E15.70267
G1 X86.599 Y86.465 E15.73120
G1 X86.989 Y86.832 F7800.000
G1 X113.011 Y86.832 E17.46960 F1260.000
G1 X113.168 Y86.989 E17.48442
G1 X113.168 Y113.011 E19.22282 F1260.000
G1 X113.011 Y113.168 E19.23765
G1 X86.989 Y113.168 E20.97605
G1 X86.832 Y113.011 E20.99087
G1 X86.832 Y86.989 E22.72927
G1 X86.957 Y86.864 E22.74109
G1 X87.334 Y87.334 F7800.000
G1 X87.500 Y87.300 E22.75239 F315.000
G1 X112.500 Y87.300 E24.42252
G1 X112.666 Y87.334 E24.43383
G1 X112.700 Y87.500 E24.44513
G1 X112.700 Y112.500 E26.11527
G1 X112.666 Y112.666 E26.12657
G1 X112.500 Y112.700 E26.13787
G1 X87.500 Y112.700 E27.80801
G1 X87.334 Y112.666 E27.81931
G1 X87.300 Y112.500 E27.83062
G1 X87.300 Y87.500 E29.50075
G1 X87.334 Y87.334 E29.51206
M140 S50 ; wait for bed temperature to be reached
G1 Z0.500 F7800.000
G1 X87.500 Y87.300 E29.51703 F900.000
G1 X112.500 Y87.300 E30.25172
G1 X112.666 Y87.334 E30.25669
G1 X112.700 Y87.500 E30.26167
G1 X112.700 Y112.500 E30.99636
G1 X112.666 Y112.666 E31.00133
G1 X112.500 Y112.700 E31.00631
G1 X87.500 Y112.700 E31.74100
G1 X87.334 Y112.666 E31.74597
G1 X87.300 Y112.500 E31.75094
G1 X87.300 Y87.500 E32.48564
G1 X87.334 Y87.334 E32.49061
G1 Z0.700 F7800.000
G1 X87.500 Y87.300 E32.49558 F900.000
G1 X112.500 Y87.300 E33.23028
G1 X112.666 Y87.334 E33.23525
G1 X112.700 Y87.500 E33.24022
G1 X112.700 Y112.500 E33.97492
G1 X112.666 Y112.666 E33.97989
G1 X112.500 Y112.700 E33.98486
G1 X87.500 Y112.700 E34.71955
G1 X87.334 Y112.666 E34.72453
G1 X87.300 Y112.500 E34.72950
G1 X87.300 Y87.500 E35.46419
G1 X87.334 Y87.334 E35.46917
M106 S247.35
G1 Z0.900 F7800.000
G1 X87.500 Y87.300 E35.47414 F900.000
G1 X112.500 Y87.300 E36.20883
G1 X112.666 Y87.334 E36.21380
G1 X112.700 Y87.500 E36.21878
G1 X112.700 Y112.500 E36.95347
G1 X112.666 Y112.666 E36.95844
G1 X112.500 Y112.700 E36.96342
G1 X87.500 Y112.700 E37.69811
G1 X87.334 Y112.666 E37.70308
G1 X87.300 Y112.500 E37.70805
G1 X87.300 Y87.500 E38.44275
G1 X87.334 Y87.334 E38.44772
G1 Z1.100 F7800.000
G1 X87.500 Y87.300 E38.45269 F900.000
G1 X112.500 Y87.300 E39.18739
G1 X112.666 Y87.334 E39.19236
G1 X112.700 Y87.500 E39.19733
G1 X112.700 Y112.500 E39.93203
G1 X112.666 Y112.666 E39.93700
G1 X112.500 Y112.700 E39.94197
G1 X87.500 Y112.700 E40.67667
G1 X87.334 Y112.666 E40.68164
G1 X87.300 Y112.500 E40.68661
G1 X87.300 Y87.500 E41.42130
G1 X87.334 Y87.334 E41.42628
G1 Z1.300 F7800.000
G1 X87.500 Y87.300 E41.43125 F900.000
G1 X112.500 Y87.300 E42.16594
G1 X112.666 Y87.334 E42.17092
G1 X112.700 Y87.500 E42.17589
G1 X112.700 Y112.500 E42.91058
G1 X112.666 Y112.666 E42.91555
G1 X112.500 Y112.700 E42.92053
G1 X87.500 Y112.700 E43.65522
G1 X87.334 Y112.666 E43.66019
G1 X87.300 Y112.500 E43.66517
G1 X87.300 Y87.500 E44.39986
G1 X87.334 Y87.334 E44.40483
G1 Z1.500 F7800.000
G1 X87.500 Y87.300 E44.40980 F900.000
G1 X112.500 Y87.300 E45.14450
G1 X112.666 Y87.334 E45.14947
G1 X112.700 Y87.500 E45.15444
G1 X112.700 Y112.500 E45.88914
G1 X112.666 Y112.666 E45.89411
G1 X112.500 Y112.700 E45.89908
G1 X87.500 Y112.700 E46.63378
G1 X87.334 Y112.666 E46.63875
G1 X87.300 Y112.500 E46.64372
G1 X87.300 Y87.500 E47.37841
G1 X87.334 Y87.334 E47.38339
G1 Z1.700 F7800.000
G1 X87.500 Y87.300 E47.38836 F900.000
G1 X112.500 Y87.300 E48.12305
G1 X112.666 Y87.334 E48.12803
G1 X112.700 Y87.500 E48.13300
G1 X112.700 Y112.500 E48.86769
G1 X112.666 Y112.666 E48.87266
G1 X112.500 Y112.700 E48.87764
G1 X87.500 Y112.700 E49.61233
G1 X87.334 Y112.666 E49.61730
G1 X87.300 Y112.500 E49.62228
G1 X87.300 Y87.500 E50.35697
G1 X87.334 Y87.334 E50.36194
G1 Z1.900 F7800.000
G1 X87.500 Y87.300 E50.36691 F900.000
G1 X112.500 Y87.300 E51.10161
G1 X112.666 Y87.334 E51.10658
G1 X112.700 Y87.500 E51.11155
G1 X112.700 Y112.500 E51.84625
G1 X112.666 Y112.666 E51.85122
G1 X112.500 Y112.700 E51.85619
G1 X87.500 Y112.700 E52.59089
G1 X87.334 Y112.666 E52.59586
G1 X87.300 Y112.500 E52.60083
G1 X87.300 Y87.500 E53.33553
G1 X87.334 Y87.334 E53.34050
G1 Z2.100 F7800.000
G1 X87.500 Y87.300 E53.34547 F900.000
G1 X112.500 Y87.300 E54.08016
G1 X112.666 Y87.334 E54.08514
G1 X112.700 Y87.500 E54.09011
G1 X112.700 Y112.500 E54.82480
G1 X112.666 Y112.666 E54.82978
G1 X112.500 Y112.700 E54.83475
G1 X87.500 Y112.700 E55.56944
G1 X87.334 Y112.666 E55.57441
G1 X87.300 Y112.500 E55.57939
G1 X87.300 Y87.500 E56.31408
G1 X87.334 Y87.334 E56.31905
G1 Z2.300 F7800.000
G1 X87.500 Y87.300 E56.32403 F900.000
G1 X112.500 Y87.300 E57.05872
G1 X112.666 Y87.334 E57.06369
G1 X112.700 Y87.500 E57.06866
G1 X112.700 Y112.500 E57.80336
G1 X112.666 Y112.666 E57.80833
G1 X112.500 Y112.700 E57.81330
G1 X87.500 Y112.700 E58.54800
G1 X87.334 Y112.666 E58.55297
G1 X87.300 Y112.500 E58.55794
G1 X87.300 Y87.500 E59.29264
G1 X87.334 Y87.334 E59.29761
G1 Z2.500 F7800.000
G1 X87.500 Y87.300 E59.30258 F900.000
G1 X112.500 Y87.300 E60.03727
G1 X112.666 Y87.334 E60.04225
G1 X112.700 Y87.500 E60.04722
G1 X112.700 Y112.500 E60.78191
G1 X112.666 Y112.666 E60.78689
G1 X112.500 Y112.700 E60.79186
G1 X87.500 Y112.700 E61.52655
G1 X87.334 Y112.666 E61.53152
G1 X87.300 Y112.500 E61.53650
G1 X87.300 Y87.500 E62.27119
G1 X87.334 Y87.334 E62.27616
G1 Z2.700 F7800.000
G1 X87.500 Y87.300 E62.28114 F900.000
G1 X112.500 Y87.300 E63.01583
G1 X112.666 Y87.334 E63.02080
G1 X112.700 Y87.500 E63.02577
G1 X112.700 Y112.500 E63.76047
G1 X112.666 Y112.666 E63.76544
G1 X112.500 Y112.700 E63.77041
G1 X87.500 Y112.700 E64.50511
G1 X87.334 Y112.666 E64.51008
G1 X87.300 Y112.500 E64.51505
G1 X87.300 Y87.500 E65.24975
G1 X87.334 Y87.334 E65.25472
G1 Z2.900 F7800.000
G1 X87.500 Y87.300 E65.25969 F900.000
G1 X112.500 Y87.300 E65.99439
G1 X112.666 Y87.334 E65.99936
G1 X112.700 Y87.500 E66.00433
G1 X112.700 Y112.500 E66.73902
G1 X112.666 Y112.666 E66.74400
G1 X112.500 Y112.700 E66.74897
G1 X87.500 Y112.700 E67.48366
G1 X87.334 Y112.666 E67.48864
G1 X87.300 Y112.500 E67.49361
G1 X87.300 Y87.500 E68.22830
G1 X87.334 Y87.334 E68.23327
G1 Z3.100 F7800.000
G1 X87.500 Y87.300 E68.23825 F900.000
G1 X112.500 Y87.300 E68.97294
G1 X112.666 Y87.334 E68.97791
G1 X112.700 Y87.500 E68.98289
G1 X112.700 Y112.500 E69.71758
G1 X112.666 Y112.666 E69.72255
G1 X112.500 Y112.700 E69.72752
G1 X87.500 Y112.700 E70.46222
G1 X87.334 Y112.666 E70.46719
G1 X87.300 Y112.500 E70.47216
G1 X87.300 Y87.500 E71.20686
G1 X87.334 Y87.334 E71.21183
G1 Z3.300 F7800.000
G1 X87.500 Y87.300 E71.21680 F900.000
G1 X112.500 Y87.300 E71.95150
G1 X112.666 Y87.334 E71.95647
G1 X112.700 Y87.500 E71.96144
G1 X112.700 Y112.500 E72.69613
G1 X112.666 Y112.666 E72.70111
G1 X112.500 Y112.700 E72.70608
G1 X87.500 Y112.700 E73.44077
G1 X87.334 Y112.666 E73.44575
G1 X87.300 Y112.500 E73.45072
G1 X87.300 Y87.500 E74.18541
G1 X87.334 Y87.334 E74.19038
G1 Z3.500 F7800.000
G1 X87.500 Y87.300 E74.19536 F900.000
G1 X112.500 Y87.300 E74.93005
G1 X112.666 Y87.334 E74.93502
G1 X112.700 Y87.500 E74.94000
G1 X112.700 Y112.500 E75.67469
G1 X112.666 Y112.666 E75.67966
G1 X112.500 Y112.700 E75.68463
G1 X87.500 Y112.700 E76.41933
G1 X87.334 Y112.666 E76.42430
G1 X87.300 Y112.500 E76.42927
G1 X87.300 Y87.500 E77.16397
G1 X87.334 Y87.334 E77.16894
G1 Z3.700 F7800.000
G1 X87.500 Y87.300 E77.17391 F900.000
G1 X112.500 Y87.300 E77.90861
G1 X112.666 Y87.334 E77.91358
G1 X112.700 Y87.500 E77.91855
G1 X112.700 Y112.500 E78.65325
G1 X112.666 Y112.666 E78.65822
G1 X112.500 Y112.700 E78.66319
G1 X87.500 Y112.700 E79.39788
G1 X87.334 Y112.666 E79.40286
G1 X87.300 Y112.500 E79.40783
G1 X87.300 Y87.500 E80.14252
G1 X87.334 Y87.334 E80.14750
G1 Z3.900 F7800.000
G1 X87.500 Y87.300 E80.15247 F900.000
G1 X112.500 Y87.300 E80.88716
G1 X112.666 Y87.334 E80.89213
G1 X112.700 Y87.500 E80.89711
G1 X112.700 Y112.500 E81.63180
G1 X112.666 Y112.666 E81.63677
G1 X112.500 Y112.700 E81.64175
G1 X87.500 Y112.700 E82.37644
G1 X87.334 Y112.666 E82.38141
G1 X87.300 Y112.500 E82.38638
G1 X87.300 Y87.500 E83.12108
G1 X87.334 Y87.334 E83.12605
G1 Z4.100 F7800.000
G1 X87.500 Y87.300 E83.13102 F900.000
G1 X112.500 Y87.300 E83.86572
G1 X112.666 Y87.334 E83.87069
G1 X112.700 Y87.500 E83.87566
G1 X112.700 Y112.500 E84.61036
G1 X112.666 Y112.666 E84.61533
G1 X112.500 Y112.700 E84.62030
G1 X87.500 Y112.700 E85.35499
G1 X87.334 Y112.666 E85.35997
G1 X87.300 Y112.500 E85.36494
G1 X87.300 Y87.500 E86.09963
G1 X87.334 Y87.334 E86.10461
G1 Z4.300 F7800.000
G1 X87.500 Y87.300 E86.10958 F900.000
G1 X112.500 Y87.300 E86.84427
G1 X112.666 Y87.334 E86.84925
G1 X112.700 Y87.500 E86.85422
G1 X112.700 Y112.500 E87.58891
G1 X112.666 Y112.666 E87.59388
G1 X112.500 Y112.700 E87.59886
G1 X87.500 Y112.700 E88.33355
G1 X87.334 Y112.666 E88.33852
G1 X87.300 Y112.500 E88.34350
G1 X87.300 Y87.500 E89.07819
G1 X87.334 Y87.334 E89.08316
G1 Z4.500 F7800.000
G1 X87.500 Y87.300 E89.08813 F900.000
G1 X112.500 Y87.300 E89.82283
G1 X112.666 Y87.334 E89.82780
G1 X112.700 Y87.500 E89.83277
G1 X112.700 Y112.500 E90.56747
G1 X112.666 Y112.666 E90.57244
G1 X112.500 Y112.700 E90.57741
G1 X87.500 Y112.700 E91.31211
G1 X87.334 Y112.666 E91.31708
G1 X87.300 Y112.500 E91.32205
G1 X87.300 Y87.500 E92.05674
G1 X87.334 Y87.334 E92.06172
G1 Z4.700 F7800.000
G1 X87.500 Y87.300 E92.06669 F900.000
G1 X112.500 Y87.300 E92.80138
G1 X112.666 Y87.334 E92.80636
G1 X112.700 Y87.500 E92.81133
G1 X112.700 Y112.500 E93.54602
G1 X112.666 Y112.666 E93.55099
G1 X112.500 Y112.700 E93.55597
G1 X87.500 Y112.700 E94.29066
G1 X87.334 Y112.666 E94.29563
G1 X87.300 Y112.500 E94.30061
G1 X87.300 Y87.500 E95.03530
G1 X87.334 Y87.334 E95.04027
G1 Z4.900 F7800.000
G1 X87.500 Y87.300 E95.04524 F900.000
G1 X112.500 Y87.300 E95.77994
G1 X112.666 Y87.334 E95.78491
G1 X112.700 Y87.500 E95.78988
G1 X112.700 Y112.500 E96.52458
G1 X112.666 Y112.666 E96.52955
G1 X112.500 Y112.700 E96.53452
G1 X87.500 Y112.700 E97.26922
G1 X87.334 Y112.666 E97.27419
G1 X87.300 Y112.500 E97.27916
G1 X87.300 Y87.500 E98.01385
G1 X87.334 Y87.334 E98.01883
G1 Z5.100 F7800.000
G1 X87.500 Y87.300 E98.02380 F900.000
G1 X112.500 Y87.300 E98.75849
G1 X112.666 Y87.334 E98.76347
G1 X112.700 Y87.500 E98.76844
G1 X112.700 Y112.500 E99.50313
G1 X112.666 Y112.666 E99.50811
G1 X112.500 Y112.700 E99.51308
G1 X87.500 Y112.700 E100.24777
G1 X87.334 Y112.666 E100.25274
G1 X87.300 Y112.500 E100.25772
G1 X87.300 Y87.500 E100.99241
G1 X87.334 Y87.334 E100.99738
G1 Z5.300 F7800.000
G1 X87.500 Y87.300 E101.00236 F900.000
G1 X112.500 Y87.300 E101.73705
G1 X112.666 Y87.334 E101.74202
G1 X112.700 Y87.500 E101.74699
G1 X112.700 Y112.500 E102.48169
G1 X112.666 Y112.666 E102.48666
G1 X112.500 Y112.700 E102.49163
G1 X87.500 Y112.700 E103.22633
G1 X87.334 Y112.666 E103.23130
G1 X87.300 Y112.500 E103.23627
G1 X87.300 Y87.500 E103.97097
G1 X87.334 Y87.334 E103.97594
G1 Z5.500 F7800.000
G1 X87.500 Y87.300 E103.98091 F900.000
G1 X112.500 Y87.300 E104.71560
G1 X112.666 Y87.334 E104.72058
G1 X112.700 Y87.500 E104.72555
G1 X112.700 Y112.500 E105.46024
G1 X112.666 Y112.666 E105.46522
G1 X112.500 Y112.700 E105.47019
G1 X87.500 Y112.700 E106.20488
G1 X87.334 Y112.666 E106.20985
G1 X87.300 Y112.500 E106.21483
G1 X87.300 Y87.500 E106.94952
G1 X87.334 Y87.334 E106.95449
G1 Z5.700 F7800.000
G1 X87.500 Y87.300 E106.95947 F900.000
G1 X112.500 Y87.300 E107.69416
G1 X112.666 Y87.334 E107.69913
G1 X112.700 Y87.500 E107.70410
G1 X112.700 Y112.500 E108.43880
G1 X112.666 Y112.666 E108.44377
G1 X112.500 Y112.700 E108.44874
G1 X87.500 Y112.700 E109.18344
G1 X87.334 Y112.666 E109.18841
G1 X87.300 Y112.500 E109.19338
G1 X87.300 Y87.500 E109.92808
G1 X87.334 Y87.334 E109.93305
G1 Z5.900 F7800.000
G1 X87.500 Y87.300 E109.93802 F900.000
G1 X112.500 Y87.300 E110.67272
G1 X112.666 Y87.334 E110.67769
G1 X112.700 Y87.500 E110.68266
G1 X112.700 Y112.500 E111.41735
G1 X112.666 Y112.666 E111.42233
G1 X112.500 Y112.700 E111.42730
G1 X87.500 Y112.700 E112.16199
G1 X87.334 Y112.666 E112.16697
G1 X87.300 Y112.500 E112.17194
G1 X87.300 Y87.500 E112.90663
G1 X87.334 Y87.334 E112.91160
G1 Z6.100 F7800.000
G1 X87.500 Y87.300 E112.91658 F900.000
G1 X112.500 Y87.300 E113.65127
G1 X112.666 Y87.334 E113.65624
G1 X112.700 Y87.500 E113.66122
G1 X112.700 Y112.500 E114.39591
G1 X112.666 Y112.666 E114.40088
G1 X112.500 Y112.700 E114.40585
G1 X87.500 Y112.700 E115.14055
G1 X87.334 Y112.666 E115.14552
G1 X87.300 Y112.500 E115.15049
G1 X87.300 Y87.500 E115.88519
G1 X87.334 Y87.334 E115.89016
G1 Z6.300 F7800.000
G1 X87.500 Y87.300 E115.89513 F900.000
G1 X112.500 Y87.300 E116.62983
G1 X112.666 Y87.334 E116.63480
G1 X112.700 Y87.500 E116.63977
G1 X112.700 Y112.500 E117.37446
G1 X112.666 Y112.666 E117.37944
G1 X112.500 Y112.700 E117.38441
G1 X87.500 Y112.700 E118.11910
G1 X87.334 Y112.666 E118.12408
G1 X87.300 Y112.500 E118.12905
G1 X87.300 Y87.500 E118.86374
G1 X87.334 Y87.334 E118.86871
G1 Z6.500 F7800.000
G1 X87.500 Y87.300 E118.87369 F900.000
G1 X112.500 Y87.300 E119.60838
G1 X112.666 Y87.334 E119.61335
G1 X112.700 Y87.500 E119.61833
G1 X112.700 Y112.500 E120.35302
G1 X112.666 Y112.666 E120.35799
G1 X112.500 Y112.700 E120.36296
G1 X87.500 Y112.700 E121.09766
G1 X87.334 Y112.666 E121.10263
G1 X87.300 Y112.500 E121.10760
G1 X87.300 Y87.500 E121.84230
G1 X87.334 Y87.334 E121.84727
G1 Z6.700 F7800.000
G1 X87.500 Y87.300 E121.85224 F900.000
G1 X112.500 Y87.300 E122.58694
G1 X112.666 Y87.334 E122.59191
G1 X112.700 Y87.500 E122.59688
G1 X112.700 Y112.500 E123.33158
G1 X112.666 Y112.666 E123.33655
G1 X112.500 Y112.700 E123.34152
G1 X87.500 Y112.700 E124.07621
G1 X87.334 Y112.666 E124.08119
G1 X87.300 Y112.500 E124.08616
G1 X87.300 Y87.500 E124.82085
G1 X87.334 Y87.334 E124.82583
G1 Z6.900 F7800.000
G1 X87.500 Y87.300 E124.83080 F900.000
G1 X112.500 Y87.300 E125.56549
