; Generated with MatterSlice 1.0
; filamentDiameter = 1.75
; extrusionWidth = 0.3
; firstLayerExtrusionWidth = 0.3
; layerThickness = 0.2
; firstLayerThickness = 0.25
; automatic settings before start_gcode
G21 ; set units to millimeters
M107 ; fan off
M190 S75 ; wait for bed temperature to be reached
M104 T0 S210 ; start heating extruder 1
T0 ; set the active extruder to 0
; settings from start_gcode
G28 ; home all axes
G1 Z5 F5000 ; lift nozzle
; automatic settings after start_gcode
M109 T0 S210 ; wait for extruder 1 to reach temperature
T0 ; set the active extruder to 0
G90 ; use absolute coordinates
G92 E0 ; reset the expected extruder position
M82 ; use absolute distance for extrusion
; Layer count: 150
; Layer Change GCode
; LAYER:0
G4 P0
M107
G0 F7800 X116.9 Y116.9 Z0.25
; TYPE:SKIRT
G1 F1800 E0
G1 F720 X83.1 Y116.9 E1.05393
G1 X83.1 Y83.1 E2.10786
G1 X116.9 Y83.1 E3.16179
G1 X116.9 Y116.9 E4.21572
G0 F7800 X116.6 Y116.6
G1 F720 X83.4 Y116.6 E5.25094
G1 X83.4 Y83.4 E6.28617
G1 X116.6 Y83.4 E7.32139
G1 X116.6 Y116.6 E8.35661
G0 F7800 X110.45 Y110.45
G1 F720 X89.55 Y110.45 E9.0083
G1 X89.55 Y89.55 E9.65999
G1 X110.45 Y89.55 E10.31168
G1 X110.45 Y110.45 E10.96337
G0 F7800 X110.15 Y110.15
G1 F720 X89.85 Y110.15 E11.59635
G1 X89.85 Y89.85 E12.22934
G1 X110.15 Y89.85 E12.86232
G1 X110.15 Y110.15 E13.4953
G0 F7800 X109.6 Y109.69
G0 X90.31 Y109.6
G0 X90.31 Y109.6
G0 X90.15 Y109.85
; TYPE:WALL-OUTER
G1 F720 X90.15 Y90.15 E14.10957
G1 X109.85 Y90.15 E14.72385
G1 X109.85 Y109.85 E15.33812
G1 X90.15 Y109.85 E15.95239
G0 F7800 X90.45 Y109.55
; TYPE:WALL-INNER
G1 F720 X90.45 Y90.45 E16.54796
G1 X109.55 Y90.45 E17.14352
G1 X109.55 Y109.55 E17.73909
G1 X90.45 Y109.55 E18.33465
G0 F7800 X90.75 Y109.25
G1 F720 X90.75 Y90.75 E18.9115
G1 X109.25 Y90.75 E19.48836
G1 X109.25 Y109.25 E20.06522
G1 X90.75 Y109.25 E20.64207
G0 F7800 X98.767 Y108.259
G0 X99.429 Y108.443
G0 X99.497 Y108.169
G0 X99.602 Y108.157
G0 X99.602 Y108.157
G0 X99.853 Y108.157
; TYPE:WALL-OUTER
G1 F720 X100.694 Y108.12 E20.66832
G1 X101.386 Y108.03 E20.69008
G1 X102.062 Y107.884 E20.71164
G1 X102.726 Y107.679 E20.73331
G1 X103.371 Y107.42 E20.75499
G1 X103.99 Y107.106 E20.77663
G1 X104.581 Y106.74 E20.7983
G1 X105.273 Y106.225 E20.8252
G1 X101.644 Y102.597 E20.98521
G1 X101.781 Y102.495 E20.99053
G1 X102.038 Y102.256 E21.00148
G1 X102.157 Y102.119 E21.00714
G1 X105.787 Y105.749 E21.16721
G1 X106.359 Y105.097 E21.19425
G1 X106.78 Y104.521 E21.2165
G1 X107.15 Y103.911 E21.23875
G1 X107.466 Y103.267 E21.26111
G1 X107.722 Y102.604 E21.28327
G1 X107.921 Y101.915 E21.30564
G1 X108.058 Y101.215 E21.32788
G1 X108.151 Y100.35 E21.355
G1 X102.922 Y100.349 E21.51805
G1 X102.951 Y100 E21.52897
G1 X102.922 Y99.65 E21.53992
G1 X108.151 Y99.647 E21.70297
G1 X108.054 Y98.762 E21.73073
G1 X107.912 Y98.047 E21.75346
G1 X107.707 Y97.35 E21.77612
G1 X107.439 Y96.67 E21.79891
G1 X107.112 Y96.021 E21.82157
G1 X106.728 Y95.401 E21.84431
G1 X106.289 Y94.816 E21.86711
G1 X105.699 Y94.162 E21.89458
G1 X102.134 Y97.854 E22.05461
G1 X102.015 Y97.719 E22.06022
G1 X101.755 Y97.482 E22.07119
G1 X101.617 Y97.381 E22.07652
G1 X105.175 Y93.693 E22.23631
G1 X104.492 Y93.199 E22.26259
G1 X103.909 Y92.848 E22.28381
G1 X103.297 Y92.547 E22.30508
G1 X102.668 Y92.298 E22.32617
G1 X102.014 Y92.102 E22.34746
G1 X101.35 Y91.963 E22.36862
G1 X100.676 Y91.877 E22.3898
G1 X99.85 Y91.844 E22.41558
G1 X99.85 Y96.758 E22.5688
G1 X99.662 Y96.75 E22.57467
G1 X99.311 Y96.773 E22.58564
G1 X99.15 Y96.801 E22.59074
G1 X99.147 Y91.885 E22.74402
G1 X98.336 Y92.021 E22.76966
G1 X97.71 Y92.178 E22.78979
G1 X97.094 Y92.385 E22.81005
G1 X96.496 Y92.64 E22.83032
G1 X95.921 Y92.943 E22.85059
G1 X95.37 Y93.292 E22.87093
G1 X94.852 Y93.681 E22.89113
G1 X94.25 Y94.212 E22.91616
G1 X97.579 Y97.543 E23.063
G1 X97.443 Y97.661 E23.06861
G1 X97.204 Y97.918 E23.07956
G1 X97.102 Y98.055 E23.08488
G1 X93.773 Y94.729 E23.23162
G1 X93.296 Y95.365 E23.2564
G1 X92.955 Y95.9 E23.27619
G1 X92.661 Y96.456 E23.2958
G1 X92.407 Y97.035 E23.31551
G1 X92.2 Y97.632 E23.33522
G1 X92.041 Y98.241 E23.35484
G1 X91.929 Y98.862 E23.37452
G1 X91.849 Y99.65 E23.39922
G1 X96.473 Y99.651 E23.5434
G1 X96.454 Y99.825 E23.54886
G1 X96.454 Y100.176 E23.5598
G1 X96.473 Y100.35 E23.56526
G1 X91.849 Y100.353 E23.70944
G1 X91.932 Y101.156 E23.73461
G1 X92.051 Y101.797 E23.75494
G1 X92.219 Y102.427 E23.77527
G1 X92.438 Y103.04 E23.79557
G1 X92.706 Y103.636 E23.81595
G1 X93.019 Y104.206 E23.83622
G1 X93.376 Y104.749 E23.85649
G1 X93.879 Y105.394 E23.88199
G1 X97.15 Y102.008 E24.02879
G1 X97.256 Y102.143 E24.03414
G1 X97.501 Y102.394 E24.04508
G1 X97.64 Y102.508 E24.05068
G1 X94.367 Y105.901 E24.19768
G1 X94.962 Y106.406 E24.22202
G1 X95.472 Y106.776 E24.24167
G1 X96.008 Y107.106 E24.26129
G1 X96.569 Y107.392 E24.28093
G1 X97.151 Y107.636 E24.3006
G1 X97.749 Y107.832 E24.32023
G1 X98.36 Y107.983 E24.33985
G1 X99.15 Y108.114 E24.36482
G1 X99.151 Y103.198 E24.51811
G1 X99.313 Y103.226 E24.52324
G1 X99.663 Y103.249 E24.53417
G1 X99.85 Y103.241 E24.54001
G1 X99.853 Y108.157 E24.6933
G0 F7800 X99.553 Y108.47
; TYPE:WALL-INNER
G1 F720 X100.72 Y108.419 E24.72972
G1 X101.437 Y108.326 E24.75226
G1 X102.138 Y108.175 E24.77462
G1 X102.827 Y107.962 E24.79711
G1 X103.495 Y107.693 E24.81957
G1 X104.137 Y107.368 E24.842
G1 X104.75 Y106.988 E24.86449
G1 X105.73 Y106.258 E24.9026
G1 X102.089 Y102.618 E25.06313
G1 X102.163 Y102.549 E25.06629
G1 X105.802 Y106.188 E25.22676
G1 X106.594 Y105.285 E25.26421
G1 X107.03 Y104.688 E25.28726
G1 X107.413 Y104.055 E25.31033
G1 X107.741 Y103.388 E25.33351
G1 X108.007 Y102.7 E25.35651
G1 X108.213 Y101.986 E25.37968
G1 X108.355 Y101.26 E25.40274
G1 X108.485 Y100.05 E25.44069
G1 X103.248 Y100.049 E25.60399
G1 X103.248 Y99.95 E25.60707
G1 X108.486 Y99.947 E25.7704
G1 X108.351 Y98.716 E25.80902
G1 X108.203 Y97.975 E25.83258
G1 X107.991 Y97.253 E25.85604
G1 X107.713 Y96.547 E25.8797
G1 X107.374 Y95.874 E25.9032
G1 X106.976 Y95.232 E25.92675
G1 X106.521 Y94.625 E25.95041
G1 X105.706 Y93.723 E25.98831
G1 X102.134 Y97.421 E26.14863
G1 X102.06 Y97.354 E26.15174
G1 X105.631 Y93.652 E26.31213
G1 X104.657 Y92.948 E26.3496
G1 X104.053 Y92.585 E26.37157
G1 X103.418 Y92.272 E26.39365
G1 X102.766 Y92.014 E26.41551
G1 X102.088 Y91.811 E26.43758
G1 X101.4 Y91.667 E26.4595
G1 X100.701 Y91.578 E26.48147
G1 X99.55 Y91.531 E26.51739
G1 X99.55 Y96.456 E26.67096
G1 X99.45 Y96.463 E26.67408
G1 X99.447 Y91.53 E26.8279
G1 X98.275 Y91.727 E26.86496
G1 X97.626 Y91.89 E26.88582
G1 X96.987 Y92.104 E26.90684
G1 X96.367 Y92.369 E26.92786
G1 X95.77 Y92.683 E26.94889
G1 X95.199 Y93.045 E26.96997
G1 X94.663 Y93.448 E26.99089
G1 X93.812 Y94.198 E27.02625
G1 X97.149 Y97.537 E27.17345
G1 X97.08 Y97.61 E27.17658
G1 X93.74 Y94.272 E27.32382
G1 X93.049 Y95.194 E27.35975
G1 X92.696 Y95.749 E27.38026
G1 X92.39 Y96.325 E27.4006
G1 X92.128 Y96.926 E27.42104
G1 X91.913 Y97.545 E27.44147
G1 X91.748 Y98.176 E27.46181
G1 X91.632 Y98.82 E27.48221
G1 X91.517 Y99.95 E27.51763
G1 X96.154 Y99.951 E27.66222
G1 X96.154 Y100.05 E27.66531
G1 X91.516 Y100.053 E27.80993
G1 X91.635 Y101.199 E27.84585
G1 X91.758 Y101.863 E27.86691
G1 X91.932 Y102.516 E27.88798
G1 X92.159 Y103.152 E27.90904
G1 X92.437 Y103.77 E27.93017
G1 X92.762 Y104.361 E27.9512
G1 X93.132 Y104.924 E27.9722
G1 X93.855 Y105.851 E28.00886
G1 X97.139 Y102.452 E28.15623
G1 X97.209 Y102.524 E28.15937
G1 X93.929 Y105.923 E28.30665
G1 X94.777 Y106.642 E28.34132
G1 X95.305 Y107.025 E28.36166
G1 X95.861 Y107.368 E28.38203
G1 X96.442 Y107.665 E28.40237
G1 X97.046 Y107.917 E28.42278
G1 X97.666 Y108.121 E28.44313
G1 X98.299 Y108.277 E28.46346
G1 X99.45 Y108.468 E28.49984
G1 X99.451 Y103.536 E28.65363
G1 X99.55 Y103.543 E28.65672
G1 X99.553 Y108.47 E28.81035
G0 F7800 X99.469 Y108.774
G1 F720 X99.75 Y108.821 E28.81924
G1 X99.75 Y108.762 E28.82108
G1 X100.746 Y108.718 E28.85216
G1 X101.488 Y108.622 E28.87549
G1 X102.214 Y108.465 E28.89865
G1 X102.927 Y108.245 E28.92192
G1 X103.619 Y107.967 E28.94517
G1 X104.284 Y107.63 E28.96842
G1 X104.919 Y107.237 E28.99171
G1 X105.782 Y106.593 E29.02528
G1 X105.816 Y106.627 E29.02678
G1 X105.964 Y106.458 E29.03379
G1 X106.188 Y106.291 E29.0425
G1 X106.147 Y106.25 E29.04431
G1 X106.828 Y105.472 E29.07655
G1 X107.28 Y104.854 E29.10042
G1 X107.677 Y104.199 E29.1243
G1 X108.016 Y103.508 E29.1483
G1 X108.291 Y102.796 E29.1721
G1 X108.505 Y102.057 E29.19609
G1 X108.652 Y101.305 E29.21998
G1 X108.765 Y100.247 E29.25316
G1 X108.821 Y100.247 E29.25491
G1 X108.793 Y99.988 E29.26303
G1 X108.818 Y99.75 E29.27049
G1 X108.766 Y99.75 E29.27211
G1 X108.648 Y98.671 E29.30596
G1 X108.495 Y97.904 E29.33035
G1 X108.275 Y97.155 E29.35469
G1 X107.987 Y96.424 E29.37919
G1 X107.636 Y95.727 E29.40352
G1 X107.224 Y95.063 E29.42789
G1 X106.753 Y94.434 E29.45239
G1 X106.047 Y93.653 E29.48522
G1 X106.087 Y93.612 E29.487
G1 X105.866 Y93.452 E29.49551
G1 X105.713 Y93.283 E29.50262
G1 X105.68 Y93.317 E29.5041
G1 X104.823 Y92.698 E29.53706
G1 X104.197 Y92.321 E29.55985
G1 X103.54 Y91.998 E29.58267
G1 X102.865 Y91.731 E29.60531
G1 X102.162 Y91.52 E29.6282
G1 X101.45 Y91.371 E29.65088
G1 X100.726 Y91.279 E29.67363
G1 X99.746 Y91.239 E29.70422
G1 X99.746 Y91.175 E29.70621
G1 X99.439 Y91.227 E29.71592
G1 X99.25 Y91.219 E29.72182
G1 X99.25 Y91.258 E29.72304
G1 X98.213 Y91.433 E29.75583
G1 X97.541 Y91.602 E29.77744
G1 X96.88 Y91.824 E29.79918
G1 X96.238 Y92.098 E29.82094
G1 X95.62 Y92.423 E29.84272
G1 X95.029 Y92.798 E29.86454
G1 X94.473 Y93.215 E29.88621
G1 X93.747 Y93.855 E29.91639
G1 X93.708 Y93.816 E29.91811
G1 X93.543 Y94.036 E29.92668
G1 X93.374 Y94.185 E29.93371
G1 X93.407 Y94.218 E29.93516
G1 X92.802 Y95.023 E29.96656
G1 X92.436 Y95.598 E29.98782
G1 X92.12 Y96.195 E30.00888
G1 X91.848 Y96.816 E30.03002
G1 X91.626 Y97.458 E30.0512
G1 X91.455 Y98.111 E30.07225
G1 X91.335 Y98.778 E30.09338
G1 X91.236 Y99.754 E30.12397
G1 X91.183 Y99.754 E30.12562
G1 X91.21 Y100.009 E30.13362
G1 X91.185 Y100.25 E30.14117
G1 X91.235 Y100.25 E30.14273
G1 X91.338 Y101.242 E30.17383
G1 X91.465 Y101.929 E30.19562
G1 X91.645 Y102.605 E30.21743
G1 X91.881 Y103.264 E30.23925
G1 X92.168 Y103.904 E30.26113
G1 X92.505 Y104.516 E30.28291
G1 X92.888 Y105.099 E30.30466
G1 X93.522 Y105.912 E30.33681
G1 X93.491 Y105.945 E30.33822
G1 X93.659 Y106.088 E30.3451
G1 X93.831 Y106.308 E30.35381
G1 X93.871 Y106.267 E30.35559
G1 X94.591 Y106.878 E30.38504
G1 X95.138 Y107.275 E30.40611
G1 X95.714 Y107.629 E30.42719
G1 X96.316 Y107.937 E30.44828
G1 X96.941 Y108.198 E30.4694
G1 X97.583 Y108.409 E30.49047
G1 X98.239 Y108.571 E30.51154
G1 X99.253 Y108.739 E30.54359
G1 X99.253 Y108.784 E30.54499
G1 X99.469 Y108.774 E30.55173
G0 F7800 X99.501 Y108.635
; TYPE:FILL
G1 F720 X99.537 Y108.633 E30.55219
G0 F7800 X99.9 Y109.002
G1 F720 X100.759 Y108.983 E30.5696
G0 F7800 X99.892 Y109.047
G1 F720 X99.46 Y109.012 E30.57677
G1 X99.105 Y109.02 E30.58263
G0 F7800 X96.791 Y107.715
G0 X97.029 Y107.963
G0 X96.422 Y107.709
G0 X95.838 Y107.411
G0 X95.277 Y107.067
G0 X94.747 Y106.681
G0 X95.074 Y106.746
G0 X93.803 Y106.03
G0 X93.803 Y106.03
G1 F720 X93.776 Y106.007 E30.58308
G0 F7800 X92.122 Y103.137
G0 X91.923 Y102.79
G0 X91.045 Y101.264
G0 X91.045 Y101.264
G1 F720 X90.999 Y100.4 E30.60098
G0 F7800 X90.959 Y100.395
G1 F720 X90.979 Y100.007 E30.60566
G1 X90.958 Y99.607 E30.61049
G0 F7800 X90.999 Y99.604
G1 F720 X91.043 Y98.757 E30.62803
G0 F7800 X91.35 Y100.002
G1 F720 X91.356 Y100.054 E30.62852
G0 F7800 X91.694 Y99.174
G0 X91.583 Y98.814
G0 X91.7 Y98.165
G0 X91.866 Y97.532
G0 X92.081 Y96.909
G0 X92.346 Y96.305
G0 X92.653 Y95.724
G0 X93.297 Y95.007
G0 X93.622 Y94.166
G0 X93.622 Y94.166
G1 F720 X93.658 Y94.119 E30.63036
G1 X93.687 Y94.093 E30.63084
G0 F7800 X94.859 Y93.418
G0 X94.631 Y93.409
G0 X95.171 Y93.005
G0 X95.746 Y92.64
G0 X96.814 Y92.295
G0 X99.101 Y90.982
G0 X99.101 Y90.982
G1 F720 X99.43 Y90.988 E30.63429
G1 X99.888 Y90.95 E30.63911
G0 F7800 X99.896 Y90.997
G1 F720 X100.738 Y91.014 E30.65618
G0 F7800 X99.525 Y91.377
G1 F720 X99.498 Y91.379 E30.65699
G1 X99.499 Y91.376 E30.65706
G0 F7800 X100.304 Y91.654
G0 X100.704 Y91.529
G0 X101.408 Y91.618
G0 X102.1 Y91.764
G0 X102.782 Y91.967
G0 X103.438 Y92.227
G0 X104.076 Y92.541
G0 X104.988 Y93.274
G0 X105.738 Y93.534
G0 X105.738 Y93.534
G1 F720 X105.784 Y93.567 E30.65879
G1 X105.811 Y93.597 E30.65926
G0 F7800 X106.334 Y94.571
G0 X106.559 Y94.593
G0 X107.017 Y95.205
G0 X107.417 Y95.85
G0 X107.758 Y96.527
G0 X108.066 Y97.792
G0 X109.042 Y99.604
G0 X109.042 Y99.604
G1 F720 X109.021 Y99.99 E30.66376
G1 X109.044 Y100.392 E30.66845
G0 F7800 X109 Y100.396
G1 F720 X108.95 Y101.328 E30.68785
G0 F7800 X108.652 Y99.997
G1 F720 X108.645 Y99.945 E30.68834
G0 F7800 X108.325 Y100.686
G0 X108.404 Y101.267
G0 X108.261 Y101.997
G0 X108.054 Y102.715
G0 X107.786 Y103.407
G0 X107.456 Y104.078
G0 X107.071 Y104.715
G0 X106.188 Y105.658
G0 X105.909 Y106.311
G0 X105.909 Y106.311
G1 F720 X105.884 Y106.34 E30.68879
G0 F7800 X106.174 Y106.599
; TYPE:BOTTOM-FILL
G1 F720 X108.585 Y109.009 E30.79509
G0 F7800 X109.009 Y109.009
G1 F720 X106.418 Y106.418 E30.90935
G0 F7800 X106.563 Y106.138
G1 F720 X109.009 Y108.585 E31.01723
G0 F7800 X109.009 Y108.161
G1 F720 X106.761 Y105.912 E31.11638
G0 F7800 X106.959 Y105.686
G1 F720 X109.009 Y107.736 E31.20678
G0 F7800 X109.009 Y107.312
G1 F720 X107.143 Y105.446 E31.28907
G0 F7800 X107.323 Y105.201
G1 F720 X109.009 Y106.888 E31.36344
G0 F7800 X109.009 Y106.464
G1 F720 X107.5 Y104.954 E31.43
G0 F7800 X107.659 Y104.689
G1 F720 X109.009 Y106.039 E31.48953
G0 F7800 X109.009 Y105.615
G1 F720 X107.819 Y104.425 E31.54201
G0 F7800 X107.967 Y104.149
G1 F720 X109.009 Y105.191 E31.58796
G0 F7800 X109.009 Y104.767
G1 F720 X108.107 Y103.864 E31.62775
G0 F7800 X108.245 Y103.578
G1 F720 X109.009 Y104.342 E31.66145
G0 F7800 X109.009 Y103.918
G1 F720 X108.363 Y103.272 E31.68993
G0 F7800 X108.482 Y102.966
G1 F720 X109.009 Y103.494 E31.71319
G0 F7800 X109.009 Y103.07
G1 F720 X108.584 Y102.644 E31.73196
G0 F7800 X108.679 Y102.315
G1 F720 X109.009 Y102.433 E31.74649
G1 X108.886 Y101.886 E31.75727
G1 X108.921 Y101.496 E31.765
G1 X108.915 Y101.278 E31.7718
G0 F7800 X108.914 Y98.732
G0 X108.914 Y98.732
G1 F720 X108.95 Y98.555 E31.77276
G1 X108.902 Y98.083 E31.78208
G1 X108.666 Y97.635 E31.79787
G0 F7800 X109.008 Y97.553
G1 F720 X108.481 Y97.026 E31.82111
G0 F7800 X109.008 Y97.129
G1 F720 X108.205 Y96.325 E31.85654
G0 F7800 X109.008 Y96.281
G1 F720 X106.382 Y93.654 E31.97236
G0 F7800 X105.689 Y92.961
G1 F720 X103.718 Y90.99 E32.05928
G0 F7800 X103.294 Y90.99
G1 F720 X104.566 Y92.263 E32.11539
G0 F7800 X103.678 Y91.798
G1 F720 X102.869 Y90.99 E32.15104
G0 F7800 X102.445 Y90.99
G1 F720 X102.97 Y91.515 E32.1742
G0 F7800 X102.36 Y91.329
G1 F720 X101.914 Y91.095 E32.18911
G1 X101.443 Y91.049 E32.19836
G1 X101.242 Y91.059 E32.20464
G0 F7800 X98.737 Y91.1
G0 X98.737 Y91.1
G1 F720 X98.5 Y91.075 E32.20949
G1 X98.111 Y91.111 E32.21704
G1 X97.73 Y91.153 E32.22776
G1 X97.352 Y91.2 E32.24229
G1 X96.929 Y90.989 E32.25703
G0 F7800 X96.505 Y90.989
G1 F720 X97.034 Y91.518 E32.28036
G0 F7800 X96.721 Y91.63
G1 F720 X96.08 Y90.989 E32.30862
G0 F7800 X95.656 Y90.989
G1 F720 X96.423 Y91.757 E32.34247
G0 F7800 X96.126 Y91.884
G1 F720 X95.232 Y90.989 E32.38191
G0 F7800 X94.808 Y90.989
G1 F720 X95.849 Y92.03 E32.42782
G0 F7800 X95.571 Y92.177
G1 F720 X94.383 Y90.989 E32.48021
G0 F7800 X93.959 Y90.989
G1 F720 X95.307 Y92.337 E32.53965
G0 F7800 X95.047 Y92.501
G1 F720 X93.535 Y90.989 E32.60632
G0 F7800 X93.111 Y90.989
G1 F720 X94.794 Y92.672 E32.68054
G0 F7800 X94.552 Y92.855
G1 F720 X92.686 Y90.989 E32.76283
G0 F7800 X92.262 Y90.989
G1 F720 X94.311 Y93.038 E32.85318
G0 F7800 X94.085 Y93.236
G1 F720 X91.838 Y90.989 E32.95227
G0 F7800 X91.414 Y90.989
G1 F720 X93.859 Y93.435 E33.06011
G0 F7800 X93.582 Y93.582
G1 F720 X90.989 Y90.989 E33.17445
G0 F7800 X90.989 Y91.414
G1 F720 X93.401 Y93.825 E33.28079
G0 F7800 X93.183 Y94.032
G1 F720 X90.989 Y91.838 E33.37754
G0 F7800 X90.989 Y92.262
G1 F720 X93.036 Y94.309 E33.46781
G0 F7800 X92.855 Y94.552
G1 F720 X90.989 Y92.686 E33.55009
G0 F7800 X90.989 Y93.111
G1 F720 X92.673 Y94.794 E33.62433
G0 F7800 X92.501 Y95.047
G1 F720 X90.989 Y93.535 E33.691
G0 F7800 X90.989 Y93.959
G1 F720 X92.336 Y95.306 E33.7504
G0 F7800 X92.177 Y95.571
G1 F720 X90.989 Y94.383 E33.80279
G0 F7800 X90.989 Y94.808
G1 F720 X92.03 Y95.849 E33.8487
G0 F7800 X91.886 Y96.129
G1 F720 X90.99 Y95.233 E33.88821
G0 F7800 X90.99 Y95.657
G1 F720 X91.757 Y96.423 E33.92201
G0 F7800 X91.627 Y96.718
G1 F720 X90.99 Y96.081 E33.9501
G0 F7800 X90.99 Y96.505
G1 F720 X91.518 Y97.034 E33.9734
G0 F7800 X91.409 Y97.349
G1 F720 X90.99 Y96.93 E33.99188
G0 F7800 X90.99 Y97.354
G1 F720 X91.154 Y97.73 E34.00629
G1 X91.11 Y98.11 E34.01687
G1 X91.076 Y98.501 E34.02445
G1 X91.096 Y98.733 E34.03171
G0 F7800 X91.087 Y101.269
G0 X91.087 Y101.269
G1 F720 X91.045 Y101.439 E34.0323
G1 X91.093 Y101.912 E34.04144
G1 X91.332 Y102.362 E34.05733
G0 F7800 X90.989 Y102.444
G1 F720 X91.522 Y102.978 E34.08085
G0 F7800 X90.989 Y102.869
G1 F720 X91.808 Y103.688 E34.11697
G0 F7800 X90.989 Y103.717
G1 F720 X93.188 Y105.916 E34.21394
G0 F7800 X93.876 Y106.604
G1 F720 X96.281 Y109.008 E34.31997
G0 F7800 X96.705 Y109.008
G1 F720 X95.436 Y107.739 E34.37593
G0 F7800 X96.317 Y108.197
G1 F720 X97.129 Y109.008 E34.41171
G0 F7800 X97.553 Y109.008
G1 F720 X97.021 Y108.476 E34.43517
G0 F7800 X97.639 Y108.67
G1 F720 X98.089 Y108.907 E34.45008
G1 X98.555 Y108.949 E34.45893
G1 X98.752 Y108.934 E34.46509
G0 F7800 X101.256 Y108.893
G0 X101.256 Y108.893
G1 F720 X101.497 Y108.922 E34.47019
G1 X101.884 Y108.884 E34.47775
G1 X102.269 Y108.845 E34.48869
G1 X102.645 Y109.008 E34.50146
G0 F7800 X103.069 Y109.008
G1 F720 X102.642 Y108.582 E34.52027
G0 F7800 X102.966 Y108.482
G1 F720 X103.493 Y109.008 E34.54349
G0 F7800 X103.917 Y109.008
G1 F720 X103.272 Y108.364 E34.57191
G0 F7800 X103.575 Y108.242
G1 F720 X104.342 Y109.008 E34.60571
G0 F7800 X104.766 Y109.008
G1 F720 X103.866 Y108.109 E34.64538
G0 F7800 X104.148 Y107.966
G1 F720 X105.191 Y109.009 E34.69137
G0 F7800 X105.615 Y109.009
G1 F720 X104.428 Y107.822 E34.74371
G0 F7800 X104.689 Y107.659
G1 F720 X106.039 Y109.009 E34.80324
G0 F7800 X106.464 Y109.009
G1 F720 X104.952 Y107.497 E34.86992
G0 F7800 X105.202 Y107.323
G1 F720 X106.888 Y109.009 E34.94427
G0 F7800 X107.312 Y109.009
G1 F720 X105.445 Y107.142 E35.02659
G0 F7800 X105.687 Y106.96
G1 F720 X107.736 Y109.009 E35.11695
G0 F7800 X108.161 Y109.009
G1 F720 X105.968 Y106.816 E35.21365
G0 F7800 X104.281 Y107.18
G0 X104.161 Y107.411
G0 X103.515 Y107.738
G0 X102.842 Y108.009
G0 X102.15 Y108.223
G0 X101.445 Y108.375
G0 X100.724 Y108.468
G0 X99.565 Y108.458
G0 X99.563 Y103.542
G0 X99.66 Y103.599
G0 X99.437 Y103.521
G0 X99.103 Y108.302
G0 X95.856 Y109.008
G0 X95.856 Y109.008
G1 F720 X90.989 Y104.141 E35.42828
G0 F7800 X90.989 Y104.566
G1 F720 X95.432 Y109.008 E35.62418
G0 F7800 X95.008 Y109.008
G1 F720 X90.989 Y104.99 E35.80138
G0 F7800 X90.989 Y105.414
G1 F720 X94.584 Y109.009 E35.95991
G0 F7800 X94.16 Y109.009
G1 F720 X90.989 Y105.839 E36.09972
G0 F7800 X90.989 Y106.263
G1 F720 X93.736 Y109.009 E36.22083
G0 F7800 X93.311 Y109.009
G1 F720 X90.989 Y106.687 E36.32323
G0 F7800 X90.989 Y107.111
G1 F720 X92.887 Y109.009 E36.40692
G0 F7800 X92.463 Y109.009
G1 F720 X90.989 Y107.536 E36.4719
G0 F7800 X90.989 Y107.96
G1 F720 X92.039 Y109.009 E36.51818
G0 F7800 X91.614 Y109.009
G1 F720 X90.989 Y108.384 E36.54574
G0 F7800 X90.989 Y108.808
G1 F720 X91.19 Y109.009 E36.5546
G0 F7800 X92.255 Y104.559
G0 X92.255 Y104.559
G1 F720 X90.989 Y103.293 E36.61043
G1 F1800 E35.61043
G0 F7800 X91.887 Y102.451
G0 X91.709 Y101.873
G0 X91.587 Y101.206
G0 X91.534 Y100.07
G0 X96.156 Y100.069
G0 X96.105 Y100.196
G0 X96.105 Y99.805
G0 X96.156 Y99.932
G0 X91.535 Y99.934
G0 X91.583 Y98.814
G0 X91.7 Y98.165
G0 X91.866 Y97.532
G0 X92.081 Y96.909
G0 X92.346 Y96.305
G0 X92.653 Y95.724
G0 X93.008 Y95.166
G0 X93.743 Y94.301
G0 X97.042 Y97.631
G0 X96.928 Y97.702
G0 X97.2 Y97.409
G0 X97.16 Y97.525
G0 X93.831 Y94.199
G0 X94.631 Y93.409
G0 X95.171 Y93.005
G0 X95.746 Y92.64
G0 X96.347 Y92.325
G0 X96.969 Y92.058
G0 X97.612 Y91.843
G0 X98.266 Y91.679
G0 X99.426 Y91.555
G0 X99.436 Y96.478
G0 X99.659 Y96.4
G0 X99.563 Y96.457
G0 X99.562 Y91.544
G0 X100.704 Y91.529
G0 X101.408 Y91.618
G0 X102.1 Y91.764
G0 X102.782 Y91.967
G0 X102.987 Y92.068
G0 X104.142 Y90.99
G0 X104.142 Y90.99
G1 F1800 E36.61043
G1 F720 X109.008 Y95.856 E36.82501
G0 F7800 X109.008 Y95.432
G1 F720 X104.566 Y90.99 E37.02089
G0 F7800 X104.991 Y90.99
G1 F720 X109.008 Y95.008 E37.19805
G0 F7800 X109.009 Y94.584
G1 F720 X105.414 Y90.989 E37.35658
G0 F7800 X105.839 Y90.989
G1 F720 X109.009 Y94.16 E37.49639
G0 F7800 X109.009 Y93.736
G1 F720 X106.263 Y90.989 E37.6175
G0 F7800 X106.687 Y90.989
G1 F720 X109.009 Y93.311 E37.71989
G0 F7800 X109.009 Y92.887
G1 F720 X107.111 Y90.989 E37.80359
G0 F7800 X107.536 Y90.989
G1 F720 X109.009 Y92.463 E37.86857
G0 F7800 X109.009 Y92.039
G1 F720 X107.96 Y90.989 E37.91485
G0 F7800 X108.384 Y90.989
G1 F720 X109.009 Y91.614 E37.94241
G0 F7800 X109.009 Y91.19
G1 F720 X108.808 Y90.989 E37.95127
G0 F7800 X107.731 Y95.428
G0 X107.731 Y95.428
G1 F720 X109.008 Y96.705 E38.00758
; Layer Change GCode
; LAYER:1
G4 P0
M106 S89
G1 F1800 E37.00758
G0 F7800 X108.062 Y97.357 Z0.45
G0 X108.251 Y97.959
G0 X108.399 Y98.704
G0 X108.467 Y99.924
G0 X103.232 Y99.934
G0 X103.301 Y100
G0 X103.232 Y100.063
G0 X108.466 Y100.067
G0 X108.405 Y101.262
G0 X108.258 Y102.009
G0 X108.053 Y102.715
G0 X107.781 Y103.418
G0 X107.456 Y104.078
G0 X107.071 Y104.715
G0 X106.632 Y105.316
G0 X105.8 Y106.169
G0 X102.172 Y102.539
G0 X102.29 Y102.499
G0 X101.997 Y102.771
G0 X102.068 Y102.657
G0 X105.7 Y106.255
G0 X104.778 Y107.029
G0 X104.161 Y107.411
G0 X103.515 Y107.738
G0 X102.842 Y108.009
G0 X102.15 Y108.223
G0 X101.434 Y108.377
G0 X100.724 Y108.468
G0 X99.571 Y108.458
G0 X99.562 Y103.541
G0 X99.661 Y103.599
G0 X99.44 Y103.521
G0 X99.429 Y108.443
G0 X98.289 Y108.325
G0 X97.652 Y108.169
G0 X97.029 Y107.963
G0 X96.422 Y107.709
G0 X95.838 Y107.411
G0 X95.277 Y107.067
G0 X94.656 Y106.602
G0 X90.463 Y109.494
G0 X90.134 Y109.721
G0 X90.31 Y109.6
G0 X90.31 Y109.6
G0 X90.15 Y109.85
G0 X90.15 Y109.85
G0 X90.75 Y109.25
; TYPE:WALL-INNER
G1 F1800 E38.00758
G1 F1584 X90.75 Y90.75 E38.46907
G1 X109.25 Y90.75 E38.93055
G1 X109.25 Y109.25 E39.39204
G1 X90.75 Y109.25 E39.85352
G0 F7800 X90.45 Y109.55
G1 F1584 X90.45 Y90.45 E40.32997
G1 X109.55 Y90.45 E40.80642
G1 X109.55 Y109.55 E41.28287
G1 X90.45 Y109.55 E41.75933
G0 F7800 X90.15 Y109.85
; TYPE:WALL-OUTER
G1 F1108.8 X90.15 Y90.15 E42.25074
G1 X109.85 Y90.15 E42.74216
G1 X109.85 Y109.85 E43.23358
G1 X90.15 Y109.85 E43.725
G0 F7800 X90.31 Y109.6
G0 X93.115 Y106.975
G0 X93.407 Y106.701
G0 X93.83 Y106.308
G0 X93.83 Y106.308
; TYPE:WALL-INNER
G1 F1584 X93.87 Y106.267 E43.72643
G1 X94.592 Y106.878 E43.75002
G1 X95.138 Y107.275 E43.76686
G1 X95.714 Y107.629 E43.78373
G1 X96.316 Y107.937 E43.8006
G1 X96.941 Y108.198 E43.81749
G1 X97.583 Y108.409 E43.83435
G1 X98.239 Y108.571 E43.8512
G1 X99.259 Y108.74 E43.877
G1 X99.259 Y108.784 E43.87809
G1 X99.469 Y108.775 E43.88334
G1 X99.749 Y108.821 E43.89041
G1 X99.749 Y108.762 E43.89189
G1 X100.746 Y108.718 E43.91678
G1 X101.477 Y108.624 E43.93517
G1 X102.214 Y108.465 E43.95397
G1 X102.927 Y108.245 E43.97259
G1 X103.619 Y107.967 E43.99119
G1 X104.284 Y107.63 E44.00979
G1 X104.919 Y107.237 E44.02841
G1 X105.782 Y106.593 E44.05528
G1 X105.816 Y106.627 E44.05647
G1 X105.964 Y106.458 E44.06208
G1 X106.188 Y106.291 E44.06905
G1 X106.147 Y106.25 E44.07049
G1 X106.828 Y105.472 E44.09629
G1 X107.28 Y104.854 E44.11539
G1 X107.677 Y104.199 E44.13449
G1 X108.01 Y103.519 E44.15338
G1 X108.291 Y102.796 E44.17273
G1 X108.502 Y102.068 E44.19164
G1 X108.653 Y101.301 E44.21114
G1 X108.766 Y100.241 E44.23773
G1 X108.82 Y100.241 E44.23908
G1 X108.792 Y99.99 E44.24538
G1 X108.818 Y99.75 E44.2514
G1 X108.766 Y99.75 E44.25269
G1 X108.647 Y98.666 E44.2799
G1 X108.494 Y97.898 E44.29943
G1 X108.275 Y97.155 E44.31875
G1 X107.991 Y96.436 E44.33804
G1 X107.636 Y95.728 E44.35779
G1 X107.224 Y95.063 E44.37731
G1 X106.76 Y94.443 E44.39663
G1 X106.043 Y93.648 E44.42333
G1 X106.082 Y93.608 E44.42473
G1 X105.867 Y93.452 E44.43135
G1 X105.714 Y93.283 E44.43704
G1 X105.68 Y93.318 E44.43826
G1 X104.823 Y92.698 E44.46464
G1 X104.197 Y92.321 E44.48287
G1 X103.551 Y92.002 E44.50084
G1 X102.865 Y91.731 E44.51924
G1 X102.172 Y91.524 E44.53728
G1 X101.444 Y91.37 E44.55585
G1 X100.72 Y91.279 E44.57405
G1 X99.742 Y91.239 E44.59846
G1 X99.742 Y91.176 E44.60004
G1 X99.44 Y91.227 E44.60768
G1 X99.25 Y91.219 E44.61242
G1 X99.25 Y91.259 E44.61342
G1 X98.209 Y91.434 E44.63975
G1 X97.541 Y91.602 E44.65693
G1 X96.88 Y91.824 E44.67433
G1 X96.238 Y92.098 E44.69174
G1 X95.621 Y92.423 E44.70913
G1 X95.037 Y92.792 E44.72637
G1 X94.473 Y93.215 E44.74395
G1 X93.744 Y93.859 E44.76822
G1 X93.706 Y93.821 E44.76956
G1 X93.547 Y94.032 E44.77615
G1 X93.375 Y94.184 E44.78187
G1 X93.408 Y94.217 E44.78304
G1 X92.802 Y95.023 E44.80819
G1 X92.441 Y95.589 E44.82494
G1 X92.12 Y96.194 E44.84202
G1 X91.852 Y96.807 E44.85871
G1 X91.625 Y97.463 E44.87603
G1 X91.455 Y98.111 E44.89274
G1 X91.335 Y98.778 E44.90965
G1 X91.235 Y99.758 E44.93422
G1 X91.184 Y99.758 E44.93549
G1 X91.21 Y100.007 E44.94174
G1 X91.185 Y100.25 E44.94783
G1 X91.235 Y100.25 E44.94908
G1 X91.338 Y101.242 E44.97396
G1 X91.465 Y101.929 E44.99138
G1 X91.645 Y102.605 E45.00883
G1 X91.881 Y103.264 E45.02629
G1 X92.164 Y103.895 E45.04355
G1 X92.508 Y104.52 E45.06134
G1 X92.888 Y105.099 E45.07862
G1 X93.525 Y105.916 E45.10446
G1 X93.494 Y105.948 E45.10557
G1 X93.657 Y106.086 E45.1109
G1 X93.83 Y106.308 E45.11792
G0 F7800 X93.932 Y105.926
G1 F1584 X94.777 Y106.642 E45.14555
G1 X95.305 Y107.025 E45.16182
G1 X95.861 Y107.368 E45.17812
G1 X96.442 Y107.665 E45.19439
G1 X97.046 Y107.917 E45.21072
G1 X97.666 Y108.121 E45.227
G1 X98.299 Y108.277 E45.24326
G1 X99.45 Y108.468 E45.27237
G1 X99.454 Y103.536 E45.3954
G1 X99.551 Y103.542 E45.39782
G1 X99.559 Y108.47 E45.52075
G1 X100.72 Y108.419 E45.54974
G1 X101.426 Y108.328 E45.5675
G1 X102.138 Y108.175 E45.58566
G1 X102.827 Y107.962 E45.60365
G1 X103.495 Y107.693 E45.62162
G1 X104.137 Y107.368 E45.63957
G1 X104.75 Y106.988 E45.65756
G1 X105.73 Y106.258 E45.68804
G1 X102.089 Y102.618 E45.81647
G1 X102.163 Y102.549 E45.81899
G1 X105.802 Y106.188 E45.94737
G1 X106.594 Y105.285 E45.97733
G1 X107.03 Y104.688 E45.99577
G1 X107.413 Y104.055 E46.01423
G1 X107.735 Y103.398 E46.03248
G1 X108.007 Y102.7 E46.05117
G1 X108.21 Y101.997 E46.06942
G1 X108.356 Y101.256 E46.08826
G1 X108.484 Y100.05 E46.11851
G1 X103.248 Y100.048 E46.24912
G1 X103.248 Y99.949 E46.25159
G1 X108.485 Y99.941 E46.38223
G1 X108.35 Y98.711 E46.4131
G1 X108.202 Y97.97 E46.43195
G1 X107.991 Y97.253 E46.45059
G1 X107.717 Y96.558 E46.46923
G1 X107.374 Y95.874 E46.48831
G1 X106.976 Y95.232 E46.50716
G1 X106.528 Y94.634 E46.5258
G1 X105.706 Y93.722 E46.55642
G1 X102.134 Y97.421 E46.68469
G1 X102.06 Y97.354 E46.68718
G1 X105.627 Y93.649 E46.81548
G1 X104.657 Y92.948 E46.84533
G1 X104.053 Y92.585 E46.86291
G1 X103.429 Y92.276 E46.88028
G1 X102.766 Y92.014 E46.89806
G1 X102.098 Y91.815 E46.91545
G1 X101.395 Y91.666 E46.93337
G1 X100.695 Y91.578 E46.95097
G1 X99.55 Y91.531 E46.97956
G1 X99.55 Y96.457 E47.10244
G1 X99.449 Y96.464 E47.10497
G1 X99.442 Y91.531 E47.22802
G1 X98.271 Y91.728 E47.25764
G1 X97.626 Y91.89 E47.27423
G1 X96.987 Y92.104 E47.29104
G1 X96.367 Y92.369 E47.30786
G1 X95.771 Y92.683 E47.32466
G1 X95.207 Y93.039 E47.3413
G1 X94.663 Y93.448 E47.35828
G1 X93.813 Y94.198 E47.38656
G1 X97.147 Y97.538 E47.50428
G1 X97.081 Y97.61 E47.50671
G1 X93.738 Y94.277 E47.62447
G1 X93.049 Y95.194 E47.65308
G1 X92.701 Y95.74 E47.66923
G1 X92.391 Y96.325 E47.68575
G1 X92.132 Y96.917 E47.70187
G1 X91.912 Y97.55 E47.71859
G1 X91.748 Y98.176 E47.73473
G1 X91.632 Y98.82 E47.75105
G1 X91.517 Y99.95 E47.77938
G1 X96.154 Y99.95 E47.89506
G1 X96.154 Y100.051 E47.89757
G1 X91.517 Y100.058 E48.01325
G1 X91.635 Y101.199 E48.04186
G1 X91.758 Y101.863 E48.0587
G1 X91.932 Y102.516 E48.07556
G1 X92.159 Y103.152 E48.09241
G1 X92.433 Y103.761 E48.10907
G1 X92.765 Y104.365 E48.12626
G1 X93.132 Y104.924 E48.14294
G1 X93.855 Y105.851 E48.17227
G1 X97.141 Y102.453 E48.29018
G1 X97.209 Y102.523 E48.29261
G1 X93.932 Y105.926 E48.41046
G0 F7800 X93.897 Y105.911
G0 X93.952 Y105.925
G0 X94.747 Y106.681
G0 X95.277 Y107.067
G0 X95.838 Y107.411
G0 X96.422 Y107.709
G0 X97.029 Y107.963
G0 X97.652 Y108.169
G0 X98.289 Y108.325
G0 X99.429 Y108.443
G0 X99.486 Y108.109
G0 X99.608 Y108.157
G0 X99.608 Y108.157
G0 X99.858 Y108.157
; TYPE:WALL-OUTER
G1 F1108.8 X100.694 Y108.12 E48.43134
G1 X101.375 Y108.032 E48.44847
G1 X102.062 Y107.884 E48.466
G1 X102.726 Y107.679 E48.48333
G1 X103.371 Y107.42 E48.50067
G1 X103.99 Y107.106 E48.51798
G1 X104.581 Y106.74 E48.53533
G1 X105.273 Y106.225 E48.55684
G1 X101.644 Y102.597 E48.68485
G1 X101.781 Y102.495 E48.68911
G1 X102.038 Y102.256 E48.69786
G1 X102.157 Y102.119 E48.70239
G1 X105.787 Y105.749 E48.83045
G1 X106.359 Y105.097 E48.85208
G1 X106.78 Y104.521 E48.86988
G1 X107.15 Y103.911 E48.88768
G1 X107.46 Y103.277 E48.90528
G1 X107.722 Y102.604 E48.9233
G1 X107.918 Y101.926 E48.9409
G1 X108.059 Y101.211 E48.95908
G1 X108.151 Y100.35 E48.98068
G1 X102.922 Y100.348 E49.11112
G1 X102.951 Y100 E49.11983
G1 X102.922 Y99.65 E49.12859
G1 X108.15 Y99.642 E49.25901
G1 X108.053 Y98.757 E49.28121
G1 X107.911 Y98.042 E49.2994
G1 X107.707 Y97.35 E49.31739
G1 X107.443 Y96.681 E49.33534
G1 X107.112 Y96.021 E49.35375
G1 X106.728 Y95.401 E49.37195
G1 X106.296 Y94.825 E49.38991
G1 X105.699 Y94.162 E49.41216
G1 X102.134 Y97.854 E49.54019
G1 X102.015 Y97.719 E49.54468
G1 X101.755 Y97.482 E49.55345
G1 X101.617 Y97.381 E49.55772
G1 X105.171 Y93.69 E49.68553
G1 X104.492 Y93.199 E49.70644
G1 X103.909 Y92.848 E49.72341
G1 X103.307 Y92.551 E49.74016
G1 X102.668 Y92.298 E49.7573
G1 X102.024 Y92.106 E49.77406
G1 X101.345 Y91.962 E49.79138
G1 X100.67 Y91.877 E49.80835
G1 X99.85 Y91.844 E49.82882
G1 X99.85 Y96.758 E49.9514
G1 X99.662 Y96.75 E49.95609
G1 X99.308 Y96.774 E49.96495
G1 X99.15 Y96.801 E49.96894
G1 X99.143 Y91.886 E50.09155
G1 X98.332 Y92.022 E50.11206
G1 X97.71 Y92.178 E50.12806
G1 X97.094 Y92.385 E50.14427
G1 X96.496 Y92.64 E50.16049
G1 X95.921 Y92.943 E50.1767
G1 X95.378 Y93.286 E50.19272
G1 X94.852 Y93.681 E50.20913
G1 X94.25 Y94.212 E50.22915
G1 X97.577 Y97.545 E50.34663
G1 X97.443 Y97.661 E50.35105
G1 X97.204 Y97.918 E50.3598
G1 X97.102 Y98.055 E50.36406
G1 X93.771 Y94.733 E50.48142
G1 X93.296 Y95.365 E50.50114
G1 X92.96 Y95.891 E50.51671
G1 X92.661 Y96.456 E50.53265
G1 X92.411 Y97.026 E50.54818
G1 X92.199 Y97.637 E50.56431
G1 X92.041 Y98.241 E50.57989
G1 X91.929 Y98.862 E50.59563
G1 X91.849 Y99.65 E50.61538
G1 X96.473 Y99.65 E50.73073
G1 X96.454 Y99.828 E50.7352
G1 X96.454 Y100.179 E50.74395
G1 X96.473 Y100.35 E50.74824
G1 X91.85 Y100.357 E50.86356
G1 X91.932 Y101.156 E50.8836
G1 X92.051 Y101.797 E50.89986
G1 X92.219 Y102.427 E50.91613
G1 X92.438 Y103.04 E50.93237
G1 X92.702 Y103.627 E50.94842
G1 X93.022 Y104.21 E50.96501
G1 X93.376 Y104.749 E50.9811
G1 X93.879 Y105.394 E51.0015
G1 X97.151 Y102.01 E51.11892
G1 X97.258 Y102.145 E51.12322
G1 X97.504 Y102.395 E51.13197
G1 X97.641 Y102.508 E51.1364
G1 X94.37 Y105.904 E51.25402
G1 X94.962 Y106.406 E51.27338
G1 X95.472 Y106.776 E51.2891
G1 X96.008 Y107.106 E51.3048
G1 X96.569 Y107.392 E51.32051
G1 X97.151 Y107.636 E51.33625
G1 X97.749 Y107.832 E51.35195
G1 X98.36 Y107.983 E51.36765
G1 X99.15 Y108.114 E51.38762
G1 X99.154 Y103.198 E51.51025
G1 X99.316 Y103.226 E51.51435
G1 X99.666 Y103.249 E51.5231
G1 X99.85 Y103.241 E51.5277
G1 X99.858 Y108.157 E51.65033
G0 F7800 X99.537 Y108.633
; TYPE:FILL
G1 F3168 X99.504 Y108.635 E51.65065
G0 F7800 X99.899 Y109.003
G1 F3168 X100.759 Y108.983 E51.66453
G0 F7800 X101.425 Y109.008
G1 F3168 X101.72 Y108.926 E51.67031
G1 X102.13 Y108.728 E51.68167
G0 F7800 X102.274 Y109.008
G1 F3168 X102.726 Y108.557 E51.6976
G0 F7800 X102.698 Y109.008
G1 F3168 X103.391 Y108.316 E51.72203
G0 F7800 X103.547 Y109.008
G1 F3168 X105.32 Y107.236 E51.78455
G0 F7800 X105.884 Y106.34
G1 F3168 X105.909 Y106.311 E51.78492
G0 F7800 X107.237 Y105.318
G0 X107.237 Y105.318
G1 F3168 X109.008 Y103.547 E51.8474
G0 F7800 X109.008 Y103.123
G1 F3168 X107.953 Y104.178 E51.88462
G0 F7800 X108.316 Y103.391
G1 F3168 X109.008 Y102.698 E51.90905
G0 F7800 X109.008 Y102.274
G1 F3168 X108.559 Y102.723 E51.92489
G0 F7800 X108.734 Y102.124
G1 F3168 X108.923 Y101.723 E51.93454
G1 X109.008 Y101.425 E51.94227
G0 F7800 X108.951 Y101.323
G1 F3168 X109 Y100.39 E51.95773
G0 F7800 X109.043 Y100.386
G1 F3168 X109.021 Y99.992 E51.96144
G1 X109.042 Y99.604 E51.96519
G0 F7800 X108.645 Y99.947
G1 F3168 X108.651 Y99.994 E51.96554
G0 F7800 X108.876 Y98.589
G1 F3168 X108.904 Y98.348 E51.97004
G1 X108.869 Y97.958 E51.97704
G1 X108.822 Y97.581 E51.98655
G1 X109.004 Y97.187 E51.99738
G0 F7800 X109.004 Y96.763
G1 F3168 X108.544 Y97.223 E52.0136
G0 F7800 X108.435 Y96.908
G1 F3168 X109.005 Y96.338 E52.03371
G0 F7800 X109.005 Y95.914
G1 F3168 X108.315 Y96.604 E52.05805
G0 F7800 X108.192 Y96.302
G1 F3168 X109.006 Y95.489 E52.08675
G0 F7800 X109.006 Y95.064
G1 F3168 X108.05 Y96.02 E52.12048
G0 F7800 X107.908 Y95.738
G1 F3168 X109.006 Y94.639 E52.15923
G0 F7800 X109.006 Y94.215
G1 F3168 X107.756 Y95.466 E52.20335
G0 F7800 X107.593 Y95.204
G1 F3168 X109.007 Y93.79 E52.25323
G0 F7800 X109.007 Y93.366
G1 F3168 X107.43 Y94.943 E52.30886
G0 F7800 X107.25 Y94.699
G1 F3168 X109.008 Y92.941 E52.37088
G0 F7800 X109.008 Y92.517
G1 F3168 X107.069 Y94.456 E52.43928
G0 F7800 X106.881 Y94.219
G1 F3168 X109.008 Y92.092 E52.51432
G0 F7800 X109.008 Y91.667
G1 F3168 X106.679 Y93.997 E52.5965
G0 F7800 X106.478 Y93.773
G1 F3168 X109.009 Y91.242 E52.68579
G0 F7800 X108.838 Y90.989
G1 F3168 X106.333 Y93.495 E52.77417
G0 F7800 X106.087 Y93.316
G1 F3168 X108.414 Y90.989 E52.85627
G0 F7800 X107.99 Y90.989
G1 F3168 X105.875 Y93.104 E52.93088
G0 F7800 X105.595 Y92.96
G1 F3168 X107.565 Y90.989 E53.00039
G0 F7800 X107.141 Y90.989
G1 F3168 X105.349 Y92.782 E53.06363
G0 F7800 X105.102 Y92.604
G1 F3168 X106.717 Y90.989 E53.1206
G0 F7800 X106.292 Y90.989
G1 F3168 X104.849 Y92.433 E53.17152
G0 F7800 X104.583 Y92.274
G1 F3168 X105.868 Y90.989 E53.21686
G0 F7800 X105.444 Y90.989
G1 F3168 X104.318 Y92.115 E53.25658
G0 F7800 X104.035 Y91.974
G1 F3168 X105.019 Y90.99 E53.29129
G0 F7800 X104.595 Y90.99
G1 F3168 X103.751 Y91.834 E53.32107
G0 F7800 X103.454 Y91.706
G1 F3168 X104.17 Y90.99 E53.34633
G0 F7800 X103.746 Y90.99
G1 F3168 X103.15 Y91.586 E53.36735
G0 F7800 X102.839 Y91.473
G1 F3168 X103.322 Y90.99 E53.38439
G0 F7800 X102.898 Y90.99
G1 F3168 X102.513 Y91.375 E53.39797
G0 F7800 X102.183 Y91.281
G1 F3168 X102.473 Y90.99 E53.40822
G0 F7800 X102.049 Y90.99
G1 F3168 X101.729 Y91.098 E53.41583
G1 X101.482 Y91.133 E53.42205
G0 F7800 X100.733 Y91.014
G1 F3168 X99.891 Y90.997 E53.43564
G0 F7800 X99.884 Y90.95
G1 F3168 X99.435 Y90.988 E53.43942
G1 X99.101 Y90.981 E53.44395
G0 F7800 X98.655 Y90.99
G1 F3168 X98.368 Y91.065 E53.44923
G1 X97.892 Y91.117 E53.45819
G1 X97.402 Y91.394 E53.47223
G0 F7800 X97.382 Y90.99
G1 F3168 X96.759 Y91.613 E53.49421
G0 F7800 X96.958 Y90.99
G1 F3168 X95.994 Y91.954 E53.52821
G0 F7800 X96.109 Y90.99
G1 F3168 X90.99 Y96.109 E53.7088
G0 F7800 X90.99 Y95.685
G1 F3168 X95.685 Y90.99 E53.87443
G0 F7800 X95.261 Y90.99
G1 F3168 X90.99 Y95.261 E54.0251
G0 F7800 X90.989 Y94.837
G1 F3168 X94.837 Y90.989 E54.16085
G0 F7800 X94.413 Y90.989
G1 F3168 X90.989 Y94.413 E54.28164
G0 F7800 X90.989 Y93.989
G1 F3168 X93.989 Y90.989 E54.38747
G0 F7800 X93.565 Y90.989
G1 F3168 X90.989 Y93.565 E54.47835
G0 F7800 X90.989 Y93.14
G1 F3168 X93.14 Y90.989 E54.55423
G0 F7800 X92.716 Y90.989
G1 F3168 X90.989 Y92.716 E54.61516
G0 F7800 X90.989 Y92.292
G1 F3168 X92.292 Y90.989 E54.66112
G0 F7800 X91.868 Y90.989
G1 F3168 X90.989 Y91.868 E54.69213
G0 F7800 X90.989 Y91.443
G1 F3168 X91.443 Y90.989 E54.70815
G0 F7800 X91.019 Y90.989
G1 F3168 X90.989 Y91.019 E54.70921
G0 F7800 X93.657 Y94.12
G0 X93.657 Y94.12
G1 F3168 X93.626 Y94.162 E54.70956
G0 F7800 X92.544 Y94.98
G1 F3168 X90.99 Y96.534 E54.76438
G0 F7800 X90.99 Y96.958
G1 F3168 X91.952 Y95.996 E54.79832
G0 F7800 X91.614 Y96.758
G1 F3168 X90.99 Y97.382 E54.82033
G0 F7800 X91.392 Y97.405
G1 F3168 X90.99 Y97.807 E54.83452
G0 F7800 X91.24 Y97.981
G1 F3168 X91.064 Y98.368 E54.84332
G1 X90.99 Y98.655 E54.85071
G0 F7800 X91.043 Y98.757
G1 F3168 X90.999 Y99.609 E54.86483
G0 F7800 X90.959 Y99.612
G1 F3168 X90.979 Y100.002 E54.86866
G1 X90.959 Y100.395 E54.87255
G0 F7800 X91 Y100.4
G1 F3168 X91.044 Y101.263 E54.88692
G0 F7800 X91.137 Y101.478
G1 F3168 X91.096 Y101.731 E54.89212
G1 X91.136 Y102.115 E54.89967
G1 X91.18 Y102.495 E54.91001
G1 X90.989 Y102.898 E54.92113
G0 F7800 X90.989 Y103.323
G1 F3168 X91.473 Y102.839 E54.9382
G0 F7800 X91.585 Y103.152
G1 F3168 X90.989 Y103.747 E54.95921
G0 F7800 X90.989 Y104.171
G1 F3168 X91.704 Y103.456 E54.98444
G0 F7800 X91.836 Y103.749
G1 F3168 X90.989 Y104.595 E55.0143
G0 F7800 X90.989 Y105.02
G1 F3168 X91.969 Y104.04 E55.04887
G0 F7800 X92.12 Y104.313
G1 F3168 X90.989 Y105.444 E55.08877
G0 F7800 X90.989 Y105.868
G1 F3168 X92.271 Y104.586 E55.134
G0 F7800 X92.435 Y104.846
G1 F3168 X90.989 Y106.292 E55.18501
G0 F7800 X90.989 Y106.717
G1 F3168 X92.603 Y105.103 E55.24195
G0 F7800 X92.78 Y105.351
G1 F3168 X90.989 Y107.141 E55.30511
G0 F7800 X90.989 Y107.565
G1 F3168 X92.966 Y105.589 E55.37484
G0 F7800 X93.152 Y105.827
G1 F3168 X90.989 Y107.99 E55.45114
G0 F7800 X90.989 Y108.414
G1 F3168 X93.303 Y106.1 E55.53278
G0 F7800 X93.524 Y106.304
G1 F3168 X90.989 Y108.838 E55.62219
G0 F7800 X91.242 Y109.009
G1 F3168 X93.709 Y106.543 E55.7092
G0 F7800 X93.992 Y106.684
G1 F3168 X91.667 Y109.009 E55.79122
G0 F7800 X92.091 Y109.009
G1 F3168 X94.222 Y106.878 E55.8664
G0 F7800 X94.453 Y107.072
G1 F3168 X92.515 Y109.009 E55.93475
G0 F7800 X92.939 Y109.009
G1 F3168 X94.699 Y107.25 E55.99682
G0 F7800 X94.944 Y107.429
G1 F3168 X93.364 Y109.009 E56.05256
G0 F7800 X93.788 Y109.009
G1 F3168 X95.202 Y107.595 E56.10244
G0 F7800 X95.465 Y107.757
G1 F3168 X94.212 Y109.009 E56.14662
G0 F7800 X94.637 Y109.009
G1 F3168 X95.736 Y107.91 E56.18539
G0 F7800 X96.017 Y108.053
G1 F3168 X95.062 Y109.008 E56.21909
G0 F7800 X95.486 Y109.008
G1 F3168 X96.303 Y108.191 E56.24791
G0 F7800 X96.603 Y108.316
G1 F3168 X95.91 Y109.008 E56.27234
G0 F7800 X96.334 Y109.008
G1 F3168 X96.905 Y108.438 E56.29246
G0 F7800 X97.224 Y108.543
G1 F3168 X96.759 Y109.008 E56.30887
G0 F7800 X97.183 Y109.008
G1 F3168 X97.545 Y108.646 E56.32164
G0 F7800 X97.885 Y108.731
G1 F3168 X97.819 Y109.008 E56.33144
G1 X98.342 Y108.91 E56.33834
G1 X98.592 Y108.872 E56.34465
G0 F7800 X99.111 Y109.02
G1 F3168 X99.46 Y109.012 E56.34927
G1 X99.891 Y109.047 E56.35308
G0 F7800 X103.123 Y109.008
G0 X103.123 Y109.008
G1 F3168 X104.182 Y107.949 E56.39044
G0 F7800 X103.971 Y109.008
G1 F3168 X109.008 Y103.971 E56.56813
G0 F7800 X109.008 Y104.395
G1 F3168 X104.395 Y109.008 E56.73087
G0 F7800 X104.82 Y109.008
G1 F3168 X109.008 Y104.82 E56.87861
G0 F7800 X109.009 Y105.243
G1 F3168 X105.243 Y109.009 E57.01146
G0 F7800 X105.667 Y109.009
G1 F3168 X109.009 Y105.667 E57.12936
G0 F7800 X109.009 Y106.092
G1 F3168 X106.092 Y109.009 E57.23227
G0 F7800 X106.516 Y109.009
G1 F3168 X109.009 Y106.516 E57.32021
G0 F7800 X109.009 Y106.94
G1 F3168 X106.94 Y109.009 E57.3932
G0 F7800 X107.364 Y109.009
G1 F3168 X109.009 Y107.364 E57.45124
G0 F7800 X109.009 Y107.789
G1 F3168 X107.789 Y109.009 E57.49427
G0 F7800 X108.213 Y109.009
G1 F3168 X109.009 Y108.213 E57.52236
G0 F7800 X109.009 Y108.637
G1 F3168 X108.637 Y109.009 E57.53548
G0 F7800 X102.953 Y107.867
G0 X102.842 Y108.009
G0 X102.15 Y108.223
G0 X101.434 Y108.377
G0 X100.724 Y108.468
G0 X99.571 Y108.458
G0 X99.562 Y103.541
G0 X99.661 Y103.599
G0 X99.44 Y103.521
G0 X99.429 Y108.443
G0 X98.289 Y108.325
G0 X97.652 Y108.169
G0 X97.029 Y107.963
G0 X96.422 Y107.709
G0 X95.838 Y107.411
G0 X95.277 Y107.067
G0 X94.747 Y106.681
G0 X94.239 Y106.116
G0 X93.803 Y106.029
G0 X93.803 Y106.029
G1 F3168 X93.777 Y106.008 E57.53581
G0 F7800 X93.427 Y105.148
G0 X93.092 Y104.953
G0 X92.723 Y104.391
G0 X92.389 Y103.783
G0 X92.113 Y103.17
G0 X91.885 Y102.53
G0 X91.709 Y101.873
G0 X91.681 Y100.851
G0 X91.356 Y100.049
G0 X91.356 Y100.049
G1 F3168 X91.351 Y100.005 E57.53617
G0 F7800 X91.656 Y99.376
G0 X91.583 Y98.814
G0 X91.7 Y98.165
G0 X91.865 Y97.537
G0 X92.085 Y96.9
G0 X92.346 Y96.303
G0 X92.659 Y95.716
G0 X93.008 Y95.166
G0 X93.741 Y94.306
G0 X97.066 Y97.627
G0 X96.937 Y97.691
G0 X97.2 Y97.41
G0 X97.157 Y97.531
G0 X93.831 Y94.199
G0 X94.367 Y93.803
G0 X94.982 Y92.541
G0 X94.982 Y92.541
G1 F3168 X96.534 Y90.99 E57.59091
G0 F7800 X99.496 Y91.376
G0 X99.496 Y91.376
G1 F3168 X99.496 Y91.379 E57.59095
G1 X99.523 Y91.377 E57.59126
G0 F7800 X100.327 Y91.655
G0 X100.699 Y91.529
G0 X101.403 Y91.617
G0 X102.11 Y91.767
G0 X102.782 Y91.968
G0 X103.449 Y92.232
G0 X104.076 Y92.542
G0 X104.983 Y93.27
G0 X105.737 Y93.533
G0 X105.737 Y93.533
G1 F3168 X105.78 Y93.565 E57.5926
G1 X105.808 Y93.595 E57.59297
; Layer Change GCode
; LAYER:2
G1 F1800 E56.59297
G0 F7800 X102.151 Y97.369 Z0.65
G0 X102.265 Y97.475
G0 X102.146 Y97.433
G0 X105.706 Y93.742
G0 X106.569 Y94.607
G0 X107.024 Y95.216
G0 X107.417 Y95.85
G0 X107.764 Y96.543
G0 X108.038 Y97.238
G0 X108.253 Y97.967
G0 X108.401 Y98.712
G0 X108.466 Y99.933
G0 X103.232 Y99.935
G0 X103.301 Y100
G0 X103.232 Y100.062
G0 X108.466 Y100.067
G0 X108.404 Y101.271
G0 X108.256 Y102.013
G0 X108.054 Y102.715
G0 X107.779 Y103.423
G0 X107.449 Y104.091
G0 X107.063 Y104.726
G0 X106.624 Y105.326
G0 X105.8 Y106.168
G0 X102.172 Y102.539
G0 X102.29 Y102.499
G0 X101.997 Y102.771
G0 X102.068 Y102.657
G0 X105.701 Y106.255
G0 X104.767 Y107.036
G0 X104.15 Y107.417
G0 X103.503 Y107.744
G0 X102.83 Y108.013
G0 X102.15 Y108.223
G0 X101.43 Y108.378
G0 X100.724 Y108.468
G0 X99.562 Y108.458
G0 X99.561 Y103.541
G0 X99.663 Y103.599
G0 X99.442 Y103.521
G0 X99.429 Y108.443
G0 X98.278 Y108.322
G0 X97.641 Y108.164
G0 X97.019 Y107.959
G0 X96.411 Y107.704
G0 X95.826 Y107.404
G0 X95.268 Y107.059
G0 X94.747 Y106.681
G0 X93.947 Y105.919
G0 X97.22 Y102.534
G0 X97.268 Y102.653
G0 X97.15 Y102.534
G0 X90.439 Y109.465
G0 X90.161 Y109.752
G0 X90.31 Y109.6
G0 X90.31 Y109.6
G0 X90.15 Y109.85
G0 X90.15 Y109.85
G0 X90.75 Y109.25
; TYPE:WALL-INNER
G1 F1800 E57.59297
G1 F1602 X90.75 Y90.75 E58.05445
G1 X109.25 Y90.75 E58.51594
G1 X109.25 Y109.25 E58.97742
G1 X90.75 Y109.25 E59.43891
G0 F7800 X90.45 Y109.55
G1 F1602 X90.45 Y90.45 E59.91536
G1 X109.55 Y90.45 E60.39181
G1 X109.55 Y109.55 E60.86826
G1 X90.45 Y109.55 E61.34471
G0 F7800 X90.15 Y109.85
; TYPE:WALL-OUTER
G1 F1121.4 X90.15 Y90.15 E61.83613
G1 X109.85 Y90.15 E62.32755
G1 X109.85 Y109.85 E62.81897
G1 X90.15 Y109.85 E63.31039
G0 F7800 X90.31 Y109.6
G0 X92.986 Y107.094
G0 X93.279 Y106.821
G0 X93.83 Y106.307
G0 X93.83 Y106.307
; TYPE:WALL-INNER
G1 F1602 X93.87 Y106.266 E63.31182
G1 X94.591 Y106.878 E63.33541
G1 X95.128 Y107.267 E63.35195
G1 X95.703 Y107.623 E63.36882
G1 X96.305 Y107.931 E63.38569
G1 X96.93 Y108.194 E63.4026
G1 X97.571 Y108.405 E63.41943
G1 X98.226 Y108.568 E63.43627
G1 X99.25 Y108.739 E63.46217
G1 X99.25 Y108.784 E63.46329
G1 X99.461 Y108.775 E63.46856
G1 X99.749 Y108.823 E63.47584
G1 X99.749 Y108.762 E63.47736
G1 X100.745 Y108.718 E63.50223
G1 X101.473 Y108.625 E63.52054
G1 X102.214 Y108.465 E63.53945
G1 X102.914 Y108.25 E63.55772
G1 X103.606 Y107.972 E63.57632
G1 X104.272 Y107.636 E63.59493
G1 X104.908 Y107.244 E63.61357
G1 X105.783 Y106.593 E63.64077
G1 X105.816 Y106.626 E63.64194
G1 X105.961 Y106.461 E63.64741
G1 X106.188 Y106.292 E63.65447
G1 X106.146 Y106.25 E63.65596
G1 X106.82 Y105.483 E63.68143
G1 X107.271 Y104.865 E63.70051
G1 X107.669 Y104.212 E63.71959
G1 X108.008 Y103.524 E63.73872
G1 X108.291 Y102.796 E63.7582
G1 X108.499 Y102.073 E63.77697
G1 X108.652 Y101.31 E63.79638
G1 X108.765 Y100.25 E63.82297
G1 X108.819 Y100.25 E63.82432
G1 X108.792 Y99.997 E63.83067
G1 X108.818 Y99.75 E63.83686
G1 X108.765 Y99.75 E63.83819
G1 X108.649 Y98.674 E63.86518
G1 X108.496 Y97.907 E63.88469
G1 X108.275 Y97.155 E63.90424
G1 X107.994 Y96.44 E63.92341
G1 X107.636 Y95.728 E63.94329
G1 X107.231 Y95.074 E63.96248
G1 X106.763 Y94.448 E63.98197
G1 X106.049 Y93.655 E64.00859
G1 X106.089 Y93.614 E64.01002
G1 X105.87 Y93.456 E64.01676
G1 X105.714 Y93.282 E64.02259
G1 X105.68 Y93.318 E64.02382
G1 X104.823 Y92.698 E64.05021
G1 X104.207 Y92.328 E64.06813
G1 X103.555 Y92.004 E64.08629
G1 X102.865 Y91.731 E64.1048
G1 X102.178 Y91.526 E64.12269
G1 X101.454 Y91.371 E64.14116
G1 X100.729 Y91.279 E64.15939
G1 X99.75 Y91.239 E64.18383
G1 X99.75 Y91.177 E64.18538
G1 X99.449 Y91.227 E64.19299
G1 X99.25 Y91.219 E64.19796
G1 X99.25 Y91.26 E64.19898
G1 X98.217 Y91.432 E64.2251
G1 X97.541 Y91.602 E64.24249
G1 X96.891 Y91.819 E64.25958
G1 X96.25 Y92.093 E64.27697
G1 X95.631 Y92.418 E64.29441
G1 X95.042 Y92.79 E64.31179
G1 X94.473 Y93.215 E64.32951
G1 X93.75 Y93.853 E64.35356
G1 X93.711 Y93.814 E64.35494
G1 X93.547 Y94.032 E64.36174
G1 X93.375 Y94.184 E64.36747
G1 X93.408 Y94.217 E64.36863
G1 X92.802 Y95.023 E64.39379
G1 X92.443 Y95.585 E64.41042
G1 X92.12 Y96.195 E64.42764
G1 X91.854 Y96.804 E64.44422
G1 X91.627 Y97.455 E64.46141
G1 X91.455 Y98.111 E64.47833
G1 X91.337 Y98.767 E64.49496
G1 X91.235 Y99.75 E64.51961
G1 X91.183 Y99.75 E64.52091
G1 X91.209 Y100 E64.52718
G1 X91.183 Y100.249 E64.53342
G1 X91.235 Y100.249 E64.53472
G1 X91.338 Y101.242 E64.55962
G1 X91.463 Y101.916 E64.57672
G1 X91.642 Y102.593 E64.59419
G1 X91.876 Y103.252 E64.61164
G1 X92.162 Y103.89 E64.62908
G1 X92.504 Y104.514 E64.64683
G1 X92.888 Y105.099 E64.66428
G1 X93.52 Y105.91 E64.68993
G1 X93.489 Y105.942 E64.69104
G1 X93.656 Y106.084 E64.69651
G1 X93.83 Y106.307 E64.70357
G0 F7800 X93.927 Y105.92
G1 F1602 X94.777 Y106.642 E64.73139
G1 X95.295 Y107.018 E64.74735
G1 X95.851 Y107.361 E64.76365
G1 X96.432 Y107.659 E64.77994
G1 X97.035 Y107.913 E64.79626
G1 X97.654 Y108.117 E64.81252
G1 X98.287 Y108.274 E64.82879
G1 X99.449 Y108.469 E64.85818
G1 X99.455 Y103.536 E64.98123
G1 X99.55 Y103.542 E64.98361
G1 X99.55 Y108.47 E65.10654
G1 X100.719 Y108.419 E65.13572
G1 X101.422 Y108.329 E65.1534
G1 X102.138 Y108.175 E65.17167
G1 X102.814 Y107.967 E65.18932
G1 X103.482 Y107.698 E65.20728
G1 X104.126 Y107.374 E65.22526
G1 X104.739 Y106.996 E65.24323
G1 X105.731 Y106.258 E65.27407
G1 X102.09 Y102.618 E65.4025
G1 X102.163 Y102.549 E65.405
G1 X105.801 Y106.188 E65.53336
G1 X106.585 Y105.295 E65.56301
G1 X107.022 Y104.698 E65.58146
G1 X107.406 Y104.067 E65.59989
G1 X107.733 Y103.403 E65.61835
G1 X108.007 Y102.7 E65.63717
G1 X108.208 Y102.002 E65.65529
G1 X108.355 Y101.264 E65.67406
G1 X108.484 Y100.05 E65.70452
G1 X103.248 Y100.047 E65.83513
G1 X103.248 Y99.95 E65.83755
G1 X108.485 Y99.95 E65.96819
G1 X108.352 Y98.72 E65.99905
G1 X108.204 Y97.978 E66.01792
G1 X107.991 Y97.253 E66.03677
G1 X107.719 Y96.562 E66.05529
G1 X107.374 Y95.874 E66.07449
G1 X106.983 Y95.243 E66.09301
G1 X106.531 Y94.638 E66.11185
G1 X105.707 Y93.722 E66.14258
G1 X102.134 Y97.421 E66.27087
G1 X102.061 Y97.355 E66.27333
G1 X105.633 Y93.655 E66.40162
G1 X104.657 Y92.948 E66.43168
G1 X104.063 Y92.591 E66.44897
G1 X103.433 Y92.279 E66.46651
G1 X102.766 Y92.014 E66.48441
G1 X102.104 Y91.817 E66.50164
G1 X101.404 Y91.667 E66.5195
G1 X100.704 Y91.578 E66.5371
G1 X99.55 Y91.531 E66.56591
G1 X99.55 Y96.456 E66.68876
G1 X99.45 Y96.463 E66.69126
G1 X99.45 Y91.531 E66.81429
G1 X98.278 Y91.726 E66.84393
G1 X97.626 Y91.89 E66.8607
G1 X96.998 Y92.1 E66.87722
G1 X96.379 Y92.364 E66.89401
G1 X95.781 Y92.678 E66.91085
G1 X95.212 Y93.037 E66.92764
G1 X94.663 Y93.448 E66.94474
G1 X93.813 Y94.198 E66.97302
G1 X97.145 Y97.54 E67.09074
G1 X97.081 Y97.609 E67.09309
G1 X93.743 Y94.27 E67.21087
G1 X93.049 Y95.194 E67.23969
G1 X92.703 Y95.736 E67.25573
G1 X92.39 Y96.325 E67.27237
G1 X92.134 Y96.914 E67.28839
G1 X91.914 Y97.543 E67.30501
G1 X91.748 Y98.176 E67.32134
G1 X91.634 Y98.809 E67.33738
G1 X91.516 Y99.949 E67.36597
G1 X96.154 Y99.955 E67.48167
G1 X96.155 Y100.05 E67.48404
G1 X91.516 Y100.05 E67.59976
G1 X91.635 Y101.199 E67.62857
G1 X91.756 Y101.851 E67.64512
G1 X91.929 Y102.504 E67.66197
G1 X92.155 Y103.141 E67.67883
G1 X92.431 Y103.756 E67.69564
G1 X92.761 Y104.359 E67.71279
G1 X93.132 Y104.924 E67.72965
G1 X93.854 Y105.851 E67.75896
G1 X97.142 Y102.455 E67.87687
G1 X97.209 Y102.522 E67.87924
G1 X93.927 Y105.92 E67.99708
G0 F7800 X93.892 Y105.906
G0 X93.947 Y105.919
G0 X94.747 Y106.681
G0 X95.268 Y107.059
G0 X95.826 Y107.404
G0 X96.411 Y107.704
G0 X97.019 Y107.959
G0 X97.641 Y108.164
G0 X98.278 Y108.322
G0 X99.429 Y108.443
G0 X99.487 Y108.112
G0 X99.6 Y108.157
G0 X99.6 Y108.157
G0 X99.85 Y108.157
; TYPE:WALL-OUTER
G1 F1121.4 X100.694 Y108.12 E68.01816
G1 X101.371 Y108.033 E68.03518
G1 X102.062 Y107.884 E68.05282
G1 X102.714 Y107.684 E68.06983
G1 X103.359 Y107.425 E68.08717
G1 X103.979 Y107.112 E68.10449
G1 X104.57 Y106.747 E68.12182
G1 X105.273 Y106.225 E68.14366
G1 X101.644 Y102.597 E68.27167
G1 X101.781 Y102.495 E68.27593
G1 X102.038 Y102.256 E68.28468
G1 X102.157 Y102.119 E68.28921
G1 X105.787 Y105.749 E68.41727
G1 X106.351 Y105.107 E68.43858
G1 X106.772 Y104.531 E68.45638
G1 X107.143 Y103.922 E68.47417
G1 X107.458 Y103.282 E68.49196
G1 X107.722 Y102.604 E68.51011
G1 X107.916 Y101.931 E68.52758
G1 X108.058 Y101.219 E68.5457
G1 X108.151 Y100.35 E68.5675
G1 X102.922 Y100.347 E68.69793
G1 X102.951 Y100 E68.70662
G1 X102.922 Y99.65 E68.71538
G1 X108.151 Y99.65 E68.84582
G1 X108.055 Y98.765 E68.86803
G1 X107.913 Y98.05 E68.88621
G1 X107.707 Y97.35 E68.90441
G1 X107.445 Y96.685 E68.92224
G1 X107.112 Y96.021 E68.94077
G1 X106.735 Y95.412 E68.95864
G1 X106.299 Y94.829 E68.9768
G1 X105.699 Y94.162 E68.99918
G1 X102.134 Y97.854 E69.1272
G1 X102.015 Y97.719 E69.13169
G1 X101.755 Y97.482 E69.14047
G1 X101.617 Y97.382 E69.14472
G1 X105.177 Y93.695 E69.27257
G1 X104.492 Y93.199 E69.29366
G1 X103.919 Y92.854 E69.31035
G1 X103.311 Y92.553 E69.32727
G1 X102.668 Y92.298 E69.34453
G1 X102.029 Y92.108 E69.36116
G1 X101.353 Y91.963 E69.3784
G1 X100.679 Y91.877 E69.39535
G1 X99.85 Y91.844 E69.41605
G1 X99.85 Y96.758 E69.53863
G1 X99.662 Y96.75 E69.54332
G1 X99.318 Y96.773 E69.55192
G1 X99.15 Y96.802 E69.55617
G1 X99.15 Y91.885 E69.67883
G1 X98.339 Y92.02 E69.69934
G1 X97.71 Y92.178 E69.71552
G1 X97.105 Y92.381 E69.73143
G1 X96.508 Y92.635 E69.74762
G1 X95.931 Y92.938 E69.76388
G1 X95.382 Y93.284 E69.78006
G1 X94.852 Y93.681 E69.79658
G1 X94.25 Y94.212 E69.81661
G1 X97.576 Y97.546 E69.93408
G1 X97.443 Y97.661 E69.93847
G1 X97.204 Y97.918 E69.94722
G1 X97.102 Y98.055 E69.95148
G1 X93.775 Y94.727 E70.06887
G1 X93.296 Y95.365 E70.08877
G1 X92.962 Y95.887 E70.10423
G1 X92.661 Y96.456 E70.12029
G1 X92.413 Y97.023 E70.13572
G1 X92.201 Y97.63 E70.15176
G1 X92.041 Y98.241 E70.16752
G1 X91.931 Y98.851 E70.18298
G1 X91.849 Y99.65 E70.20302
G1 X96.472 Y99.656 E70.31834
G1 X96.454 Y99.83 E70.3227
G1 X96.455 Y100.181 E70.33146
G1 X96.473 Y100.35 E70.3357
G1 X91.849 Y100.35 E70.45104
G1 X91.932 Y101.156 E70.47125
G1 X92.049 Y101.785 E70.48721
G1 X92.216 Y102.415 E70.50347
G1 X92.434 Y103.029 E70.51973
G1 X92.7 Y103.623 E70.53596
G1 X93.018 Y104.204 E70.55248
G1 X93.376 Y104.749 E70.56875
G1 X93.879 Y105.394 E70.58915
G1 X97.153 Y102.012 E70.70657
G1 X97.259 Y102.146 E70.71083
G1 X97.506 Y102.397 E70.71962
G1 X97.64 Y102.508 E70.72396
G1 X94.365 Y105.899 E70.84156
G1 X94.962 Y106.406 E70.86109
G1 X95.462 Y106.769 E70.87651
G1 X95.998 Y107.1 E70.89222
G1 X96.559 Y107.387 E70.90794
G1 X97.14 Y107.632 E70.92367
G1 X97.737 Y107.828 E70.93934
G1 X98.348 Y107.98 E70.95505
G1 X99.15 Y108.114 E70.97533
G1 X99.156 Y103.198 E71.09796
G1 X99.318 Y103.226 E71.10207
G1 X99.668 Y103.249 E71.11081
G1 X99.85 Y103.241 E71.11536
G1 X99.85 Y108.157 E71.23799
G0 F7800 X99.532 Y108.634
; TYPE:FILL
G1 F3204 X99.499 Y108.636 E71.23834
G0 F7800 X99.899 Y109.002
G1 F3204 X100.758 Y108.983 E71.25228
G0 F7800 X101.257 Y108.894
G1 F3204 X101.372 Y109.008 E71.25631
G0 F7800 X101.624 Y108.837
G1 F3204 X101.796 Y109.008 E71.26237
G0 F7800 X101.973 Y108.762
G1 F3204 X102.22 Y109.008 E71.27106
G0 F7800 X102.319 Y108.683
G1 F3204 X102.645 Y109.008 E71.28254
G0 F7800 X103.069 Y109.008
G1 F3204 X102.644 Y108.584 E71.29752
G0 F7800 X102.968 Y108.483
G1 F3204 X103.493 Y109.008 E71.31604
G0 F7800 X103.917 Y109.008
G1 F3204 X103.272 Y108.364 E71.33878
G0 F7800 X103.575 Y108.242
G1 F3204 X104.342 Y109.008 E71.36582
G0 F7800 X104.766 Y109.008
G1 F3204 X103.866 Y108.108 E71.39757
G0 F7800 X104.148 Y107.966
G1 F3204 X105.191 Y109.009 E71.43436
G0 F7800 X105.615 Y109.009
G1 F3204 X104.427 Y107.821 E71.47627
G0 F7800 X104.689 Y107.659
G1 F3204 X106.039 Y109.009 E71.5239
G0 F7800 X106.464 Y109.009
G1 F3204 X104.952 Y107.497 E71.57724
G0 F7800 X105.202 Y107.323
G1 F3204 X106.888 Y109.009 E71.63671
G0 F7800 X107.312 Y109.009
G1 F3204 X105.445 Y107.142 E71.70258
G0 F7800 X105.689 Y106.962
G1 F3204 X107.736 Y109.009 E71.77479
G0 F7800 X108.161 Y109.009
G1 F3204 X105.967 Y106.816 E71.85217
G0 F7800 X106.175 Y106.599
G1 F3204 X108.585 Y109.009 E71.93719
G0 F7800 X109.009 Y109.009
G1 F3204 X106.418 Y106.418 E72.0286
G0 F7800 X106.562 Y106.138
G1 F3204 X109.009 Y108.585 E72.11492
G0 F7800 X109.009 Y108.161
G1 F3204 X106.761 Y105.912 E72.19424
G0 F7800 X106.959 Y105.687
G1 F3204 X109.009 Y107.736 E72.26654
G0 F7800 X109.009 Y107.312
G1 F3204 X107.143 Y105.446 E72.33237
G0 F7800 X107.322 Y105.201
G1 F3204 X109.008 Y106.887 E72.39185
G0 F7800 X109.008 Y106.463
G1 F3204 X107.498 Y104.953 E72.44512
G0 F7800 X107.658 Y104.688
G1 F3204 X109.008 Y106.039 E72.49276
G0 F7800 X109.008 Y105.614
G1 F3204 X107.818 Y104.424 E72.53474
G0 F7800 X107.966 Y104.148
G1 F3204 X109.008 Y105.19 E72.5715
G0 F7800 X109.008 Y104.766
G1 F3204 X108.106 Y103.864 E72.60332
G0 F7800 X108.243 Y103.577
G1 F3204 X109.008 Y104.342 E72.63031
G0 F7800 X109.008 Y103.917
G1 F3204 X108.362 Y103.271 E72.6531
G0 F7800 X108.482 Y102.966
G1 F3204 X109.008 Y103.493 E72.67167
G0 F7800 X109.008 Y103.068
G1 F3204 X108.584 Y102.644 E72.68663
G0 F7800 X108.678 Y102.314
G1 F3204 X109.008 Y102.644 E72.69827
G0 F7800 X109.008 Y102.22
G1 F3204 X108.762 Y101.974 E72.70695
G0 F7800 X109.008 Y101.795
G1 F3204 X108.833 Y101.621 E72.71311
G0 F7800 X109.008 Y101.371
G1 F3204 X108.929 Y101.293 E72.71588
G0 F7800 X108.95 Y101.332
G1 F3204 X109 Y100.4 E72.7314
G0 F7800 X109.043 Y100.396
G1 F3204 X109.021 Y99.996 E72.73516
G1 X109.042 Y99.605 E72.73894
G0 F7800 X108.645 Y99.949
G1 F3204 X108.651 Y99.999 E72.73933
G0 F7800 X109.005 Y98.398
G0 X109.005 Y98.398
G1 F3204 X108.796 Y98.19 E72.74669
G0 F7800 X109.006 Y97.975
G1 F3204 X108.665 Y97.634 E72.75872
G0 F7800 X109.006 Y97.551
G1 F3204 X108.481 Y97.026 E72.77724
G0 F7800 X109.006 Y97.126
G1 F3204 X108.203 Y96.324 E72.80555
G0 F7800 X109.006 Y96.278
G1 F3204 X106.382 Y93.654 E72.89812
G0 F7800 X105.814 Y93.6
G1 F3204 X105.785 Y93.568 E72.89852
G0 F7800 X105.783 Y93.568
G1 F3204 X105.739 Y93.534 E72.89892
G0 F7800 X105.688 Y92.96
G1 F3204 X103.717 Y90.989 E72.96845
G0 F7800 X103.293 Y90.989
G1 F3204 X104.571 Y92.267 E73.01354
G0 F7800 X103.677 Y91.798
G1 F3204 X102.869 Y90.989 E73.04206
G0 F7800 X102.444 Y90.989
G1 F3204 X102.97 Y91.515 E73.06061
G0 F7800 X102.36 Y91.329
G1 F3204 X102.02 Y90.989 E73.07261
G0 F7800 X101.808 Y91.201
G1 F3204 X101.596 Y90.989 E73.08009
G0 F7800 X101.29 Y91.108
G1 F3204 X101.245 Y91.063 E73.08167
G0 F7800 X100.741 Y91.014
G1 F3204 X99.9 Y90.997 E73.09531
G0 F7800 X99.893 Y90.951
G1 F3204 X99.439 Y90.988 E73.09918
G1 X99.101 Y90.982 E73.10379
G0 F7800 X98.738 Y91.101
G1 F3204 X98.626 Y90.989 E73.10774
G0 F7800 X98.374 Y91.162
G1 F3204 X98.202 Y90.989 E73.11382
G0 F7800 X98.021 Y91.233
G1 F3204 X97.778 Y90.989 E73.12241
G0 F7800 X97.682 Y91.318
G1 F3204 X97.353 Y90.989 E73.13402
G0 F7800 X97.351 Y91.411
G1 F3204 X96.929 Y90.989 E73.14891
G0 F7800 X96.505 Y90.989
G1 F3204 X97.033 Y91.518 E73.16755
G0 F7800 X96.72 Y91.629
G1 F3204 X96.08 Y90.989 E73.19013
G0 F7800 X95.656 Y90.989
G1 F3204 X96.423 Y91.757 E73.21721
G0 F7800 X96.128 Y91.885
G1 F3204 X95.232 Y90.989 E73.24881
G0 F7800 X94.808 Y90.989
G1 F3204 X95.849 Y92.031 E73.28556
G0 F7800 X95.571 Y92.177
G1 F3204 X94.383 Y90.989 E73.32747
G0 F7800 X93.959 Y90.989
G1 F3204 X95.308 Y92.338 E73.37506
G0 F7800 X95.048 Y92.503
G1 F3204 X93.535 Y90.989 E73.42845
G0 F7800 X93.111 Y90.989
G1 F3204 X94.796 Y92.674 E73.48789
G0 F7800 X94.552 Y92.855
G1 F3204 X92.686 Y90.989 E73.55372
G0 F7800 X92.262 Y90.989
G1 F3204 X94.311 Y93.038 E73.626
G0 F7800 X94.085 Y93.236
G1 F3204 X91.838 Y90.989 E73.70527
G0 F7800 X91.414 Y90.989
G1 F3204 X93.859 Y93.435 E73.79154
G0 F7800 X93.584 Y93.584
G1 F3204 X90.989 Y90.989 E73.88309
G0 F7800 X90.989 Y91.414
G1 F3204 X93.401 Y93.825 E73.96816
G0 F7800 X93.183 Y94.031
G1 F3204 X90.989 Y91.838 E74.04554
G0 F7800 X90.989 Y92.262
G1 F3204 X93.036 Y94.309 E74.11776
G0 F7800 X92.855 Y94.552
G1 F3204 X90.989 Y92.686 E74.18358
G0 F7800 X90.989 Y93.111
G1 F3204 X92.673 Y94.794 E74.24297
G0 F7800 X92.501 Y95.047
G1 F3204 X90.989 Y93.535 E74.29631
G0 F7800 X90.989 Y93.959
G1 F3204 X92.336 Y95.305 E74.34382
G0 F7800 X92.178 Y95.572
G1 F3204 X90.989 Y94.383 E74.38576
G0 F7800 X90.989 Y94.808
G1 F3204 X92.031 Y95.849 E74.4225
G0 F7800 X91.887 Y96.129
G1 F3204 X90.99 Y95.233 E74.45413
G0 F7800 X90.99 Y95.657
G1 F3204 X91.757 Y96.424 E74.48119
G0 F7800 X91.629 Y96.72
G1 F3204 X90.99 Y96.081 E74.50373
G0 F7800 X90.99 Y96.505
G1 F3204 X91.519 Y97.034 E74.52239
G0 F7800 X91.409 Y97.349
G1 F3204 X90.99 Y96.93 E74.53717
G0 F7800 X90.99 Y97.354
G1 F3204 X91.319 Y97.683 E74.54878
G0 F7800 X90.99 Y97.778
G1 F3204 X91.23 Y98.018 E74.55725
G0 F7800 X90.99 Y98.202
G1 F3204 X91.163 Y98.375 E74.56335
G0 F7800 X90.99 Y98.627
G1 F3204 X91.096 Y98.733 E74.56709
G0 F7800 X91.044 Y98.746
G1 F3204 X91 Y99.6 E74.58131
G0 F7800 X90.958 Y99.603
G1 F3204 X90.979 Y99.998 E74.58516
G1 X90.959 Y100.394 E74.58905
G0 F7800 X91 Y100.399
G1 F3204 X91.045 Y101.263 E74.60344
G0 F7800 X91.087 Y101.269
G1 F3204 X91.101 Y101.283 E74.60393
G0 F7800 X90.989 Y101.596
G1 F3204 X91.198 Y101.804 E74.61129
G0 F7800 X90.989 Y102.02
G1 F3204 X91.334 Y102.365 E74.62346
G0 F7800 X90.989 Y102.444
G1 F3204 X91.525 Y102.98 E74.64236
G0 F7800 X90.989 Y102.869
G1 F3204 X91.81 Y103.689 E74.67131
G0 F7800 X90.989 Y103.717
G1 F3204 X93.183 Y105.911 E74.74871
G0 F7800 X93.775 Y106.005
G1 F3204 X93.801 Y106.026 E74.74905
G0 F7800 X93.875 Y106.603
G1 F3204 X96.281 Y109.009 E74.83393
G0 F7800 X95.857 Y109.009
G1 F3204 X90.989 Y104.141 E75.00566
G0 F7800 X90.989 Y104.566
G1 F3204 X95.433 Y109.009 E75.16242
G0 F7800 X95.008 Y109.009
G1 F3204 X90.989 Y104.99 E75.3042
G0 F7800 X90.989 Y105.414
G1 F3204 X94.584 Y109.009 E75.43102
G0 F7800 X94.16 Y109.009
G1 F3204 X90.989 Y105.839 E75.54287
G0 F7800 X90.989 Y106.263
G1 F3204 X93.736 Y109.009 E75.63976
G0 F7800 X93.311 Y109.009
G1 F3204 X90.989 Y106.687 E75.72168
G0 F7800 X90.989 Y107.111
G1 F3204 X92.887 Y109.009 E75.78863
G0 F7800 X92.463 Y109.009
G1 F3204 X90.989 Y107.536 E75.84061
G0 F7800 X90.989 Y107.96
G1 F3204 X92.039 Y109.009 E75.87764
G0 F7800 X91.614 Y109.009
G1 F3204 X90.989 Y108.384 E75.89969
G0 F7800 X90.989 Y108.808
G1 F3204 X91.19 Y109.009 E75.90678
G0 F7800 X95.434 Y107.738
G0 X95.434 Y107.738
G1 F3204 X96.706 Y109.009 E75.95163
G0 F7800 X97.13 Y109.009
G1 F3204 X96.315 Y108.195 E75.98037
G0 F7800 X97.02 Y108.475
G1 F3204 X97.554 Y109.009 E75.9992
G0 F7800 X97.637 Y108.668
G1 F3204 X97.978 Y109.009 E76.01123
G0 F7800 X98.2 Y108.806
G1 F3204 X98.403 Y109.009 E76.0184
G0 F7800 X98.708 Y108.89
G1 F3204 X98.753 Y108.935 E76.01998
G0 F7800 X99.101 Y109.02
G1 F3204 X99.452 Y109.012 E76.02463
G1 X99.891 Y109.048 E76.02843
G0 F7800 X101.093 Y108.504
G0 X103.503 Y107.744
G0 X105.666 Y106.439
G0 X105.884 Y106.341
G0 X105.884 Y106.341
G1 F3204 X105.906 Y106.315 E76.02879
G1 F1800 E75.02879
G0 F7800 X106.085 Y105.755
G0 X106.624 Y105.326
G0 X107.063 Y104.726
G0 X107.449 Y104.091
G0 X107.779 Y103.423
G0 X108.054 Y102.715
G0 X108.256 Y102.013
G0 X108.404 Y101.271
G0 X108.466 Y100.067
G0 X103.232 Y100.062
G0 X103.301 Y100
G0 X103.232 Y99.935
G0 X108.466 Y99.933
G0 X108.301 Y98.886
G0 X109.006 Y96.703
G0 X109.006 Y96.703
G1 F1800 E76.02879
G1 F3204 X107.732 Y95.429 E76.07373
G0 F7800 X109.007 Y95.431
G1 F3204 X104.566 Y90.989 E76.23042
G0 F7800 X104.99 Y90.989
G1 F3204 X109.007 Y95.006 E76.37213
G0 F7800 X109.007 Y94.582
G1 F3204 X105.414 Y90.989 E76.49888
G0 F7800 X105.839 Y90.989
G1 F3204 X109.008 Y94.159 E76.61069
G0 F7800 X109.008 Y93.734
G1 F3204 X106.263 Y90.989 E76.70753
G0 F7800 X106.687 Y90.989
G1 F3204 X109.008 Y93.31 E76.78941
G0 F7800 X109.008 Y92.886
G1 F3204 X107.111 Y90.989 E76.85633
G0 F7800 X107.536 Y90.989
G1 F3204 X109.008 Y92.462 E76.90828
G0 F7800 X109.008 Y92.038
G1 F3204 X107.96 Y90.989 E76.94526
G0 F7800 X108.384 Y90.989
G1 F3204 X109.009 Y91.614 E76.96731
G0 F7800 X109.009 Y91.19
G1 F3204 X108.808 Y90.989 E76.9744
G0 F7800 X104.141 Y90.989
G0 X104.141 Y90.989
G1 F3204 X109.006 Y95.854 E77.14603
G0 F7800 X106.434 Y94.638
G0 X105.706 Y93.742
G0 X102.146 Y97.433
G0 X102.265 Y97.475
G0 X101.979 Y97.213
G0 X102.044 Y97.342
G0 X105.604 Y93.658
G0 X104.685 Y92.908
G0 X104.086 Y92.548
G0 X103.453 Y92.234
G0 X102.782 Y91.968
G0 X102.115 Y91.769
G0 X101.411 Y91.618
G0 X100.707 Y91.529
G0 X100.052 Y91.623
G0 X99.529 Y91.377
G0 X99.529 Y91.377
G1 F3204 X99.5 Y91.379 E77.14637
G1 X99.5 Y91.376 E77.14642
G0 F7800 X98.762 Y91.72
G0 X97.613 Y91.842
G0 X96.981 Y92.054
G0 X96.358 Y92.32
G0 X95.756 Y92.635
G0 X95.184 Y92.997
G0 X94.632 Y93.409
G0 X94.509 Y93.707
G0 X93.691 Y94.09
G0 X93.691 Y94.09
G1 F3204 X93.66 Y94.116 E77.14681
G0 F7800 X93.661 Y94.119
G1 F3204 X93.625 Y94.163 E77.1472
G0 F7800 X93.291 Y95.018
G0 X92.661 Y95.712
G0 X92.346 Y96.304
G0 X92.087 Y96.895
G0 X91.867 Y97.528
G0 X91.7 Y98.165
G0 X91.585 Y98.802
G0 X91.701 Y99.094
G0 X91.349 Y100
G0 X91.349 Y100
G1 F3204 X91.355 Y100.05 E77.14758
G0 F7800 X90.989 Y103.293
G0 X90.989 Y103.293
G1 F3204 X92.256 Y104.56 E77.19228
; Layer Change GCode
; LAYER:3
G0 F7800 X90.371 Y109.439 Z0.85
G0 X90.227 Y109.812
G0 X90.31 Y109.6
G0 X90.31 Y109.6
G0 X90.15 Y109.85
G0 X90.15 Y109.85
G0 X90.75 Y109.25
; TYPE:WALL-INNER
G1 F1566 X90.75 Y90.75 E77.65377
G1 X109.25 Y90.75 E78.11525
G1 X109.25 Y109.25 E78.57673
G1 X90.75 Y109.25 E79.03822
G0 F7800 X90.45 Y109.55
G1 F1566 X90.45 Y90.45 E79.51467
G1 X109.55 Y90.45 E79.99112
G1 X109.55 Y109.55 E80.46757
G1 X90.45 Y109.55 E80.94402
G0 F7800 X90.15 Y109.85
; TYPE:WALL-OUTER
G1 F1096.2 X90.15 Y90.15 E81.43544
G1 X109.85 Y90.15 E81.92686
G1 X109.85 Y109.85 E82.41828
G1 X90.15 Y109.85 E82.9097
G0 F7800 X90.31 Y109.6
G0 X92.986 Y107.094
G0 X93.279 Y106.821
G0 X93.83 Y106.307
G0 X93.83 Y106.307
; TYPE:WALL-INNER
G1 F1566 X93.87 Y106.266 E82.91113
G1 X94.591 Y106.878 E82.93472
G1 X95.125 Y107.265 E82.95117
G1 X95.7 Y107.621 E82.96804
G1 X96.301 Y107.929 E82.98489
G1 X96.925 Y108.192 E83.00178
G1 X97.566 Y108.404 E83.01862
G1 X98.222 Y108.567 E83.03548
G1 X99.25 Y108.739 E83.06148
G1 X99.25 Y108.784 E83.0626
G1 X99.461 Y108.775 E83.06787
G1 X99.749 Y108.823 E83.07515
G1 X99.749 Y108.762 E83.07668
G1 X100.746 Y108.718 E83.10157
G1 X101.468 Y108.625 E83.11973
G1 X102.213 Y108.466 E83.13873
G1 X102.911 Y108.251 E83.15695
G1 X103.602 Y107.973 E83.17553
G1 X104.268 Y107.639 E83.19412
G1 X104.904 Y107.246 E83.21277
G1 X105.783 Y106.594 E83.24007
G1 X105.816 Y106.627 E83.24123
G1 X105.961 Y106.461 E83.24673
G1 X106.189 Y106.292 E83.25381
G1 X106.147 Y106.25 E83.25529
G1 X106.815 Y105.486 E83.28061
G1 X107.269 Y104.87 E83.29969
G1 X107.667 Y104.216 E83.31879
G1 X108.006 Y103.529 E83.3379
G1 X108.291 Y102.796 E83.35752
G1 X108.498 Y102.078 E83.37616
G1 X108.652 Y101.31 E83.3957
G1 X108.765 Y100.25 E83.42229
G1 X108.819 Y100.25 E83.42364
G1 X108.792 Y99.997 E83.42999
G1 X108.818 Y99.751 E83.43616
G1 X108.765 Y99.751 E83.43748
G1 X108.649 Y98.674 E83.4645
G1 X108.496 Y97.907 E83.48401
G1 X108.275 Y97.155 E83.50356
G1 X107.996 Y96.445 E83.52259
G1 X107.636 Y95.728 E83.5426
G1 X107.234 Y95.079 E83.56165
G1 X106.767 Y94.451 E83.58117
G1 X106.049 Y93.655 E83.60791
G1 X106.089 Y93.614 E83.60934
G1 X105.869 Y93.455 E83.61611
G1 X105.714 Y93.283 E83.62189
G1 X105.68 Y93.318 E83.6231
G1 X104.823 Y92.698 E83.64949
G1 X104.212 Y92.331 E83.66727
G1 X103.56 Y92.006 E83.68544
G1 X102.865 Y91.731 E83.70409
G1 X102.182 Y91.527 E83.72187
G1 X101.454 Y91.371 E83.74044
G1 X100.729 Y91.279 E83.75867
G1 X99.75 Y91.239 E83.78311
G1 X99.75 Y91.177 E83.78466
G1 X99.449 Y91.227 E83.79227
G1 X99.25 Y91.219 E83.79724
G1 X99.25 Y91.26 E83.79826
G1 X98.217 Y91.432 E83.82438
G1 X97.541 Y91.602 E83.84177
G1 X96.895 Y91.818 E83.85876
G1 X96.255 Y92.092 E83.87613
G1 X95.636 Y92.415 E83.89355
G1 X95.045 Y92.786 E83.91095
G1 X94.473 Y93.215 E83.92879
G1 X93.75 Y93.853 E83.95284
G1 X93.711 Y93.814 E83.95422
G1 X93.547 Y94.032 E83.96102
G1 X93.375 Y94.184 E83.96675
G1 X93.408 Y94.217 E83.96791
G1 X92.802 Y95.023 E83.99307
G1 X92.446 Y95.582 E84.0096
G1 X92.12 Y96.194 E84.0269
G1 X91.855 Y96.8 E84.0434
G1 X91.627 Y97.455 E84.0607
G1 X91.455 Y98.111 E84.07761
G1 X91.338 Y98.763 E84.09414
G1 X91.235 Y99.75 E84.11889
G1 X91.183 Y99.75 E84.12019
G1 X91.209 Y99.999 E84.12643
G1 X91.183 Y100.249 E84.1327
G1 X91.235 Y100.249 E84.134
G1 X91.338 Y101.242 E84.1589
G1 X91.462 Y101.912 E84.1759
G1 X91.641 Y102.589 E84.19337
G1 X91.875 Y103.248 E84.21081
G1 X92.16 Y103.885 E84.22822
G1 X92.504 Y104.513 E84.24608
G1 X92.888 Y105.099 E84.26356
G1 X93.52 Y105.91 E84.28921
G1 X93.489 Y105.942 E84.29032
G1 X93.656 Y106.084 E84.29579
G1 X93.83 Y106.307 E84.30284
G0 F7800 X93.927 Y105.92
G1 F1566 X94.777 Y106.642 E84.33066
G1 X95.292 Y107.016 E84.34654
G1 X95.848 Y107.359 E84.36284
G1 X96.428 Y107.657 E84.3791
G1 X97.031 Y107.911 E84.39543
G1 X97.65 Y108.116 E84.41169
G1 X98.283 Y108.273 E84.42796
G1 X99.449 Y108.469 E84.45745
G1 X99.457 Y103.537 E84.58048
G1 X99.55 Y103.543 E84.58281
G1 X99.55 Y108.47 E84.70571
G1 X100.72 Y108.419 E84.73493
G1 X101.417 Y108.329 E84.75246
G1 X102.138 Y108.175 E84.77085
G1 X102.81 Y107.968 E84.78839
G1 X103.478 Y107.7 E84.80634
G1 X104.121 Y107.376 E84.8243
G1 X104.736 Y106.998 E84.84231
G1 X105.731 Y106.258 E84.87324
G1 X102.09 Y102.618 E85.00167
G1 X102.163 Y102.549 E85.00418
G1 X105.802 Y106.188 E85.13255
G1 X106.581 Y105.298 E85.16206
G1 X107.019 Y104.703 E85.18049
G1 X107.404 Y104.071 E85.19895
G1 X107.731 Y103.408 E85.21739
G1 X108.007 Y102.7 E85.23634
G1 X108.207 Y102.007 E85.25434
G1 X108.355 Y101.264 E85.27323
G1 X108.484 Y100.05 E85.30369
G1 X103.247 Y100.046 E85.43433
G1 X103.247 Y99.95 E85.43672
G1 X108.485 Y99.95 E85.56738
G1 X108.352 Y98.72 E85.59824
G1 X108.204 Y97.978 E85.61712
G1 X107.991 Y97.253 E85.63597
G1 X107.721 Y96.567 E85.65436
G1 X107.374 Y95.874 E85.67369
G1 X106.985 Y95.248 E85.69208
G1 X106.534 Y94.641 E85.71094
G1 X105.706 Y93.722 E85.7418
G1 X102.134 Y97.421 E85.87007
G1 X102.061 Y97.355 E85.87252
G1 X105.633 Y93.655 E86.00081
G1 X104.657 Y92.948 E86.03088
G1 X104.067 Y92.594 E86.04804
G1 X103.438 Y92.281 E86.06557
G1 X102.767 Y92.014 E86.08358
G1 X102.108 Y91.818 E86.10073
G1 X101.404 Y91.667 E86.11869
G1 X100.704 Y91.578 E86.13629
G1 X99.55 Y91.531 E86.1651
G1 X99.55 Y96.456 E86.28796
G1 X99.45 Y96.463 E86.29046
G1 X99.45 Y91.531 E86.41349
G1 X98.278 Y91.726 E86.44313
G1 X97.625 Y91.89 E86.45992
G1 X97.002 Y92.099 E86.47631
G1 X96.383 Y92.363 E86.4931
G1 X95.786 Y92.675 E86.5099
G1 X95.215 Y93.034 E86.52673
G1 X94.663 Y93.448 E86.54394
G1 X93.813 Y94.198 E86.57222
G1 X97.144 Y97.541 E86.68994
G1 X97.081 Y97.609 E86.69225
G1 X93.743 Y94.27 E86.81003
G1 X93.049 Y95.194 E86.83885
G1 X92.705 Y95.733 E86.8548
G1 X92.391 Y96.325 E86.87152
G1 X92.135 Y96.91 E86.88745
G1 X91.914 Y97.543 E86.90417
G1 X91.748 Y98.176 E86.9205
G1 X91.635 Y98.805 E86.93644
G1 X91.516 Y99.949 E86.96513
G1 X96.154 Y99.957 E87.08083
G1 X96.155 Y100.05 E87.08315
G1 X91.516 Y100.05 E87.19887
G1 X91.635 Y101.199 E87.22768
G1 X91.755 Y101.847 E87.24412
G1 X91.928 Y102.5 E87.26097
G1 X92.154 Y103.136 E87.27781
G1 X92.429 Y103.752 E87.29464
G1 X92.761 Y104.359 E87.31189
G1 X93.132 Y104.924 E87.32876
G1 X93.854 Y105.851 E87.35807
G1 X97.143 Y102.456 E87.47598
G1 X97.209 Y102.522 E87.47831
G1 X93.927 Y105.92 E87.59615
G0 F7800 X93.892 Y105.906
G0 X93.947 Y105.919
G0 X94.747 Y106.681
G0 X95.265 Y107.057
G0 X95.823 Y107.402
G0 X96.407 Y107.702
G0 X97.014 Y107.957
G0 X97.637 Y108.163
G0 X98.274 Y108.321
G0 X99.428 Y108.444
G0 X99.485 Y108.111
G0 X99.6 Y108.157
G0 X99.6 Y108.157
G0 X99.85 Y108.157
; TYPE:WALL-OUTER
G1 F1096.2 X100.694 Y108.12 E87.61723
G1 X101.366 Y108.033 E87.63413
G1 X102.062 Y107.884 E87.65188
G1 X102.71 Y107.685 E87.66879
G1 X103.355 Y107.426 E87.68613
G1 X103.975 Y107.114 E87.70345
G1 X104.567 Y106.749 E87.7208
G1 X105.273 Y106.225 E87.74273
G1 X101.644 Y102.597 E87.87073
G1 X101.781 Y102.495 E87.87499
G1 X102.038 Y102.256 E87.88375
G1 X102.157 Y102.119 E87.88827
G1 X105.787 Y105.749 E88.01633
G1 X106.347 Y105.11 E88.03753
G1 X106.77 Y104.536 E88.05531
G1 X107.141 Y103.926 E88.07312
G1 X107.456 Y103.287 E88.09089
G1 X107.722 Y102.604 E88.10918
G1 X107.915 Y101.936 E88.12652
G1 X108.058 Y101.219 E88.14476
G1 X108.151 Y100.35 E88.16656
G1 X102.923 Y100.346 E88.29698
G1 X102.95 Y100 E88.30563
G1 X102.921 Y99.65 E88.31439
G1 X108.151 Y99.65 E88.44486
G1 X108.055 Y98.765 E88.46706
G1 X107.913 Y98.05 E88.48525
G1 X107.707 Y97.35 E88.50345
G1 X107.447 Y96.69 E88.52114
G1 X107.112 Y96.021 E88.53981
G1 X106.737 Y95.417 E88.55754
G1 X106.302 Y94.832 E88.57573
G1 X105.699 Y94.162 E88.59821
G1 X102.134 Y97.854 E88.72624
G1 X102.015 Y97.719 E88.73073
G1 X101.755 Y97.482 E88.7395
G1 X101.617 Y97.382 E88.74375
G1 X105.177 Y93.695 E88.8716
G1 X104.492 Y93.199 E88.8927
G1 X103.923 Y92.857 E88.90926
G1 X103.315 Y92.555 E88.92619
G1 X102.668 Y92.298 E88.94356
G1 X102.033 Y92.109 E88.96009
G1 X101.353 Y91.963 E88.97744
G1 X100.679 Y91.877 E88.99438
G1 X99.85 Y91.844 E89.01508
G1 X99.85 Y96.758 E89.13766
G1 X99.662 Y96.75 E89.14235
G1 X99.32 Y96.772 E89.1509
G1 X99.15 Y96.801 E89.15521
G1 X99.15 Y91.885 E89.27784
G1 X98.339 Y92.02 E89.29834
G1 X97.71 Y92.178 E89.31452
G1 X97.109 Y92.38 E89.33034
G1 X96.512 Y92.634 E89.34652
G1 X95.935 Y92.936 E89.36277
G1 X95.385 Y93.281 E89.37896
G1 X94.852 Y93.681 E89.39559
G1 X94.25 Y94.212 E89.41561
G1 X97.575 Y97.547 E89.53309
G1 X97.443 Y97.661 E89.53744
G1 X97.204 Y97.918 E89.54619
G1 X97.102 Y98.055 E89.55045
G1 X93.775 Y94.727 E89.66784
G1 X93.296 Y95.365 E89.68774
G1 X92.964 Y95.884 E89.70311
G1 X92.661 Y96.456 E89.71926
G1 X92.414 Y97.019 E89.73459
G1 X92.201 Y97.63 E89.75073
G1 X92.041 Y98.241 E89.76649
G1 X91.932 Y98.847 E89.78185
G1 X91.849 Y99.65 E89.80199
G1 X96.472 Y99.658 E89.91731
G1 X96.454 Y99.832 E89.92167
G1 X96.455 Y100.183 E89.93043
G1 X96.473 Y100.35 E89.93462
G1 X91.849 Y100.35 E90.04996
G1 X91.932 Y101.156 E90.07017
G1 X92.048 Y101.781 E90.08603
G1 X92.215 Y102.411 E90.10229
G1 X92.433 Y103.025 E90.11854
G1 X92.698 Y103.619 E90.13477
G1 X93.018 Y104.204 E90.1514
G1 X93.376 Y104.749 E90.16767
G1 X93.879 Y105.394 E90.18807
G1 X97.154 Y102.013 E90.30549
G1 X97.261 Y102.148 E90.30979
G1 X97.507 Y102.398 E90.31854
G1 X97.64 Y102.508 E90.32284
G1 X94.365 Y105.899 E90.44044
G1 X94.962 Y106.406 E90.45998
G1 X95.459 Y106.767 E90.4753
G1 X95.995 Y107.098 E90.49102
G1 X96.555 Y107.385 E90.50671
G1 X97.136 Y107.63 E90.52244
G1 X97.733 Y107.827 E90.53812
G1 X98.344 Y107.979 E90.55383
G1 X99.15 Y108.114 E90.57422
G1 X99.158 Y103.199 E90.69682
G1 X99.32 Y103.227 E90.70092
G1 X99.67 Y103.249 E90.70967
G1 X99.85 Y103.242 E90.71416
G1 X99.85 Y108.157 E90.83677
G0 F7800 X99.532 Y108.634
; TYPE:FILL
G1 F3132 X99.499 Y108.636 E90.83712
G0 F7800 X99.898 Y109.002
G1 F3132 X100.758 Y108.983 E90.85107
G0 F7800 X101.425 Y109.009
G1 F3132 X101.591 Y108.843 E90.85693
G0 F7800 X101.849 Y109.009
G1 F3132 X102.13 Y108.728 E90.86684
G0 F7800 X102.273 Y109.009
G1 F3132 X102.724 Y108.558 E90.88275
G0 F7800 X102.698 Y109.009
G1 F3132 X103.393 Y108.314 E90.90727
G0 F7800 X103.546 Y109.009
G1 F3132 X105.321 Y107.234 E90.96989
G0 F7800 X105.884 Y106.341
G1 F3132 X105.909 Y106.313 E90.97026
G0 F7800 X107.227 Y105.328
G0 X107.227 Y105.328
G1 F3132 X109.008 Y103.547 E91.03309
G0 F7800 X109.008 Y103.123
G1 F3132 X107.951 Y104.18 E91.07038
G0 F7800 X108.316 Y103.391
G1 F3132 X109.008 Y102.699 E91.09479
G0 F7800 X109.008 Y102.275
G1 F3132 X108.561 Y102.722 E91.11056
G0 F7800 X108.732 Y102.126
G1 F3132 X109.008 Y101.85 E91.1203
G0 F7800 X108.838 Y101.596
G1 F3132 X109.008 Y101.426 E91.12629
G0 F7800 X108.95 Y101.332
G1 F3132 X109 Y100.4 E91.14182
G0 F7800 X109.043 Y100.396
G1 F3132 X109.021 Y99.996 E91.14558
G1 X109.042 Y99.605 E91.14936
G0 F7800 X108.645 Y99.95
G1 F3132 X108.651 Y99.999 E91.14974
G0 F7800 X108.876 Y98.589
G1 F3132 X109.005 Y98.459 E91.15431
G0 F7800 X108.806 Y98.234
G1 F3132 X109.006 Y98.034 E91.16137
G0 F7800 X108.735 Y97.881
G1 F3132 X109.006 Y97.61 E91.17093
G0 F7800 X108.641 Y97.551
G1 F3132 X109.006 Y97.186 E91.1838
G0 F7800 X109.006 Y96.761
G1 F3132 X108.544 Y97.223 E91.2001
G0 F7800 X108.434 Y96.908
G1 F3132 X109.006 Y96.336 E91.22028
G0 F7800 X109.006 Y95.912
G1 F3132 X108.315 Y96.604 E91.24467
G0 F7800 X108.192 Y96.302
G1 F3132 X109.006 Y95.488 E91.27339
G0 F7800 X109.007 Y95.063
G1 F3132 X108.05 Y96.02 E91.30715
G0 F7800 X107.908 Y95.738
G1 F3132 X109.007 Y94.639 E91.34592
G0 F7800 X109.007 Y94.214
G1 F3132 X107.756 Y95.466 E91.39007
G0 F7800 X107.593 Y95.204
G1 F3132 X109.008 Y93.789 E91.43999
G0 F7800 X109.008 Y93.365
G1 F3132 X107.431 Y94.942 E91.49562
G0 F7800 X107.25 Y94.699
G1 F3132 X109.008 Y92.941 E91.55764
G0 F7800 X109.008 Y92.516
G1 F3132 X107.069 Y94.456 E91.62606
G0 F7800 X106.881 Y94.219
G1 F3132 X109.008 Y92.092 E91.7011
G0 F7800 X109.008 Y91.667
G1 F3132 X106.679 Y93.997 E91.78328
G0 F7800 X106.478 Y93.773
G1 F3132 X109.009 Y91.242 E91.87256
G0 F7800 X108.838 Y90.989
G1 F3132 X106.333 Y93.495 E91.96095
G0 F7800 X106.087 Y93.316
G1 F3132 X108.414 Y90.989 E92.04304
G0 F7800 X107.99 Y90.989
G1 F3132 X105.875 Y93.104 E92.11766
G0 F7800 X105.595 Y92.96
G1 F3132 X107.565 Y90.989 E92.18717
G0 F7800 X107.141 Y90.989
G1 F3132 X105.349 Y92.782 E92.25041
G0 F7800 X105.102 Y92.604
G1 F3132 X106.717 Y90.989 E92.30738
G0 F7800 X106.292 Y90.989
G1 F3132 X104.849 Y92.433 E92.3583
G0 F7800 X104.583 Y92.275
G1 F3132 X105.868 Y90.989 E92.40365
G0 F7800 X105.444 Y90.989
G1 F3132 X104.317 Y92.116 E92.44341
G0 F7800 X104.034 Y91.975
G1 F3132 X105.02 Y90.989 E92.47819
G0 F7800 X104.595 Y90.989
G1 F3132 X103.75 Y91.834 E92.508
G0 F7800 X103.454 Y91.706
G1 F3132 X104.171 Y90.989 E92.5333
G0 F7800 X103.747 Y90.989
G1 F3132 X103.15 Y91.586 E92.55436
G0 F7800 X102.839 Y91.473
G1 F3132 X103.323 Y90.989 E92.57143
G0 F7800 X102.898 Y90.989
G1 F3132 X102.513 Y91.375 E92.58503
G0 F7800 X102.181 Y91.282
G1 F3132 X102.474 Y90.989 E92.59537
G0 F7800 X102.05 Y90.989
G1 F3132 X101.832 Y91.207 E92.60306
G0 F7800 X101.626 Y90.989
G1 F3132 X101.482 Y91.133 E92.60814
G0 F7800 X100.741 Y91.014
G1 F3132 X99.9 Y90.997 E92.62178
G0 F7800 X99.893 Y90.951
G1 F3132 X99.439 Y90.988 E92.62564
G1 X99.101 Y90.982 E92.63025
G0 F7800 X98.656 Y90.989
G1 F3132 X98.505 Y91.14 E92.63558
G0 F7800 X98.231 Y90.989
G1 F3132 X97.977 Y91.244 E92.64456
G0 F7800 X97.807 Y90.989
G1 F3132 X97.402 Y91.394 E92.65884
G0 F7800 X97.383 Y90.989
G1 F3132 X96.759 Y91.614 E92.68088
G0 F7800 X96.959 Y90.989
G1 F3132 X95.989 Y91.959 E92.71509
G0 F7800 X96.11 Y90.989
G1 F3132 X90.989 Y96.11 E92.89575
G0 F7800 X90.989 Y96.534
G1 F3132 X92.544 Y94.98 E92.95059
G0 F7800 X91.952 Y95.996
G1 F3132 X90.989 Y96.959 E92.98456
G0 F7800 X90.989 Y97.383
G1 F3132 X91.614 Y96.758 E93.00661
G0 F7800 X91.392 Y97.404
G1 F3132 X90.989 Y97.807 E93.02083
G0 F7800 X91.24 Y97.981
G1 F3132 X90.989 Y98.231 E93.02967
G0 F7800 X91.139 Y98.506
G1 F3132 X90.989 Y98.656 E93.03496
G0 F7800 X91.044 Y98.741
G1 F3132 X90.999 Y99.6 E93.04919
G0 F7800 X90.958 Y99.603
G1 F3132 X90.979 Y99.996 E93.05302
G1 X90.958 Y100.393 E93.05689
G0 F7800 X91 Y100.398
G1 F3132 X91.044 Y101.263 E93.07129
G0 F7800 X91.137 Y101.478
G1 F3132 X90.989 Y101.626 E93.07651
G0 F7800 X91.203 Y101.836
G1 F3132 X90.989 Y102.05 E93.08406
G0 F7800 X91.284 Y102.179
G1 F3132 X90.989 Y102.474 E93.09447
G0 F7800 X91.373 Y102.514
G1 F3132 X90.989 Y102.898 E93.10802
G0 F7800 X90.989 Y103.323
G1 F3132 X91.475 Y102.837 E93.12516
G0 F7800 X91.585 Y103.151
G1 F3132 X90.989 Y103.747 E93.14619
G0 F7800 X90.989 Y104.171
G1 F3132 X91.705 Y103.456 E93.17143
G0 F7800 X91.836 Y103.748
G1 F3132 X90.989 Y104.595 E93.20131
G0 F7800 X90.989 Y105.02
G1 F3132 X91.971 Y104.038 E93.23595
G0 F7800 X92.121 Y104.312
G1 F3132 X90.989 Y105.444 E93.27588
G0 F7800 X90.989 Y105.868
G1 F3132 X92.271 Y104.586 E93.32111
G0 F7800 X92.436 Y104.846
G1 F3132 X90.989 Y106.292 E93.37214
G0 F7800 X90.989 Y106.717
G1 F3132 X92.604 Y105.102 E93.42911
G0 F7800 X92.78 Y105.351
G1 F3132 X90.989 Y107.141 E93.49228
G0 F7800 X90.989 Y107.565
G1 F3132 X92.966 Y105.589 E93.562
G0 F7800 X93.152 Y105.827
G1 F3132 X90.989 Y107.99 E93.63831
G0 F7800 X90.989 Y108.414
G1 F3132 X93.304 Y106.099 E93.71998
G0 F7800 X93.523 Y106.305
G1 F3132 X90.989 Y108.838 E93.80935
G0 F7800 X91.242 Y109.009
G1 F3132 X93.71 Y106.542 E93.8964
G0 F7800 X93.992 Y106.684
G1 F3132 X91.667 Y109.009 E93.97842
G0 F7800 X92.091 Y109.009
G1 F3132 X94.221 Y106.879 E94.05356
G0 F7800 X94.452 Y107.072
G1 F3132 X92.515 Y109.009 E94.1219
G0 F7800 X92.939 Y109.009
G1 F3132 X94.698 Y107.251 E94.18393
G0 F7800 X94.944 Y107.429
G1 F3132 X93.364 Y109.009 E94.23967
G0 F7800 X93.788 Y109.009
G1 F3132 X95.204 Y107.594 E94.28961
G0 F7800 X95.465 Y107.756
G1 F3132 X94.212 Y109.009 E94.33381
G0 F7800 X94.637 Y109.009
G1 F3132 X95.737 Y107.909 E94.37261
G0 F7800 X96.018 Y108.052
G1 F3132 X95.061 Y109.009 E94.40638
G0 F7800 X95.485 Y109.009
G1 F3132 X96.304 Y108.19 E94.43527
G0 F7800 X96.603 Y108.316
G1 F3132 X95.909 Y109.009 E94.45973
G0 F7800 X96.334 Y109.009
G1 F3132 X96.906 Y108.437 E94.47991
G0 F7800 X97.225 Y108.543
G1 F3132 X96.758 Y109.009 E94.49637
G0 F7800 X97.182 Y109.009
G1 F3132 X97.546 Y108.645 E94.50921
G0 F7800 X97.886 Y108.73
G1 F3132 X97.606 Y109.009 E94.51907
G0 F7800 X98.031 Y109.009
G1 F3132 X98.229 Y108.811 E94.52606
G0 F7800 X98.455 Y109.009
G1 F3132 X98.593 Y108.871 E94.53092
G0 F7800 X99.101 Y109.02
G1 F3132 X99.449 Y109.012 E94.53553
G1 X99.89 Y109.049 E94.53932
G0 F7800 X103.122 Y109.009
G0 X103.122 Y109.009
G1 F3132 X104.182 Y107.949 E94.57671
G0 F7800 X103.97 Y109.009
G1 F3132 X109.008 Y103.971 E94.75444
G0 F7800 X109.008 Y104.395
G1 F3132 X104.395 Y109.009 E94.91719
G0 F7800 X104.819 Y109.009
G1 F3132 X109.008 Y104.82 E95.06497
G0 F7800 X109.008 Y105.244
G1 F3132 X105.243 Y109.009 E95.19779
G0 F7800 X105.667 Y109.009
G1 F3132 X109.008 Y105.668 E95.31565
G0 F7800 X109.008 Y106.092
G1 F3132 X106.092 Y109.009 E95.41854
G0 F7800 X106.516 Y109.009
G1 F3132 X109.008 Y106.517 E95.50645
G0 F7800 X109.008 Y106.941
G1 F3132 X106.94 Y109.009 E95.57941
G0 F7800 X107.364 Y109.009
G1 F3132 X109.009 Y107.364 E95.63744
G0 F7800 X109.009 Y107.789
G1 F3132 X107.789 Y109.009 E95.68048
G0 F7800 X108.213 Y109.009
G1 F3132 X109.009 Y108.213 E95.70856
G0 F7800 X109.009 Y108.637
G1 F3132 X108.637 Y109.009 E95.72168
G0 F7800 X102.954 Y107.865
G0 X102.826 Y108.014
G0 X102.15 Y108.223
G0 X101.425 Y108.378
G0 X100.724 Y108.468
G0 X99.562 Y108.458
G0 X99.561 Y103.541
G0 X99.666 Y103.599
G0 X99.443 Y103.522
G0 X99.428 Y108.444
G0 X98.274 Y108.321
G0 X97.637 Y108.163
G0 X97.014 Y107.957
G0 X96.407 Y107.702
G0 X95.823 Y107.402
G0 X95.265 Y107.057
G0 X94.747 Y106.681
G0 X94.235 Y106.112
G0 X93.801 Y106.026
G0 X93.801 Y106.026
G1 F3132 X93.775 Y106.005 E95.72203
G0 F7800 X93.423 Y105.143
G0 X93.092 Y104.953
G0 X92.719 Y104.384
G0 X92.384 Y103.773
G0 X92.108 Y103.155
G0 X91.88 Y102.515
G0 X91.706 Y101.857
G0 X91.683 Y100.861
G0 X91.354 Y100.048
G0 X91.354 Y100.048
G1 F3132 X91.349 Y100 E95.72241
G0 F7800 X90.989 Y95.686
G0 X90.989 Y95.686
G1 F3132 X95.686 Y90.989 E95.88811
G0 F7800 X95.262 Y90.989
G1 F3132 X90.989 Y95.262 E96.03886
G0 F7800 X90.989 Y94.837
G1 F3132 X94.837 Y90.989 E96.1746
G0 F7800 X94.413 Y90.989
G1 F3132 X90.989 Y94.413 E96.29539
G0 F7800 X90.989 Y93.989
G1 F3132 X93.989 Y90.989 E96.40123
G0 F7800 X93.565 Y90.989
G1 F3132 X90.989 Y93.565 E96.4921
G0 F7800 X90.989 Y93.14
G1 F3132 X93.14 Y90.989 E96.56799
G0 F7800 X92.716 Y90.989
G1 F3132 X90.989 Y92.716 E96.62891
G0 F7800 X90.989 Y92.292
G1 F3132 X92.292 Y90.989 E96.67488
G0 F7800 X91.868 Y90.989
G1 F3132 X90.989 Y91.868 E96.70589
G0 F7800 X90.989 Y91.443
G1 F3132 X91.443 Y90.989 E96.7219
G0 F7800 X91.019 Y90.989
G1 F3132 X90.989 Y91.019 E96.72296
G0 F7800 X93.66 Y94.116
G0 X93.66 Y94.116
G1 F3132 X93.691 Y94.09 E96.72335
G0 F7800 X93.661 Y94.119
G1 F3132 X93.625 Y94.163 E96.72373
G0 F7800 X94.982 Y92.542
G0 X94.982 Y92.542
G1 F3132 X96.534 Y90.989 E96.7785
G0 F7800 X99.5 Y91.376
G0 X99.5 Y91.376
G1 F3132 X99.5 Y91.379 E96.77855
G1 X99.529 Y91.377 E96.77889
G0 F7800 X100.33 Y91.654
G0 X100.707 Y91.529
G0 X101.411 Y91.618
G0 X102.119 Y91.77
G0 X102.782 Y91.968
G0 X103.457 Y92.236
G0 X104.091 Y92.551
G0 X104.984 Y93.271
G0 X105.739 Y93.534
G0 X105.739 Y93.534
G1 F3132 X105.783 Y93.568 E96.7793
G0 F7800 X105.785 Y93.568
G1 F3132 X105.814 Y93.6 E96.77969
; Layer Change GCode
; LAYER:4
G1 F1800 E95.77969
G0 F7800 X102.155 Y97.374 Z1.05
G0 X102.275 Y97.485
G0 X102.148 Y97.434
G0 X105.706 Y93.742
G0 X106.575 Y94.615
G0 X107.029 Y95.224
G0 X107.417 Y95.851
G0 X107.767 Y96.552
G0 X108.038 Y97.237
G0 X108.253 Y97.967
G0 X108.401 Y98.712
G0 X108.466 Y99.933
G0 X103.232 Y99.935
G0 X103.301 Y100
G0 X103.232 Y100.06
G0 X108.466 Y100.067
G0 X108.404 Y101.271
G0 X108.254 Y102.022
G0 X108.053 Y102.716
G0 X107.775 Y103.431
G0 X107.445 Y104.099
G0 X107.057 Y104.734
G0 X106.616 Y105.333
G0 X105.8 Y106.169
G0 X102.17 Y102.538
G0 X102.279 Y102.508
G0 X102.072 Y102.617
G0 X105.701 Y106.256
G0 X104.759 Y107.041
G0 X104.141 Y107.421
G0 X103.494 Y107.747
G0 X102.821 Y108.015
G0 X102.15 Y108.223
G0 X101.421 Y108.379
G0 X100.724 Y108.468
G0 X99.562 Y108.458
G0 X99.563 Y103.542
G0 X99.659 Y103.599
G0 X99.436 Y103.521
G0 X99.429 Y108.444
G0 X98.27 Y108.32
G0 X97.632 Y108.162
G0 X97.009 Y107.955
G0 X96.404 Y107.7
G0 X95.819 Y107.4
G0 X95.261 Y107.055
G0 X94.746 Y106.681
G0 X93.947 Y105.919
G0 X97.221 Y102.532
G0 X97.265 Y102.651
G0 X97.153 Y102.536
G0 X90.438 Y109.467
G0 X90.159 Y109.754
G0 X90.31 Y109.6
G0 X90.31 Y109.6
G0 X90.15 Y109.85
G0 X90.15 Y109.85
G0 X90.75 Y109.25
; TYPE:WALL-INNER
G1 F1800 E96.77969
G1 F1584 X90.75 Y90.75 E97.24118
G1 X109.25 Y90.75 E97.70266
G1 X109.25 Y109.25 E98.16415
G1 X90.75 Y109.25 E98.62563
G0 F7800 X90.45 Y109.55
G1 F1584 X90.45 Y90.45 E99.10208
G1 X109.55 Y90.45 E99.57854
G1 X109.55 Y109.55 E100.05499
G1 X90.45 Y109.55 E100.53144
G0 F7800 X90.15 Y109.85
; TYPE:WALL-OUTER
G1 F1108.8 X90.15 Y90.15 E101.02286
G1 X109.85 Y90.15 E101.51428
G1 X109.85 Y109.85 E102.00569
G1 X90.15 Y109.85 E102.49711
G0 F7800 X90.31 Y109.6
G0 X92.963 Y107.118
G0 X93.255 Y106.845
G0 X93.831 Y106.308
G0 X93.831 Y106.308
; TYPE:WALL-INNER
G1 F1584 X93.871 Y106.267 E102.49854
G1 X94.591 Y106.878 E102.5221
G1 X95.121 Y107.263 E102.53844
G1 X95.696 Y107.619 E102.55531
G1 X96.298 Y107.927 E102.57218
G1 X96.921 Y108.189 E102.58904
G1 X97.562 Y108.403 E102.60589
G1 X98.218 Y108.566 E102.62275
G1 X99.25 Y108.74 E102.64886
G1 X99.25 Y108.784 E102.64996
G1 X99.458 Y108.775 E102.65515
G1 X99.75 Y108.824 E102.66254
G1 X99.75 Y108.762 E102.66408
G1 X100.745 Y108.718 E102.68893
G1 X101.463 Y108.626 E102.70699
G1 X102.214 Y108.465 E102.72615
G1 X102.905 Y108.252 E102.74418
G1 X103.597 Y107.976 E102.76277
G1 X104.264 Y107.641 E102.78139
G1 X104.9 Y107.249 E102.80002
G1 X105.783 Y106.594 E102.82745
G1 X105.816 Y106.627 E102.82861
G1 X105.961 Y106.461 E102.83411
G1 X106.189 Y106.292 E102.84119
G1 X106.147 Y106.25 E102.84267
G1 X106.812 Y105.49 E102.86786
G1 X107.265 Y104.874 E102.88694
G1 X107.665 Y104.22 E102.90606
G1 X108.004 Y103.533 E102.92517
G1 X108.291 Y102.797 E102.94488
G1 X108.497 Y102.082 E102.96344
G1 X108.652 Y101.31 E102.98308
G1 X108.765 Y100.25 E103.00967
G1 X108.819 Y100.25 E103.01102
G1 X108.792 Y99.997 E103.01736
G1 X108.818 Y99.751 E103.02354
G1 X108.765 Y99.751 E103.02486
G1 X108.649 Y98.674 E103.05188
G1 X108.496 Y97.907 E103.07139
G1 X108.275 Y97.155 E103.09094
G1 X107.997 Y96.449 E103.10987
G1 X107.637 Y95.728 E103.12997
G1 X107.237 Y95.083 E103.1489
G1 X106.77 Y94.455 E103.16843
G1 X106.05 Y93.655 E103.19527
G1 X106.089 Y93.614 E103.19669
G1 X105.871 Y93.456 E103.2034
G1 X105.714 Y93.282 E103.20925
G1 X105.68 Y93.318 E103.21048
G1 X104.823 Y92.698 E103.23687
G1 X104.216 Y92.333 E103.25454
G1 X103.564 Y92.009 E103.2727
G1 X102.865 Y91.731 E103.29146
G1 X102.186 Y91.528 E103.30914
G1 X101.454 Y91.371 E103.32782
G1 X100.729 Y91.279 E103.34605
G1 X99.75 Y91.239 E103.37049
G1 X99.75 Y91.177 E103.37204
G1 X99.449 Y91.227 E103.37965
G1 X99.25 Y91.219 E103.38462
G1 X99.25 Y91.26 E103.38564
G1 X98.217 Y91.432 E103.41176
G1 X97.541 Y91.602 E103.42915
G1 X96.899 Y91.817 E103.44604
G1 X96.259 Y92.089 E103.46338
G1 X95.64 Y92.413 E103.48081
G1 X95.049 Y92.784 E103.49822
G1 X94.473 Y93.215 E103.51617
G1 X93.75 Y93.853 E103.54022
G1 X93.711 Y93.814 E103.54159
G1 X93.547 Y94.033 E103.54842
G1 X93.374 Y94.185 E103.55416
G1 X93.407 Y94.218 E103.55533
G1 X92.802 Y95.023 E103.58045
G1 X92.449 Y95.578 E103.59686
G1 X92.12 Y96.194 E103.61428
G1 X91.857 Y96.796 E103.63066
G1 X91.627 Y97.455 E103.64807
G1 X91.455 Y98.111 E103.66499
G1 X91.338 Y98.758 E103.68139
G1 X91.235 Y99.75 E103.70627
G1 X91.183 Y99.75 E103.70757
G1 X91.209 Y100 E103.71384
G1 X91.183 Y100.25 E103.72011
G1 X91.235 Y100.25 E103.72141
G1 X91.338 Y101.242 E103.74628
G1 X91.461 Y101.908 E103.76318
G1 X91.64 Y102.583 E103.7806
G1 X91.873 Y103.243 E103.79806
G1 X92.159 Y103.882 E103.81552
G1 X92.503 Y104.513 E103.83345
G1 X92.888 Y105.099 E103.85094
G1 X93.52 Y105.91 E103.87659
G1 X93.489 Y105.942 E103.8777
G1 X93.656 Y106.084 E103.88317
G1 X93.831 Y106.308 E103.89026
G0 F7800 X93.927 Y105.92
G1 F1584 X94.777 Y106.642 E103.91808
G1 X95.288 Y107.014 E103.93384
G1 X95.844 Y107.357 E103.95014
G1 X96.425 Y107.655 E103.96643
G1 X97.026 Y107.908 E103.9827
G1 X97.646 Y108.115 E103.999
G1 X98.279 Y108.272 E104.01527
G1 X99.45 Y108.469 E104.04489
G1 X99.45 Y103.536 E104.16795
G1 X99.55 Y103.543 E104.17045
G1 X99.55 Y108.47 E104.29335
G1 X100.72 Y108.419 E104.32256
G1 X101.413 Y108.33 E104.33999
G1 X102.138 Y108.175 E104.35849
G1 X102.805 Y107.969 E104.3759
G1 X103.474 Y107.702 E104.39387
G1 X104.117 Y107.378 E104.41183
G1 X104.732 Y107 E104.42984
G1 X105.731 Y106.259 E104.46086
G1 X102.088 Y102.617 E104.58936
G1 X102.163 Y102.549 E104.59189
G1 X105.802 Y106.188 E104.72026
G1 X106.578 Y105.302 E104.74964
G1 X107.016 Y104.707 E104.76807
G1 X107.402 Y104.075 E104.78655
G1 X107.729 Y103.412 E104.80499
G1 X108.007 Y102.7 E104.82405
G1 X108.206 Y102.011 E104.84194
G1 X108.355 Y101.264 E104.86095
G1 X108.484 Y100.05 E104.8914
G1 X103.247 Y100.045 E105.02204
G1 X103.247 Y99.95 E105.02441
G1 X108.485 Y99.95 E105.15507
G1 X108.352 Y98.72 E105.18593
G1 X108.204 Y97.978 E105.2048
G1 X107.991 Y97.253 E105.22365
G1 X107.722 Y96.572 E105.24192
G1 X107.374 Y95.875 E105.26135
G1 X106.988 Y95.252 E105.27963
G1 X106.538 Y94.646 E105.29846
G1 X105.707 Y93.722 E105.32946
G1 X102.133 Y97.422 E105.45779
G1 X102.061 Y97.355 E105.46024
G1 X105.633 Y93.655 E105.58853
G1 X104.657 Y92.948 E105.61859
G1 X104.071 Y92.596 E105.63564
G1 X103.442 Y92.283 E105.65317
G1 X102.767 Y92.015 E105.67129
G1 X102.112 Y91.819 E105.68834
G1 X101.404 Y91.667 E105.70641
G1 X100.704 Y91.578 E105.72401
G1 X99.55 Y91.531 E105.75282
G1 X99.55 Y96.457 E105.8757
G1 X99.45 Y96.463 E105.8782
G1 X99.45 Y91.531 E106.00123
G1 X98.278 Y91.726 E106.03086
G1 X97.625 Y91.89 E106.04766
G1 X97.006 Y92.098 E106.06395
G1 X96.387 Y92.361 E106.08073
G1 X95.79 Y92.673 E106.09753
G1 X95.219 Y93.032 E106.11435
G1 X94.663 Y93.448 E106.13168
G1 X93.812 Y94.199 E106.15999
G1 X97.15 Y97.536 E106.27773
G1 X97.081 Y97.61 E106.28025
G1 X93.743 Y94.27 E106.39804
G1 X93.049 Y95.194 E106.42687
G1 X92.708 Y95.729 E106.4427
G1 X92.391 Y96.325 E106.45954
G1 X92.137 Y96.905 E106.47533
G1 X91.914 Y97.543 E106.49219
G1 X91.748 Y98.176 E106.50851
G1 X91.635 Y98.801 E106.52436
G1 X91.516 Y99.95 E106.55317
G1 X96.154 Y99.95 E106.66887
G1 X96.154 Y100.05 E106.67136
G1 X91.516 Y100.05 E106.78706
G1 X91.635 Y101.199 E106.81587
G1 X91.754 Y101.843 E106.83221
G1 X91.927 Y102.495 E106.84904
G1 X92.152 Y103.132 E106.86589
G1 X92.428 Y103.749 E106.88275
G1 X92.761 Y104.359 E106.90009
G1 X93.132 Y104.924 E106.91695
G1 X93.855 Y105.851 E106.94627
G1 X97.138 Y102.451 E107.06417
G1 X97.208 Y102.523 E107.06668
G1 X93.927 Y105.92 E107.18449
G0 F7800 X93.892 Y105.906
G0 X93.947 Y105.919
G0 X94.746 Y106.681
G0 X95.261 Y107.055
G0 X95.819 Y107.4
G0 X96.404 Y107.7
G0 X97.009 Y107.955
G0 X97.632 Y108.162
G0 X98.27 Y108.32
G0 X99.429 Y108.444
G0 X99.486 Y108.111
G0 X99.6 Y108.157
G0 X99.6 Y108.157
G0 X99.85 Y108.157
; TYPE:WALL-OUTER
G1 F1108.8 X100.694 Y108.12 E107.20556
G1 X101.362 Y108.034 E107.22236
G1 X102.062 Y107.884 E107.24022
G1 X102.705 Y107.686 E107.257
G1 X103.351 Y107.428 E107.27435
G1 X103.971 Y107.116 E107.29167
G1 X104.563 Y106.751 E107.30902
G1 X105.273 Y106.225 E107.33106
G1 X101.644 Y102.597 E107.45906
G1 X101.772 Y102.501 E107.46305
G1 X102.03 Y102.264 E107.47179
G1 X102.157 Y102.119 E107.4766
G1 X105.787 Y105.749 E107.60466
G1 X106.344 Y105.114 E107.62573
G1 X106.767 Y104.54 E107.64352
G1 X107.139 Y103.93 E107.66134
G1 X107.454 Y103.291 E107.67911
G1 X107.722 Y102.604 E107.69751
G1 X107.914 Y101.94 E107.71475
G1 X108.058 Y101.219 E107.73309
G1 X108.151 Y100.35 E107.75489
G1 X102.923 Y100.345 E107.8853
G1 X102.95 Y100 E107.89393
G1 X102.921 Y99.65 E107.9027
G1 X108.151 Y99.65 E108.03316
G1 X108.055 Y98.765 E108.05536
G1 X107.913 Y98.05 E108.07355
G1 X107.707 Y97.35 E108.09175
G1 X107.448 Y96.694 E108.10934
G1 X107.112 Y96.021 E108.12811
G1 X106.74 Y95.421 E108.14572
G1 X106.305 Y94.836 E108.1639
G1 X105.699 Y94.162 E108.18651
G1 X102.134 Y97.854 E108.31454
G1 X102.022 Y97.727 E108.31876
G1 X101.763 Y97.489 E108.32754
G1 X101.617 Y97.382 E108.33205
G1 X105.177 Y93.695 E108.4599
G1 X104.492 Y93.199 E108.481
G1 X103.927 Y92.859 E108.49745
G1 X103.319 Y92.557 E108.51438
G1 X102.668 Y92.298 E108.53186
G1 X102.037 Y92.11 E108.54828
G1 X101.353 Y91.963 E108.56573
G1 X100.679 Y91.877 E108.58268
G1 X99.85 Y91.844 E108.60338
G1 X99.85 Y96.757 E108.72593
G1 X99.674 Y96.75 E108.73033
G1 X99.323 Y96.772 E108.7391
G1 X99.15 Y96.802 E108.74348
G1 X99.15 Y91.885 E108.86614
G1 X98.339 Y92.02 E108.88664
G1 X97.71 Y92.178 E108.90282
G1 X97.113 Y92.379 E108.91854
G1 X96.516 Y92.632 E108.93471
G1 X95.939 Y92.934 E108.95096
G1 X95.389 Y93.279 E108.96715
G1 X94.852 Y93.681 E108.98388
G1 X94.25 Y94.212 E109.00391
G1 X97.58 Y97.542 E109.12138
G1 X97.443 Y97.661 E109.12591
G1 X97.211 Y97.91 E109.1344
G1 X97.102 Y98.055 E109.13892
G1 X93.775 Y94.727 E109.25631
G1 X93.296 Y95.365 E109.27621
G1 X92.967 Y95.88 E109.29146
G1 X92.661 Y96.456 E109.30773
G1 X92.416 Y97.015 E109.32295
G1 X92.201 Y97.63 E109.3392
G1 X92.041 Y98.241 E109.35496
G1 X91.932 Y98.843 E109.37022
G1 X91.849 Y99.65 E109.39046
G1 X96.473 Y99.65 E109.5058
G1 X96.454 Y99.824 E109.51017
G1 X96.454 Y100.175 E109.51892
G1 X96.473 Y100.35 E109.52332
G1 X91.849 Y100.35 E109.63866
G1 X91.932 Y101.156 E109.65887
G1 X92.047 Y101.777 E109.67463
G1 X92.214 Y102.406 E109.69086
G1 X92.431 Y103.021 E109.70713
G1 X92.697 Y103.616 E109.72339
G1 X93.018 Y104.204 E109.7401
G1 X93.376 Y104.749 E109.75637
G1 X93.879 Y105.394 E109.77677
G1 X97.149 Y102.007 E109.89421
G1 X97.255 Y102.142 E109.89849
G1 X97.5 Y102.393 E109.90724
G1 X97.64 Y102.508 E109.91176
G1 X94.365 Y105.899 E110.02936
G1 X94.962 Y106.406 E110.0489
G1 X95.455 Y106.765 E110.06411
G1 X95.991 Y107.096 E110.07982
G1 X96.552 Y107.383 E110.09554
G1 X97.132 Y107.627 E110.11124
G1 X97.729 Y107.826 E110.12694
G1 X98.34 Y107.978 E110.14264
G1 X99.15 Y108.114 E110.16313
G1 X99.15 Y103.198 E110.28576
G1 X99.312 Y103.226 E110.28986
G1 X99.662 Y103.249 E110.29861
G1 X99.85 Y103.241 E110.30331
G1 X99.85 Y108.157 E110.42594
G0 F7800 X99.53 Y108.635
; TYPE:FILL
G1 F3168 X99.5 Y108.637 E110.42627
G0 F7800 X99.9 Y109.002
G1 F3168 X100.758 Y108.983 E110.44018
G0 F7800 X101.256 Y108.893
G1 F3168 X101.372 Y109.008 E110.44426
G0 F7800 X101.623 Y108.835
G1 F3168 X101.796 Y109.008 E110.45036
G0 F7800 X101.973 Y108.761
G1 F3168 X102.22 Y109.008 E110.45907
G0 F7800 X102.319 Y108.683
G1 F3168 X102.645 Y109.008 E110.47056
G0 F7800 X103.069 Y109.008
G1 F3168 X102.643 Y108.583 E110.48557
G0 F7800 X102.968 Y108.483
G1 F3168 X103.493 Y109.008 E110.50409
G0 F7800 X103.917 Y109.008
G1 F3168 X103.272 Y108.363 E110.52684
G0 F7800 X103.575 Y108.242
G1 F3168 X104.342 Y109.008 E110.55388
G0 F7800 X104.766 Y109.008
G1 F3168 X103.866 Y108.108 E110.58563
G0 F7800 X104.148 Y107.966
G1 F3168 X105.191 Y109.009 E110.62243
G0 F7800 X105.615 Y109.009
G1 F3168 X104.426 Y107.821 E110.66435
G0 F7800 X104.689 Y107.659
G1 F3168 X106.039 Y109.009 E110.71198
G0 F7800 X106.464 Y109.009
G1 F3168 X104.952 Y107.497 E110.76532
G0 F7800 X105.201 Y107.322
G1 F3168 X106.888 Y109.009 E110.82483
G0 F7800 X107.312 Y109.009
G1 F3168 X105.445 Y107.142 E110.8907
G0 F7800 X105.689 Y106.961
G1 F3168 X107.736 Y109.009 E110.96293
G0 F7800 X108.161 Y109.009
G1 F3168 X105.968 Y106.816 E111.04029
G0 F7800 X106.176 Y106.6
G1 F3168 X108.585 Y109.009 E111.12527
G0 F7800 X109.009 Y109.009
G1 F3168 X106.419 Y106.419 E111.21664
G0 F7800 X106.563 Y106.138
G1 F3168 X109.009 Y108.585 E111.30295
G0 F7800 X109.009 Y108.161
G1 F3168 X106.761 Y105.912 E111.38227
G0 F7800 X106.959 Y105.686
G1 F3168 X109.009 Y107.736 E111.45459
G0 F7800 X109.009 Y107.312
G1 F3168 X107.142 Y105.445 E111.52046
G0 F7800 X107.321 Y105.2
G1 F3168 X109.008 Y106.887 E111.57997
G0 F7800 X109.008 Y106.463
G1 F3168 X107.497 Y104.952 E111.63327
G0 F7800 X107.658 Y104.688
G1 F3168 X109.008 Y106.039 E111.68092
G0 F7800 X109.008 Y105.614
G1 F3168 X107.819 Y104.425 E111.72286
G0 F7800 X107.966 Y104.148
G1 F3168 X109.008 Y105.19 E111.75962
G0 F7800 X109.008 Y104.766
G1 F3168 X108.106 Y103.864 E111.79144
G0 F7800 X108.243 Y103.576
G1 F3168 X109.008 Y104.342 E111.81845
G0 F7800 X109.008 Y103.917
G1 F3168 X108.362 Y103.271 E111.84124
G0 F7800 X108.481 Y102.966
G1 F3168 X109.008 Y103.493 E111.85983
G0 F7800 X109.008 Y103.068
G1 F3168 X108.583 Y102.643 E111.87482
G0 F7800 X108.678 Y102.314
G1 F3168 X109.008 Y102.644 E111.88646
G0 F7800 X109.008 Y102.22
G1 F3168 X108.762 Y101.974 E111.89514
G0 F7800 X109.008 Y101.795
G1 F3168 X108.834 Y101.621 E111.90128
G0 F7800 X109.008 Y101.371
G1 F3168 X108.93 Y101.293 E111.90403
G0 F7800 X108.95 Y101.332
G1 F3168 X109 Y100.4 E111.91955
G0 F7800 X109.043 Y100.396
G1 F3168 X109.021 Y99.996 E111.92332
G1 X109.042 Y99.605 E111.92709
G0 F7800 X108.645 Y99.95
G1 F3168 X108.651 Y99.999 E111.92748
G0 F7800 X109.005 Y98.398
G0 X109.005 Y98.398
G1 F3168 X108.796 Y98.19 E111.93483
G0 F7800 X109.006 Y97.975
G1 F3168 X108.665 Y97.634 E111.94686
G0 F7800 X109.006 Y97.551
G1 F3168 X108.481 Y97.026 E111.96538
G0 F7800 X109.006 Y97.126
G1 F3168 X108.2 Y96.32 E111.99382
G0 F7800 X109.006 Y96.278
G1 F3168 X106.382 Y93.654 E112.08639
G0 F7800 X105.814 Y93.6
G1 F3168 X105.785 Y93.568 E112.08679
G0 F7800 X105.783 Y93.568
G1 F3168 X105.739 Y93.534 E112.08719
G0 F7800 X105.688 Y92.96
G1 F3168 X103.717 Y90.989 E112.15672
G0 F7800 X103.293 Y90.989
G1 F3168 X104.569 Y92.265 E112.20173
G0 F7800 X103.678 Y91.798
G1 F3168 X102.869 Y90.989 E112.23027
G0 F7800 X102.444 Y90.989
G1 F3168 X102.969 Y91.514 E112.24879
G0 F7800 X102.36 Y91.329
G1 F3168 X102.02 Y90.989 E112.26079
G0 F7800 X101.808 Y91.201
G1 F3168 X101.596 Y90.989 E112.26827
G0 F7800 X101.29 Y91.108
G1 F3168 X101.245 Y91.063 E112.26986
G0 F7800 X100.741 Y91.014
G1 F3168 X99.9 Y90.997 E112.28349
G0 F7800 X99.893 Y90.951
G1 F3168 X99.439 Y90.988 E112.28736
G1 X99.101 Y90.982 E112.29197
G0 F7800 X98.738 Y91.101
G1 F3168 X98.626 Y90.989 E112.29592
G0 F7800 X98.374 Y91.162
G1 F3168 X98.202 Y90.989 E112.302
G0 F7800 X98.021 Y91.233
G1 F3168 X97.778 Y90.989 E112.31059
G0 F7800 X97.682 Y91.318
G1 F3168 X97.353 Y90.989 E112.3222
G0 F7800 X97.351 Y91.411
G1 F3168 X96.929 Y90.989 E112.33709
G0 F7800 X96.505 Y90.989
G1 F3168 X97.034 Y91.518 E112.35575
G0 F7800 X96.722 Y91.631
G1 F3168 X96.08 Y90.989 E112.3784
G0 F7800 X95.656 Y90.989
G1 F3168 X96.424 Y91.757 E112.40549
G0 F7800 X96.129 Y91.886
G1 F3168 X95.232 Y90.989 E112.43714
G0 F7800 X94.808 Y90.989
G1 F3168 X95.85 Y92.032 E112.47391
G0 F7800 X95.571 Y92.177
G1 F3168 X94.383 Y90.989 E112.51582
G0 F7800 X93.959 Y90.989
G1 F3168 X95.308 Y92.338 E112.56341
G0 F7800 X95.047 Y92.501
G1 F3168 X93.535 Y90.989 E112.61675
G0 F7800 X93.111 Y90.989
G1 F3168 X94.795 Y92.674 E112.67618
G0 F7800 X94.552 Y92.855
G1 F3168 X92.686 Y90.989 E112.74201
G0 F7800 X92.262 Y90.989
G1 F3168 X94.311 Y93.038 E112.81429
G0 F7800 X94.085 Y93.236
G1 F3168 X91.838 Y90.989 E112.89356
G0 F7800 X91.414 Y90.989
G1 F3168 X93.859 Y93.435 E112.97983
G0 F7800 X93.583 Y93.583
G1 F3168 X90.989 Y90.989 E113.07134
G0 F7800 X90.989 Y91.414
G1 F3168 X93.401 Y93.825 E113.15641
G0 F7800 X93.183 Y94.031
G1 F3168 X90.989 Y91.838 E113.23379
G0 F7800 X90.989 Y92.262
G1 F3168 X93.036 Y94.309 E113.30601
G0 F7800 X92.855 Y94.552
G1 F3168 X90.989 Y92.686 E113.37184
G0 F7800 X90.989 Y93.111
G1 F3168 X92.673 Y94.794 E113.43123
G0 F7800 X92.501 Y95.047
G1 F3168 X90.989 Y93.535 E113.48457
G0 F7800 X90.989 Y93.959
G1 F3168 X92.336 Y95.306 E113.53208
G0 F7800 X92.179 Y95.573
G1 F3168 X90.989 Y94.383 E113.57407
G0 F7800 X90.989 Y94.808
G1 F3168 X92.031 Y95.849 E113.61081
G0 F7800 X91.885 Y96.128
G1 F3168 X90.989 Y95.232 E113.64242
G0 F7800 X90.989 Y95.656
G1 F3168 X91.757 Y96.424 E113.66951
G0 F7800 X91.629 Y96.72
G1 F3168 X90.989 Y96.08 E113.69209
G0 F7800 X90.989 Y96.505
G1 F3168 X91.52 Y97.035 E113.7108
G0 F7800 X91.409 Y97.349
G1 F3168 X90.989 Y96.929 E113.72562
G0 F7800 X90.989 Y97.353
G1 F3168 X91.319 Y97.683 E113.73726
G0 F7800 X90.989 Y97.778
G1 F3168 X91.23 Y98.018 E113.74574
G0 F7800 X90.989 Y98.202
G1 F3168 X91.163 Y98.375 E113.75186
G0 F7800 X90.989 Y98.626
G1 F3168 X91.093 Y98.729 E113.75552
G0 F7800 X91.044 Y98.737
G1 F3168 X91 Y99.6 E113.76989
G0 F7800 X90.958 Y99.603
G1 F3168 X90.979 Y99.999 E113.77374
G1 X90.959 Y100.395 E113.77763
G0 F7800 X91 Y100.4
G1 F3168 X91.044 Y101.263 E113.79201
G0 F7800 X91.087 Y101.269
G1 F3168 X91.101 Y101.283 E113.7925
G0 F7800 X90.989 Y101.596
G1 F3168 X91.197 Y101.804 E113.79984
G0 F7800 X90.989 Y102.02
G1 F3168 X91.333 Y102.364 E113.81197
G0 F7800 X90.989 Y102.444
G1 F3168 X91.526 Y102.981 E113.83092
G0 F7800 X90.989 Y102.869
G1 F3168 X91.81 Y103.69 E113.85988
G0 F7800 X90.989 Y103.717
G1 F3168 X93.183 Y105.911 E113.93728
G0 F7800 X93.775 Y106.005
G1 F3168 X93.802 Y106.027 E113.93764
G0 F7800 X93.876 Y106.604
G1 F3168 X96.281 Y109.008 E114.02246
G0 F7800 X96.705 Y109.008
G1 F3168 X95.437 Y107.741 E114.06718
G0 F7800 X96.313 Y108.192
G1 F3168 X97.129 Y109.008 E114.09596
G0 F7800 X97.553 Y109.008
G1 F3168 X97.018 Y108.473 E114.11484
G0 F7800 X97.638 Y108.668
G1 F3168 X97.978 Y109.008 E114.12683
G0 F7800 X98.199 Y108.806
G1 F3168 X98.402 Y109.008 E114.13398
G0 F7800 X98.709 Y108.891
G1 F3168 X98.75 Y108.933 E114.13544
G0 F7800 X99.101 Y109.02
G1 F3168 X99.45 Y109.012 E114.14006
G1 X99.892 Y109.049 E114.14385
G0 F7800 X95.856 Y109.008
G0 X95.856 Y109.008
G1 F3168 X90.989 Y104.141 E114.31555
G0 F7800 X90.989 Y104.566
G1 F3168 X95.432 Y109.008 E114.47227
G0 F7800 X95.008 Y109.008
G1 F3168 X90.989 Y104.99 E114.61404
G0 F7800 X90.989 Y105.414
G1 F3168 X94.584 Y109.009 E114.74086
G0 F7800 X94.16 Y109.009
G1 F3168 X90.989 Y105.839 E114.85271
G0 F7800 X90.989 Y106.263
G1 F3168 X93.736 Y109.009 E114.9496
G0 F7800 X93.311 Y109.009
G1 F3168 X90.989 Y106.687 E115.03151
G0 F7800 X90.989 Y107.111
G1 F3168 X92.887 Y109.009 E115.09847
G0 F7800 X92.463 Y109.009
G1 F3168 X90.989 Y107.536 E115.15045
G0 F7800 X90.989 Y107.96
G1 F3168 X92.039 Y109.009 E115.18747
G0 F7800 X91.614 Y109.009
G1 F3168 X90.989 Y108.384 E115.20952
G0 F7800 X90.989 Y108.808
G1 F3168 X91.19 Y109.009 E115.21661
G0 F7800 X92.258 Y104.562
G0 X92.258 Y104.562
G1 F3168 X90.989 Y103.293 E115.26138
G0 F7800 X91.355 Y100.051
G0 X91.355 Y100.051
G1 F3168 X91.349 Y100.001 E115.26177
G0 F7800 X91.702 Y99.093
G0 X91.586 Y98.794
G0 X91.7 Y98.165
G0 X91.867 Y97.528
G0 X92.091 Y96.887
G0 X92.346 Y96.303
G0 X92.666 Y95.705
G0 X93.291 Y95.018
G0 X93.625 Y94.163
G0 X93.625 Y94.163
G1 F3168 X93.659 Y94.118 E115.26216
G0 F7800 X93.66 Y94.116
G1 F3168 X93.691 Y94.09 E115.26255
