; Generated with MatterSlice 1.0
; filamentDiameter = 1.75
; extrusionWidth = 0.3
; firstLayerExtrusionWidth = 0.3
; layerThickness = 0.2
; firstLayerThickness = 0.25
; automatic settings before start_gcode
G21 ; set units to millimeters
M107 ; fan off
M190 S75 ; wait for bed temperature to be reached
M104 T0 S210 ; start heating extruder 1
T0 ; set the active extruder to 0
; settings from start_gcode
G28 ; home all axes
G1 Z5 F5000 ; lift nozzle
; automatic settings after start_gcode
M109 T0 S210 ; wait for extruder 1 to reach temperature
T0 ; set the active extruder to 0
G90 ; use absolute coordinates
G92 E0 ; reset the expected extruder position
M82 ; use absolute distance for extrusion
; Layer count: 150
; Layer Change GCode
; LAYER:0
G4 P0
M107
G0 F7800 X116.15 Y116.15 Z0.25
; TYPE:SKIRT
G1 F1800 E0
G1 F720 X83.85 Y116.15 E1.00716
G1 X83.85 Y83.85 E2.01432
G1 X116.15 Y83.85 E3.02148
G1 X116.15 Y116.15 E4.02863
G1 F1800 E3.02863
G0 F7800 X90.15 Y109.85
; TYPE:WALL-OUTER
G1 F1800 E4.02863
G1 F720 X90.15 Y90.15 E4.64291
G1 X109.85 Y90.15 E5.25718
G1 X109.85 Y109.85 E5.87145
G1 X90.15 Y109.85 E6.48573
G0 F7800 X90.45 Y109.55
; TYPE:WALL-INNER
G1 F720 X90.45 Y90.45 E7.08129
G1 X109.55 Y90.45 E7.67685
G1 X109.55 Y109.55 E8.27242
G1 X90.45 Y109.55 E8.86798
G0 F7800 X90.75 Y109.25
G1 F720 X90.75 Y90.75 E9.44484
G1 X109.25 Y90.75 E10.02169
G1 X109.25 Y109.25 E10.59855
G1 X90.75 Y109.25 E11.17541
G0 F7800 X98.859 Y108.499
G0 X99.257 Y108.462
G0 X99.863 Y108.407
G0 X99.863 Y108.407
G0 X99.853 Y108.157
; TYPE:WALL-OUTER
G1 F720 X100.697 Y108.12 E11.20175
G1 X101.383 Y108.031 E11.22332
G1 X102.062 Y107.884 E11.24498
G1 X102.726 Y107.679 E11.26665
G1 X103.371 Y107.42 E11.28832
G1 X103.99 Y107.106 E11.30996
G1 X104.581 Y106.74 E11.33164
G1 X105.273 Y106.225 E11.35854
G1 X101.754 Y102.704 E11.51376
G1 X101.889 Y102.601 E11.51905
G1 X102.145 Y102.361 E11.53
G1 X102.264 Y102.226 E11.53561
G1 X105.787 Y105.749 E11.69096
G1 X106.359 Y105.097 E11.71801
G1 X106.78 Y104.521 E11.74025
G1 X107.151 Y103.908 E11.7626
G1 X107.465 Y103.27 E11.78477
G1 X107.723 Y102.601 E11.80713
G1 X107.921 Y101.915 E11.82939
G1 X108.058 Y101.218 E11.85154
G1 X108.151 Y100.35 E11.87876
G1 X103.073 Y100.35 E12.0371
G1 X103.099 Y99.999 E12.04807
G1 X103.073 Y99.65 E12.05898
G1 X108.151 Y99.647 E12.21732
G1 X108.055 Y98.765 E12.24499
G1 X107.912 Y98.047 E12.26782
G1 X107.707 Y97.35 E12.29047
G1 X107.439 Y96.67 E12.31326
G1 X107.11 Y96.018 E12.33603
G1 X106.728 Y95.401 E12.35866
G1 X106.289 Y94.816 E12.38147
G1 X105.699 Y94.162 E12.40893
G1 X102.24 Y97.745 E12.56422
G1 X102.119 Y97.61 E12.56987
G1 X101.86 Y97.374 E12.5808
G1 X101.723 Y97.272 E12.58613
G1 X105.175 Y93.693 E12.74117
G1 X104.49 Y93.198 E12.76753
G1 X103.909 Y92.848 E12.78868
G1 X103.3 Y92.548 E12.80985
G1 X102.665 Y92.297 E12.83114
G1 X102.017 Y92.104 E12.85222
G1 X101.35 Y91.963 E12.87348
G1 X100.676 Y91.877 E12.89466
G1 X99.85 Y91.844 E12.92044
G1 X99.85 Y96.607 E13.06896
G1 X99.663 Y96.6 E13.07479
G1 X99.313 Y96.622 E13.08573
G1 X99.15 Y96.649 E13.09088
G1 X99.147 Y91.885 E13.23943
G1 X98.339 Y92.02 E13.26497
G1 X97.71 Y92.178 E13.28519
G1 X97.091 Y92.386 E13.30555
G1 X96.494 Y92.641 E13.3258
G1 X95.919 Y92.944 E13.34606
G1 X95.372 Y93.29 E13.36624
G1 X94.85 Y93.683 E13.38662
G1 X94.25 Y94.212 E13.41156
G1 X97.473 Y97.435 E13.55369
G1 X97.337 Y97.555 E13.55934
G1 X97.097 Y97.811 E13.57028
G1 X96.994 Y97.947 E13.5756
G1 X93.773 Y94.729 E13.71757
G1 X93.296 Y95.365 E13.74236
G1 X92.956 Y95.898 E13.76208
G1 X92.661 Y96.456 E13.78176
G1 X92.407 Y97.035 E13.80147
G1 X92.201 Y97.63 E13.8211
G1 X92.041 Y98.244 E13.84089
G1 X91.929 Y98.865 E13.86057
G1 X91.849 Y99.65 E13.88517
G1 X96.322 Y99.65 E14.02464
G1 X96.304 Y99.825 E14.03013
G1 X96.304 Y100.176 E14.04107
G1 X96.322 Y100.35 E14.04653
G1 X91.849 Y100.353 E14.186
G1 X91.932 Y101.159 E14.21127
G1 X92.051 Y101.797 E14.23151
G1 X92.219 Y102.427 E14.25184
G1 X92.438 Y103.04 E14.27213
G1 X92.706 Y103.636 E14.29251
G1 X93.019 Y104.206 E14.31279
G1 X93.376 Y104.749 E14.33305
G1 X93.879 Y105.394 E14.35855
G1 X97.045 Y102.117 E14.50063
G1 X97.152 Y102.251 E14.50598
G1 X97.396 Y102.5 E14.51685
G1 X97.535 Y102.616 E14.5225
G1 X94.367 Y105.901 E14.6648
G1 X94.962 Y106.406 E14.68913
G1 X95.472 Y106.776 E14.70878
G1 X96.008 Y107.106 E14.72841
G1 X96.571 Y107.393 E14.74811
G1 X97.153 Y107.637 E14.76779
G1 X97.749 Y107.832 E14.78734
G1 X98.363 Y107.983 E14.80706
G1 X99.15 Y108.114 E14.83194
G1 X99.15 Y103.35 E14.98048
G1 X99.313 Y103.377 E14.98564
G1 X99.663 Y103.399 E14.99657
G1 X99.85 Y103.392 E15.00241
G1 X99.853 Y108.157 E15.15099
G0 F7800 X99.553 Y108.47
; TYPE:WALL-INNER
G1 F720 X100.723 Y108.419 E15.1875
G1 X101.434 Y108.327 E15.20986
G1 X102.138 Y108.175 E15.23232
G1 X102.827 Y107.962 E15.2548
G1 X103.495 Y107.693 E15.27726
G1 X104.137 Y107.368 E15.29969
G1 X104.75 Y106.988 E15.32218
G1 X105.73 Y106.258 E15.36029
G1 X102.197 Y102.723 E15.51613
G1 X102.269 Y102.655 E15.51921
G1 X105.802 Y106.188 E15.67501
G1 X106.594 Y105.285 E15.71246
G1 X107.03 Y104.688 E15.73551
G1 X107.414 Y104.052 E15.75868
G1 X107.74 Y103.391 E15.78166
G1 X108.008 Y102.697 E15.80486
G1 X108.213 Y101.986 E15.82793
G1 X108.355 Y101.263 E15.85091
G1 X108.484 Y100.05 E15.88894
G1 X103.396 Y100.05 E16.04759
G1 X103.396 Y99.95 E16.05071
G1 X108.485 Y99.947 E16.20939
G1 X108.352 Y98.719 E16.24791
G1 X108.203 Y97.975 E16.27157
G1 X107.991 Y97.253 E16.29503
G1 X107.713 Y96.547 E16.31869
G1 X107.372 Y95.871 E16.3423
G1 X106.976 Y95.232 E16.36574
G1 X106.521 Y94.625 E16.38939
G1 X105.706 Y93.723 E16.4273
G1 X102.239 Y97.313 E16.58292
G1 X102.165 Y97.246 E16.58603
G1 X105.631 Y93.652 E16.74172
G1 X104.655 Y92.947 E16.77926
G1 X104.053 Y92.585 E16.80117
G1 X103.421 Y92.273 E16.82314
G1 X102.763 Y92.013 E16.8452
G1 X102.091 Y91.813 E16.86707
G1 X101.4 Y91.667 E16.88909
G1 X100.701 Y91.578 E16.91106
G1 X99.55 Y91.531 E16.94698
G1 X99.55 Y96.306 E17.09587
G1 X99.45 Y96.312 E17.09899
G1 X99.447 Y91.53 E17.2481
G1 X98.278 Y91.726 E17.28506
G1 X97.625 Y91.89 E17.30606
G1 X96.984 Y92.105 E17.32714
G1 X96.365 Y92.37 E17.34813
G1 X95.769 Y92.684 E17.36914
G1 X95.201 Y93.043 E17.39009
G1 X94.66 Y93.45 E17.4112
G1 X93.812 Y94.198 E17.44646
G1 X97.044 Y97.43 E17.58898
G1 X96.975 Y97.503 E17.59211
G1 X93.74 Y94.272 E17.73468
G1 X93.049 Y95.194 E17.77061
G1 X92.697 Y95.747 E17.79105
G1 X92.39 Y96.325 E17.81146
G1 X92.128 Y96.926 E17.8319
G1 X91.914 Y97.543 E17.85226
G1 X91.748 Y98.179 E17.87276
G1 X91.632 Y98.823 E17.89316
G1 X91.516 Y99.95 E17.92849
G1 X96.004 Y99.95 E18.06843
G1 X96.004 Y100.05 E18.07155
G1 X91.516 Y100.053 E18.21149
G1 X91.635 Y101.202 E18.24751
G1 X91.758 Y101.863 E18.26847
G1 X91.932 Y102.516 E18.28955
G1 X92.159 Y103.152 E18.3106
G1 X92.437 Y103.77 E18.33173
G1 X92.762 Y104.361 E18.35276
G1 X93.132 Y104.924 E18.37377
G1 X93.855 Y105.851 E18.41043
G1 X97.035 Y102.56 E18.55313
G1 X97.104 Y102.631 E18.55621
G1 X93.929 Y105.923 E18.69882
G1 X94.777 Y106.642 E18.73349
G1 X95.305 Y107.025 E18.75383
G1 X95.861 Y107.368 E18.7742
G1 X96.444 Y107.666 E18.79462
G1 X97.048 Y107.918 E18.81502
G1 X97.666 Y108.121 E18.83531
G1 X98.302 Y108.277 E18.85573
G1 X99.45 Y108.468 E18.89201
G1 X99.45 Y103.687 E19.04109
G1 X99.55 Y103.693 E19.04422
G1 X99.553 Y108.47 E19.19317
G0 F7800 X99.465 Y108.775
G1 F720 X99.75 Y108.822 E19.20218
G1 X99.75 Y108.762 E19.20405
G1 X100.749 Y108.718 E19.23523
G1 X101.485 Y108.623 E19.25837
G1 X102.214 Y108.465 E19.28163
G1 X102.927 Y108.245 E19.30489
G1 X103.619 Y107.967 E19.32815
G1 X104.284 Y107.63 E19.35139
G1 X104.919 Y107.237 E19.37468
G1 X105.782 Y106.593 E19.40825
G1 X105.816 Y106.627 E19.40975
G1 X105.966 Y106.456 E19.41685
G1 X106.187 Y106.291 E19.42545
G1 X106.146 Y106.25 E19.42725
G1 X106.828 Y105.472 E19.45951
G1 X107.28 Y104.854 E19.48339
G1 X107.678 Y104.196 E19.50737
G1 X108.015 Y103.511 E19.53117
G1 X108.292 Y102.793 E19.55517
G1 X108.505 Y102.057 E19.57906
G1 X108.652 Y101.308 E19.60286
G1 X108.765 Y100.247 E19.63613
G1 X108.82 Y100.247 E19.63785
G1 X108.792 Y99.992 E19.64584
G1 X108.818 Y99.75 E19.65343
G1 X108.766 Y99.75 E19.65506
G1 X108.649 Y98.674 E19.6888
G1 X108.495 Y97.903 E19.71332
G1 X108.275 Y97.155 E19.73763
G1 X107.987 Y96.424 E19.76213
G1 X107.634 Y95.724 E19.78658
G1 X107.224 Y95.063 E19.81083
G1 X106.753 Y94.434 E19.83533
G1 X106.047 Y93.653 E19.86816
G1 X106.087 Y93.611 E19.86997
G1 X105.864 Y93.45 E19.87854
G1 X105.713 Y93.283 E19.88556
G1 X105.68 Y93.317 E19.88704
G1 X104.821 Y92.697 E19.92007
G1 X104.197 Y92.321 E19.94279
G1 X103.543 Y91.999 E19.96552
G1 X102.862 Y91.73 E19.98835
G1 X102.165 Y91.522 E20.01103
G1 X101.45 Y91.371 E20.03382
G1 X100.726 Y91.279 E20.05658
G1 X99.746 Y91.239 E20.08716
G1 X99.746 Y91.176 E20.08912
G1 X99.442 Y91.227 E20.09874
G1 X99.25 Y91.219 E20.10473
G1 X99.25 Y91.259 E20.10598
G1 X98.217 Y91.432 E20.13863
G1 X97.541 Y91.602 E20.16037
G1 X96.877 Y91.825 E20.18221
G1 X96.236 Y92.099 E20.20395
G1 X95.618 Y92.424 E20.22572
G1 X95.03 Y92.796 E20.24741
G1 X94.471 Y93.217 E20.26924
G1 X93.747 Y93.855 E20.29933
G1 X93.708 Y93.816 E20.30105
G1 X93.543 Y94.036 E20.30962
G1 X93.374 Y94.185 E20.31665
G1 X93.407 Y94.218 E20.3181
G1 X92.802 Y95.023 E20.3495
G1 X92.437 Y95.596 E20.37068
G1 X92.12 Y96.195 E20.39182
G1 X91.848 Y96.817 E20.41298
G1 X91.627 Y97.456 E20.43407
G1 X91.455 Y98.115 E20.4553
G1 X91.335 Y98.781 E20.47641
G1 X91.235 Y99.754 E20.5069
G1 X91.183 Y99.754 E20.50853
G1 X91.209 Y100.005 E20.51639
G1 X91.184 Y100.25 E20.52407
G1 X91.235 Y100.25 E20.52566
G1 X91.338 Y101.245 E20.55685
G1 X91.465 Y101.929 E20.57855
G1 X91.645 Y102.605 E20.60036
G1 X91.881 Y103.264 E20.62219
G1 X92.168 Y103.904 E20.64406
G1 X92.505 Y104.516 E20.66584
G1 X92.888 Y105.099 E20.68759
G1 X93.522 Y105.913 E20.71977
G1 X93.491 Y105.945 E20.72115
G1 X93.657 Y106.085 E20.72793
G1 X93.83 Y106.308 E20.73673
G1 X93.87 Y106.267 E20.73851
G1 X94.591 Y106.878 E20.76798
G1 X95.138 Y107.275 E20.78906
G1 X95.714 Y107.629 E20.81014
G1 X96.318 Y107.938 E20.83129
G1 X96.943 Y108.199 E20.85241
G1 X97.583 Y108.41 E20.87342
G1 X98.242 Y108.571 E20.89458
G1 X99.253 Y108.739 E20.92653
G1 X99.253 Y108.784 E20.92794
G1 X99.465 Y108.775 E20.93455
G0 F7800 X99.501 Y108.636
; TYPE:FILL
G1 F720 X99.535 Y108.634 E20.935
G0 F7800 X99.9 Y109.002
G1 F720 X100.762 Y108.983 E20.95247
G0 F7800 X99.892 Y109.048
G1 F720 X99.453 Y109.012 E20.9598
G1 X99.105 Y109.02 E20.96559
G0 F7800 X96.794 Y107.716
G0 X97.031 Y107.964
G0 X96.424 Y107.71
G0 X95.838 Y107.411
G0 X95.277 Y107.067
G0 X94.747 Y106.681
G0 X95.074 Y106.746
G0 X93.803 Y106.03
G0 X93.803 Y106.03
G1 F720 X93.776 Y106.007 E20.96603
G0 F7800 X92.092 Y103.086
G0 X91.893 Y102.74
G0 X91.045 Y101.267
G0 X91.045 Y101.267
G1 F720 X91 Y100.4 E20.98408
G0 F7800 X90.959 Y100.395
G1 F720 X90.979 Y100.004 E20.98884
G1 X90.958 Y99.607 E20.99367
G0 F7800 X91 Y99.604
G1 F720 X91.043 Y98.76 E21.01124
G0 F7800 X91.349 Y100.002
G1 F720 X91.355 Y100.051 E21.01172
G0 F7800 X91.695 Y99.165
G0 X91.583 Y98.817
G0 X91.7 Y98.168
G0 X91.867 Y97.53
G0 X92.081 Y96.909
G0 X92.346 Y96.305
G0 X92.654 Y95.722
G0 X93.297 Y95.005
G0 X93.622 Y94.166
G0 X93.622 Y94.166
G1 F720 X93.658 Y94.119 E21.01356
G1 X93.687 Y94.093 E21.01404
G0 F7800 X94.861 Y93.417
G0 X94.629 Y93.411
G0 X95.173 Y93.003
G0 X95.744 Y92.641
G0 X96.845 Y92.277
G0 X99.101 Y90.982
G0 X99.101 Y90.982
G1 F720 X99.433 Y90.988 E21.01752
G1 X99.889 Y90.95 E21.02233
G0 F7800 X99.896 Y90.997
G1 F720 X100.738 Y91.014 E21.0394
G0 F7800 X99.525 Y91.377
G1 F720 X99.498 Y91.379 E21.04021
G1 X99.499 Y91.376 E21.04027
G0 F7800 X100.308 Y91.654
G0 X100.704 Y91.529
G0 X101.408 Y91.618
G0 X102.103 Y91.765
G0 X102.779 Y91.966
G0 X103.441 Y92.228
G0 X104.076 Y92.541
G0 X104.982 Y93.27
G0 X105.738 Y93.533
G0 X105.738 Y93.533
G1 F720 X105.782 Y93.568 E21.04202
G1 X105.811 Y93.597 E21.04251
G0 F7800 X106.334 Y94.571
G0 X106.559 Y94.593
G0 X107.017 Y95.205
G0 X107.415 Y95.847
G0 X107.758 Y96.527
G0 X108.066 Y97.792
G0 X109.042 Y99.604
G0 X109.042 Y99.604
G1 F720 X109.021 Y99.993 E21.04708
G1 X109.043 Y100.392 E21.05178
G0 F7800 X109 Y100.396
G1 F720 X108.95 Y101.331 E21.07124
G0 F7800 X108.652 Y99.997
G1 F720 X108.645 Y99.945 E21.07172
G0 F7800 X108.325 Y100.686
G0 X108.404 Y101.27
G0 X108.261 Y101.997
G0 X108.055 Y102.712
G0 X107.785 Y103.411
G0 X107.457 Y104.076
G0 X107.071 Y104.714
G0 X106.187 Y105.66
G0 X105.909 Y106.311
G0 X105.909 Y106.311
G1 F720 X105.884 Y106.34 E21.07218
G0 F7800 X106.174 Y106.598
; TYPE:BOTTOM-FILL
G1 F720 X108.585 Y109.009 E21.1785
G0 F7800 X109.009 Y109.009
G1 F720 X106.417 Y106.417 E21.2928
G0 F7800 X106.563 Y106.138
G1 F720 X109.009 Y108.585 E21.40068
G0 F7800 X109.009 Y108.161
G1 F720 X106.761 Y105.912 E21.49984
G0 F7800 X106.959 Y105.686
G1 F720 X109.009 Y107.736 E21.59024
G0 F7800 X109.009 Y107.312
G1 F720 X107.143 Y105.446 E21.67252
G0 F7800 X107.323 Y105.201
G1 F720 X109.009 Y106.888 E21.74689
G0 F7800 X109.009 Y106.464
G1 F720 X107.5 Y104.954 E21.81345
G0 F7800 X107.659 Y104.689
G1 F720 X109.009 Y106.039 E21.87299
G0 F7800 X109.009 Y105.615
G1 F720 X107.818 Y104.424 E21.92551
G0 F7800 X107.967 Y104.149
G1 F720 X109.009 Y105.191 E21.97145
G0 F7800 X109.008 Y104.766
G1 F720 X108.107 Y103.864 E22.01121
G0 F7800 X108.246 Y103.579
G1 F720 X109.008 Y104.342 E22.04483
G0 F7800 X109.008 Y103.917
G1 F720 X108.364 Y103.272 E22.07325
G0 F7800 X108.482 Y102.966
G1 F720 X109.008 Y103.493 E22.09647
G0 F7800 X109.008 Y103.069
G1 F720 X108.584 Y102.645 E22.11517
G0 F7800 X108.679 Y102.315
G1 F720 X109.008 Y102.432 E22.12965
G1 X108.886 Y101.886 E22.14041
G1 X108.92 Y101.496 E22.1481
G1 X108.919 Y101.282 E22.15477
G0 F7800 X108.91 Y98.727
G0 X108.91 Y98.727
G1 F720 X108.95 Y98.556 E22.15552
G1 X108.902 Y98.083 E22.16486
G1 X108.665 Y97.634 E22.18069
G0 F7800 X109.008 Y97.553
G1 F720 X108.482 Y97.027 E22.20388
G0 F7800 X109.008 Y97.129
G1 F720 X108.205 Y96.325 E22.23932
G0 F7800 X109.008 Y96.281
G1 F720 X106.379 Y93.651 E22.35527
G0 F7800 X105.689 Y92.961
G1 F720 X103.718 Y90.99 E22.44218
G0 F7800 X103.294 Y90.99
G1 F720 X104.569 Y92.265 E22.49841
G0 F7800 X103.675 Y91.796
G1 F720 X102.869 Y90.99 E22.53395
G0 F7800 X102.445 Y90.99
G1 F720 X102.969 Y91.514 E22.55706
G0 F7800 X102.361 Y91.33
G1 F720 X101.914 Y91.095 E22.57202
G1 X101.443 Y91.049 E22.58131
G1 X101.242 Y91.059 E22.58759
G0 F7800 X98.737 Y91.1
G0 X98.737 Y91.1
G1 F720 X98.5 Y91.075 E22.59244
G1 X98.111 Y91.111 E22.6
G1 X97.73 Y91.153 E22.61071
G1 X97.352 Y91.2 E22.62524
G1 X96.929 Y90.989 E22.63998
G0 F7800 X96.505 Y90.989
G1 F720 X97.034 Y91.518 E22.66331
G0 F7800 X96.72 Y91.629
G1 F720 X96.08 Y90.989 E22.69153
G0 F7800 X95.656 Y90.989
G1 F720 X96.423 Y91.757 E22.72538
G0 F7800 X96.126 Y91.884
G1 F720 X95.232 Y90.989 E22.76482
G0 F7800 X94.808 Y90.989
G1 F720 X95.849 Y92.03 E22.81073
G0 F7800 X95.571 Y92.177
G1 F720 X94.383 Y90.989 E22.86311
G0 F7800 X93.959 Y90.989
G1 F720 X95.306 Y92.336 E22.92251
G0 F7800 X95.047 Y92.501
G1 F720 X93.535 Y90.989 E22.98919
G0 F7800 X93.111 Y90.989
G1 F720 X94.794 Y92.672 E23.0634
G0 F7800 X94.552 Y92.855
G1 F720 X92.686 Y90.989 E23.14569
G0 F7800 X92.262 Y90.989
G1 F720 X94.31 Y93.037 E23.236
G0 F7800 X94.084 Y93.236
G1 F720 X91.838 Y90.989 E23.33506
G0 F7800 X91.414 Y90.989
G1 F720 X93.859 Y93.435 E23.4429
G0 F7800 X93.582 Y93.582
G1 F720 X90.989 Y90.989 E23.55725
G0 F7800 X90.989 Y91.414
G1 F720 X93.401 Y93.825 E23.66359
G0 F7800 X93.183 Y94.032
G1 F720 X90.989 Y91.838 E23.76034
G0 F7800 X90.989 Y92.262
G1 F720 X93.036 Y94.309 E23.8506
G0 F7800 X92.855 Y94.552
G1 F720 X90.989 Y92.686 E23.93289
G0 F7800 X90.989 Y93.111
G1 F720 X92.673 Y94.794 E24.00713
G0 F7800 X92.501 Y95.047
G1 F720 X90.989 Y93.535 E24.0738
G0 F7800 X90.989 Y93.959
G1 F720 X92.336 Y95.305 E24.13318
G0 F7800 X92.177 Y95.571
G1 F720 X90.989 Y94.383 E24.18556
G0 F7800 X90.989 Y94.808
G1 F720 X92.031 Y95.849 E24.23149
G0 F7800 X91.887 Y96.129
G1 F720 X90.99 Y95.233 E24.27103
G0 F7800 X90.99 Y95.657
G1 F720 X91.757 Y96.424 E24.30485
G0 F7800 X91.628 Y96.719
G1 F720 X90.99 Y96.081 E24.33298
G0 F7800 X90.99 Y96.505
G1 F720 X91.518 Y97.034 E24.35629
G0 F7800 X91.409 Y97.349
G1 F720 X90.99 Y96.93 E24.37476
G0 F7800 X90.99 Y97.354
G1 F720 X91.154 Y97.73 E24.38926
G1 X91.11 Y98.11 E24.39988
G1 X91.076 Y98.501 E24.4075
G1 X91.099 Y98.736 E24.41487
G0 F7800 X91.089 Y101.271
G0 X91.089 Y101.271
G1 F720 X91.044 Y101.439 E24.41535
G1 X91.093 Y101.912 E24.4245
G1 X91.332 Y102.362 E24.44039
G0 F7800 X90.989 Y102.444
G1 F720 X91.522 Y102.978 E24.46391
G0 F7800 X90.989 Y102.869
G1 F720 X91.808 Y103.688 E24.50003
G0 F7800 X90.989 Y103.717
G1 F720 X93.186 Y105.913 E24.59689
G0 F7800 X93.875 Y106.603
G1 F720 X96.281 Y109.009 E24.70298
G0 F7800 X95.857 Y109.009
G1 F720 X90.989 Y104.141 E24.91765
G0 F7800 X90.989 Y104.566
G1 F720 X95.433 Y109.009 E25.1136
G0 F7800 X95.008 Y109.009
G1 F720 X90.989 Y104.99 E25.29082
G0 F7800 X90.989 Y105.414
G1 F720 X94.584 Y109.009 E25.44935
G0 F7800 X94.16 Y109.009
G1 F720 X90.989 Y105.839 E25.58916
G0 F7800 X90.989 Y106.263
G1 F720 X93.736 Y109.009 E25.71027
G0 F7800 X93.311 Y109.009
G1 F720 X90.989 Y106.687 E25.81267
G0 F7800 X90.989 Y107.111
G1 F720 X92.887 Y109.009 E25.89636
G0 F7800 X92.463 Y109.009
G1 F720 X90.989 Y107.536 E25.96134
G0 F7800 X90.989 Y107.96
G1 F720 X92.039 Y109.009 E26.00762
G0 F7800 X91.614 Y109.009
G1 F720 X90.989 Y108.384 E26.03518
G0 F7800 X90.989 Y108.808
G1 F720 X91.19 Y109.009 E26.04404
G0 F7800 X95.436 Y107.739
G0 X95.436 Y107.739
G1 F720 X96.706 Y109.009 E26.10005
G0 F7800 X97.13 Y109.009
G1 F720 X96.317 Y108.196 E26.1359
G0 F7800 X97.021 Y108.476
G1 F720 X97.554 Y109.009 E26.1594
G0 F7800 X97.64 Y108.67
G1 F720 X98.089 Y108.907 E26.17428
G1 X98.556 Y108.95 E26.1832
G1 X98.753 Y108.936 E26.18936
G0 F7800 X101.256 Y108.893
G0 X101.256 Y108.893
G1 F720 X101.498 Y108.922 E26.19445
G1 X101.884 Y108.884 E26.20199
G1 X102.269 Y108.845 E26.21289
G1 X102.645 Y109.008 E26.22567
G0 F7800 X103.069 Y109.008
G1 F720 X102.642 Y108.582 E26.24448
G0 F7800 X102.966 Y108.482
G1 F720 X103.493 Y109.008 E26.2677
G0 F7800 X103.917 Y109.008
G1 F720 X103.272 Y108.364 E26.29612
G0 F7800 X103.575 Y108.242
G1 F720 X104.342 Y109.008 E26.32992
G0 F7800 X104.766 Y109.008
G1 F720 X103.866 Y108.109 E26.36958
G0 F7800 X104.148 Y107.966
G1 F720 X105.191 Y109.009 E26.41558
G0 F7800 X105.615 Y109.009
G1 F720 X104.428 Y107.822 E26.46792
G0 F7800 X104.689 Y107.659
G1 F720 X106.039 Y109.009 E26.52745
G0 F7800 X106.464 Y109.009
G1 F720 X104.952 Y107.497 E26.59412
G0 F7800 X105.202 Y107.323
G1 F720 X106.888 Y109.009 E26.66847
G0 F7800 X107.312 Y109.009
G1 F720 X105.445 Y107.142 E26.7508
G0 F7800 X105.687 Y106.96
G1 F720 X107.736 Y109.009 E26.84116
G0 F7800 X108.161 Y109.009
G1 F720 X105.968 Y106.816 E26.93786
G0 F7800 X106.384 Y105.427
G0 X107.071 Y104.714
G0 X107.457 Y104.076
G0 X107.785 Y103.411
G0 X108.055 Y102.712
G0 X108.261 Y101.997
G0 X108.404 Y101.27
G0 X108.466 Y100.067
G0 X103.381 Y100.065
G0 X103.45 Y99.999
G0 X103.381 Y99.935
G0 X108.466 Y99.93
G0 X108.311 Y99.017
G0 X109.008 Y96.705
G0 X109.008 Y96.705
G1 F720 X107.732 Y95.429 E26.99413
G0 F7800 X109.008 Y95.432
G1 F720 X104.566 Y90.99 E27.19001
G0 F7800 X104.142 Y90.99
G1 F720 X109.008 Y95.856 E27.40459
G0 F7800 X109.008 Y95.008
G1 F720 X104.991 Y90.99 E27.58175
G0 F7800 X105.414 Y90.989
G1 F720 X109.009 Y94.584 E27.74028
G0 F7800 X109.009 Y94.16
G1 F720 X105.839 Y90.989 E27.88009
G0 F7800 X106.263 Y90.989
G1 F720 X109.009 Y93.736 E28.0012
G0 F7800 X109.009 Y93.311
G1 F720 X106.687 Y90.989 E28.10359
G0 F7800 X107.111 Y90.989
G1 F720 X109.009 Y92.887 E28.18729
G0 F7800 X109.009 Y92.463
G1 F720 X107.536 Y90.989 E28.25227
G0 F7800 X107.96 Y90.989
G1 F720 X109.009 Y92.039 E28.29855
G0 F7800 X109.009 Y91.614
G1 F720 X108.384 Y90.989 E28.32611
G0 F7800 X108.808 Y90.989
G1 F720 X109.009 Y91.19 E28.33497
G1 F1800 E27.33497
G0 F7800 X106.335 Y93.322
G0 X102.251 Y97.325
G0 X102.368 Y97.365
G0 X102.081 Y97.103
G0 X102.147 Y97.227
G0 X105.602 Y93.655
G0 X104.682 Y92.906
G0 X104.076 Y92.541
G0 X103.441 Y92.228
G0 X102.779 Y91.966
G0 X102.103 Y91.765
G0 X101.408 Y91.618
G0 X100.704 Y91.529
G0 X99.562 Y91.544
G0 X99.561 Y96.308
G0 X99.658 Y96.25
G0 X99.436 Y96.328
G0 X99.426 Y91.556
G0 X98.269 Y91.678
G0 X97.612 Y91.843
G0 X96.967 Y92.059
G0 X96.345 Y92.326
G0 X95.744 Y92.641
G0 X95.173 Y93.003
G0 X94.629 Y93.411
G0 X93.831 Y94.199
G0 X97.054 Y97.421
G0 X97.094 Y97.303
G0 X96.831 Y97.584
G0 X96.96 Y97.52
G0 X93.742 Y94.302
G0 X93.008 Y95.166
G0 X92.654 Y95.722
G0 X92.346 Y96.305
G0 X92.081 Y96.909
G0 X91.867 Y97.53
G0 X91.7 Y98.168
G0 X91.583 Y98.817
G0 X91.535 Y99.934
G0 X96.007 Y99.932
G0 X95.955 Y99.807
G0 X95.955 Y100.194
G0 X96.007 Y100.068
G0 X91.534 Y100.069
G0 X91.587 Y101.209
G0 X91.709 Y101.873
G0 X91.885 Y102.53
G0 X92.113 Y103.17
G0 X92.393 Y103.792
G0 X92.645 Y104.246
G0 X92.255 Y104.559
G0 X92.255 Y104.559
G1 F1800 E28.33497
G1 F720 X90.989 Y103.293 E28.3908
; Layer Change GCode
; LAYER:1
G4 P0
M106 S89
G0 F7800 X90.32 Y109.491 Z0.45
G0 X90.278 Y109.889
G0 X90.31 Y109.6
G0 X90.31 Y109.6
G0 X90.15 Y109.85
G0 X90.15 Y109.85
G0 X90.75 Y109.25
; TYPE:WALL-INNER
G1 F1548 X90.75 Y90.75 E28.85228
G1 X109.25 Y90.75 E29.31376
G1 X109.25 Y109.25 E29.77525
G1 X90.75 Y109.25 E30.23673
G0 F7800 X90.45 Y109.55
G1 F1548 X90.45 Y90.45 E30.71319
G1 X109.55 Y90.45 E31.18964
G1 X109.55 Y109.55 E31.66609
G1 X90.45 Y109.55 E32.14254
G0 F7800 X90.15 Y109.85
; TYPE:WALL-OUTER
G1 F1083.6 X90.15 Y90.15 E32.63396
G1 X109.85 Y90.15 E33.12538
G1 X109.85 Y109.85 E33.61679
G1 X90.15 Y109.85 E34.10821
G0 F7800 X90.31 Y109.6
G0 X93.118 Y106.971
G0 X93.411 Y106.698
G0 X93.83 Y106.308
G0 X93.83 Y106.308
; TYPE:WALL-INNER
G1 F1548 X93.87 Y106.266 E34.10966
G1 X94.592 Y106.878 E34.13327
G1 X95.138 Y107.275 E34.15011
G1 X95.714 Y107.629 E34.16698
G1 X96.31 Y107.934 E34.18368
G1 X96.948 Y108.2 E34.20092
G1 X97.583 Y108.409 E34.21759
G1 X98.231 Y108.569 E34.23424
G1 X99.259 Y108.741 E34.26024
G1 X99.259 Y108.785 E34.26134
G1 X99.466 Y108.776 E34.26651
G1 X99.75 Y108.823 E34.27369
G1 X99.75 Y108.763 E34.27519
G1 X100.754 Y108.717 E34.30026
G1 X101.485 Y108.623 E34.31864
G1 X102.214 Y108.465 E34.33725
G1 X102.927 Y108.245 E34.35587
G1 X103.619 Y107.967 E34.37447
G1 X104.284 Y107.63 E34.39306
G1 X104.919 Y107.237 E34.41169
G1 X105.782 Y106.593 E34.43855
G1 X105.816 Y106.627 E34.43975
G1 X105.966 Y106.456 E34.44543
G1 X106.187 Y106.291 E34.45231
G1 X106.146 Y106.25 E34.45375
G1 X106.828 Y105.472 E34.47956
G1 X107.28 Y104.855 E34.49864
G1 X107.672 Y104.207 E34.51753
G1 X108.015 Y103.512 E34.53687
G1 X108.288 Y102.804 E34.5558
G1 X108.506 Y102.052 E34.57533
G1 X108.652 Y101.308 E34.59424
G1 X108.766 Y100.241 E34.62101
G1 X108.818 Y100.241 E34.6223
G1 X108.792 Y99.997 E34.62843
G1 X108.818 Y99.75 E34.63462
G1 X108.765 Y99.75 E34.63594
G1 X108.649 Y98.674 E34.66294
G1 X108.498 Y97.915 E34.68224
G1 X108.275 Y97.155 E34.702
G1 X107.991 Y96.436 E34.72129
G1 X107.632 Y95.72 E34.74127
G1 X107.224 Y95.063 E34.76056
G1 X106.76 Y94.443 E34.77988
G1 X106.043 Y93.648 E34.80658
G1 X106.083 Y93.607 E34.80801
G1 X105.863 Y93.449 E34.81477
G1 X105.714 Y93.283 E34.82033
G1 X105.681 Y93.317 E34.82151
G1 X104.815 Y92.693 E34.84814
G1 X104.197 Y92.321 E34.86613
G1 X103.543 Y91.999 E34.88432
G1 X102.872 Y91.734 E34.90231
G1 X102.166 Y91.522 E34.9207
G1 X101.461 Y91.373 E34.93868
G1 X100.721 Y91.279 E34.95728
G1 X99.742 Y91.239 E34.98172
G1 X99.742 Y91.178 E34.98325
G1 X99.447 Y91.227 E34.99071
G1 X99.25 Y91.219 E34.99562
G1 X99.25 Y91.26 E34.99665
G1 X98.217 Y91.432 E35.02277
G1 X97.541 Y91.602 E35.04016
G1 X96.887 Y91.822 E35.05737
G1 X96.231 Y92.101 E35.07515
G1 X95.614 Y92.427 E35.09256
G1 X95.031 Y92.796 E35.10977
G1 X94.479 Y93.211 E35.127
G1 X93.743 Y93.858 E35.15144
G1 X93.706 Y93.821 E35.15275
G1 X93.55 Y94.028 E35.15921
G1 X93.373 Y94.184 E35.1651
G1 X93.407 Y94.218 E35.1663
G1 X92.802 Y95.022 E35.1914
G1 X92.437 Y95.596 E35.20837
G1 X92.12 Y96.195 E35.22527
G1 X91.852 Y96.807 E35.24194
G1 X91.627 Y97.456 E35.25907
G1 X91.457 Y98.104 E35.27579
G1 X91.334 Y98.785 E35.29305
G1 X91.235 Y99.758 E35.31744
G1 X91.184 Y99.758 E35.31872
G1 X91.21 Y100.006 E35.32494
G1 X91.185 Y100.25 E35.33106
G1 X91.235 Y100.25 E35.3323
G1 X91.339 Y101.249 E35.35736
G1 X91.465 Y101.929 E35.37461
G1 X91.645 Y102.605 E35.39206
G1 X91.881 Y103.264 E35.40952
G1 X92.164 Y103.895 E35.42677
G1 X92.508 Y104.52 E35.44457
G1 X92.888 Y105.099 E35.46184
G1 X93.525 Y105.917 E35.48771
G1 X93.495 Y105.948 E35.48878
G1 X93.656 Y106.084 E35.49404
G1 X93.83 Y106.308 E35.50112
G0 F7800 X93.932 Y105.926
G1 F1548 X94.777 Y106.642 E35.52874
G1 X95.305 Y107.025 E35.54501
G1 X95.861 Y107.368 E35.56131
G1 X96.437 Y107.662 E35.57744
G1 X97.053 Y107.919 E35.59409
G1 X97.666 Y108.121 E35.61019
G1 X98.292 Y108.275 E35.62627
G1 X99.45 Y108.468 E35.65556
G1 X99.45 Y103.687 E35.77482
G1 X99.551 Y103.693 E35.77735
G1 X99.559 Y108.471 E35.89653
G1 X100.728 Y108.418 E35.92572
G1 X101.434 Y108.327 E35.94348
G1 X102.138 Y108.175 E35.96145
G1 X102.827 Y107.962 E35.97944
G1 X103.495 Y107.693 E35.9974
G1 X104.137 Y107.368 E36.01535
G1 X104.75 Y106.988 E36.03334
G1 X105.73 Y106.258 E36.06382
G1 X102.198 Y102.722 E36.1885
G1 X102.269 Y102.655 E36.19093
G1 X105.802 Y106.188 E36.31557
G1 X106.594 Y105.285 E36.34553
G1 X107.03 Y104.688 E36.36397
G1 X107.409 Y104.062 E36.38222
G1 X107.74 Y103.391 E36.40089
G1 X108.004 Y102.708 E36.41915
G1 X108.214 Y101.981 E36.43803
G1 X108.355 Y101.263 E36.45628
G1 X108.484 Y100.05 E36.48671
G1 X103.396 Y100.05 E36.61363
G1 X103.396 Y99.949 E36.61615
G1 X108.484 Y99.941 E36.74307
G1 X108.352 Y98.72 E36.77371
G1 X108.206 Y97.987 E36.79235
G1 X107.991 Y97.253 E36.81143
G1 X107.717 Y96.558 E36.83007
G1 X107.37 Y95.867 E36.84936
G1 X106.976 Y95.232 E36.868
G1 X106.528 Y94.634 E36.88664
G1 X105.706 Y93.722 E36.91726
G1 X102.239 Y97.313 E37.04178
G1 X102.164 Y97.245 E37.0443
G1 X105.627 Y93.648 E37.16886
G1 X104.65 Y92.944 E37.19889
G1 X104.053 Y92.585 E37.21627
G1 X103.421 Y92.273 E37.23385
G1 X102.774 Y92.017 E37.25121
G1 X102.091 Y91.813 E37.26899
G1 X101.411 Y91.669 E37.28633
G1 X100.696 Y91.578 E37.30431
G1 X99.55 Y91.531 E37.33292
G1 X99.55 Y96.306 E37.45203
G1 X99.449 Y96.312 E37.45456
G1 X99.442 Y91.532 E37.5738
G1 X98.278 Y91.726 E37.60323
G1 X97.625 Y91.89 E37.62003
G1 X96.994 Y92.102 E37.63663
G1 X96.36 Y92.372 E37.65382
G1 X95.764 Y92.687 E37.67064
G1 X95.201 Y93.043 E37.68725
G1 X94.669 Y93.444 E37.70387
G1 X93.812 Y94.198 E37.73235
G1 X97.044 Y97.43 E37.84637
G1 X96.975 Y97.503 E37.84887
G1 X93.738 Y94.277 E37.96287
G1 X93.049 Y95.193 E37.99146
G1 X92.697 Y95.747 E38.00784
G1 X92.39 Y96.325 E38.02416
G1 X92.132 Y96.917 E38.04027
G1 X91.914 Y97.543 E38.05681
G1 X91.75 Y98.169 E38.07295
G1 X91.631 Y98.827 E38.08963
G1 X91.517 Y99.95 E38.11779
G1 X96.004 Y99.95 E38.22972
G1 X96.004 Y100.051 E38.23223
G1 X91.517 Y100.058 E38.34416
G1 X91.636 Y101.206 E38.37295
G1 X91.758 Y101.863 E38.38962
G1 X91.932 Y102.516 E38.40648
G1 X92.159 Y103.152 E38.42333
G1 X92.433 Y103.761 E38.43998
G1 X92.765 Y104.365 E38.45718
G1 X93.132 Y104.924 E38.47386
G1 X93.855 Y105.851 E38.50318
G1 X97.036 Y102.561 E38.61734
G1 X97.104 Y102.631 E38.61978
G1 X93.932 Y105.926 E38.73387
G0 F7800 X93.897 Y105.911
G0 X93.952 Y105.925
G0 X94.747 Y106.681
G0 X95.277 Y107.067
G0 X95.838 Y107.411
G0 X96.416 Y107.706
G0 X97.036 Y107.965
G0 X97.652 Y108.169
G0 X98.282 Y108.323
G0 X99.429 Y108.443
G0 X99.485 Y108.108
G0 X99.608 Y108.157
G0 X99.608 Y108.157
G0 X99.858 Y108.157
; TYPE:WALL-OUTER
G1 F1083.6 X100.702 Y108.119 E38.75494
G1 X101.383 Y108.031 E38.77207
G1 X102.062 Y107.884 E38.7894
G1 X102.726 Y107.679 E38.80674
G1 X103.371 Y107.42 E38.82407
G1 X103.99 Y107.106 E38.84139
G1 X104.581 Y106.74 E38.85873
G1 X105.273 Y106.225 E38.88025
G1 X101.755 Y102.702 E39.00444
G1 X101.891 Y102.599 E39.0087
G1 X102.147 Y102.359 E39.01745
G1 X102.264 Y102.226 E39.02187
G1 X105.787 Y105.749 E39.14615
G1 X106.359 Y105.097 E39.16779
G1 X106.78 Y104.521 E39.18559
G1 X107.146 Y103.918 E39.20318
G1 X107.465 Y103.27 E39.2212
G1 X107.719 Y102.612 E39.23879
G1 X107.922 Y101.91 E39.25702
G1 X108.058 Y101.218 E39.27461
G1 X108.151 Y100.35 E39.29639
G1 X103.073 Y100.35 E39.42306
G1 X103.099 Y99.998 E39.43187
G1 X103.073 Y99.65 E39.44057
G1 X108.15 Y99.642 E39.56722
G1 X108.055 Y98.765 E39.58922
G1 X107.915 Y98.058 E39.6072
G1 X107.707 Y97.35 E39.62561
G1 X107.443 Y96.681 E39.64355
G1 X107.108 Y96.014 E39.66217
G1 X106.728 Y95.401 E39.68016
G1 X106.296 Y94.825 E39.69812
G1 X105.699 Y94.162 E39.72038
G1 X102.24 Y97.745 E39.84461
G1 X102.119 Y97.61 E39.84913
G1 X101.86 Y97.374 E39.85787
G1 X101.722 Y97.272 E39.86215
G1 X105.171 Y93.689 E39.98621
G1 X104.485 Y93.195 E40.0073
G1 X103.909 Y92.848 E40.02407
G1 X103.3 Y92.548 E40.04101
G1 X102.675 Y92.301 E40.05777
G1 X102.017 Y92.104 E40.0749
G1 X101.361 Y91.965 E40.09163
G1 X100.671 Y91.877 E40.10898
G1 X99.85 Y91.844 E40.12948
G1 X99.85 Y96.607 E40.24829
G1 X99.663 Y96.6 E40.25296
G1 X99.313 Y96.622 E40.26171
G1 X99.15 Y96.649 E40.26583
G1 X99.143 Y91.886 E40.38464
G1 X98.339 Y92.02 E40.40498
G1 X97.71 Y92.178 E40.42115
G1 X97.101 Y92.383 E40.43718
G1 X96.489 Y92.643 E40.45377
G1 X95.915 Y92.947 E40.46997
G1 X95.372 Y93.29 E40.48599
G1 X94.858 Y93.677 E40.50204
G1 X94.25 Y94.212 E40.52225
G1 X97.473 Y97.435 E40.63595
G1 X97.337 Y97.555 E40.64047
G1 X97.097 Y97.811 E40.64922
G1 X96.994 Y97.947 E40.65348
G1 X93.771 Y94.733 E40.76702
G1 X93.296 Y95.364 E40.78672
G1 X92.956 Y95.898 E40.80251
G1 X92.661 Y96.456 E40.81826
G1 X92.411 Y97.026 E40.83379
G1 X92.201 Y97.63 E40.84974
G1 X92.043 Y98.234 E40.86531
G1 X91.928 Y98.869 E40.88141
G1 X91.849 Y99.65 E40.90099
G1 X96.322 Y99.65 E41.01257
G1 X96.304 Y99.828 E41.01703
G1 X96.304 Y100.179 E41.02579
G1 X96.322 Y100.35 E41.03008
G1 X91.85 Y100.357 E41.14163
G1 X91.933 Y101.163 E41.16184
G1 X92.051 Y101.797 E41.17793
G1 X92.219 Y102.427 E41.1942
G1 X92.438 Y103.04 E41.21043
G1 X92.702 Y103.627 E41.22649
G1 X93.022 Y104.21 E41.24308
G1 X93.376 Y104.749 E41.25916
G1 X93.879 Y105.394 E41.27957
G1 X97.046 Y102.119 E41.39321
G1 X97.155 Y102.254 E41.39754
G1 X97.396 Y102.5 E41.40613
G1 X97.535 Y102.616 E41.41065
G1 X94.37 Y105.904 E41.52449
G1 X94.962 Y106.406 E41.54386
G1 X95.472 Y106.776 E41.55957
G1 X96.008 Y107.106 E41.57527
G1 X96.563 Y107.389 E41.59081
G1 X97.158 Y107.638 E41.6069
G1 X97.749 Y107.832 E41.62242
G1 X98.353 Y107.981 E41.63794
G1 X99.15 Y108.114 E41.6581
G1 X99.15 Y103.35 E41.77693
G1 X99.313 Y103.377 E41.78106
G1 X99.663 Y103.399 E41.7898
G1 X99.85 Y103.392 E41.79447
G1 X99.858 Y108.157 E41.91333
G0 F7800 X99.538 Y108.634
; TYPE:FILL
G1 F3096 X99.504 Y108.636 E41.91367
G0 F7800 X99.9 Y109.003
G1 F3096 X100.767 Y108.983 E41.92766
G0 F7800 X101.425 Y109.008
G1 F3096 X101.72 Y108.926 E41.93344
G1 X102.132 Y108.726 E41.94486
G0 F7800 X102.274 Y109.008
G1 F3096 X102.727 Y108.556 E41.96083
G0 F7800 X102.698 Y109.008
G1 F3096 X103.391 Y108.316 E41.98526
G0 F7800 X103.547 Y109.008
G1 F3096 X105.32 Y107.236 E42.04779
G0 F7800 X105.883 Y106.341
G1 F3096 X105.908 Y106.311 E42.04816
G0 F7800 X107.237 Y105.318
G0 X107.237 Y105.318
G1 F3096 X109.008 Y103.547 E42.11064
G0 F7800 X109.008 Y103.123
G1 F3096 X107.95 Y104.181 E42.14796
G0 F7800 X108.318 Y103.389
G1 F3096 X109.008 Y102.699 E42.1723
G0 F7800 X109.008 Y102.275
G1 F3096 X108.559 Y102.723 E42.18813
G0 F7800 X108.733 Y102.126
G1 F3096 X108.923 Y101.722 E42.19781
G1 X109.008 Y101.426 E42.2055
G0 F7800 X108.95 Y101.331
G1 F3096 X109 Y100.39 E42.22109
G0 F7800 X109.042 Y100.386
G1 F3096 X109.021 Y99.997 E42.22481
G1 X109.042 Y99.604 E42.22861
G0 F7800 X108.645 Y99.949
G1 F3096 X108.651 Y99.994 E42.22897
G0 F7800 X108.876 Y98.589
G1 F3096 X108.905 Y98.346 E42.23354
G1 X108.87 Y97.957 E42.24056
G1 X108.823 Y97.58 E42.25013
G1 X109.006 Y97.186 E42.26097
G0 F7800 X109.006 Y96.761
G1 F3096 X108.544 Y97.223 E42.27727
G0 F7800 X108.435 Y96.908
G1 F3096 X109.006 Y96.336 E42.29743
G0 F7800 X109.006 Y95.912
G1 F3096 X108.315 Y96.604 E42.32182
G0 F7800 X108.192 Y96.302
G1 F3096 X109.006 Y95.488 E42.35054
G0 F7800 X109.007 Y95.063
G1 F3096 X108.05 Y96.02 E42.3843
G0 F7800 X107.908 Y95.738
G1 F3096 X109.007 Y94.639 E42.42307
G0 F7800 X109.007 Y94.214
G1 F3096 X107.756 Y95.466 E42.46722
G0 F7800 X107.593 Y95.204
G1 F3096 X109.008 Y93.789 E42.51714
G0 F7800 X109.008 Y93.365
G1 F3096 X107.43 Y94.943 E42.5728
G0 F7800 X107.25 Y94.699
G1 F3096 X109.008 Y92.941 E42.63482
G0 F7800 X109.008 Y92.516
G1 F3096 X107.069 Y94.456 E42.70324
G0 F7800 X106.881 Y94.219
G1 F3096 X109.008 Y92.092 E42.77828
G0 F7800 X109.008 Y91.667
G1 F3096 X106.679 Y93.997 E42.86046
G0 F7800 X106.478 Y93.773
G1 F3096 X109.009 Y91.242 E42.94975
G0 F7800 X108.838 Y90.989
G1 F3096 X106.335 Y93.492 E43.03805
G0 F7800 X106.088 Y93.315
G1 F3096 X108.414 Y90.989 E43.1201
G0 F7800 X107.99 Y90.989
G1 F3096 X105.875 Y93.104 E43.19471
G0 F7800 X105.595 Y92.959
G1 F3096 X107.565 Y90.989 E43.26421
G0 F7800 X107.141 Y90.989
G1 F3096 X105.349 Y92.782 E43.32745
G0 F7800 X105.102 Y92.604
G1 F3096 X106.717 Y90.989 E43.38442
G0 F7800 X106.292 Y90.989
G1 F3096 X104.849 Y92.433 E43.43534
G0 F7800 X104.583 Y92.274
G1 F3096 X105.868 Y90.989 E43.48068
G0 F7800 X105.444 Y90.989
G1 F3096 X104.319 Y92.114 E43.52036
G0 F7800 X104.035 Y91.974
G1 F3096 X105.02 Y90.989 E43.55511
G0 F7800 X104.595 Y90.989
G1 F3096 X103.751 Y91.834 E43.5849
G0 F7800 X103.455 Y91.706
G1 F3096 X104.171 Y90.989 E43.61018
G0 F7800 X103.747 Y90.989
G1 F3096 X103.15 Y91.586 E43.63124
G0 F7800 X102.839 Y91.473
G1 F3096 X103.323 Y90.989 E43.64832
G0 F7800 X102.898 Y90.989
G1 F3096 X102.512 Y91.375 E43.66193
G0 F7800 X102.184 Y91.28
G1 F3096 X102.474 Y90.989 E43.67218
G0 F7800 X102.05 Y90.989
G1 F3096 X101.729 Y91.097 E43.67981
G1 X101.481 Y91.134 E43.68607
G0 F7800 X100.733 Y91.014
G1 F3096 X99.891 Y90.997 E43.69965
G0 F7800 X99.884 Y90.951
G1 F3096 X99.441 Y90.988 E43.70346
G1 X99.101 Y90.981 E43.70807
G0 F7800 X98.656 Y90.989
G1 F3096 X98.368 Y91.064 E43.71339
G1 X97.892 Y91.116 E43.72235
G1 X97.402 Y91.394 E43.7364
G0 F7800 X97.383 Y90.989
G1 F3096 X96.758 Y91.614 E43.75845
G0 F7800 X96.959 Y90.989
G1 F3096 X95.996 Y91.952 E43.79242
G0 F7800 X96.11 Y90.989
G1 F3096 X90.989 Y96.11 E43.97308
G0 F7800 X90.989 Y96.534
G1 F3096 X92.541 Y94.983 E44.02781
G0 F7800 X91.953 Y95.995
G1 F3096 X90.989 Y96.959 E44.06182
G0 F7800 X90.989 Y97.383
G1 F3096 X91.614 Y96.758 E44.08387
G0 F7800 X91.392 Y97.404
G1 F3096 X90.989 Y97.807 E44.09809
G0 F7800 X91.241 Y97.98
G1 F3096 X91.064 Y98.368 E44.10695
G1 X90.989 Y98.656 E44.11437
G0 F7800 X91.042 Y98.764
G1 F3096 X90.999 Y99.609 E44.12838
G0 F7800 X90.959 Y99.612
G1 F3096 X90.979 Y100.004 E44.13223
G1 X90.96 Y100.395 E44.13613
G0 F7800 X91 Y100.4
G1 F3096 X91.045 Y101.271 E44.15064
G0 F7800 X91.137 Y101.478
G1 F3096 X91.096 Y101.731 E44.15584
G1 X91.136 Y102.115 E44.16338
G1 X91.18 Y102.495 E44.17372
G1 X90.989 Y102.898 E44.18484
G0 F7800 X90.989 Y103.323
G1 F3096 X91.473 Y102.839 E44.20192
G0 F7800 X91.585 Y103.152
G1 F3096 X90.989 Y103.747 E44.22293
G0 F7800 X90.989 Y104.171
G1 F3096 X91.704 Y103.456 E44.24815
G0 F7800 X91.836 Y103.749
G1 F3096 X90.989 Y104.595 E44.27801
G0 F7800 X90.989 Y105.02
G1 F3096 X91.969 Y104.04 E44.31258
G0 F7800 X92.12 Y104.313
G1 F3096 X90.989 Y105.444 E44.35248
G0 F7800 X90.989 Y105.868
G1 F3096 X92.271 Y104.586 E44.39771
G0 F7800 X92.435 Y104.846
G1 F3096 X90.989 Y106.292 E44.44872
G0 F7800 X90.989 Y106.717
G1 F3096 X92.603 Y105.103 E44.50566
G0 F7800 X92.78 Y105.351
G1 F3096 X90.989 Y107.141 E44.56882
G0 F7800 X90.989 Y107.565
G1 F3096 X92.966 Y105.589 E44.63855
G0 F7800 X93.152 Y105.827
G1 F3096 X90.989 Y107.99 E44.71486
G0 F7800 X90.989 Y108.414
G1 F3096 X93.304 Y106.099 E44.79652
G0 F7800 X93.524 Y106.304
G1 F3096 X90.989 Y108.838 E44.88593
G0 F7800 X91.242 Y109.009
G1 F3096 X93.709 Y106.543 E44.97295
G0 F7800 X93.992 Y106.684
G1 F3096 X91.667 Y109.009 E45.05497
G0 F7800 X92.091 Y109.009
G1 F3096 X94.222 Y106.878 E45.13014
G0 F7800 X94.453 Y107.072
G1 F3096 X92.515 Y109.009 E45.19849
G0 F7800 X92.939 Y109.009
G1 F3096 X94.699 Y107.25 E45.26057
G0 F7800 X94.944 Y107.429
G1 F3096 X93.364 Y109.009 E45.3163
G0 F7800 X93.788 Y109.009
G1 F3096 X95.202 Y107.595 E45.36619
G0 F7800 X95.465 Y107.757
G1 F3096 X94.212 Y109.009 E45.41037
G0 F7800 X94.637 Y109.009
G1 F3096 X95.736 Y107.91 E45.44914
G0 F7800 X96.017 Y108.053
G1 F3096 X95.061 Y109.009 E45.48287
G0 F7800 X95.485 Y109.009
G1 F3096 X96.304 Y108.19 E45.51176
G0 F7800 X96.604 Y108.315
G1 F3096 X95.909 Y109.009 E45.53626
G0 F7800 X96.334 Y109.009
G1 F3096 X96.906 Y108.437 E45.55644
G0 F7800 X97.225 Y108.543
G1 F3096 X96.758 Y109.009 E45.5729
G0 F7800 X97.182 Y109.009
G1 F3096 X97.545 Y108.646 E45.5857
G0 F7800 X97.885 Y108.731
G1 F3096 X97.818 Y109.009 E45.59552
G1 X98.342 Y108.91 E45.60248
G1 X98.592 Y108.872 E45.60879
G0 F7800 X99.111 Y109.021
G1 F3096 X99.458 Y109.013 E45.61335
G1 X99.892 Y109.048 E45.61712
G0 F7800 X103.123 Y109.008
G0 X103.123 Y109.008
G1 F3096 X104.182 Y107.949 E45.65448
G0 F7800 X103.971 Y109.008
G1 F3096 X109.008 Y103.971 E45.83217
G0 F7800 X109.008 Y104.395
G1 F3096 X104.395 Y109.008 E45.99491
G0 F7800 X104.82 Y109.008
G1 F3096 X109.008 Y104.82 E46.14265
G0 F7800 X109.008 Y105.244
G1 F3096 X105.243 Y109.009 E46.27547
G0 F7800 X105.667 Y109.009
G1 F3096 X109.008 Y105.668 E46.39333
G0 F7800 X109.008 Y106.092
G1 F3096 X106.092 Y109.009 E46.49622
G0 F7800 X106.516 Y109.009
G1 F3096 X109.008 Y106.517 E46.58413
G0 F7800 X109.008 Y106.941
G1 F3096 X106.94 Y109.009 E46.65709
G0 F7800 X107.364 Y109.009
G1 F3096 X109.009 Y107.364 E46.71512
G0 F7800 X109.009 Y107.789
G1 F3096 X107.789 Y109.009 E46.75816
G0 F7800 X108.213 Y109.009
G1 F3096 X109.009 Y108.213 E46.78624
G0 F7800 X109.009 Y108.637
G1 F3096 X108.637 Y109.009 E46.79936
G0 F7800 X102.953 Y107.867
G0 X102.842 Y108.009
G0 X102.15 Y108.222
G0 X101.442 Y108.376
G0 X100.732 Y108.467
G0 X99.571 Y108.458
G0 X99.562 Y103.691
G0 X99.658 Y103.749
G0 X99.436 Y103.671
G0 X99.429 Y108.443
G0 X98.282 Y108.323
G0 X97.652 Y108.169
G0 X97.036 Y107.965
G0 X96.416 Y107.706
G0 X95.838 Y107.411
G0 X95.277 Y107.067
G0 X94.747 Y106.681
G0 X94.239 Y106.116
G0 X93.803 Y106.029
G0 X93.803 Y106.029
G1 F3096 X93.777 Y106.008 E46.79969
G0 F7800 X93.427 Y105.149
G0 X93.092 Y104.953
G0 X92.723 Y104.391
G0 X92.389 Y103.783
G0 X92.113 Y103.17
G0 X91.885 Y102.53
G0 X91.709 Y101.873
G0 X91.682 Y100.854
G0 X91.356 Y100.05
G0 X91.356 Y100.05
G1 F3096 X91.351 Y100.005 E46.80005
G0 F7800 X90.989 Y95.686
G0 X90.989 Y95.686
G1 F3096 X95.686 Y90.989 E46.96575
G0 F7800 X95.262 Y90.989
G1 F3096 X90.989 Y95.262 E47.11649
G0 F7800 X90.989 Y94.837
G1 F3096 X94.837 Y90.989 E47.25224
G0 F7800 X94.413 Y90.989
G1 F3096 X90.989 Y94.413 E47.37303
G0 F7800 X90.989 Y93.989
G1 F3096 X93.989 Y90.989 E47.47886
G0 F7800 X93.565 Y90.989
G1 F3096 X90.989 Y93.565 E47.56974
G0 F7800 X90.989 Y93.14
G1 F3096 X93.14 Y90.989 E47.64562
G0 F7800 X92.716 Y90.989
G1 F3096 X90.989 Y92.716 E47.70654
G0 F7800 X90.989 Y92.292
G1 F3096 X92.292 Y90.989 E47.75251
G0 F7800 X91.868 Y90.989
G1 F3096 X90.989 Y91.868 E47.78352
G0 F7800 X90.989 Y91.443
G1 F3096 X91.443 Y90.989 E47.79954
G0 F7800 X91.019 Y90.989
G1 F3096 X90.989 Y91.019 E47.80059
G0 F7800 X93.657 Y94.12
G0 X93.657 Y94.12
G1 F3096 X93.674 Y94.107 E47.80169
G1 X93.626 Y94.162 E47.80221
G0 F7800 X94.983 Y92.541
G0 X94.983 Y92.541
G1 F3096 X96.534 Y90.989 E47.85695
G0 F7800 X99.496 Y91.376
G0 X99.496 Y91.376
G1 F3096 X99.496 Y91.379 E47.857
G1 X99.525 Y91.377 E47.85732
G0 F7800 X100.328 Y91.654
G0 X100.699 Y91.529
G0 X101.419 Y91.62
G0 X102.103 Y91.765
G0 X102.789 Y91.97
G0 X103.441 Y92.228
G0 X104.076 Y92.541
G0 X104.978 Y93.268
G0 X105.737 Y93.533
G0 X105.737 Y93.533
G1 F3096 X105.782 Y93.565 E47.85867
G1 X105.808 Y93.594 E47.85903
; Layer Change GCode
; LAYER:2
G1 F1800 E46.85903
G0 F7800 X102.255 Y97.262 Z0.65
G0 X102.368 Y97.365
G0 X102.251 Y97.325
G0 X105.706 Y93.742
G0 X106.569 Y94.607
G0 X107.017 Y95.205
G0 X107.417 Y95.85
G0 X107.764 Y96.543
G0 X108.038 Y97.238
G0 X108.256 Y97.98
G0 X108.401 Y98.713
G0 X108.466 Y99.933
G0 X103.381 Y99.935
G0 X103.45 Y99.997
G0 X103.381 Y100.064
G0 X108.466 Y100.067
G0 X108.404 Y101.271
G0 X108.26 Y102.001
G0 X108.048 Y102.727
G0 X107.785 Y103.411
G0 X107.449 Y104.091
G0 X107.063 Y104.726
G0 X106.624 Y105.326
G0 X105.8 Y106.168
G0 X102.28 Y102.644
G0 X102.399 Y102.601
G0 X102.119 Y102.863
G0 X102.183 Y102.734
G0 X105.7 Y106.256
G0 X104.767 Y107.036
G0 X104.15 Y107.417
G0 X103.503 Y107.744
G0 X102.83 Y108.013
G0 X102.138 Y108.226
G0 X101.442 Y108.376
G0 X100.724 Y108.468
G0 X99.562 Y108.458
G0 X99.561 Y103.691
G0 X99.658 Y103.749
G0 X99.436 Y103.671
G0 X99.429 Y108.443
G0 X98.278 Y108.322
G0 X97.652 Y108.169
G0 X97.028 Y107.963
G0 X96.411 Y107.704
G0 X95.826 Y107.404
G0 X95.268 Y107.059
G0 X94.747 Y106.681
G0 X93.947 Y105.919
G0 X97.116 Y102.64
G0 X97.16 Y102.758
G0 X97.046 Y102.642
G0 X90.438 Y109.466
G0 X90.16 Y109.753
G0 X90.31 Y109.6
G0 X90.31 Y109.6
G0 X90.15 Y109.85
G0 X90.15 Y109.85
G0 X90.75 Y109.25
; TYPE:WALL-INNER
G1 F1800 E47.85903
G1 F1584 X90.75 Y90.75 E48.32051
G1 X109.25 Y90.75 E48.782
G1 X109.25 Y109.25 E49.24348
G1 X90.75 Y109.25 E49.70497
G0 F7800 X90.45 Y109.55
G1 F1584 X90.45 Y90.45 E50.18142
G1 X109.55 Y90.45 E50.65787
G1 X109.55 Y109.55 E51.13432
G1 X90.45 Y109.55 E51.61077
G0 F7800 X90.15 Y109.85
; TYPE:WALL-OUTER
G1 F1108.8 X90.15 Y90.15 E52.10219
G1 X109.85 Y90.15 E52.59361
G1 X109.85 Y109.85 E53.08503
G1 X90.15 Y109.85 E53.57645
G0 F7800 X90.31 Y109.6
G0 X92.989 Y107.092
G0 X93.281 Y106.819
G0 X93.83 Y106.307
G0 X93.83 Y106.307
; TYPE:WALL-INNER
G1 F1584 X93.87 Y106.266 E53.57787
G1 X94.591 Y106.878 E53.60147
G1 X95.128 Y107.267 E53.61801
G1 X95.703 Y107.623 E53.63488
G1 X96.305 Y107.931 E53.65174
G1 X96.94 Y108.198 E53.66893
G1 X97.583 Y108.409 E53.68581
G1 X98.227 Y108.568 E53.70236
G1 X99.25 Y108.739 E53.72823
G1 X99.25 Y108.784 E53.72935
G1 X99.461 Y108.775 E53.73462
G1 X99.75 Y108.823 E53.74193
G1 X99.75 Y108.762 E53.74345
G1 X100.745 Y108.718 E53.76829
G1 X101.485 Y108.623 E53.78691
G1 X102.201 Y108.468 E53.80518
G1 X102.914 Y108.25 E53.82378
G1 X103.606 Y107.972 E53.84238
G1 X104.272 Y107.636 E53.86099
G1 X104.908 Y107.244 E53.87963
G1 X105.783 Y106.593 E53.90683
G1 X105.816 Y106.626 E53.908
G1 X105.963 Y106.459 E53.91354
G1 X106.187 Y106.292 E53.92051
G1 X106.146 Y106.251 E53.92196
G1 X106.82 Y105.483 E53.94745
G1 X107.271 Y104.865 E53.96653
G1 X107.669 Y104.212 E53.98561
G1 X108.014 Y103.512 E54.00508
G1 X108.286 Y102.808 E54.0239
G1 X108.503 Y102.061 E54.04331
G1 X108.652 Y101.309 E54.06243
G1 X108.765 Y100.25 E54.089
G1 X108.819 Y100.25 E54.09035
G1 X108.792 Y99.997 E54.09669
G1 X108.818 Y99.75 E54.10289
G1 X108.765 Y99.75 E54.10421
G1 X108.649 Y98.674 E54.13121
G1 X108.499 Y97.92 E54.15038
G1 X108.275 Y97.156 E54.17024
G1 X107.994 Y96.44 E54.18943
G1 X107.636 Y95.728 E54.20931
G1 X107.224 Y95.063 E54.22883
G1 X106.763 Y94.447 E54.24802
G1 X106.05 Y93.655 E54.2746
G1 X106.089 Y93.614 E54.27601
G1 X105.871 Y93.456 E54.28273
G1 X105.714 Y93.282 E54.28858
G1 X105.68 Y93.318 E54.28981
G1 X104.823 Y92.698 E54.3162
G1 X104.197 Y92.321 E54.33443
G1 X103.555 Y92.004 E54.35229
G1 X102.877 Y91.735 E54.37048
G1 X102.165 Y91.522 E54.38902
G1 X101.466 Y91.374 E54.40684
G1 X100.729 Y91.279 E54.42538
G1 X99.75 Y91.239 E54.44982
G1 X99.75 Y91.177 E54.45137
G1 X99.449 Y91.227 E54.45898
G1 X99.25 Y91.219 E54.46395
G1 X99.25 Y91.26 E54.46497
G1 X98.217 Y91.432 E54.49109
G1 X97.553 Y91.598 E54.50817
G1 X96.891 Y91.819 E54.52558
G1 X96.239 Y92.098 E54.54327
G1 X95.62 Y92.423 E54.56071
G1 X95.031 Y92.796 E54.5781
G1 X94.482 Y93.208 E54.59522
G1 X93.749 Y93.853 E54.61958
G1 X93.71 Y93.814 E54.62095
G1 X93.546 Y94.033 E54.62778
G1 X93.374 Y94.184 E54.63349
G1 X93.407 Y94.217 E54.63465
G1 X92.802 Y95.023 E54.65979
G1 X92.444 Y95.585 E54.67641
G1 X92.125 Y96.184 E54.69334
G1 X91.854 Y96.804 E54.71022
G1 X91.627 Y97.455 E54.72742
G1 X91.458 Y98.1 E54.74405
G1 X91.335 Y98.778 E54.76124
G1 X91.236 Y99.75 E54.78561
G1 X91.183 Y99.75 E54.78693
G1 X91.21 Y100.007 E54.79338
G1 X91.185 Y100.25 E54.79947
G1 X91.235 Y100.25 E54.80072
G1 X91.338 Y101.242 E54.8256
G1 X91.465 Y101.929 E54.84303
G1 X91.642 Y102.594 E54.86019
G1 X91.876 Y103.252 E54.87761
G1 X92.162 Y103.89 E54.89505
G1 X92.504 Y104.514 E54.9128
G1 X92.888 Y105.099 E54.93026
G1 X93.52 Y105.91 E54.95591
G1 X93.489 Y105.942 E54.95702
G1 X93.656 Y106.084 E54.96249
G1 X93.83 Y106.307 E54.96954
G0 F7800 X93.927 Y105.92
G1 F1584 X94.777 Y106.642 E54.99736
G1 X95.295 Y107.018 E55.01333
G1 X95.851 Y107.361 E55.02963
G1 X96.432 Y107.659 E55.04592
G1 X97.045 Y107.917 E55.06251
G1 X97.666 Y108.121 E55.07881
G1 X98.288 Y108.274 E55.09479
G1 X99.45 Y108.469 E55.12418
G1 X99.45 Y103.687 E55.24347
G1 X99.55 Y103.693 E55.24597
G1 X99.55 Y108.47 E55.36513
G1 X100.72 Y108.419 E55.39434
G1 X101.434 Y108.327 E55.4123
G1 X102.126 Y108.178 E55.42996
G1 X102.814 Y107.967 E55.44791
G1 X103.482 Y107.698 E55.46587
G1 X104.126 Y107.374 E55.48386
G1 X104.739 Y106.996 E55.50182
G1 X105.73 Y106.259 E55.53263
G1 X102.201 Y102.719 E55.65732
G1 X102.269 Y102.655 E55.65965
G1 X105.801 Y106.188 E55.78427
G1 X106.585 Y105.295 E55.81391
G1 X107.022 Y104.698 E55.83237
G1 X107.406 Y104.067 E55.85079
G1 X107.739 Y103.391 E55.86959
G1 X108.002 Y102.712 E55.88775
G1 X108.212 Y101.99 E55.90651
G1 X108.355 Y101.264 E55.92497
G1 X108.484 Y100.05 E55.95542
G1 X103.396 Y100.05 E56.08234
G1 X103.396 Y99.95 E56.08484
G1 X108.485 Y99.95 E56.21178
G1 X108.352 Y98.72 E56.24264
G1 X108.207 Y97.992 E56.26116
G1 X107.991 Y97.253 E56.28037
G1 X107.719 Y96.562 E56.29889
G1 X107.374 Y95.874 E56.31809
G1 X106.976 Y95.232 E56.33693
G1 X106.531 Y94.638 E56.35545
G1 X105.706 Y93.722 E56.3862
G1 X102.239 Y97.313 E56.51071
G1 X102.165 Y97.246 E56.5132
G1 X105.633 Y93.655 E56.63773
G1 X104.657 Y92.948 E56.6678
G1 X104.053 Y92.585 E56.68538
G1 X103.433 Y92.278 E56.70263
G1 X102.778 Y92.019 E56.7202
G1 X102.091 Y91.813 E56.73809
G1 X101.415 Y91.67 E56.75533
G1 X100.704 Y91.578 E56.77321
G1 X99.55 Y91.531 E56.80202
G1 X99.55 Y96.306 E56.92114
G1 X99.45 Y96.312 E56.92364
G1 X99.45 Y91.531 E57.0429
G1 X98.278 Y91.726 E57.07254
G1 X97.637 Y91.887 E57.08902
G1 X96.998 Y92.1 E57.10583
G1 X96.368 Y92.369 E57.12291
G1 X95.771 Y92.683 E57.13974
G1 X95.201 Y93.043 E57.15656
G1 X94.672 Y93.441 E57.17307
G1 X93.812 Y94.198 E57.20165
G1 X97.044 Y97.43 E57.31567
G1 X96.975 Y97.503 E57.31817
G1 X93.743 Y94.27 E57.43221
G1 X93.049 Y95.194 E57.46104
G1 X92.703 Y95.736 E57.47708
G1 X92.396 Y96.315 E57.49342
G1 X92.134 Y96.913 E57.50971
G1 X91.914 Y97.543 E57.52636
G1 X91.751 Y98.165 E57.5424
G1 X91.632 Y98.82 E57.559
G1 X91.517 Y99.95 E57.58734
G1 X96.005 Y99.95 E57.69929
G1 X96.005 Y100.05 E57.70178
G1 X91.516 Y100.05 E57.81376
G1 X91.635 Y101.199 E57.84258
G1 X91.758 Y101.863 E57.85942
G1 X91.929 Y102.505 E57.876
G1 X92.155 Y103.141 E57.89283
G1 X92.431 Y103.756 E57.90965
G1 X92.761 Y104.359 E57.9268
G1 X93.132 Y104.924 E57.94366
G1 X93.854 Y105.851 E57.97297
G1 X97.037 Y102.563 E58.08712
G1 X97.103 Y102.63 E58.08947
G1 X93.927 Y105.92 E58.20354
G0 F7800 X93.892 Y105.906
G0 X93.947 Y105.919
G0 X94.747 Y106.681
G0 X95.268 Y107.059
G0 X95.826 Y107.404
G0 X96.411 Y107.704
G0 X97.028 Y107.963
G0 X97.652 Y108.169
G0 X98.278 Y108.322
G0 X99.429 Y108.443
G0 X99.486 Y108.111
G0 X99.6 Y108.157
G0 X99.6 Y108.157
G0 X99.85 Y108.157
; TYPE:WALL-OUTER
G1 F1108.8 X100.694 Y108.12 E58.22461
G1 X101.383 Y108.031 E58.24194
G1 X102.05 Y107.887 E58.25896
G1 X102.714 Y107.684 E58.27629
G1 X103.359 Y107.425 E58.29362
G1 X103.979 Y107.112 E58.31095
G1 X104.57 Y106.747 E58.32828
G1 X105.273 Y106.225 E58.35012
G1 X101.757 Y102.7 E58.47431
G1 X101.892 Y102.598 E58.47853
G1 X102.148 Y102.357 E58.4873
G1 X102.263 Y102.225 E58.49167
G1 X105.787 Y105.749 E58.61599
G1 X106.351 Y105.107 E58.63731
G1 X106.772 Y104.531 E58.6551
G1 X107.143 Y103.922 E58.67289
G1 X107.464 Y103.27 E58.69102
G1 X107.717 Y102.616 E58.70851
G1 X107.92 Y101.919 E58.72662
G1 X108.058 Y101.219 E58.74442
G1 X108.151 Y100.35 E58.76622
G1 X103.073 Y100.35 E58.89289
G1 X103.099 Y99.997 E58.90172
G1 X103.073 Y99.65 E58.9104
G1 X108.151 Y99.65 E59.03707
G1 X108.055 Y98.765 E59.05928
G1 X107.916 Y98.063 E59.07713
G1 X107.707 Y97.35 E59.09567
G1 X107.445 Y96.685 E59.1135
G1 X107.112 Y96.021 E59.13202
G1 X106.728 Y95.401 E59.15022
G1 X106.299 Y94.829 E59.16805
G1 X105.699 Y94.162 E59.19043
G1 X102.24 Y97.745 E59.31466
G1 X102.119 Y97.61 E59.31919
G1 X101.86 Y97.374 E59.32793
G1 X101.723 Y97.272 E59.33219
G1 X105.177 Y93.695 E59.45623
G1 X104.492 Y93.199 E59.47732
G1 X103.909 Y92.848 E59.4943
G1 X103.311 Y92.553 E59.51093
G1 X102.679 Y92.302 E59.52789
G1 X102.017 Y92.104 E59.54513
G1 X101.365 Y91.966 E59.56176
G1 X100.679 Y91.877 E59.57901
G1 X99.85 Y91.844 E59.59971
G1 X99.85 Y96.607 E59.71852
G1 X99.663 Y96.6 E59.72319
G1 X99.313 Y96.622 E59.73194
G1 X99.15 Y96.649 E59.73606
G1 X99.15 Y91.885 E59.8549
G1 X98.339 Y92.02 E59.87541
G1 X97.721 Y92.175 E59.8913
G1 X97.105 Y92.381 E59.9075
G1 X96.497 Y92.64 E59.92399
G1 X95.921 Y92.943 E59.94022
G1 X95.372 Y93.29 E59.95642
G1 X94.861 Y93.674 E59.97237
G1 X94.25 Y94.212 E59.99268
G1 X97.473 Y97.435 E60.10638
G1 X97.337 Y97.555 E60.1109
G1 X97.097 Y97.811 E60.11965
G1 X96.994 Y97.946 E60.12389
G1 X93.775 Y94.727 E60.23745
G1 X93.296 Y95.365 E60.25735
G1 X92.962 Y95.887 E60.27281
G1 X92.666 Y96.446 E60.28859
G1 X92.413 Y97.023 E60.3043
G1 X92.201 Y97.63 E60.32034
G1 X92.044 Y98.23 E60.33581
G1 X91.929 Y98.862 E60.35184
G1 X91.849 Y99.65 E60.37159
G1 X96.322 Y99.65 E60.48317
G1 X96.305 Y99.818 E60.48739
G1 X96.305 Y100.181 E60.49644
G1 X96.322 Y100.35 E60.50068
G1 X91.849 Y100.35 E60.61226
G1 X91.932 Y101.156 E60.63247
G1 X92.051 Y101.797 E60.64873
G1 X92.216 Y102.416 E60.66471
G1 X92.434 Y103.029 E60.68094
G1 X92.7 Y103.623 E60.69718
G1 X93.018 Y104.204 E60.7137
G1 X93.376 Y104.749 E60.72997
G1 X93.879 Y105.394 E60.75037
G1 X97.048 Y102.121 E60.86401
G1 X97.156 Y102.255 E60.86831
G1 X97.396 Y102.5 E60.87686
G1 X97.535 Y102.616 E60.88138
G1 X94.365 Y105.899 E60.99522
G1 X94.962 Y106.406 E61.01476
G1 X95.462 Y106.769 E61.03017
G1 X95.998 Y107.1 E61.04588
G1 X96.559 Y107.387 E61.0616
G1 X97.15 Y107.636 E61.0776
G1 X97.749 Y107.832 E61.09332
G1 X98.349 Y107.98 E61.10874
G1 X99.15 Y108.114 E61.129
G1 X99.15 Y103.35 E61.24784
G1 X99.313 Y103.377 E61.25196
G1 X99.663 Y103.399 E61.26071
G1 X99.85 Y103.392 E61.26537
G1 X99.85 Y108.157 E61.38424
G0 F7800 X99.533 Y108.634
; TYPE:FILL
G1 F3168 X99.5 Y108.636 E61.38459
G0 F7800 X99.9 Y109.002
G1 F3168 X100.758 Y108.983 E61.39851
G0 F7800 X101.256 Y108.893
G1 F3168 X101.372 Y109.008 E61.40258
G0 F7800 X101.624 Y108.837
G1 F3168 X101.796 Y109.008 E61.40863
G0 F7800 X101.973 Y108.762
G1 F3168 X102.22 Y109.008 E61.41733
G0 F7800 X102.319 Y108.683
G1 F3168 X102.645 Y109.008 E61.42881
G0 F7800 X103.069 Y109.008
G1 F3168 X102.643 Y108.583 E61.44382
G0 F7800 X102.968 Y108.483
G1 F3168 X103.493 Y109.008 E61.46234
G0 F7800 X103.917 Y109.008
G1 F3168 X103.272 Y108.364 E61.48508
G0 F7800 X103.575 Y108.242
G1 F3168 X104.342 Y109.008 E61.51212
G0 F7800 X104.766 Y109.008
G1 F3168 X103.866 Y108.108 E61.54387
G0 F7800 X104.148 Y107.966
G1 F3168 X105.191 Y109.009 E61.58066
G0 F7800 X105.615 Y109.009
G1 F3168 X104.427 Y107.821 E61.62257
G0 F7800 X104.689 Y107.659
G1 F3168 X106.039 Y109.009 E61.6702
G0 F7800 X106.464 Y109.009
G1 F3168 X104.952 Y107.497 E61.72354
G0 F7800 X105.202 Y107.323
G1 F3168 X106.888 Y109.009 E61.78302
G0 F7800 X107.312 Y109.009
G1 F3168 X105.445 Y107.142 E61.84888
G0 F7800 X105.689 Y106.962
G1 F3168 X107.736 Y109.009 E61.92109
G0 F7800 X108.161 Y109.009
G1 F3168 X105.967 Y106.816 E61.99847
G0 F7800 X106.175 Y106.599
G1 F3168 X108.585 Y109.009 E62.08349
G0 F7800 X109.009 Y109.009
G1 F3168 X106.418 Y106.418 E62.1749
G0 F7800 X106.563 Y106.138
G1 F3168 X109.009 Y108.585 E62.26121
G0 F7800 X109.009 Y108.161
G1 F3168 X106.761 Y105.913 E62.34051
G0 F7800 X106.959 Y105.687
G1 F3168 X109.009 Y107.736 E62.41281
G0 F7800 X109.009 Y107.312
G1 F3168 X107.143 Y105.446 E62.47864
G0 F7800 X107.322 Y105.201
G1 F3168 X109.008 Y106.887 E62.53812
G0 F7800 X109.008 Y106.463
G1 F3168 X107.498 Y104.953 E62.59139
G0 F7800 X107.658 Y104.688
G1 F3168 X109.008 Y106.039 E62.63903
G0 F7800 X109.008 Y105.614
G1 F3168 X107.818 Y104.424 E62.68101
G0 F7800 X107.966 Y104.148
G1 F3168 X109.008 Y105.19 E62.71777
G0 F7800 X109.008 Y104.766
G1 F3168 X108.106 Y103.864 E62.74959
G0 F7800 X108.245 Y103.578
G1 F3168 X109.008 Y104.342 E62.77652
G0 F7800 X109.008 Y103.917
G1 F3168 X108.363 Y103.272 E62.79928
G0 F7800 X108.48 Y102.965
G1 F3168 X109.008 Y103.493 E62.8179
G0 F7800 X109.008 Y103.068
G1 F3168 X108.582 Y102.642 E62.83293
G0 F7800 X108.678 Y102.314
G1 F3168 X109.008 Y102.644 E62.84457
G0 F7800 X109.008 Y102.22
G1 F3168 X108.763 Y101.975 E62.85322
G0 F7800 X109.008 Y101.795
G1 F3168 X108.834 Y101.621 E62.85936
G0 F7800 X109.008 Y101.371
G1 F3168 X108.928 Y101.291 E62.86218
G0 F7800 X108.95 Y101.331
G1 F3168 X109 Y100.4 E62.87768
G0 F7800 X109.043 Y100.396
G1 F3168 X109.021 Y99.995 E62.88146
G1 X109.042 Y99.604 E62.88523
G0 F7800 X108.645 Y99.949
G1 F3168 X108.651 Y99.999 E62.88563
G0 F7800 X109.005 Y98.398
G0 X109.005 Y98.398
G1 F3168 X108.796 Y98.19 E62.89298
G0 F7800 X109.006 Y97.975
G1 F3168 X108.663 Y97.633 E62.90507
G0 F7800 X109.006 Y97.551
G1 F3168 X108.48 Y97.024 E62.92364
G0 F7800 X109.006 Y97.126
G1 F3168 X108.202 Y96.322 E62.952
G0 F7800 X109.006 Y96.278
G1 F3168 X106.381 Y93.653 E63.04461
G0 F7800 X105.814 Y93.6
G1 F3168 X105.785 Y93.568 E63.045
G0 F7800 X105.783 Y93.568
G1 F3168 X105.739 Y93.534 E63.04541
G0 F7800 X105.688 Y92.96
G1 F3168 X103.717 Y90.989 E63.11494
G0 F7800 X103.293 Y90.989
G1 F3168 X104.569 Y92.266 E63.15997
G0 F7800 X103.676 Y91.797
G1 F3168 X102.869 Y90.989 E63.18846
G0 F7800 X102.444 Y90.989
G1 F3168 X102.968 Y91.513 E63.20694
G0 F7800 X102.361 Y91.33
G1 F3168 X102.02 Y90.989 E63.21897
G0 F7800 X101.808 Y91.201
G1 F3168 X101.596 Y90.989 E63.22645
G0 F7800 X101.291 Y91.109
G1 F3168 X101.237 Y91.054 E63.22837
G0 F7800 X100.742 Y91.014
G1 F3168 X99.9 Y90.997 E63.24203
G0 F7800 X99.893 Y90.951
G1 F3168 X99.439 Y90.988 E63.24589
G1 X99.101 Y90.982 E63.2505
G0 F7800 X98.738 Y91.101
G1 F3168 X98.626 Y90.989 E63.25445
G0 F7800 X98.374 Y91.162
G1 F3168 X98.202 Y90.989 E63.26054
G0 F7800 X98.021 Y91.233
G1 F3168 X97.778 Y90.989 E63.26913
G0 F7800 X97.681 Y91.317
G1 F3168 X97.353 Y90.989 E63.2807
G0 F7800 X97.351 Y91.411
G1 F3168 X96.929 Y90.989 E63.29559
G0 F7800 X96.505 Y90.989
G1 F3168 X97.033 Y91.518 E63.31423
G0 F7800 X96.72 Y91.629
G1 F3168 X96.08 Y90.989 E63.33681
G0 F7800 X95.656 Y90.989
G1 F3168 X96.423 Y91.757 E63.36389
G0 F7800 X96.127 Y91.884
G1 F3168 X95.232 Y90.989 E63.39546
G0 F7800 X94.808 Y90.989
G1 F3168 X95.849 Y92.031 E63.4322
G0 F7800 X95.571 Y92.177
G1 F3168 X94.383 Y90.989 E63.47411
G0 F7800 X93.959 Y90.989
G1 F3168 X95.306 Y92.336 E63.52163
G0 F7800 X95.047 Y92.501
G1 F3168 X93.535 Y90.989 E63.57497
G0 F7800 X93.111 Y90.989
G1 F3168 X94.794 Y92.672 E63.63434
G0 F7800 X94.552 Y92.855
G1 F3168 X92.686 Y90.989 E63.70017
G0 F7800 X92.262 Y90.989
G1 F3168 X94.311 Y93.038 E63.77245
G0 F7800 X94.085 Y93.236
G1 F3168 X91.838 Y90.989 E63.85172
G0 F7800 X91.414 Y90.989
G1 F3168 X93.859 Y93.435 E63.938
G0 F7800 X93.582 Y93.582
G1 F3168 X90.989 Y90.989 E64.02947
G0 F7800 X90.989 Y91.414
G1 F3168 X93.401 Y93.825 E64.11454
G0 F7800 X93.183 Y94.031
G1 F3168 X90.989 Y91.838 E64.19192
G0 F7800 X90.989 Y92.262
G1 F3168 X93.036 Y94.309 E64.26414
G0 F7800 X92.855 Y94.552
G1 F3168 X90.989 Y92.686 E64.32997
G0 F7800 X90.989 Y93.111
G1 F3168 X92.673 Y94.794 E64.38936
G0 F7800 X92.501 Y95.047
G1 F3168 X90.989 Y93.535 E64.4427
G0 F7800 X90.989 Y93.959
G1 F3168 X92.336 Y95.306 E64.49021
G0 F7800 X92.179 Y95.573
G1 F3168 X90.989 Y94.383 E64.5322
G0 F7800 X90.989 Y94.808
G1 F3168 X92.031 Y95.849 E64.56894
G0 F7800 X91.887 Y96.129
G1 F3168 X90.989 Y95.232 E64.6006
G0 F7800 X90.989 Y95.656
G1 F3168 X91.757 Y96.424 E64.62769
G0 F7800 X91.629 Y96.72
G1 F3168 X90.989 Y96.08 E64.65027
G0 F7800 X90.989 Y96.505
G1 F3168 X91.519 Y97.034 E64.66895
G0 F7800 X91.409 Y97.349
G1 F3168 X90.989 Y96.929 E64.68377
G0 F7800 X90.989 Y97.353
G1 F3168 X91.319 Y97.683 E64.69541
G0 F7800 X90.989 Y97.778
G1 F3168 X91.23 Y98.019 E64.70391
G0 F7800 X90.989 Y98.202
G1 F3168 X91.163 Y98.376 E64.71005
G0 F7800 X90.989 Y98.626
G1 F3168 X91.097 Y98.734 E64.71386
G0 F7800 X91.043 Y98.757
G1 F3168 X91 Y99.6 E64.7279
G0 F7800 X90.958 Y99.603
G1 F3168 X90.979 Y100.003 E64.73179
G1 X90.959 Y100.395 E64.73568
G0 F7800 X91 Y100.4
G1 F3168 X91.044 Y101.263 E64.75005
G0 F7800 X91.087 Y101.269
G1 F3168 X91.101 Y101.283 E64.75054
G0 F7800 X90.989 Y101.596
G1 F3168 X91.197 Y101.804 E64.75788
G0 F7800 X90.989 Y102.02
G1 F3168 X91.332 Y102.362 E64.76996
G0 F7800 X90.989 Y102.444
G1 F3168 X91.525 Y102.98 E64.78887
G0 F7800 X90.989 Y102.869
G1 F3168 X91.81 Y103.689 E64.81781
G0 F7800 X90.989 Y103.717
G1 F3168 X93.183 Y105.911 E64.89521
G0 F7800 X93.775 Y106.005
G1 F3168 X93.801 Y106.026 E64.89556
G0 F7800 X93.875 Y106.603
G1 F3168 X96.281 Y109.009 E64.98043
G0 F7800 X95.857 Y109.009
G1 F3168 X90.989 Y104.141 E65.15217
G0 F7800 X90.989 Y104.566
G1 F3168 X95.433 Y109.009 E65.30892
G0 F7800 X95.008 Y109.009
G1 F3168 X90.989 Y104.99 E65.4507
G0 F7800 X90.989 Y105.414
G1 F3168 X94.584 Y109.009 E65.57753
G0 F7800 X94.16 Y109.009
G1 F3168 X90.989 Y105.839 E65.68937
G0 F7800 X90.989 Y106.263
G1 F3168 X93.736 Y109.009 E65.78626
G0 F7800 X93.311 Y109.009
G1 F3168 X90.989 Y106.687 E65.86818
G0 F7800 X90.989 Y107.111
G1 F3168 X92.887 Y109.009 E65.93514
G0 F7800 X92.463 Y109.009
G1 F3168 X90.989 Y107.536 E65.98712
G0 F7800 X90.989 Y107.96
G1 F3168 X92.039 Y109.009 E66.02414
G0 F7800 X91.614 Y109.009
G1 F3168 X90.989 Y108.384 E66.04619
G0 F7800 X90.989 Y108.808
G1 F3168 X91.19 Y109.009 E66.05328
G0 F7800 X95.434 Y107.738
G0 X95.434 Y107.738
G1 F3168 X96.706 Y109.009 E66.09814
G0 F7800 X97.13 Y109.009
G1 F3168 X96.315 Y108.195 E66.12687
G0 F7800 X97.021 Y108.476
G1 F3168 X97.554 Y109.009 E66.14567
G0 F7800 X97.639 Y108.67
G1 F3168 X97.978 Y109.009 E66.15763
G0 F7800 X98.2 Y108.806
G1 F3168 X98.403 Y109.009 E66.16479
G0 F7800 X98.708 Y108.89
G1 F3168 X98.753 Y108.935 E66.16638
G0 F7800 X99.101 Y109.02
G1 F3168 X99.453 Y109.012 E66.17104
G1 X99.892 Y109.048 E66.17485
G0 F7800 X101.14 Y108.483
G0 X103.503 Y107.744
G0 X105.622 Y106.458
G0 X105.883 Y106.341
G0 X105.883 Y106.341
G1 F3168 X105.907 Y106.313 E66.17522
G1 F1800 E65.17522
G0 F7800 X106.085 Y105.756
G0 X106.624 Y105.326
G0 X107.063 Y104.726
G0 X107.449 Y104.091
G0 X107.785 Y103.411
G0 X108.048 Y102.727
G0 X108.26 Y102.001
G0 X108.404 Y101.271
G0 X108.466 Y100.067
G0 X103.381 Y100.064
G0 X103.45 Y99.997
G0 X103.381 Y99.935
G0 X108.466 Y99.933
G0 X108.3 Y98.887
G0 X109.006 Y96.703
G0 X109.006 Y96.703
G1 F1800 E66.17522
G1 F3168 X107.732 Y95.429 E66.22016
G0 F7800 X109.007 Y95.431
G1 F3168 X104.566 Y90.989 E66.37685
G0 F7800 X104.99 Y90.989
G1 F3168 X109.007 Y95.006 E66.51856
G0 F7800 X109.007 Y94.582
G1 F3168 X105.414 Y90.989 E66.64531
G0 F7800 X105.839 Y90.989
G1 F3168 X109.008 Y94.159 E66.75713
G0 F7800 X109.008 Y93.734
G1 F3168 X106.263 Y90.989 E66.85396
G0 F7800 X106.687 Y90.989
G1 F3168 X109.008 Y93.31 E66.93584
G0 F7800 X109.008 Y92.886
G1 F3168 X107.111 Y90.989 E67.00276
G0 F7800 X107.536 Y90.989
G1 F3168 X109.008 Y92.462 E67.05471
G0 F7800 X109.008 Y92.038
G1 F3168 X107.96 Y90.989 E67.0917
G0 F7800 X108.384 Y90.989
G1 F3168 X109.009 Y91.614 E67.11375
G0 F7800 X109.009 Y91.19
G1 F3168 X108.808 Y90.989 E67.12084
G0 F7800 X104.141 Y90.989
G0 X104.141 Y90.989
G1 F3168 X109.006 Y95.854 E67.29246
G0 F7800 X106.434 Y94.638
G0 X105.706 Y93.742
G0 X102.251 Y97.325
G0 X102.368 Y97.365
G0 X102.081 Y97.103
G0 X102.147 Y97.227
G0 X105.604 Y93.658
G0 X104.685 Y92.908
G0 X104.076 Y92.542
G0 X103.453 Y92.234
G0 X102.794 Y91.972
G0 X102.103 Y91.765
G0 X101.423 Y91.621
G0 X100.707 Y91.529
G0 X100.052 Y91.623
G0 X99.529 Y91.377
G0 X99.529 Y91.377
G1 F3168 X99.5 Y91.379 E67.29281
G1 X99.5 Y91.376 E67.29286
G0 F7800 X98.766 Y91.718
G0 X97.624 Y91.839
G0 X96.981 Y92.053
G0 X96.347 Y92.325
G0 X95.746 Y92.64
G0 X95.173 Y93.003
G0 X94.641 Y93.402
G0 X94.513 Y93.704
G0 X93.692 Y94.089
G0 X93.692 Y94.089
G1 F3168 X93.66 Y94.116 E67.29325
G0 F7800 X93.659 Y94.117
G1 F3168 X93.626 Y94.162 E67.29364
G0 F7800 X93.291 Y95.018
G0 X92.661 Y95.712
G0 X92.351 Y96.294
G0 X92.088 Y96.895
G0 X91.867 Y97.528
G0 X91.703 Y98.154
G0 X91.583 Y98.814
G0 X91.701 Y99.097
G0 X91.35 Y100.001
G0 X91.35 Y100.001
G1 F3168 X91.356 Y100.053 E67.29404
G0 F7800 X90.989 Y103.293
G0 X90.989 Y103.293
G1 F3168 X92.256 Y104.56 E67.33873
; Layer Change GCode
; LAYER:3
G0 F7800 X90.371 Y109.439 Z0.85
G0 X90.227 Y109.812
G0 X90.31 Y109.6
G0 X90.31 Y109.6
G0 X90.15 Y109.85
G0 X90.15 Y109.85
G0 X90.75 Y109.25
; TYPE:WALL-INNER
G1 F1548 X90.75 Y90.75 E67.80022
G1 X109.25 Y90.75 E68.2617
G1 X109.25 Y109.25 E68.72319
G1 X90.75 Y109.25 E69.18467
G0 F7800 X90.45 Y109.55
G1 F1548 X90.45 Y90.45 E69.66112
G1 X109.55 Y90.45 E70.13757
G1 X109.55 Y109.55 E70.61402
G1 X90.45 Y109.55 E71.09048
G0 F7800 X90.15 Y109.85
; TYPE:WALL-OUTER
G1 F1083.6 X90.15 Y90.15 E71.58189
G1 X109.85 Y90.15 E72.07331
G1 X109.85 Y109.85 E72.56473
G1 X90.15 Y109.85 E73.05615
G0 F7800 X90.31 Y109.6
G0 X92.989 Y107.092
G0 X93.281 Y106.819
G0 X93.83 Y106.307
G0 X93.83 Y106.307
; TYPE:WALL-INNER
G1 F1548 X93.87 Y106.266 E73.05758
G1 X94.591 Y106.878 E73.08117
G1 X95.125 Y107.265 E73.09762
G1 X95.7 Y107.621 E73.11449
G1 X96.301 Y107.929 E73.13134
G1 X96.94 Y108.198 E73.14863
G1 X97.583 Y108.409 E73.16551
G1 X98.223 Y108.567 E73.18196
G1 X99.25 Y108.74 E73.20794
G1 X99.25 Y108.784 E73.20903
G1 X99.458 Y108.775 E73.21423
G1 X99.75 Y108.824 E73.22161
G1 X99.75 Y108.762 E73.22316
G1 X100.745 Y108.718 E73.248
G1 X101.485 Y108.623 E73.26662
G1 X102.196 Y108.469 E73.28476
G1 X102.91 Y108.251 E73.30339
G1 X103.602 Y107.973 E73.32199
G1 X104.268 Y107.639 E73.34057
G1 X104.904 Y107.246 E73.35922
G1 X105.782 Y106.593 E73.38652
G1 X105.816 Y106.627 E73.38772
G1 X105.962 Y106.46 E73.39325
G1 X106.187 Y106.293 E73.40024
G1 X106.145 Y106.251 E73.40172
G1 X106.815 Y105.486 E73.42709
G1 X107.269 Y104.87 E73.44618
G1 X107.667 Y104.216 E73.46528
G1 X108.014 Y103.512 E73.48485
G1 X108.285 Y102.812 E73.50358
G1 X108.503 Y102.061 E73.52309
G1 X108.652 Y101.309 E73.54221
G1 X108.765 Y100.25 E73.56878
G1 X108.819 Y100.25 E73.57012
G1 X108.792 Y99.996 E73.5765
G1 X108.818 Y99.75 E73.58267
G1 X108.765 Y99.75 E73.58399
G1 X108.649 Y98.674 E73.61098
G1 X108.5 Y97.925 E73.63003
G1 X108.275 Y97.156 E73.65002
G1 X107.996 Y96.445 E73.66907
G1 X107.636 Y95.728 E73.68909
G1 X107.224 Y95.063 E73.7086
G1 X106.766 Y94.45 E73.72769
G1 X106.049 Y93.655 E73.7544
G1 X106.089 Y93.614 E73.75582
G1 X105.869 Y93.455 E73.7626
G1 X105.714 Y93.283 E73.76837
G1 X105.68 Y93.318 E73.76959
G1 X104.823 Y92.698 E73.79597
G1 X104.197 Y92.321 E73.8142
G1 X103.559 Y92.006 E73.83195
G1 X102.882 Y91.737 E73.85012
G1 X102.166 Y91.522 E73.86877
G1 X101.47 Y91.374 E73.88652
G1 X100.729 Y91.279 E73.90516
G1 X99.75 Y91.239 E73.9296
G1 X99.75 Y91.177 E73.93115
G1 X99.449 Y91.227 E73.93876
G1 X99.25 Y91.219 E73.94373
G1 X99.25 Y91.26 E73.94475
G1 X98.217 Y91.432 E73.97087
G1 X97.557 Y91.597 E73.98784
G1 X96.896 Y91.818 E74.00523
G1 X96.239 Y92.098 E74.02304
G1 X95.62 Y92.423 E74.04048
G1 X95.031 Y92.796 E74.05787
G1 X94.486 Y93.205 E74.07487
G1 X93.749 Y93.853 E74.09935
G1 X93.71 Y93.814 E74.10073
G1 X93.547 Y94.031 E74.1075
G1 X93.373 Y94.184 E74.11328
G1 X93.407 Y94.218 E74.11448
G1 X92.802 Y95.023 E74.1396
G1 X92.446 Y95.582 E74.15613
G1 X92.128 Y96.18 E74.17302
G1 X91.855 Y96.799 E74.1899
G1 X91.627 Y97.455 E74.20722
G1 X91.459 Y98.095 E74.22373
G1 X91.335 Y98.777 E74.24102
G1 X91.236 Y99.75 E74.26542
G1 X91.183 Y99.75 E74.26674
G1 X91.21 Y100.007 E74.27319
G1 X91.185 Y100.25 E74.27928
G1 X91.235 Y100.25 E74.28053
G1 X91.338 Y101.242 E74.30541
G1 X91.465 Y101.929 E74.32283
G1 X91.641 Y102.59 E74.3399
G1 X91.875 Y103.248 E74.35732
G1 X92.16 Y103.885 E74.37473
G1 X92.504 Y104.513 E74.39259
G1 X92.888 Y105.099 E74.41006
G1 X93.52 Y105.91 E74.43571
G1 X93.489 Y105.942 E74.43682
G1 X93.656 Y106.084 E74.44229
G1 X93.83 Y106.307 E74.44935
G0 F7800 X93.927 Y105.92
G1 F1548 X94.777 Y106.642 E74.47717
G1 X95.292 Y107.016 E74.49304
G1 X95.848 Y107.359 E74.50934
G1 X96.428 Y107.657 E74.52561
G1 X97.045 Y107.917 E74.54231
G1 X97.666 Y108.121 E74.55861
G1 X98.284 Y108.273 E74.57449
G1 X99.45 Y108.469 E74.60398
G1 X99.45 Y103.687 E74.72327
G1 X99.55 Y103.693 E74.72577
G1 X99.55 Y108.47 E74.84493
G1 X100.72 Y108.419 E74.87415
G1 X101.434 Y108.327 E74.8921
G1 X102.121 Y108.179 E74.90963
G1 X102.81 Y107.968 E74.92761
G1 X103.478 Y107.7 E74.94556
G1 X104.121 Y107.376 E74.96353
G1 X104.736 Y106.998 E74.98153
G1 X105.73 Y106.259 E75.01243
G1 X102.202 Y102.718 E75.13712
G1 X102.269 Y102.655 E75.13941
G1 X105.802 Y106.188 E75.26405
G1 X106.581 Y105.298 E75.29355
G1 X107.019 Y104.703 E75.31198
G1 X107.404 Y104.071 E75.33044
G1 X107.739 Y103.391 E75.34935
G1 X108.001 Y102.716 E75.36742
G1 X108.212 Y101.99 E75.38627
G1 X108.355 Y101.264 E75.40473
G1 X108.484 Y100.05 E75.43519
G1 X103.396 Y100.05 E75.56211
G1 X103.397 Y99.95 E75.5646
G1 X108.485 Y99.95 E75.69152
G1 X108.352 Y98.72 E75.72238
G1 X108.208 Y97.997 E75.74077
G1 X107.991 Y97.253 E75.76011
G1 X107.721 Y96.567 E75.7785
G1 X107.374 Y95.874 E75.79783
G1 X106.976 Y95.232 E75.81667
G1 X106.534 Y94.641 E75.83508
G1 X105.706 Y93.722 E75.86594
G1 X102.239 Y97.313 E75.99045
G1 X102.165 Y97.246 E75.99294
G1 X105.633 Y93.655 E76.11747
G1 X104.657 Y92.948 E76.14754
G1 X104.053 Y92.585 E76.16512
G1 X103.437 Y92.281 E76.18225
G1 X102.783 Y92.021 E76.19981
G1 X102.092 Y91.813 E76.21781
G1 X101.419 Y91.67 E76.23497
G1 X100.704 Y91.578 E76.25295
G1 X99.55 Y91.531 E76.28176
G1 X99.55 Y96.306 E76.40088
G1 X99.45 Y96.312 E76.40338
G1 X99.45 Y91.531 E76.52264
G1 X98.278 Y91.726 E76.55228
G1 X97.641 Y91.886 E76.56866
G1 X97.002 Y92.099 E76.58546
G1 X96.368 Y92.369 E76.60265
G1 X95.771 Y92.683 E76.61948
G1 X95.201 Y93.043 E76.6363
G1 X94.676 Y93.438 E76.65268
G1 X93.812 Y94.198 E76.68139
G1 X97.044 Y97.43 E76.79541
G1 X96.975 Y97.503 E76.79791
G1 X93.743 Y94.27 E76.91195
G1 X93.049 Y95.194 E76.94077
G1 X92.705 Y95.733 E76.95672
G1 X92.398 Y96.311 E76.97305
G1 X92.135 Y96.909 E76.98935
G1 X91.914 Y97.543 E77.00609
G1 X91.752 Y98.16 E77.02201
G1 X91.632 Y98.82 E77.03874
G1 X91.517 Y99.95 E77.06707
G1 X96.005 Y99.95 E77.17903
G1 X96.005 Y100.05 E77.18152
G1 X91.516 Y100.05 E77.2935
G1 X91.635 Y101.199 E77.32232
G1 X91.758 Y101.863 E77.33916
G1 X91.928 Y102.501 E77.35563
G1 X92.154 Y103.136 E77.37245
G1 X92.429 Y103.752 E77.38927
G1 X92.761 Y104.359 E77.40653
G1 X93.132 Y104.924 E77.42339
G1 X93.854 Y105.851 E77.4527
G1 X97.039 Y102.564 E77.56688
G1 X97.103 Y102.63 E77.56917
G1 X93.927 Y105.92 E77.68324
G0 F7800 X93.892 Y105.906
G0 X93.947 Y105.919
G0 X94.747 Y106.681
G0 X95.265 Y107.057
G0 X95.823 Y107.402
G0 X96.407 Y107.702
G0 X97.028 Y107.963
G0 X97.652 Y108.169
G0 X98.274 Y108.321
G0 X99.429 Y108.444
G0 X99.486 Y108.111
G0 X99.6 Y108.157
G0 X99.6 Y108.157
G0 X99.85 Y108.157
; TYPE:WALL-OUTER
G1 F1083.6 X100.694 Y108.12 E77.70431
G1 X101.383 Y108.031 E77.72164
G1 X102.045 Y107.888 E77.73854
G1 X102.71 Y107.685 E77.75588
G1 X103.355 Y107.426 E77.77322
G1 X103.975 Y107.114 E77.79053
G1 X104.567 Y106.749 E77.80788
G1 X105.273 Y106.225 E77.82981
G1 X101.759 Y102.699 E77.95399
G1 X101.894 Y102.596 E77.95823
G1 X102.15 Y102.356 E77.96698
G1 X102.263 Y102.225 E77.9713
G1 X105.787 Y105.749 E78.09562
G1 X106.347 Y105.11 E78.11681
G1 X106.77 Y104.536 E78.1346
G1 X107.141 Y103.926 E78.15241
G1 X107.464 Y103.27 E78.17065
G1 X107.716 Y102.62 E78.18804
G1 X107.92 Y101.919 E78.20625
G1 X108.058 Y101.219 E78.22405
G1 X108.151 Y100.35 E78.24585
G1 X103.073 Y100.35 E78.37252
G1 X103.099 Y99.996 E78.38137
G1 X103.073 Y99.65 E78.39003
G1 X108.151 Y99.65 E78.5167
G1 X108.055 Y98.765 E78.53891
G1 X107.917 Y98.068 E78.55663
G1 X107.707 Y97.35 E78.57529
G1 X107.447 Y96.69 E78.59299
G1 X107.112 Y96.021 E78.61165
G1 X106.728 Y95.401 E78.62984
G1 X106.302 Y94.832 E78.64757
G1 X105.699 Y94.162 E78.67006
G1 X102.24 Y97.745 E78.79429
G1 X102.119 Y97.61 E78.79881
G1 X101.86 Y97.374 E78.80755
G1 X101.723 Y97.272 E78.81181
G1 X105.177 Y93.695 E78.93585
G1 X104.492 Y93.199 E78.95695
G1 X103.909 Y92.848 E78.97392
G1 X103.315 Y92.555 E78.99045
G1 X102.684 Y92.304 E79.00739
G1 X102.017 Y92.104 E79.02476
G1 X101.369 Y91.966 E79.04128
G1 X100.679 Y91.877 E79.05864
G1 X99.85 Y91.844 E79.07933
G1 X99.85 Y96.607 E79.19815
G1 X99.663 Y96.6 E79.20282
G1 X99.313 Y96.622 E79.21156
G1 X99.15 Y96.649 E79.21568
G1 X99.15 Y91.885 E79.33452
G1 X98.339 Y92.02 E79.35503
G1 X97.725 Y92.174 E79.37082
G1 X97.109 Y92.38 E79.38703
G1 X96.497 Y92.64 E79.40361
G1 X95.921 Y92.943 E79.41985
G1 X95.372 Y93.29 E79.43605
G1 X94.865 Y93.671 E79.45187
G1 X94.25 Y94.212 E79.4723
G1 X97.473 Y97.435 E79.586
G1 X97.337 Y97.555 E79.59053
G1 X97.097 Y97.811 E79.59928
G1 X96.994 Y97.946 E79.60351
G1 X93.775 Y94.727 E79.71707
G1 X93.296 Y95.365 E79.73697
G1 X92.964 Y95.884 E79.75234
G1 X92.668 Y96.442 E79.7681
G1 X92.414 Y97.019 E79.78383
G1 X92.201 Y97.63 E79.79997
G1 X92.045 Y98.225 E79.81531
G1 X91.929 Y98.862 E79.83146
G1 X91.849 Y99.65 E79.85122
G1 X96.322 Y99.65 E79.9628
G1 X96.305 Y99.816 E79.96696
G1 X96.305 Y100.183 E79.97612
G1 X96.322 Y100.35 E79.9803
G1 X91.849 Y100.35 E80.09188
G1 X91.932 Y101.156 E80.1121
G1 X92.051 Y101.797 E80.12836
G1 X92.215 Y102.412 E80.14424
G1 X92.433 Y103.025 E80.16047
G1 X92.698 Y103.619 E80.17669
G1 X93.018 Y104.204 E80.19332
G1 X93.376 Y104.749 E80.20959
G1 X93.879 Y105.394 E80.22999
G1 X97.05 Y102.122 E80.34365
G1 X97.158 Y102.257 E80.34797
G1 X97.396 Y102.5 E80.35645
G1 X97.535 Y102.616 E80.36097
G1 X94.365 Y105.899 E80.47481
G1 X94.962 Y106.406 E80.49435
G1 X95.459 Y106.767 E80.50967
G1 X95.995 Y107.098 E80.52538
G1 X96.555 Y107.385 E80.54108
G1 X97.15 Y107.636 E80.55719
G1 X97.749 Y107.832 E80.57291
G1 X98.345 Y107.979 E80.58823
G1 X99.15 Y108.114 E80.60859
G1 X99.15 Y103.35 E80.72743
G1 X99.313 Y103.377 E80.73155
G1 X99.663 Y103.399 E80.74029
G1 X99.85 Y103.392 E80.74496
G1 X99.85 Y108.157 E80.86383
G0 F7800 X99.533 Y108.634
; TYPE:FILL
G1 F3096 X99.5 Y108.636 E80.86418
G0 F7800 X99.9 Y109.002
G1 F3096 X100.758 Y108.983 E80.8781
G0 F7800 X101.425 Y109.008
G1 F3096 X101.59 Y108.844 E80.8839
G0 F7800 X101.85 Y109.008
G1 F3096 X102.13 Y108.728 E80.89378
G0 F7800 X102.274 Y109.008
G1 F3096 X102.724 Y108.558 E80.90965
G0 F7800 X102.698 Y109.008
G1 F3096 X103.392 Y108.315 E80.93412
G0 F7800 X103.547 Y109.008
G1 F3096 X105.327 Y107.228 E80.99691
G0 F7800 X105.884 Y106.342
G1 F3096 X105.907 Y106.314 E80.99727
G0 F7800 X107.228 Y105.327
G0 X107.228 Y105.327
G1 F3096 X109.008 Y103.547 E81.06006
G0 F7800 X109.008 Y103.123
G1 F3096 X107.951 Y104.18 E81.09735
G0 F7800 X108.318 Y103.389
G1 F3096 X109.008 Y102.699 E81.12169
G0 F7800 X109.008 Y102.275
G1 F3096 X108.557 Y102.725 E81.13758
G0 F7800 X108.732 Y102.126
G1 F3096 X109.008 Y101.85 E81.14732
G0 F7800 X108.839 Y101.595
G1 F3096 X109.008 Y101.426 E81.15328
G0 F7800 X108.95 Y101.331
G1 F3096 X109 Y100.4 E81.16879
G0 F7800 X109.043 Y100.396
G1 F3096 X109.021 Y99.995 E81.17256
G1 X109.042 Y99.604 E81.17634
G0 F7800 X108.645 Y99.949
G1 F3096 X108.651 Y99.999 E81.17673
G0 F7800 X108.876 Y98.589
G1 F3096 X109.005 Y98.459 E81.1813
G0 F7800 X108.806 Y98.234
G1 F3096 X109.006 Y98.034 E81.18836
G0 F7800 X108.735 Y97.881
G1 F3096 X109.006 Y97.61 E81.19792
G0 F7800 X108.639 Y97.552
G1 F3096 X109.006 Y97.186 E81.21084
G0 F7800 X109.006 Y96.761
G1 F3096 X108.543 Y97.224 E81.22718
G0 F7800 X108.434 Y96.908
G1 F3096 X109.006 Y96.336 E81.24736
G0 F7800 X109.006 Y95.912
G1 F3096 X108.315 Y96.604 E81.27175
G0 F7800 X108.192 Y96.302
G1 F3096 X109.006 Y95.488 E81.30047
G0 F7800 X109.007 Y95.063
G1 F3096 X108.05 Y96.02 E81.33423
G0 F7800 X107.908 Y95.738
G1 F3096 X109.007 Y94.639 E81.373
G0 F7800 X109.007 Y94.214
G1 F3096 X107.756 Y95.466 E81.41715
G0 F7800 X107.593 Y95.204
G1 F3096 X109.008 Y93.789 E81.46707
G0 F7800 X109.008 Y93.365
G1 F3096 X107.43 Y94.943 E81.52273
G0 F7800 X107.251 Y94.698
G1 F3096 X109.008 Y92.941 E81.58472
G0 F7800 X109.008 Y92.516
G1 F3096 X107.069 Y94.456 E81.65314
G0 F7800 X106.881 Y94.219
G1 F3096 X109.008 Y92.092 E81.72817
G0 F7800 X109.008 Y91.667
G1 F3096 X106.679 Y93.997 E81.81035
G0 F7800 X106.478 Y93.773
G1 F3096 X109.009 Y91.242 E81.89964
G0 F7800 X108.838 Y90.989
G1 F3096 X106.333 Y93.495 E81.98803
G0 F7800 X106.087 Y93.316
G1 F3096 X108.414 Y90.989 E82.07012
G0 F7800 X107.99 Y90.989
G1 F3096 X105.875 Y93.104 E82.14473
G0 F7800 X105.595 Y92.96
G1 F3096 X107.565 Y90.989 E82.21425
G0 F7800 X107.141 Y90.989
G1 F3096 X105.349 Y92.782 E82.27748
G0 F7800 X105.102 Y92.604
G1 F3096 X106.717 Y90.989 E82.33446
G0 F7800 X106.292 Y90.989
G1 F3096 X104.849 Y92.433 E82.38538
G0 F7800 X104.583 Y92.274
G1 F3096 X105.868 Y90.989 E82.43071
G0 F7800 X105.444 Y90.989
G1 F3096 X104.318 Y92.115 E82.47044
G0 F7800 X104.035 Y91.974
G1 F3096 X105.02 Y90.989 E82.50518
G0 F7800 X104.595 Y90.989
G1 F3096 X103.75 Y91.834 E82.53499
G0 F7800 X103.454 Y91.706
G1 F3096 X104.171 Y90.989 E82.56029
G0 F7800 X103.747 Y90.989
G1 F3096 X103.151 Y91.585 E82.58131
G0 F7800 X102.839 Y91.473
G1 F3096 X103.323 Y90.989 E82.59839
G0 F7800 X102.898 Y90.989
G1 F3096 X102.513 Y91.375 E82.61199
G0 F7800 X102.184 Y91.28
G1 F3096 X102.474 Y90.989 E82.62224
G0 F7800 X102.05 Y90.989
G1 F3096 X101.833 Y91.206 E82.62989
G0 F7800 X101.626 Y90.989
G1 F3096 X101.481 Y91.134 E82.63501
G0 F7800 X100.742 Y91.014
G1 F3096 X99.9 Y90.997 E82.64866
G0 F7800 X99.893 Y90.951
G1 F3096 X99.439 Y90.988 E82.65252
G1 X99.101 Y90.982 E82.65713
G0 F7800 X98.656 Y90.989
G1 F3096 X98.505 Y91.14 E82.66246
G0 F7800 X98.231 Y90.989
G1 F3096 X97.977 Y91.244 E82.67144
G0 F7800 X97.807 Y90.989
G1 F3096 X97.401 Y91.395 E82.68576
G0 F7800 X97.383 Y90.989
G1 F3096 X96.757 Y91.615 E82.70785
G0 F7800 X96.959 Y90.989
G1 F3096 X95.993 Y91.955 E82.74192
G0 F7800 X96.11 Y90.989
G1 F3096 X90.99 Y96.109 E82.92255
G0 F7800 X90.99 Y95.685
G1 F3096 X95.686 Y90.989 E83.08821
G0 F7800 X95.262 Y90.989
G1 F3096 X90.99 Y95.261 E83.23892
G0 F7800 X90.989 Y94.837
G1 F3096 X94.837 Y90.989 E83.37466
G0 F7800 X94.413 Y90.989
G1 F3096 X90.989 Y94.413 E83.49546
G0 F7800 X90.989 Y93.989
G1 F3096 X93.989 Y90.989 E83.60129
G0 F7800 X93.565 Y90.989
G1 F3096 X90.989 Y93.565 E83.69216
G0 F7800 X90.989 Y93.14
G1 F3096 X93.14 Y90.989 E83.76805
G0 F7800 X92.716 Y90.989
G1 F3096 X90.989 Y92.716 E83.82897
G0 F7800 X90.989 Y92.292
G1 F3096 X92.292 Y90.989 E83.87494
G0 F7800 X91.868 Y90.989
G1 F3096 X90.989 Y91.868 E83.90595
G0 F7800 X90.989 Y91.443
G1 F3096 X91.443 Y90.989 E83.92196
G0 F7800 X91.019 Y90.989
G1 F3096 X90.989 Y91.019 E83.92302
G0 F7800 X93.659 Y94.116
G0 X93.659 Y94.116
G1 F3096 X93.693 Y94.087 E83.92343
G0 F7800 X93.66 Y94.119
G1 F3096 X93.626 Y94.161 E83.92383
G0 F7800 X92.544 Y94.98
G1 F3096 X90.99 Y96.534 E83.97865
G0 F7800 X90.99 Y96.958
G1 F3096 X91.954 Y95.994 E84.01266
G0 F7800 X91.615 Y96.757
G1 F3096 X90.99 Y97.382 E84.03471
G0 F7800 X91.392 Y97.404
G1 F3096 X90.99 Y97.807 E84.04891
G0 F7800 X91.24 Y97.98
G1 F3096 X90.99 Y98.231 E84.05774
G0 F7800 X91.14 Y98.505
G1 F3096 X90.99 Y98.655 E84.06304
G0 F7800 X91.043 Y98.756
G1 F3096 X91 Y99.6 E84.07709
G0 F7800 X90.958 Y99.603
G1 F3096 X90.979 Y100.002 E84.08098
G1 X90.959 Y100.395 E84.08487
G0 F7800 X91 Y100.4
G1 F3096 X91.044 Y101.263 E84.09924
G0 F7800 X91.137 Y101.478
G1 F3096 X90.989 Y101.626 E84.10446
G0 F7800 X91.204 Y101.836
G1 F3096 X90.989 Y102.05 E84.11203
G0 F7800 X91.283 Y102.18
G1 F3096 X90.989 Y102.474 E84.1224
G0 F7800 X91.373 Y102.515
G1 F3096 X90.989 Y102.898 E84.13593
G0 F7800 X90.989 Y103.323
G1 F3096 X91.474 Y102.838 E84.15304
G0 F7800 X91.585 Y103.151
G1 F3096 X90.989 Y103.747 E84.17407
G0 F7800 X90.989 Y104.171
G1 F3096 X91.705 Y103.456 E84.19931
G0 F7800 X91.836 Y103.748
G1 F3096 X90.989 Y104.595 E84.22919
G0 F7800 X90.989 Y105.02
G1 F3096 X91.971 Y104.038 E84.26383
G0 F7800 X92.121 Y104.312
G1 F3096 X90.989 Y105.444 E84.30376
G0 F7800 X90.989 Y105.868
G1 F3096 X92.271 Y104.586 E84.34899
G0 F7800 X92.436 Y104.846
G1 F3096 X90.989 Y106.292 E84.40002
G0 F7800 X90.989 Y106.717
G1 F3096 X92.604 Y105.102 E84.45699
G0 F7800 X92.78 Y105.351
G1 F3096 X90.989 Y107.141 E84.52016
G0 F7800 X90.989 Y107.565
G1 F3096 X92.966 Y105.589 E84.58988
G0 F7800 X93.152 Y105.827
G1 F3096 X90.989 Y107.99 E84.66619
G0 F7800 X90.989 Y108.414
G1 F3096 X93.304 Y106.099 E84.74786
G0 F7800 X93.523 Y106.305
G1 F3096 X90.989 Y108.838 E84.83723
G0 F7800 X91.242 Y109.009
G1 F3096 X93.71 Y106.542 E84.92428
G0 F7800 X93.992 Y106.684
G1 F3096 X91.667 Y109.009 E85.0063
G0 F7800 X92.091 Y109.009
G1 F3096 X94.221 Y106.879 E85.08144
G0 F7800 X94.452 Y107.072
G1 F3096 X92.515 Y109.009 E85.14978
G0 F7800 X92.939 Y109.009
G1 F3096 X94.698 Y107.251 E85.21181
G0 F7800 X94.944 Y107.429
G1 F3096 X93.364 Y109.009 E85.26755
G0 F7800 X93.788 Y109.009
G1 F3096 X95.204 Y107.594 E85.31749
G0 F7800 X95.465 Y107.756
G1 F3096 X94.212 Y109.009 E85.36169
G0 F7800 X94.637 Y109.009
G1 F3096 X95.737 Y107.909 E85.4005
G0 F7800 X96.018 Y108.052
G1 F3096 X95.062 Y109.008 E85.43422
G0 F7800 X95.486 Y109.008
G1 F3096 X96.304 Y108.19 E85.46308
G0 F7800 X96.603 Y108.316
G1 F3096 X95.91 Y109.008 E85.48751
G0 F7800 X96.334 Y109.008
G1 F3096 X96.905 Y108.438 E85.50763
G0 F7800 X97.224 Y108.543
G1 F3096 X96.759 Y109.008 E85.52404
G0 F7800 X97.183 Y109.008
G1 F3096 X97.545 Y108.646 E85.53681
G0 F7800 X97.885 Y108.731
G1 F3096 X97.607 Y109.008 E85.5466
G0 F7800 X98.031 Y109.008
G1 F3096 X98.229 Y108.811 E85.55357
G0 F7800 X98.456 Y109.008
G1 F3096 X98.592 Y108.872 E85.55836
G0 F7800 X99.101 Y109.02
G1 F3096 X99.45 Y109.012 E85.56298
G1 X99.892 Y109.049 E85.56678
G0 F7800 X103.123 Y109.008
G0 X103.123 Y109.008
G1 F3096 X104.182 Y107.949 E85.60414
G0 F7800 X103.971 Y109.008
G1 F3096 X109.008 Y103.971 E85.78183
G0 F7800 X109.008 Y104.395
G1 F3096 X104.395 Y109.008 E85.94457
G0 F7800 X104.82 Y109.008
G1 F3096 X109.008 Y104.82 E86.09231
G0 F7800 X109.008 Y105.244
G1 F3096 X105.243 Y109.009 E86.22513
G0 F7800 X105.667 Y109.009
G1 F3096 X109.008 Y105.668 E86.34299
G0 F7800 X109.008 Y106.092
G1 F3096 X106.092 Y109.009 E86.44588
G0 F7800 X106.516 Y109.009
G1 F3096 X109.008 Y106.517 E86.53379
G0 F7800 X109.008 Y106.941
G1 F3096 X106.94 Y109.009 E86.60675
G0 F7800 X107.364 Y109.009
G1 F3096 X109.009 Y107.364 E86.66478
G0 F7800 X109.009 Y107.789
G1 F3096 X107.789 Y109.009 E86.70782
G0 F7800 X108.213 Y109.009
G1 F3096 X109.009 Y108.213 E86.7359
G0 F7800 X109.009 Y108.637
G1 F3096 X108.637 Y109.009 E86.74902
G0 F7800 X102.954 Y107.865
G0 X102.826 Y108.014
G0 X102.133 Y108.227
G0 X101.442 Y108.376
G0 X100.724 Y108.468
G0 X99.562 Y108.458
G0 X99.561 Y103.691
G0 X99.658 Y103.749
G0 X99.436 Y103.671
G0 X99.429 Y108.444
G0 X98.274 Y108.321
G0 X97.652 Y108.169
G0 X97.028 Y107.963
G0 X96.407 Y107.702
G0 X95.823 Y107.402
G0 X95.265 Y107.057
G0 X94.747 Y106.681
G0 X94.235 Y106.112
G0 X93.801 Y106.026
G0 X93.801 Y106.026
G1 F3096 X93.775 Y106.005 E86.74936
G0 F7800 X93.425 Y105.146
G0 X93.092 Y104.953
G0 X92.719 Y104.384
G0 X92.384 Y103.773
G0 X92.108 Y103.155
G0 X91.88 Y102.515
G0 X91.709 Y101.873
G0 X91.683 Y100.861
G0 X91.356 Y100.054
G0 X91.356 Y100.054
G1 F3096 X91.35 Y100.001 E86.74976
G0 F7800 X91.658 Y99.367
G0 X91.583 Y98.813
G0 X91.704 Y98.15
G0 X91.867 Y97.529
G0 X92.089 Y96.891
G0 X92.353 Y96.289
G0 X92.663 Y95.709
G0 X93.008 Y95.166
G0 X93.745 Y94.3
G0 X96.936 Y97.524
G0 X96.822 Y97.595
G0 X97.094 Y97.303
G0 X97.054 Y97.421
G0 X93.831 Y94.199
G0 X94.365 Y93.807
G0 X94.982 Y92.541
G0 X94.982 Y92.541
G1 F3096 X96.534 Y90.989 E86.80451
G0 F7800 X99.5 Y91.376
G0 X99.5 Y91.376
G1 F3096 X99.5 Y91.379 E86.80456
G1 X99.529 Y91.377 E86.8049
G0 F7800 X100.33 Y91.654
G0 X100.707 Y91.529
G0 X101.427 Y91.621
G0 X102.103 Y91.765
G0 X102.799 Y91.974
G0 X103.457 Y92.236
G0 X104.076 Y92.542
G0 X104.985 Y93.271
G0 X105.739 Y93.534
G0 X105.739 Y93.534
G1 F3096 X105.783 Y93.568 E86.80531
G0 F7800 X105.785 Y93.568
G1 F3096 X105.814 Y93.6 E86.8057
; Layer Change GCode
; LAYER:4
G1 F1800 E85.8057
G0 F7800 X102.26 Y97.266 Z1.05
G0 X102.374 Y97.372
G0 X102.248 Y97.325
G0 X105.706 Y93.742
G0 X106.575 Y94.614
G0 X107.017 Y95.205
G0 X107.417 Y95.851
G0 X107.767 Y96.552
G0 X108.038 Y97.238
G0 X108.257 Y97.99
G0 X108.401 Y98.712
G0 X108.466 Y99.933
G0 X103.381 Y99.935
G0 X103.45 Y99.995
G0 X103.381 Y100.065
G0 X108.466 Y100.067
G0 X108.404 Y101.271
G0 X108.26 Y102.001
G0 X108.045 Y102.737
G0 X107.785 Y103.411
G0 X107.445 Y104.099
G0 X107.057 Y104.734
G0 X106.616 Y105.333
G0 X105.8 Y106.169
G0 X102.278 Y102.645
G0 X102.396 Y102.605
G0 X102.188 Y102.717
G0 X105.7 Y106.256
G0 X104.759 Y107.041
G0 X104.141 Y107.421
G0 X103.494 Y107.747
G0 X102.821 Y108.015
G0 X102.129 Y108.228
G0 X101.442 Y108.376
G0 X100.724 Y108.468
G0 X99.562 Y108.458
G0 X99.562 Y103.69
G0 X99.647 Y103.748
G0 X99.436 Y103.671
G0 X99.429 Y108.444
G0 X98.27 Y108.32
G0 X97.652 Y108.169
G0 X97.028 Y107.963
G0 X96.404 Y107.7
G0 X95.819 Y107.4
G0 X95.261 Y107.055
G0 X94.746 Y106.681
G0 X93.947 Y105.919
G0 X97.116 Y102.64
G0 X97.16 Y102.758
G0 X97.049 Y102.644
G0 X90.438 Y109.467
G0 X90.159 Y109.754
G0 X90.31 Y109.6
G0 X90.31 Y109.6
G0 X90.15 Y109.85
G0 X90.15 Y109.85
G0 X90.75 Y109.25
; TYPE:WALL-INNER
G1 F1800 E86.8057
G1 F1584 X90.75 Y90.75 E87.26719
G1 X109.25 Y90.75 E87.72867
G1 X109.25 Y109.25 E88.19016
G1 X90.75 Y109.25 E88.65164
G0 F7800 X90.45 Y109.55
G1 F1584 X90.45 Y90.45 E89.12809
G1 X109.55 Y90.45 E89.60454
G1 X109.55 Y109.55 E90.081
G1 X90.45 Y109.55 E90.55745
G0 F7800 X90.15 Y109.85
; TYPE:WALL-OUTER
G1 F1108.8 X90.15 Y90.15 E91.04887
G1 X109.85 Y90.15 E91.54028
G1 X109.85 Y109.85 E92.0317
G1 X90.15 Y109.85 E92.52312
G0 F7800 X90.31 Y109.6
G0 X92.967 Y107.115
G0 X93.259 Y106.842
G0 X93.831 Y106.308
G0 X93.831 Y106.308
; TYPE:WALL-INNER
G1 F1584 X93.871 Y106.267 E92.52455
G1 X94.591 Y106.878 E92.54811
G1 X95.121 Y107.263 E92.56445
G1 X95.696 Y107.619 E92.58132
G1 X96.298 Y107.927 E92.59819
G1 X96.94 Y108.198 E92.61557
G1 X97.583 Y108.409 E92.63245
G1 X98.219 Y108.566 E92.64879
G1 X99.25 Y108.74 E92.67487
G1 X99.25 Y108.784 E92.67597
G1 X99.458 Y108.775 E92.68116
G1 X99.75 Y108.824 E92.68855
G1 X99.75 Y108.762 E92.6901
G1 X100.745 Y108.718 E92.71494
G1 X101.485 Y108.623 E92.73355
G1 X102.192 Y108.47 E92.7516
G1 X102.904 Y108.252 E92.77017
G1 X103.597 Y107.976 E92.78878
G1 X104.264 Y107.641 E92.8074
G1 X104.9 Y107.249 E92.82603
G1 X105.783 Y106.594 E92.85346
G1 X105.816 Y106.627 E92.85462
G1 X105.959 Y106.464 E92.86003
G1 X106.188 Y106.294 E92.86715
G1 X106.145 Y106.251 E92.86866
G1 X106.812 Y105.49 E92.89391
G1 X107.265 Y104.874 E92.91298
G1 X107.665 Y104.22 E92.9321
G1 X108.014 Y103.512 E92.95179
G1 X108.283 Y102.818 E92.97036
G1 X108.503 Y102.061 E92.99003
G1 X108.652 Y101.309 E93.00915
G1 X108.765 Y100.25 E93.03572
G1 X108.819 Y100.25 E93.03706
G1 X108.792 Y99.997 E93.04341
G1 X108.818 Y99.75 E93.04961
G1 X108.765 Y99.75 E93.05093
G1 X108.649 Y98.674 E93.07792
G1 X108.5 Y97.93 E93.09685
G1 X108.275 Y97.156 E93.11696
G1 X107.997 Y96.449 E93.13591
G1 X107.637 Y95.728 E93.15601
G1 X107.224 Y95.063 E93.17554
G1 X106.769 Y94.455 E93.19448
G1 X106.049 Y93.655 E93.22133
G1 X106.089 Y93.614 E93.22276
G1 X105.87 Y93.456 E93.2295
G1 X105.714 Y93.282 E93.23533
G1 X105.68 Y93.318 E93.23656
G1 X104.823 Y92.698 E93.26295
G1 X104.197 Y92.321 E93.28118
G1 X103.563 Y92.008 E93.29881
G1 X102.886 Y91.739 E93.31698
G1 X102.167 Y91.522 E93.33572
G1 X101.475 Y91.375 E93.35337
G1 X100.729 Y91.279 E93.37213
G1 X99.75 Y91.239 E93.39657
G1 X99.75 Y91.177 E93.39812
G1 X99.449 Y91.227 E93.40573
G1 X99.25 Y91.219 E93.4107
G1 X99.25 Y91.26 E93.41172
G1 X98.217 Y91.432 E93.43784
G1 X97.562 Y91.596 E93.45469
G1 X96.9 Y91.817 E93.4721
G1 X96.239 Y92.098 E93.49001
G1 X95.62 Y92.423 E93.50745
G1 X95.031 Y92.796 E93.52484
G1 X94.49 Y93.203 E93.54173
G1 X93.749 Y93.853 E93.56632
G1 X93.71 Y93.814 E93.5677
G1 X93.547 Y94.031 E93.57447
G1 X93.373 Y94.184 E93.58025
G1 X93.407 Y94.218 E93.58144
G1 X92.802 Y95.023 E93.60656
G1 X92.449 Y95.578 E93.62297
G1 X92.13 Y96.176 E93.63988
G1 X91.858 Y96.795 E93.65674
G1 X91.627 Y97.455 E93.67419
G1 X91.46 Y98.091 E93.69059
G1 X91.335 Y98.777 E93.70798
G1 X91.236 Y99.75 E93.73238
G1 X91.183 Y99.75 E93.7337
G1 X91.21 Y100.007 E93.74015
G1 X91.185 Y100.25 E93.74624
G1 X91.235 Y100.25 E93.74749
G1 X91.338 Y101.242 E93.77237
G1 X91.465 Y101.929 E93.7898
G1 X91.64 Y102.584 E93.80671
G1 X91.873 Y103.243 E93.82415
G1 X92.159 Y103.882 E93.84161
G1 X92.503 Y104.513 E93.85954
G1 X92.888 Y105.099 E93.87703
G1 X93.52 Y105.91 E93.90267
G1 X93.489 Y105.942 E93.90379
G1 X93.656 Y106.084 E93.90925
G1 X93.831 Y106.308 E93.91635
G0 F7800 X93.927 Y105.92
G1 F1584 X94.777 Y106.642 E93.94417
G1 X95.288 Y107.014 E93.95993
G1 X95.844 Y107.357 E93.97623
G1 X96.425 Y107.655 E93.99252
G1 X97.045 Y107.917 E94.00931
G1 X97.666 Y108.121 E94.02561
G1 X98.28 Y108.272 E94.04139
G1 X99.45 Y108.469 E94.07098
G1 X99.45 Y103.686 E94.19029
G1 X99.55 Y103.693 E94.19279
G1 X99.55 Y108.47 E94.31196
G1 X100.72 Y108.419 E94.34117
G1 X101.434 Y108.327 E94.35913
G1 X102.117 Y108.18 E94.37656
G1 X102.805 Y107.969 E94.39451
G1 X103.474 Y107.702 E94.41248
G1 X104.117 Y107.378 E94.43044
G1 X104.732 Y107 E94.44844
G1 X105.73 Y106.259 E94.47945
G1 X102.203 Y102.718 E94.60412
G1 X102.27 Y102.656 E94.6064
G1 X105.802 Y106.188 E94.731
G1 X106.578 Y105.302 E94.76038
G1 X107.016 Y104.707 E94.77881
G1 X107.402 Y104.075 E94.79728
G1 X107.739 Y103.391 E94.81631
G1 X107.999 Y102.721 E94.83423
G1 X108.212 Y101.99 E94.85323
G1 X108.355 Y101.264 E94.87168
G1 X108.484 Y100.05 E94.90214
G1 X103.396 Y100.05 E95.02906
G1 X103.397 Y99.95 E95.03155
G1 X108.485 Y99.95 E95.15847
G1 X108.352 Y98.72 E95.18934
G1 X108.208 Y98.001 E95.20763
G1 X107.991 Y97.253 E95.22706
G1 X107.722 Y96.572 E95.24532
G1 X107.374 Y95.874 E95.26478
G1 X106.976 Y95.232 E95.28362
G1 X106.537 Y94.645 E95.3019
G1 X105.707 Y93.722 E95.33287
G1 X102.238 Y97.314 E95.45743
G1 X102.165 Y97.246 E95.45992
G1 X105.633 Y93.655 E95.58445
G1 X104.657 Y92.948 E95.61452
G1 X104.053 Y92.585 E95.6321
G1 X103.441 Y92.283 E95.64912
G1 X102.787 Y92.023 E95.66668
G1 X102.092 Y91.813 E95.68479
G1 X101.425 Y91.671 E95.7018
G1 X100.704 Y91.578 E95.71993
G1 X99.55 Y91.531 E95.74874
G1 X99.55 Y96.306 E95.86786
G1 X99.45 Y96.312 E95.87035
G1 X99.45 Y91.531 E95.98962
G1 X98.278 Y91.726 E96.01926
G1 X97.646 Y91.885 E96.03551
G1 X97.007 Y92.098 E96.05231
G1 X96.368 Y92.369 E96.06963
G1 X95.771 Y92.683 E96.08645
G1 X95.201 Y93.043 E96.10327
G1 X94.679 Y93.436 E96.11957
G1 X93.811 Y94.198 E96.14838
G1 X97.044 Y97.43 E96.26242
G1 X96.975 Y97.503 E96.26492
G1 X93.743 Y94.27 E96.37896
G1 X93.049 Y95.194 E96.40779
G1 X92.708 Y95.729 E96.42361
G1 X92.4 Y96.307 E96.43995
G1 X92.137 Y96.905 E96.45625
G1 X91.914 Y97.543 E96.4731
G1 X91.753 Y98.156 E96.48891
G1 X91.632 Y98.82 E96.50575
G1 X91.517 Y99.95 E96.53408
G1 X96.005 Y99.95 E96.64604
G1 X96.004 Y100.05 E96.64853
G1 X91.516 Y100.05 E96.76049
G1 X91.635 Y101.199 E96.7893
G1 X91.758 Y101.863 E96.80615
G1 X91.927 Y102.495 E96.82247
G1 X92.152 Y103.132 E96.83932
G1 X92.428 Y103.749 E96.85618
G1 X92.761 Y104.359 E96.87351
G1 X93.132 Y104.924 E96.89038
G1 X93.855 Y105.851 E96.9197
G1 X97.034 Y102.559 E97.03386
G1 X97.103 Y102.63 E97.03633
G1 X93.927 Y105.92 E97.1504
G0 F7800 X93.892 Y105.906
G0 X93.947 Y105.919
G0 X94.746 Y106.681
G0 X95.261 Y107.055
G0 X95.819 Y107.4
G0 X96.404 Y107.7
G0 X97.028 Y107.963
G0 X97.652 Y108.169
G0 X98.27 Y108.32
G0 X99.429 Y108.444
G0 X99.486 Y108.111
G0 X99.6 Y108.157
G0 X99.6 Y108.157
G0 X99.85 Y108.157
; TYPE:WALL-OUTER
G1 F1108.8 X100.694 Y108.12 E97.17147
G1 X101.383 Y108.031 E97.1888
G1 X102.041 Y107.889 E97.2056
G1 X102.705 Y107.686 E97.22292
G1 X103.351 Y107.428 E97.24027
G1 X103.971 Y107.116 E97.25758
G1 X104.563 Y106.751 E97.27493
G1 X105.273 Y106.225 E97.29697
G1 X101.76 Y102.699 E97.42113
G1 X101.888 Y102.602 E97.42514
G1 X102.144 Y102.362 E97.43389
G1 X102.264 Y102.226 E97.43842
G1 X105.787 Y105.749 E97.5627
G1 X106.344 Y105.114 E97.58377
G1 X106.767 Y104.54 E97.60156
G1 X107.139 Y103.93 E97.61938
G1 X107.464 Y103.27 E97.63773
G1 X107.714 Y102.625 E97.65499
G1 X107.92 Y101.919 E97.67333
G1 X108.058 Y101.219 E97.69113
G1 X108.151 Y100.35 E97.71293
G1 X103.073 Y100.35 E97.8396
G1 X103.099 Y99.995 E97.84848
G1 X103.073 Y99.65 E97.85711
G1 X108.151 Y99.65 E97.98378
G1 X108.055 Y98.765 E98.00599
G1 X107.917 Y98.072 E98.02362
G1 X107.707 Y97.35 E98.04237
G1 X107.448 Y96.694 E98.05997
G1 X107.112 Y96.021 E98.07873
G1 X106.728 Y95.401 E98.09692
G1 X106.305 Y94.836 E98.11453
G1 X105.699 Y94.162 E98.13714
G1 X102.239 Y97.746 E98.26141
G1 X102.126 Y97.619 E98.26565
G1 X101.869 Y97.381 E98.27438
G1 X101.722 Y97.272 E98.27895
G1 X105.177 Y93.695 E98.403
G1 X104.492 Y93.199 E98.4241
G1 X103.909 Y92.848 E98.44108
G1 X103.319 Y92.557 E98.45749
G1 X102.688 Y92.306 E98.47443
G1 X102.017 Y92.104 E98.49191
G1 X101.374 Y91.967 E98.50831
G1 X100.679 Y91.877 E98.52579
G1 X99.85 Y91.844 E98.54648
G1 X99.85 Y96.607 E98.6653
G1 X99.675 Y96.6 E98.66967
G1 X99.324 Y96.621 E98.67844
G1 X99.15 Y96.65 E98.68284
G1 X99.15 Y91.885 E98.8017
G1 X98.339 Y92.02 E98.82221
G1 X97.73 Y92.173 E98.83787
G1 X97.113 Y92.379 E98.8541
G1 X96.497 Y92.64 E98.87079
G1 X95.921 Y92.943 E98.88702
G1 X95.372 Y93.29 E98.90322
G1 X94.868 Y93.669 E98.91895
G1 X94.25 Y94.212 E98.93948
G1 X97.473 Y97.435 E99.05318
G1 X97.345 Y97.548 E99.05744
G1 X97.104 Y97.803 E99.06619
G1 X96.995 Y97.947 E99.07069
G1 X93.775 Y94.727 E99.18429
G1 X93.296 Y95.365 E99.20419
G1 X92.967 Y95.88 E99.21943
G1 X92.67 Y96.438 E99.2352
G1 X92.416 Y97.015 E99.25093
G1 X92.201 Y97.63 E99.26718
G1 X92.046 Y98.221 E99.28242
G1 X91.929 Y98.862 E99.29867
G1 X91.849 Y99.65 E99.31843
G1 X96.322 Y99.65 E99.43001
G1 X96.305 Y99.813 E99.4341
G1 X96.304 Y100.174 E99.4431
G1 X96.322 Y100.35 E99.44752
G1 X91.849 Y100.35 E99.5591
G1 X91.932 Y101.156 E99.57931
G1 X92.051 Y101.797 E99.59557
G1 X92.214 Y102.406 E99.6113
G1 X92.431 Y103.021 E99.62757
G1 X92.697 Y103.616 E99.64382
G1 X93.018 Y104.204 E99.66054
G1 X93.376 Y104.749 E99.6768
G1 X93.879 Y105.394 E99.69721
G1 X97.044 Y102.116 E99.81087
G1 X97.151 Y102.25 E99.81515
G1 X97.396 Y102.5 E99.82388
G1 X97.535 Y102.616 E99.8284
G1 X94.365 Y105.899 E99.94224
G1 X94.962 Y106.406 E99.96177
G1 X95.455 Y106.765 E99.97699
G1 X95.991 Y107.096 E99.9927
G1 X96.552 Y107.383 E100.00842
G1 X97.15 Y107.636 E100.02462
G1 X97.749 Y107.832 E100.04034
G1 X98.341 Y107.978 E100.05555
G1 X99.15 Y108.114 E100.07601
G1 X99.15 Y103.35 E100.19485
G1 X99.303 Y103.375 E100.19872
G1 X99.652 Y103.398 E100.20744
G1 X99.85 Y103.391 E100.21239
G1 X99.85 Y108.157 E100.33127
G0 F7800 X99.53 Y108.635
; TYPE:FILL
G1 F3168 X99.5 Y108.637 E100.3316
G0 F7800 X99.9 Y109.002
G1 F3168 X100.758 Y108.983 E100.34552
G0 F7800 X101.256 Y108.893
G1 F3168 X101.372 Y109.008 E100.34959
G0 F7800 X101.625 Y108.837
G1 F3168 X101.796 Y109.008 E100.35563
G0 F7800 X101.973 Y108.762
G1 F3168 X102.22 Y109.008 E100.36432
G0 F7800 X102.318 Y108.682
G1 F3168 X102.645 Y109.008 E100.37584
G0 F7800 X103.069 Y109.008
G1 F3168 X102.642 Y108.582 E100.39089
G0 F7800 X102.967 Y108.482
G1 F3168 X103.493 Y109.008 E100.40944
G0 F7800 X103.917 Y109.008
G1 F3168 X103.271 Y108.362 E100.43223
G0 F7800 X103.575 Y108.242
G1 F3168 X104.342 Y109.008 E100.45927
G0 F7800 X104.766 Y109.008
G1 F3168 X103.866 Y108.108 E100.49102
G0 F7800 X104.148 Y107.966
G1 F3168 X105.191 Y109.009 E100.52782
G0 F7800 X105.615 Y109.009
G1 F3168 X104.426 Y107.821 E100.56975
G0 F7800 X104.689 Y107.659
G1 F3168 X106.039 Y109.009 E100.61737
G0 F7800 X106.464 Y109.009
G1 F3168 X104.952 Y107.497 E100.67071
G0 F7800 X105.201 Y107.322
G1 F3168 X106.888 Y109.009 E100.73022
G0 F7800 X107.312 Y109.009
G1 F3168 X105.445 Y107.142 E100.79609
G0 F7800 X105.689 Y106.961
G1 F3168 X107.736 Y109.009 E100.86832
G0 F7800 X108.161 Y109.009
G1 F3168 X105.967 Y106.816 E100.9457
G0 F7800 X106.176 Y106.6
G1 F3168 X108.585 Y109.009 E101.03068
G0 F7800 X109.009 Y109.009
G1 F3168 X106.42 Y106.42 E101.12202
G0 F7800 X106.563 Y106.138
G1 F3168 X109.009 Y108.585 E101.20832
G0 F7800 X109.009 Y108.161
G1 F3168 X106.761 Y105.912 E101.28765
G0 F7800 X106.958 Y105.685
G1 F3168 X109.009 Y107.736 E101.36
G0 F7800 X109.009 Y107.312
G1 F3168 X107.142 Y105.445 E101.42586
G0 F7800 X107.321 Y105.2
G1 F3168 X109.008 Y106.887 E101.48538
G0 F7800 X109.008 Y106.463
G1 F3168 X107.497 Y104.952 E101.53868
G0 F7800 X107.658 Y104.688
G1 F3168 X109.008 Y106.039 E101.58633
G0 F7800 X109.008 Y105.614
G1 F3168 X107.819 Y104.425 E101.62827
G0 F7800 X107.966 Y104.148
G1 F3168 X109.008 Y105.19 E101.66503
G0 F7800 X109.008 Y104.766
G1 F3168 X108.107 Y103.864 E101.69683
G0 F7800 X108.245 Y103.578
G1 F3168 X109.008 Y104.342 E101.72377
G0 F7800 X109.008 Y103.917
G1 F3168 X108.363 Y103.272 E101.74652
G0 F7800 X108.481 Y102.966
G1 F3168 X109.008 Y103.493 E101.76511
G0 F7800 X109.008 Y103.068
G1 F3168 X108.582 Y102.642 E101.78014
G0 F7800 X108.678 Y102.314
G1 F3168 X109.008 Y102.644 E101.79178
G0 F7800 X109.008 Y102.22
G1 F3168 X108.763 Y101.975 E101.80043
G0 F7800 X109.008 Y101.795
G1 F3168 X108.834 Y101.621 E101.80656
G0 F7800 X109.008 Y101.371
G1 F3168 X108.928 Y101.291 E101.80939
G0 F7800 X108.95 Y101.331
G1 F3168 X109 Y100.4 E101.82489
G0 F7800 X109.043 Y100.396
G1 F3168 X109.021 Y99.994 E101.82867
G1 X109.042 Y99.604 E101.83244
G0 F7800 X108.645 Y99.948
G1 F3168 X108.651 Y99.999 E101.83284
G0 F7800 X109.005 Y98.398
G0 X109.005 Y98.398
G1 F3168 X108.796 Y98.19 E101.84019
G0 F7800 X109.006 Y97.975
G1 F3168 X108.662 Y97.631 E101.85233
G0 F7800 X109.006 Y97.551
G1 F3168 X108.48 Y97.024 E101.8709
G0 F7800 X109.006 Y97.126
G1 F3168 X108.2 Y96.32 E101.89934
G0 F7800 X109.006 Y96.278
G1 F3168 X106.382 Y93.654 E101.99191
G0 F7800 X105.814 Y93.6
G1 F3168 X105.785 Y93.568 E101.9923
G0 F7800 X105.783 Y93.568
G1 F3168 X105.739 Y93.534 E101.99271
G0 F7800 X105.688 Y92.96
G1 F3168 X103.718 Y90.99 E102.0622
G0 F7800 X103.294 Y90.99
G1 F3168 X104.569 Y92.266 E102.1072
G0 F7800 X103.677 Y91.798
G1 F3168 X102.869 Y90.99 E102.1357
G0 F7800 X102.445 Y90.99
G1 F3168 X102.968 Y91.513 E102.15415
G0 F7800 X102.36 Y91.329
G1 F3168 X102.021 Y90.99 E102.16611
G0 F7800 X101.807 Y91.2
G1 F3168 X101.597 Y90.99 E102.17352
G0 F7800 X101.292 Y91.11
G1 F3168 X101.237 Y91.055 E102.17546
G0 F7800 X100.742 Y91.014
G1 F3168 X99.9 Y90.997 E102.18912
G0 F7800 X99.893 Y90.951
G1 F3168 X99.439 Y90.988 E102.19298
G1 X99.101 Y90.982 E102.19759
G0 F7800 X98.738 Y91.101
G1 F3168 X98.626 Y90.989 E102.20154
G0 F7800 X98.374 Y91.162
G1 F3168 X98.202 Y90.989 E102.20763
G0 F7800 X98.021 Y91.233
G1 F3168 X97.778 Y90.989 E102.21622
G0 F7800 X97.682 Y91.318
G1 F3168 X97.353 Y90.989 E102.22782
G0 F7800 X97.353 Y91.413
G1 F3168 X96.929 Y90.989 E102.24278
G0 F7800 X96.505 Y90.989
G1 F3168 X97.034 Y91.519 E102.26146
G0 F7800 X96.722 Y91.631
G1 F3168 X96.08 Y90.989 E102.28411
G0 F7800 X95.656 Y90.989
G1 F3168 X96.424 Y91.757 E102.3112
G0 F7800 X96.127 Y91.884
G1 F3168 X95.232 Y90.989 E102.34278
G0 F7800 X94.808 Y90.989
G1 F3168 X95.849 Y92.031 E102.37952
G0 F7800 X95.571 Y92.177
G1 F3168 X94.383 Y90.989 E102.42143
G0 F7800 X93.959 Y90.989
G1 F3168 X95.306 Y92.336 E102.46895
G0 F7800 X95.047 Y92.501
G1 F3168 X93.535 Y90.989 E102.52229
G0 F7800 X93.111 Y90.989
G1 F3168 X94.794 Y92.672 E102.58166
G0 F7800 X94.552 Y92.855
G1 F3168 X92.686 Y90.989 E102.64749
G0 F7800 X92.262 Y90.989
G1 F3168 X94.312 Y93.039 E102.71981
G0 F7800 X94.086 Y93.237
G1 F3168 X91.838 Y90.989 E102.79911
G0 F7800 X91.414 Y90.989
G1 F3168 X93.859 Y93.435 E102.88538
G0 F7800 X93.582 Y93.582
G1 F3168 X90.989 Y90.989 E102.97686
G0 F7800 X90.989 Y91.414
G1 F3168 X93.401 Y93.825 E103.06193
G0 F7800 X93.182 Y94.031
G1 F3168 X90.989 Y91.838 E103.13929
G0 F7800 X90.989 Y92.262
G1 F3168 X93.036 Y94.309 E103.21151
G0 F7800 X92.855 Y94.552
G1 F3168 X90.989 Y92.686 E103.27734
G0 F7800 X90.989 Y93.111
G1 F3168 X92.673 Y94.794 E103.33673
G0 F7800 X92.501 Y95.047
G1 F3168 X90.989 Y93.535 E103.39007
G0 F7800 X90.989 Y93.959
G1 F3168 X92.336 Y95.306 E103.43758
G0 F7800 X92.179 Y95.573
G1 F3168 X90.989 Y94.383 E103.47956
G0 F7800 X90.989 Y94.808
G1 F3168 X92.032 Y95.85 E103.51634
G0 F7800 X91.887 Y96.13
G1 F3168 X90.99 Y95.233 E103.54799
G0 F7800 X90.99 Y95.657
G1 F3168 X91.758 Y96.425 E103.57508
G0 F7800 X91.63 Y96.721
G1 F3168 X90.99 Y96.081 E103.59766
G0 F7800 X90.99 Y96.505
G1 F3168 X91.52 Y97.035 E103.61635
G0 F7800 X91.409 Y97.349
G1 F3168 X90.99 Y96.93 E103.63114
G0 F7800 X90.99 Y97.354
G1 F3168 X91.319 Y97.683 E103.64274
G0 F7800 X90.99 Y97.778
G1 F3168 X91.23 Y98.019 E103.65123
G0 F7800 X90.99 Y98.202
G1 F3168 X91.164 Y98.376 E103.65736
G0 F7800 X90.99 Y98.627
G1 F3168 X91.096 Y98.733 E103.6611
G0 F7800 X91.043 Y98.756
G1 F3168 X91 Y99.6 E103.67516
G0 F7800 X90.958 Y99.603
G1 F3168 X90.979 Y100.002 E103.67904
G1 X90.959 Y100.395 E103.68294
G0 F7800 X91 Y100.4
G1 F3168 X91.044 Y101.263 E103.69731
G0 F7800 X91.087 Y101.269
G1 F3168 X91.101 Y101.283 E103.6978
G0 F7800 X90.989 Y101.596
G1 F3168 X91.197 Y101.804 E103.70514
G0 F7800 X90.989 Y102.02
G1 F3168 X91.332 Y102.363 E103.71724
G0 F7800 X90.989 Y102.444
G1 F3168 X91.525 Y102.98 E103.73615
G0 F7800 X90.989 Y102.869
G1 F3168 X91.81 Y103.69 E103.76511
G0 F7800 X90.989 Y103.717
G1 F3168 X93.183 Y105.911 E103.84251
G0 F7800 X93.775 Y106.005
G1 F3168 X93.802 Y106.027 E103.84287
G0 F7800 X93.876 Y106.604
G1 F3168 X96.281 Y109.008 E103.9277
G0 F7800 X96.705 Y109.008
G1 F3168 X95.437 Y107.741 E103.97241
G0 F7800 X96.314 Y108.193
G1 F3168 X97.129 Y109.008 E104.00116
G0 F7800 X97.553 Y109.008
G1 F3168 X97.021 Y108.476 E104.01993
G0 F7800 X97.639 Y108.67
G1 F3168 X97.978 Y109.008 E104.03187
G0 F7800 X98.198 Y108.805
G1 F3168 X98.402 Y109.008 E104.03905
G0 F7800 X98.709 Y108.891
G1 F3168 X98.752 Y108.934 E104.04057
G0 F7800 X99.101 Y109.02
G1 F3168 X99.45 Y109.012 E104.04518
G1 X99.892 Y109.049 E104.04898
G0 F7800 X95.856 Y109.008
G0 X95.856 Y109.008
G1 F3168 X90.989 Y104.141 E104.22068
G0 F7800 X90.989 Y104.566
G1 F3168 X95.432 Y109.008 E104.3774
G0 F7800 X95.008 Y109.008
G1 F3168 X90.989 Y104.99 E104.51916
G0 F7800 X90.989 Y105.414
G1 F3168 X94.584 Y109.009 E104.64599
G0 F7800 X94.16 Y109.009
G1 F3168 X90.989 Y105.839 E104.75783
G0 F7800 X90.989 Y106.263
G1 F3168 X93.736 Y109.009 E104.85472
G0 F7800 X93.311 Y109.009
G1 F3168 X90.989 Y106.687 E104.93664
G0 F7800 X90.989 Y107.111
G1 F3168 X92.887 Y109.009 E105.0036
G0 F7800 X92.463 Y109.009
G1 F3168 X90.989 Y107.536 E105.05558
G0 F7800 X90.989 Y107.96
G1 F3168 X92.039 Y109.009 E105.0926
G0 F7800 X91.614 Y109.009
G1 F3168 X90.989 Y108.384 E105.11465
G0 F7800 X90.989 Y108.808
G1 F3168 X91.19 Y109.009 E105.12174
G0 F7800 X92.258 Y104.562
G0 X92.258 Y104.562
G1 F3168 X90.989 Y103.293 E105.16651
G0 F7800 X91.356 Y100.054
G0 X91.356 Y100.054
G1 F3168 X91.35 Y100.001 E105.16691
G0 F7800 X91.7 Y99.101
G0 X91.583 Y98.813
G0 X91.705 Y98.146
G0 X91.867 Y97.528
G0 X92.091 Y96.887
G0 X92.356 Y96.286
G0 X92.666 Y95.705
G0 X93.291 Y95.018
G0 X93.627 Y94.16
G0 X93.627 Y94.16
G1 F3168 X93.659 Y94.117 E105.1673
G0 F7800 X93.66 Y94.115
G1 F3168 X93.693 Y94.088 E105.16769
G0 F7800 X94.514 Y93.704
G0 X94.648 Y93.397
G0 X95.173 Y93.003
G0 X95.746 Y92.64
G0 X96.347 Y92.325
G0 X96.99 Y92.051
G0 X97.633 Y91.837
G0 X98.776 Y91.715
G0 X99.5 Y91.379
G0 X99.5 Y91.379
G1 F3168 X99.529 Y91.377 E105.16803
G0 F7800 X99.5 Y91.376
G1 F3168 X99.5 Y91.379 E105.16808
G0 F7800 X104.142 Y90.99
G0 X104.142 Y90.99
G1 F3168 X109.006 Y95.854 E105.33967
G0 F7800 X109.007 Y95.431
G1 F3168 X104.566 Y90.99 E105.49633
G0 F7800 X104.991 Y90.99
G1 F3168 X109.007 Y95.006 E105.63801
G0 F7800 X109.007 Y94.582
G1 F3168 X105.414 Y90.989 E105.76476
G0 F7800 X105.839 Y90.989
G1 F3168 X109.008 Y94.159 E105.87658
G0 F7800 X109.008 Y93.734
G1 F3168 X106.263 Y90.989 E105.97341
G0 F7800 X106.687 Y90.989
G1 F3168 X109.008 Y93.31 E106.05529
G0 F7800 X109.008 Y92.886
G1 F3168 X107.111 Y90.989 E106.12221
G0 F7800 X107.536 Y90.989
G1 F3168 X109.008 Y92.462 E106.17416
G0 F7800 X109.008 Y92.038
G1 F3168 X107.96 Y90.989 E106.21115
G0 F7800 X108.384 Y90.989
G1 F3168 X109.009 Y91.614 E106.2332
G0 F7800 X109.009 Y91.19
G1 F3168 X108.808 Y90.989 E106.24029
G0 F7800 X107.733 Y95.429
G0 X107.733 Y95.429
G1 F3168 X109.006 Y96.703 E106.28521
G0 F7800 X108.301 Y98.886
G0 X108.466 Y99.933
G0 X103.381 Y99.935
G0 X103.45 Y99.995
G0 X103.381 Y100.065
G0 X108.466 Y100.067
G0 X108.404 Y101.271
G0 X108.26 Y102.001
G0 X108.045 Y102.737
G0 X107.785 Y103.411
G0 X107.445 Y104.099
G0 X107.057 Y104.734
G0 X106.616 Y105.333
G0 X106.086 Y105.755
