;FLAVOR:RepRap
;TIME:2921
;Generated with Cura_SteamEngine 2.3.1
M190 S85
M104 S210
M109 S210
G21 ;metric values
G90 ;absolute positioning
M82 ;set extruder to absolute mode
M107 ;start with the fan off
G28 X0 Y0 ;move X/Y to min endstops
G28 Z0 ;move Z to min endstops
G1 Z15.0 F9000 ;move the platform down 15mm
G92 E0 ;zero the extruded length
G1 F200 E3 ;extrude 3mm of feed stock
G92 E0 ;zero the extruded length again
G1 F9000
;Put printing message on LCD screen
M117 Printing...
;LAYER_COUNT:148
;LAYER:0
M107
G1 F1500 E-6.5
G0 F3600 X76.623 Y86.349 Z.3
;TYPE:SKIRT
G1 F1500 E0
G1 F1800 X77.222 Y85.834 E0.03941
G1 X77.87 Y85.383 E0.0788
G1 X78.561 Y84.999 E0.11824
G1 X79.286 Y84.687 E0.15762
G1 X80.039 Y84.45 E0.197
G1 X80.813 Y84.291 E0.23642
G1 X81.598 Y84.21 E0.27579
G1 X82 Y84.2 E0.29586
G1 X118 Y84.2 E2.0919
G1 X118.789 Y84.24 E2.13132
G1 X119.569 Y84.359 E2.17068
G1 X120.334 Y84.557 E2.21011
G1 X121.074 Y84.831 E2.24947
G1 X121.783 Y85.179 E2.28888
G1 X122.454 Y85.597 E2.32832
G1 X123.078 Y86.08 E2.36769
G1 X123.651 Y86.623 E2.40707
G1 X124.166 Y87.222 E2.44648
G1 X124.617 Y87.87 E2.48587
G1 X125.001 Y88.561 E2.52531
G1 X125.313 Y89.286 E2.56469
G1 X125.55 Y90.039 E2.60407
G1 X125.709 Y90.813 E2.64349
G1 X125.79 Y91.598 E2.68286
G1 X125.8 Y92 E2.70292
G1 X125.8 Y108 E3.50117
G1 X125.76 Y108.789 E3.54058
G1 X125.641 Y109.569 E3.57995
G1 X125.443 Y110.334 E3.61937
G1 X125.169 Y111.074 E3.65874
G1 X124.821 Y111.783 E3.69814
G1 X124.403 Y112.454 E3.73758
G1 X123.92 Y113.078 E3.77695
G1 X123.377 Y113.651 E3.81633
G1 X122.778 Y114.166 E3.85575
G1 X122.13 Y114.617 E3.89513
G1 X121.439 Y115.001 E3.93457
G1 X120.714 Y115.313 E3.97395
G1 X119.961 Y115.55 E4.01333
G1 X119.187 Y115.709 E4.05276
G1 X118.402 Y115.79 E4.09213
G1 X118 Y115.8 E4.11219
G1 X82 Y115.8 E5.90824
G1 X81.211 Y115.76 E5.94765
G1 X80.431 Y115.641 E5.98702
G1 X79.666 Y115.443 E6.02644
G1 X78.926 Y115.169 E6.06581
G1 X78.217 Y114.821 E6.10521
G1 X77.546 Y114.403 E6.14465
G1 X76.922 Y113.92 E6.18402
G1 X76.349 Y113.377 E6.2234
G1 X75.834 Y112.778 E6.26281
G1 X75.383 Y112.13 E6.3022
G1 X74.999 Y111.439 E6.34164
G1 X74.687 Y110.714 E6.38102
G1 X74.45 Y109.961 E6.4204
G1 X74.291 Y109.187 E6.45983
G1 X74.21 Y108.402 E6.4992
G1 X74.2 Y108 E6.51926
G1 X74.2 Y92 E7.3175
G1 X74.24 Y91.211 E7.35692
G1 X74.359 Y90.431 E7.39628
G1 X74.557 Y89.666 E7.4357
G1 X74.831 Y88.926 E7.47507
G1 X75.179 Y88.217 E7.51448
G1 X75.597 Y87.546 E7.55392
G1 X76.08 Y86.922 E7.59328
G1 X76.623 Y86.349 E7.63267
G0 F3600 X77.016 Y86.53
G1 F1800 X77.611 Y86.042 E7.67106
G1 X78.253 Y85.619 E7.70942
G1 X78.936 Y85.264 E7.74782
G1 X79.651 Y84.983 E7.78615
G1 X80.393 Y84.777 E7.82457
G1 X81.151 Y84.649 E7.86292
G1 X82 Y84.6 E7.90535
G1 X118 Y84.6 E9.70139
G1 X118.768 Y84.64 E9.73976
G1 X119.528 Y84.759 E9.77814
G1 X120.271 Y84.957 E9.8165
G1 X120.99 Y85.231 E9.85489
G1 X121.676 Y85.578 E9.89324
G1 X122.323 Y85.994 E9.93162
G1 X122.923 Y86.475 E9.96998
G1 X123.47 Y87.016 E10.00837
G1 X123.958 Y87.611 E10.04676
G1 X124.381 Y88.253 E10.08512
G1 X124.736 Y88.936 E10.12352
G1 X125.017 Y89.651 E10.16185
G1 X125.223 Y90.393 E10.20026
G1 X125.351 Y91.151 E10.23862
G1 X125.4 Y92 E10.28104
G1 X125.4 Y108 E11.07929
G1 X125.36 Y108.768 E11.11766
G1 X125.241 Y109.528 E11.15603
G1 X125.043 Y110.271 E11.1944
G1 X124.769 Y110.99 E11.23278
G1 X124.422 Y111.676 E11.27114
G1 X124.006 Y112.323 E11.30951
G1 X123.525 Y112.923 E11.34788
G1 X122.984 Y113.47 E11.38626
G1 X122.389 Y113.958 E11.42465
G1 X121.747 Y114.381 E11.46301
G1 X121.064 Y114.736 E11.50141
G1 X120.349 Y115.017 E11.53974
G1 X119.607 Y115.223 E11.57816
G1 X118.849 Y115.351 E11.61651
G1 X118 Y115.4 E11.65894
G1 X82 Y115.4 E13.45499
G1 X81.232 Y115.36 E13.49335
G1 X80.472 Y115.241 E13.53173
G1 X79.729 Y115.043 E13.57009
G1 X79.01 Y114.769 E13.60848
G1 X78.324 Y114.422 E13.64683
G1 X77.677 Y114.006 E13.68521
G1 X77.077 Y113.525 E13.72358
G1 X76.53 Y112.984 E13.76196
G1 X76.042 Y112.389 E13.80035
G1 X75.619 Y111.747 E13.83871
G1 X75.264 Y111.064 E13.87711
G1 X74.983 Y110.349 E13.91544
G1 X74.777 Y109.607 E13.95386
G1 X74.649 Y108.849 E13.99221
G1 X74.6 Y108 E14.03464
G1 X74.6 Y92 E14.83288
G1 X74.64 Y91.232 E14.87125
G1 X74.759 Y90.472 E14.90963
G1 X74.957 Y89.729 E14.94799
G1 X75.231 Y89.01 E14.98637
G1 X75.578 Y88.324 E15.02473
G1 X75.994 Y87.677 E15.0631
G1 X76.475 Y87.077 E15.10147
G1 X77.016 Y86.53 E15.13985
G0 F3600 X77.408 Y86.716
G1 F1800 X77.998 Y86.257 E15.17715
G1 X78.634 Y85.862 E15.2145
G1 X79.308 Y85.538 E15.25181
G1 X80.013 Y85.288 E15.28913
G1 X80.741 Y85.114 E15.32647
G1 X81.483 Y85.019 E15.36379
G1 X82 Y85 E15.3896
G1 X118 Y85 E17.18565
G1 X118.747 Y85.04 E17.22297
G1 X119.485 Y85.159 E17.26026
G1 X120.207 Y85.357 E17.29761
G1 X120.903 Y85.63 E17.33491
G1 X121.566 Y85.977 E17.37225
G1 X122.189 Y86.392 E17.40959
G1 X122.763 Y86.871 E17.44689
G1 X123.284 Y87.408 E17.48422
G1 X123.743 Y87.998 E17.52151
G1 X124.138 Y88.634 E17.55887
G1 X124.462 Y89.308 E17.59617
G1 X124.712 Y90.013 E17.63349
G1 X124.886 Y90.741 E17.67084
G1 X124.981 Y91.483 E17.70816
G1 X125 Y92 E17.73397
G1 X125 Y108 E18.53221
G1 X124.96 Y108.747 E18.56953
G1 X124.841 Y109.485 E18.60683
G1 X124.643 Y110.207 E18.64418
G1 X124.37 Y110.903 E18.68148
G1 X124.023 Y111.566 E18.71881
G1 X123.608 Y112.189 E18.75616
G1 X123.129 Y112.763 E18.79346
G1 X122.592 Y113.284 E18.83078
G1 X122.002 Y113.743 E18.86808
G1 X121.366 Y114.138 E18.90543
G1 X120.692 Y114.462 E18.94274
G1 X119.987 Y114.712 E18.98006
G1 X119.259 Y114.886 E19.0174
G1 X118.517 Y114.981 E19.05472
G1 X118 Y115 E19.08053
G1 X82 Y115 E20.87658
G1 X81.253 Y114.96 E20.9139
G1 X80.515 Y114.841 E20.95119
G1 X79.793 Y114.643 E20.98855
G1 X79.097 Y114.37 E21.02584
G1 X78.434 Y114.023 E21.06318
G1 X77.811 Y113.608 E21.10052
G1 X77.237 Y113.129 E21.13782
G1 X76.716 Y112.592 E21.17515
G1 X76.257 Y112.002 E21.21244
G1 X75.862 Y111.366 E21.2498
G1 X75.538 Y110.692 E21.28711
G1 X75.288 Y109.987 E21.32442
G1 X75.114 Y109.259 E21.36177
G1 X75.019 Y108.517 E21.39909
G1 X75 Y108 E21.4249
G1 X75 Y92 E22.22314
G1 X75.04 Y91.253 E22.26046
G1 X75.159 Y90.515 E22.29776
G1 X75.357 Y89.793 E22.33511
G1 X75.63 Y89.097 E22.37241
G1 X75.977 Y88.434 E22.40974
G1 X76.392 Y87.811 E22.44709
G1 X76.871 Y87.237 E22.48439
G1 X77.408 Y86.716 E22.52171
G0 F3600 X77.799 Y86.909
G1 F1800 X78.384 Y86.479 E22.55794
G1 X79.013 Y86.115 E22.59419
G1 X79.678 Y85.822 E22.63045
G1 X80.371 Y85.604 E22.66669
G1 X81.083 Y85.464 E22.70289
G1 X82 Y85.4 E22.74875
G1 X118 Y85.4 E24.5448
G1 X118.725 Y85.44 E24.58103
G1 X119.442 Y85.559 E24.61729
G1 X120.141 Y85.757 E24.65353
G1 X120.814 Y86.03 E24.68977
G1 X121.453 Y86.375 E24.726
G1 X122.05 Y86.789 E24.76224
G1 X122.598 Y87.265 E24.79845
G1 X123.091 Y87.799 E24.83471
G1 X123.521 Y88.384 E24.87094
G1 X123.885 Y89.013 E24.90719
G1 X124.178 Y89.678 E24.94345
G1 X124.396 Y90.371 E24.97969
G1 X124.536 Y91.083 E25.01589
G1 X124.6 Y92 E25.06175
G1 X124.6 Y108 E25.86
G1 X124.56 Y108.725 E25.89622
G1 X124.441 Y109.442 E25.93248
G1 X124.243 Y110.141 E25.96873
G1 X123.97 Y110.814 E26.00496
G1 X123.625 Y111.453 E26.04119
G1 X123.211 Y112.05 E26.07744
G1 X122.735 Y112.598 E26.11365
G1 X122.201 Y113.091 E26.14991
G1 X121.616 Y113.521 E26.18613
G1 X120.987 Y113.885 E26.22239
G1 X120.322 Y114.178 E26.25864
G1 X119.629 Y114.396 E26.29489
G1 X118.917 Y114.536 E26.33109
G1 X118 Y114.6 E26.37695
G1 X82 Y114.6 E28.173
G1 X81.275 Y114.56 E28.20922
G1 X80.558 Y114.441 E28.24548
G1 X79.859 Y114.243 E28.28173
G1 X79.186 Y113.97 E28.31796
G1 X78.547 Y113.625 E28.35419
G1 X77.95 Y113.211 E28.39044
G1 X77.402 Y112.735 E28.42665
G1 X76.909 Y112.201 E28.46291
G1 X76.479 Y111.616 E28.49913
G1 X76.115 Y110.987 E28.53539
G1 X75.822 Y110.322 E28.57164
G1 X75.604 Y109.629 E28.60789
G1 X75.464 Y108.917 E28.64409
G1 X75.4 Y108 E28.68995
G1 X75.4 Y92 E29.48819
G1 X75.44 Y91.275 E29.52442
G1 X75.559 Y90.558 E29.56068
G1 X75.757 Y89.859 E29.59692
G1 X76.03 Y89.186 E29.63316
G1 X76.375 Y88.547 E29.66939
G1 X76.789 Y87.95 E29.70563
G1 X77.265 Y87.402 E29.74185
G1 X77.799 Y86.909 E29.7781
G0 F3600 X78.189 Y87.109
G1 F1800 X78.768 Y86.709 E29.81321
G1 X79.389 Y86.377 E29.84835
G1 X80.043 Y86.117 E29.88346
G1 X80.723 Y85.933 E29.9186
G1 X81.419 Y85.827 E29.95373
G1 X82 Y85.8 E29.98274
G1 X118 Y85.8 E31.77879
G1 X118.703 Y85.84 E31.81392
G1 X119.397 Y85.959 E31.84905
G1 X120.072 Y86.157 E31.88414
G1 X120.721 Y86.429 E31.91925
G1 X121.335 Y86.774 E31.95439
G1 X121.906 Y87.185 E31.98949
G1 X122.427 Y87.659 E32.02463
G1 X122.891 Y88.189 E32.05977
G1 X123.291 Y88.768 E32.09488
G1 X123.623 Y89.389 E32.13001
G1 X123.883 Y90.043 E32.16513
G1 X124.067 Y90.723 E32.20027
G1 X124.173 Y91.419 E32.23539
G1 X124.2 Y92 E32.26441
G1 X124.2 Y108 E33.06266
G1 X124.16 Y108.703 E33.09779
G1 X124.041 Y109.397 E33.13291
G1 X123.843 Y110.072 E33.16801
G1 X123.571 Y110.721 E33.20312
G1 X123.226 Y111.335 E33.23825
G1 X122.815 Y111.906 E33.27335
G1 X122.341 Y112.427 E33.30849
G1 X121.811 Y112.891 E33.34364
G1 X121.232 Y113.291 E33.37875
G1 X120.611 Y113.623 E33.41388
G1 X119.957 Y113.883 E33.44899
G1 X119.277 Y114.067 E33.48414
G1 X118.581 Y114.173 E33.51926
G1 X118 Y114.2 E33.54828
G1 X82 Y114.2 E35.34432
G1 X81.297 Y114.16 E35.37945
G1 X80.603 Y114.041 E35.41458
G1 X79.928 Y113.843 E35.44968
G1 X79.279 Y113.571 E35.48478
G1 X78.665 Y113.226 E35.51992
G1 X78.094 Y112.815 E35.55502
G1 X77.573 Y112.341 E35.59016
G1 X77.109 Y111.811 E35.62531
G1 X76.709 Y111.232 E35.66041
G1 X76.377 Y110.611 E35.69555
G1 X76.117 Y109.957 E35.73066
G1 X75.933 Y109.277 E35.7658
G1 X75.827 Y108.581 E35.80093
G1 X75.8 Y108 E35.82994
G1 X75.8 Y92 E36.62819
G1 X75.84 Y91.297 E36.66332
G1 X75.959 Y90.603 E36.69845
G1 X76.157 Y89.928 E36.73354
G1 X76.429 Y89.279 E36.76865
G1 X76.774 Y88.665 E36.80379
G1 X77.185 Y88.094 E36.83889
G1 X77.659 Y87.573 E36.87403
G1 X78.189 Y87.109 E36.90917
G0 F3600 X78.578 Y87.317
G1 F1800 X79.15 Y86.948 E36.94313
G1 X79.762 Y86.649 E36.97711
G1 X80.404 Y86.424 E37.01105
G1 X81.069 Y86.275 E37.04505
G1 X82 Y86.2 E37.09165
G1 X118 Y86.2 E38.8877
G1 X118.68 Y86.24 E38.92168
G1 X119.35 Y86.359 E38.95563
G1 X120.002 Y86.556 E38.98961
G1 X120.626 Y86.828 E39.02357
G1 X121.214 Y87.172 E39.05756
G1 X121.758 Y87.582 E39.09154
G1 X122.249 Y88.053 E39.12549
G1 X122.683 Y88.578 E39.15947
G1 X123.052 Y89.15 E39.19343
G1 X123.351 Y89.762 E39.22741
G1 X123.576 Y90.404 E39.26135
G1 X123.725 Y91.069 E39.29535
G1 X123.8 Y92 E39.34195
G1 X123.8 Y108 E40.14019
G1 X123.76 Y108.68 E40.17418
G1 X123.641 Y109.35 E40.20813
G1 X123.444 Y110.002 E40.24211
G1 X123.172 Y110.626 E40.27607
G1 X122.828 Y111.214 E40.31006
G1 X122.418 Y111.758 E40.34404
G1 X121.947 Y112.249 E40.37799
G1 X121.422 Y112.683 E40.41197
G1 X120.85 Y113.052 E40.44593
G1 X120.238 Y113.351 E40.47991
G1 X119.596 Y113.576 E40.51385
G1 X118.931 Y113.725 E40.54785
G1 X118 Y113.8 E40.59445
G1 X82 Y113.8 E42.3905
G1 X81.32 Y113.76 E42.42448
G1 X80.65 Y113.641 E42.45843
G1 X79.998 Y113.444 E42.49241
G1 X79.374 Y113.172 E42.52637
G1 X78.786 Y112.828 E42.56036
G1 X78.242 Y112.418 E42.59434
G1 X77.751 Y111.947 E42.62829
G1 X77.317 Y111.422 E42.66227
G1 X76.948 Y110.85 E42.69623
G1 X76.649 Y110.238 E42.73021
G1 X76.424 Y109.596 E42.76415
G1 X76.275 Y108.931 E42.79815
G1 X76.2 Y108 E42.84475
G1 X76.2 Y92 E43.64299
G1 X76.24 Y91.32 E43.67698
G1 X76.359 Y90.65 E43.71093
G1 X76.556 Y89.998 E43.74491
G1 X76.828 Y89.374 E43.77887
G1 X77.172 Y88.786 E43.81285
G1 X77.582 Y88.242 E43.84684
G1 X78.053 Y87.751 E43.88078
G1 X78.578 Y87.317 E43.91477
G0 F3600 X78.965 Y87.534
G1 F1800 X79.529 Y87.198 E43.94752
G1 X80.131 Y86.934 E43.98032
G1 X80.76 Y86.744 E44.0131
G1 X81.407 Y86.633 E44.04585
G1 X82 Y86.6 E44.07548
G1 X118 Y86.6 E45.87153
G1 X118.656 Y86.64 E45.90431
G1 X119.302 Y86.759 E45.93709
G1 X119.929 Y86.956 E45.96987
G1 X120.527 Y87.228 E46.00265
G1 X121.088 Y87.57 E46.03543
G1 X121.603 Y87.978 E46.06821
G1 X122.065 Y88.445 E46.10098
G1 X122.466 Y88.965 E46.13374
G1 X122.802 Y89.529 E46.1665
G1 X123.066 Y90.131 E46.19929
G1 X123.256 Y90.76 E46.23207
G1 X123.367 Y91.407 E46.26482
G1 X123.4 Y92 E46.29445
G1 X123.4 Y108 E47.0927
G1 X123.36 Y108.656 E47.12549
G1 X123.241 Y109.302 E47.15826
G1 X123.044 Y109.929 E47.19105
G1 X122.772 Y110.527 E47.22382
G1 X122.43 Y111.088 E47.2566
G1 X122.022 Y111.603 E47.28938
G1 X121.555 Y112.065 E47.32215
G1 X121.035 Y112.466 E47.35491
G1 X120.471 Y112.802 E47.38767
G1 X119.869 Y113.066 E47.42046
G1 X119.24 Y113.256 E47.45324
G1 X118.593 Y113.367 E47.48599
G1 X118 Y113.4 E47.51562
G1 X82 Y113.4 E49.31167
G1 X81.344 Y113.36 E49.34446
G1 X80.698 Y113.241 E49.37723
G1 X80.071 Y113.044 E49.41002
G1 X79.473 Y112.772 E49.4428
G1 X78.912 Y112.43 E49.47558
G1 X78.397 Y112.022 E49.50835
G1 X77.935 Y111.555 E49.54113
G1 X77.534 Y111.035 E49.57389
G1 X77.198 Y110.471 E49.60664
G1 X76.934 Y109.869 E49.63944
G1 X76.744 Y109.24 E49.67222
G1 X76.633 Y108.593 E49.70497
G1 X76.6 Y108 E49.7346
G1 X76.6 Y92 E50.53284
G1 X76.64 Y91.344 E50.56563
G1 X76.759 Y90.698 E50.5984
G1 X76.956 Y90.071 E50.63119
G1 X77.228 Y89.473 E50.66397
G1 X77.57 Y88.912 E50.69675
G1 X77.978 Y88.397 E50.72953
G1 X78.445 Y87.935 E50.7623
G1 X78.965 Y87.534 E50.79506
G0 F3600 X79.35 Y87.76
G1 F1800 X79.906 Y87.46 E50.82658
G1 X80.495 Y87.232 E50.85809
G1 X81.109 Y87.08 E50.88965
G1 X82 Y87 E50.93428
G1 X118 Y87 E52.73032
G1 X118.631 Y87.04 E52.76187
G1 X119.252 Y87.159 E52.79341
G1 X119.852 Y87.356 E52.82492
G1 X120.424 Y87.627 E52.8565
G1 X120.956 Y87.967 E52.888
G1 X121.441 Y88.373 E52.91955
G1 X121.871 Y88.836 E52.95108
G1 X122.24 Y89.35 E52.98265
G1 X122.54 Y89.906 E53.01416
G1 X122.768 Y90.495 E53.04567
G1 X122.92 Y91.109 E53.07723
G1 X123 Y92 E53.12186
G1 X123 Y108 E53.92011
G1 X122.96 Y108.631 E53.95165
G1 X122.841 Y109.252 E53.9832
G1 X122.644 Y109.852 E54.0147
G1 X122.373 Y110.424 E54.04628
G1 X122.033 Y110.956 E54.07778
G1 X121.627 Y111.441 E54.10933
G1 X121.164 Y111.871 E54.14086
G1 X120.65 Y112.24 E54.17243
G1 X120.094 Y112.54 E54.20395
G1 X119.505 Y112.768 E54.23546
G1 X118.891 Y112.92 E54.26701
G1 X118 Y113 E54.31164
G1 X82 Y113 E56.10769
G1 X81.369 Y112.96 E56.13924
G1 X80.748 Y112.841 E56.17078
G1 X80.148 Y112.644 E56.20229
G1 X79.576 Y112.373 E56.23387
G1 X79.044 Y112.033 E56.26536
G1 X78.559 Y111.627 E56.29692
G1 X78.129 Y111.164 E56.32844
G1 X77.76 Y110.65 E56.36001
G1 X77.46 Y110.094 E56.39153
G1 X77.232 Y109.505 E56.42304
G1 X77.08 Y108.891 E56.4546
G1 X77 Y108 E56.49923
G1 X77 Y92 E57.29747
G1 X77.04 Y91.369 E57.32902
G1 X77.159 Y90.748 E57.36056
G1 X77.356 Y90.148 E57.39207
G1 X77.627 Y89.576 E57.42365
G1 X77.967 Y89.044 E57.45515
G1 X78.373 Y88.559 E57.4867
G1 X78.836 Y88.129 E57.51823
G1 X79.35 Y87.76 E57.54979
G0 F3600 X79.732 Y87.998
G1 F1800 X80.278 Y87.734 E57.58005
G1 X80.854 Y87.545 E57.61029
G1 X81.45 Y87.433 E57.64055
G1 X82 Y87.4 E57.66804
G1 X118 Y87.4 E59.46409
G1 X118.605 Y87.44 E59.49434
G1 X119.199 Y87.559 E59.52456
G1 X119.773 Y87.755 E59.55482
G1 X120.316 Y88.026 E59.5851
G1 X120.819 Y88.365 E59.61536
G1 X121.272 Y88.767 E59.64557
G1 X121.669 Y89.225 E59.67581
G1 X122.002 Y89.732 E59.70608
G1 X122.266 Y90.278 E59.73633
G1 X122.455 Y90.854 E59.76658
G1 X122.567 Y91.45 E59.79683
G1 X122.6 Y92 E59.82432
G1 X122.6 Y108 E60.62256
G1 X122.56 Y108.605 E60.65281
G1 X122.441 Y109.199 E60.68304
G1 X122.245 Y109.773 E60.7133
G1 X121.974 Y110.316 E60.74357
G1 X121.635 Y110.819 E60.77384
G1 X121.233 Y111.272 E60.80405
G1 X120.775 Y111.669 E60.83429
G1 X120.268 Y112.002 E60.86455
G1 X119.722 Y112.266 E60.89481
G1 X119.146 Y112.455 E60.92506
G1 X118.55 Y112.567 E60.95531
G1 X118 Y112.6 E60.9828
G1 X82 Y112.6 E62.77885
G1 X81.395 Y112.56 E62.8091
G1 X80.801 Y112.441 E62.83932
G1 X80.227 Y112.245 E62.86958
G1 X79.684 Y111.974 E62.89986
G1 X79.181 Y111.635 E62.93012
G1 X78.728 Y111.233 E62.96034
G1 X78.331 Y110.775 E62.99057
G1 X77.998 Y110.268 E63.02084
G1 X77.734 Y109.722 E63.05109
G1 X77.545 Y109.146 E63.08134
G1 X77.433 Y108.55 E63.11159
G1 X77.4 Y108 E63.13908
G1 X77.4 Y92 E63.93733
G1 X77.44 Y91.395 E63.96757
G1 X77.559 Y90.801 E63.9978
G1 X77.755 Y90.227 E64.02806
G1 X78.026 Y89.684 E64.05834
G1 X78.365 Y89.181 E64.0886
