; Generated with MatterSlice 1.0
; filamentDiameter = 1.75
; extrusionWidth = 0.3
; firstLayerExtrusionWidth = 0.3
; layerThickness = 0.2
; firstLayerThickness = 0.25
; automatic settings before start_gcode
G21 ; set units to millimeters
M107 ; fan off
M190 S75 ; wait for bed temperature to be reached
M104 T0 S210 ; start heating extruder 1
T0 ; set the active extruder to 0
; settings from start_gcode
G28 ; home all axes
G1 Z5 F5000 ; lift nozzle
; automatic settings after start_gcode
M109 T0 S210 ; wait for extruder 1 to reach temperature
T0 ; set the active extruder to 0
G90 ; use absolute coordinates
G92 E0 ; reset the expected extruder position
M82 ; use absolute distance for extrusion
; Layer count: 75
; Layer Change GCode
; LAYER:0
G4 P0
M107
G0 F7800 X131.9 Y114.9 Z0.25
; TYPE:SKIRT
G1 F1800 E0
G1 F720 X68.1 Y114.9 E1.98937
G1 X68.1 Y85.1 E2.91858
G1 X131.9 Y85.1 E4.90795
G1 X131.9 Y114.9 E5.83715
G0 F7800 X131.6 Y114.6
G1 F720 X68.4 Y114.6 E7.80782
G1 X68.4 Y85.4 E8.71831
G1 X131.6 Y85.4 E10.68898
G1 X131.6 Y114.6 E11.59947
G0 F7800 X125.45 Y108.45
G1 F720 X74.55 Y108.45 E13.1866
G1 X74.55 Y91.55 E13.71357
G1 X125.45 Y91.55 E15.3007
G1 X125.45 Y108.45 E15.82767
G0 F7800 X125.15 Y108.15
G1 F720 X74.85 Y108.15 E17.39609
G1 X74.85 Y91.85 E17.90435
G1 X125.15 Y91.85 E19.47277
G1 X125.15 Y108.15 E19.98103
G1 F1800 E18.98103
G0 F7800 X124.6 Y107.69
G0 X75.31 Y107.6
G0 X75.31 Y107.6
G0 X75.15 Y107.85
; TYPE:WALL-OUTER
G1 F1800 E19.98103
G1 F720 X75.15 Y92.15 E20.47057
G1 X124.85 Y92.15 E22.02029
G1 X124.85 Y107.85 E22.50984
G1 X75.15 Y107.85 E24.05955
G0 F7800 X75.45 Y107.55
; TYPE:WALL-INNER
G1 F720 X75.45 Y92.45 E24.53039
G1 X124.55 Y92.45 E26.06139
G1 X124.55 Y107.55 E26.53223
G1 X75.45 Y107.55 E28.06324
G0 F7800 X75.75 Y107.25
G1 F720 X75.75 Y92.75 E28.51537
G1 X124.25 Y92.75 E30.02767
G1 X124.25 Y107.25 E30.4798
G1 X75.75 Y107.25 E31.99209
G0 F7800 X75.989 Y106.961
; TYPE:BOTTOM-FILL
G1 F720 X76.038 Y107.009 E31.99423
G0 F7800 X76.462 Y107.009
G1 F720 X75.989 Y106.536 E32.01509
G0 F7800 X75.989 Y106.112
G1 F720 X76.886 Y107.009 E32.05464
G0 F7800 X77.31 Y107.009
G1 F720 X75.989 Y105.688 E32.1129
G0 F7800 X75.989 Y105.264
G1 F720 X77.735 Y107.009 E32.18987
G0 F7800 X78.159 Y107.009
G1 F720 X75.989 Y104.839 E32.28556
G0 F7800 X75.989 Y104.415
G1 F720 X78.583 Y107.009 E32.39995
G0 F7800 X79.007 Y107.009
G1 F720 X75.989 Y103.991 E32.53303
G0 F7800 X75.989 Y103.567
G1 F720 X79.432 Y107.009 E32.68484
G0 F7800 X79.856 Y107.009
G1 F720 X75.989 Y103.142 E32.85536
G0 F7800 X75.989 Y102.718
G1 F720 X80.28 Y107.009 E33.04458
G0 F7800 X80.704 Y107.009
G1 F720 X75.989 Y102.294 E33.2525
G0 F7800 X75.989 Y101.87
G1 F720 X81.129 Y107.009 E33.47914
G0 F7800 X81.553 Y107.009
G1 F720 X75.989 Y101.445 E33.72449
G0 F7800 X75.989 Y101.021
G1 F720 X81.977 Y107.009 E33.98855
G0 F7800 X82.401 Y107.009
G1 F720 X75.989 Y100.597 E34.2713
G0 F7800 X75.989 Y100.172
G1 F720 X82.826 Y107.009 E34.57279
G0 F7800 X83.25 Y107.009
G1 F720 X75.989 Y99.748 E34.89298
G0 F7800 X75.989 Y99.324
G1 F720 X83.674 Y107.009 E35.23186
G0 F7800 X84.099 Y107.009
G1 F720 X75.989 Y98.9 E35.58947
G0 F7800 X75.989 Y98.475
G1 F720 X84.523 Y107.009 E35.96579
G0 F7800 X84.947 Y107.009
G1 F720 X75.989 Y98.051 E36.36082
G0 F7800 X75.989 Y97.627
G1 F720 X85.371 Y107.009 E36.77454
G0 F7800 X85.796 Y107.009
G1 F720 X75.989 Y97.203 E37.20697
G0 F7800 X75.989 Y96.778
G1 F720 X86.22 Y107.009 E37.65813
G0 F7800 X86.644 Y107.009
G1 F720 X75.989 Y96.354 E38.12799
G0 F7800 X75.989 Y95.93
G1 F720 X87.068 Y107.009 E38.61654
G0 F7800 X87.493 Y107.009
G1 F720 X75.989 Y95.506 E39.12381
G0 F7800 X75.989 Y95.081
G1 F720 X87.917 Y107.009 E39.6498
G0 F7800 X88.341 Y107.009
G1 F720 X75.989 Y94.657 E40.19449
G0 F7800 X75.989 Y94.233
G1 F720 X88.765 Y107.009 E40.75787
G0 F7800 X89.19 Y107.009
G1 F720 X75.989 Y93.809 E41.33998
G0 F7800 X75.989 Y93.384
G1 F720 X89.614 Y107.009 E41.9408
G0 F7800 X90.038 Y107.009
G1 F720 X76.018 Y92.988 E42.55906
G0 F7800 X76.442 Y92.988
G1 F720 X90.462 Y107.009 E43.17733
G0 F7800 X90.887 Y107.009
G1 F720 X76.866 Y92.988 E43.79561
G0 F7800 X77.291 Y92.988
G1 F720 X91.311 Y107.009 E44.41388
G0 F7800 X91.735 Y107.009
G1 F720 X77.715 Y92.988 E45.03214
G0 F7800 X78.139 Y92.988
G1 F720 X92.16 Y107.009 E45.65043
G0 F7800 X92.584 Y107.009
G1 F720 X78.563 Y92.988 E46.26871
G0 F7800 X78.988 Y92.988
G1 F720 X93.008 Y107.009 E46.88698
G0 F7800 X93.432 Y107.009
G1 F720 X79.412 Y92.988 E47.50524
G0 F7800 X79.836 Y92.988
G1 F720 X93.857 Y107.009 E48.12353
G0 F7800 X94.281 Y107.009
G1 F720 X80.26 Y92.988 E48.74181
G0 F7800 X80.685 Y92.988
G1 F720 X94.705 Y107.009 E49.36008
G0 F7800 X95.129 Y107.009
G1 F720 X81.109 Y92.988 E49.97834
G0 F7800 X81.533 Y92.988
G1 F720 X95.554 Y107.009 E50.59663
G0 F7800 X95.978 Y107.009
G1 F720 X81.957 Y92.988 E51.21491
G0 F7800 X82.382 Y92.988
G1 F720 X96.402 Y107.009 E51.83318
G0 F7800 X96.826 Y107.009
G1 F720 X82.806 Y92.988 E52.45144
G0 F7800 X83.23 Y92.988
G1 F720 X97.251 Y107.009 E53.06972
G0 F7800 X97.675 Y107.009
G1 F720 X83.654 Y92.988 E53.68801
G0 F7800 X84.079 Y92.988
G1 F720 X98.099 Y107.009 E54.30627
G0 F7800 X98.524 Y107.009
G1 F720 X84.503 Y92.988 E54.92456
G0 F7800 X84.927 Y92.988
G1 F720 X98.948 Y107.009 E55.54285
G0 F7800 X99.372 Y107.009
G1 F720 X85.352 Y92.988 E56.16111
G0 F7800 X85.776 Y92.988
G1 F720 X99.796 Y107.009 E56.77937
G0 F7800 X100.221 Y107.01
G1 F720 X86.2 Y92.988 E57.39768
G0 F7800 X86.624 Y92.988
G1 F720 X100.646 Y107.01 E58.01601
G0 F7800 X101.07 Y107.01
G1 F720 X87.049 Y92.988 E58.63432
G0 F7800 X87.473 Y92.988
G1 F720 X101.494 Y107.01 E59.25263
G0 F7800 X101.918 Y107.01
G1 F720 X87.897 Y92.988 E59.87093
G0 F7800 X88.322 Y92.989
G1 F720 X102.343 Y107.01 E60.48922
G0 F7800 X102.767 Y107.01
G1 F720 X88.746 Y92.989 E61.10751
G0 F7800 X89.171 Y92.989
G1 F720 X103.191 Y107.01 E61.72577
G0 F7800 X103.615 Y107.01
G1 F720 X89.595 Y92.989 E62.34403
G0 F7800 X90.019 Y92.989
G1 F720 X104.04 Y107.01 E62.96232
G0 F7800 X104.464 Y107.01
G1 F720 X90.443 Y92.989 E63.58061
G0 F7800 X90.868 Y92.989
G1 F720 X104.888 Y107.01 E64.19887
G0 F7800 X105.312 Y107.01
G1 F720 X91.292 Y92.989 E64.81713
G0 F7800 X91.716 Y92.989
G1 F720 X105.737 Y107.01 E65.43542
G0 F7800 X106.161 Y107.01
G1 F720 X92.14 Y92.989 E66.0537
G0 F7800 X92.565 Y92.989
G1 F720 X106.585 Y107.01 E66.67197
G0 F7800 X107.01 Y107.01
G1 F720 X92.989 Y92.989 E67.29025
G0 F7800 X93.413 Y92.989
G1 F720 X107.434 Y107.01 E67.90854
G0 F7800 X107.858 Y107.01
G1 F720 X93.838 Y92.989 E68.5268
G0 F7800 X94.262 Y92.989
G1 F720 X108.282 Y107.01 E69.14507
G0 F7800 X108.707 Y107.01
G1 F720 X94.686 Y92.989 E69.76335
G0 F7800 X95.11 Y92.989
G1 F720 X109.131 Y107.01 E70.38164
G0 F7800 X109.555 Y107.01
G1 F720 X95.535 Y92.989 E70.9999
G0 F7800 X95.959 Y92.989
G1 F720 X109.979 Y107.01 E71.61817
G0 F7800 X110.404 Y107.01
G1 F720 X96.383 Y92.989 E72.23645
G0 F7800 X96.807 Y92.989
G1 F720 X110.828 Y107.01 E72.85474
G0 F7800 X111.252 Y107.01
G1 F720 X97.232 Y92.989 E73.473
G0 F7800 X97.656 Y92.989
G1 F720 X111.676 Y107.01 E74.09127
G0 F7800 X112.101 Y107.01
G1 F720 X98.08 Y92.989 E74.70955
G0 F7800 X98.504 Y92.989
G1 F720 X112.525 Y107.01 E75.32784
G0 F7800 X112.949 Y107.01
G1 F720 X98.929 Y92.989 E75.9461
G0 F7800 X99.353 Y92.989
G1 F720 X113.373 Y107.01 E76.56436
G0 F7800 X113.798 Y107.01
G1 F720 X99.777 Y92.989 E77.18265
G0 F7800 X100.201 Y92.989
G1 F720 X114.222 Y107.01 E77.80094
G0 F7800 X114.646 Y107.01
G1 F720 X100.626 Y92.989 E78.4192
G0 F7800 X101.05 Y92.989
G1 F720 X115.071 Y107.01 E79.03749
G0 F7800 X115.495 Y107.01
G1 F720 X101.474 Y92.989 E79.65577
G0 F7800 X101.899 Y92.989
G1 F720 X115.919 Y107.01 E80.27404
G0 F7800 X116.343 Y107.01
G1 F720 X102.323 Y92.989 E80.8923
G0 F7800 X102.747 Y92.989
G1 F720 X116.768 Y107.01 E81.51058
G0 F7800 X117.192 Y107.01
G1 F720 X103.171 Y92.989 E82.12887
G0 F7800 X103.596 Y92.989
G1 F720 X117.616 Y107.01 E82.74713
G0 F7800 X118.04 Y107.01
G1 F720 X104.02 Y92.989 E83.3654
G0 F7800 X104.444 Y92.989
G1 F720 X118.465 Y107.01 E83.98368
G0 F7800 X118.889 Y107.01
G1 F720 X104.868 Y92.989 E84.60197
G0 F7800 X105.293 Y92.989
G1 F720 X119.313 Y107.01 E85.22023
G0 F7800 X119.737 Y107.01
G1 F720 X105.717 Y92.989 E85.8385
G0 F7800 X106.141 Y92.989
G1 F720 X120.162 Y107.01 E86.45678
G0 F7800 X120.586 Y107.01
G1 F720 X106.565 Y92.989 E87.07507
G0 F7800 X106.99 Y92.989
G1 F720 X121.01 Y107.01 E87.69333
G0 F7800 X121.434 Y107.01
G1 F720 X107.414 Y92.989 E88.3116
G0 F7800 X107.838 Y92.989
G1 F720 X121.859 Y107.01 E88.92988
G0 F7800 X122.283 Y107.01
G1 F720 X108.262 Y92.989 E89.54817
G0 F7800 X108.687 Y92.989
G1 F720 X122.707 Y107.01 E90.16643
G0 F7800 X123.132 Y107.01
G1 F720 X109.111 Y92.989 E90.78472
G0 F7800 X109.535 Y92.989
G1 F720 X123.556 Y107.01 E91.403
G0 F7800 X123.98 Y107.01
G1 F720 X109.96 Y92.989 E92.02127
G0 F7800 X110.384 Y92.989
G1 F720 X124.008 Y106.614 E92.62207
G0 F7800 X124.008 Y106.189
G1 F720 X110.808 Y92.989 E93.20415
G0 F7800 X111.232 Y92.989
G1 F720 X124.008 Y105.765 E93.76754
G0 F7800 X124.008 Y105.341
G1 F720 X111.657 Y92.989 E94.3122
G0 F7800 X112.082 Y92.99
G1 F720 X124.008 Y104.916 E94.8381
G0 F7800 X124.008 Y104.492
G1 F720 X112.506 Y92.99 E95.34531
G0 F7800 X112.93 Y92.99
G1 F720 X124.008 Y104.068 E95.83382
G0 F7800 X124.008 Y103.644
G1 F720 X113.354 Y92.99 E96.30363
G0 F7800 X113.779 Y92.99
G1 F720 X124.008 Y103.219 E96.7547
G0 F7800 X124.008 Y102.795
G1 F720 X114.203 Y92.99 E97.18707
G0 F7800 X114.627 Y92.99
G1 F720 X124.008 Y102.371 E97.60074
G0 F7800 X124.008 Y101.947
G1 F720 X115.051 Y92.99 E97.99572
G0 F7800 X115.476 Y92.99
G1 F720 X124.008 Y101.522 E98.37196
G0 F7800 X124.008 Y101.098
G1 F720 X115.9 Y92.99 E98.7295
G0 F7800 X116.324 Y92.99
G1 F720 X124.008 Y100.674 E99.06834
G0 F7800 X124.008 Y100.25
G1 F720 X116.748 Y92.99 E99.38849
G0 F7800 X117.173 Y92.99
G1 F720 X124.009 Y99.826 E99.68993
G0 F7800 X124.009 Y99.402
G1 F720 X117.597 Y92.99 E99.97268
G0 F7800 X118.021 Y92.99
G1 F720 X124.009 Y98.977 E100.23672
G0 F7800 X124.009 Y98.553
G1 F720 X118.446 Y92.99 E100.48203
G0 F7800 X118.87 Y92.99
G1 F720 X124.009 Y98.129 E100.70864
G0 F7800 X124.009 Y97.705
G1 F720 X119.294 Y92.99 E100.91656
G0 F7800 X119.718 Y92.99
G1 F720 X124.009 Y97.28 E101.10576
G0 F7800 X124.009 Y96.856
G1 F720 X120.143 Y92.99 E101.27624
G0 F7800 X120.567 Y92.99
G1 F720 X124.009 Y96.432 E101.42802
G0 F7800 X124.009 Y96.008
G1 F720 X120.991 Y92.99 E101.56111
G0 F7800 X121.415 Y92.99
G1 F720 X124.009 Y95.583 E101.67547
G0 F7800 X124.009 Y95.159
G1 F720 X121.84 Y92.99 E101.77112
G0 F7800 X122.264 Y92.99
G1 F720 X124.009 Y94.735 E101.84807
G0 F7800 X124.009 Y94.311
G1 F720 X122.688 Y92.99 E101.90632
G0 F7800 X123.112 Y92.99
G1 F720 X124.009 Y93.886 E101.94585
G0 F7800 X124.009 Y93.462
G1 F720 X123.537 Y92.99 E101.96667
G0 F7800 X123.961 Y92.99
G1 F720 X124.009 Y93.038 E101.96879
; Layer Change GCode
; LAYER:1
G4 P0
M106 S89
G0 F7800 X75.49 Y107.545 Z0.45
G0 X75.107 Y107.66
G0 X75.31 Y107.6
G0 X75.31 Y107.6
G0 X75.15 Y107.85
G0 X75.15 Y107.85
G0 X75.75 Y107.25
; TYPE:WALL-INNER
G1 F1800 X75.75 Y92.75 E102.33049
G1 X124.25 Y92.75 E103.54033
G1 X124.25 Y107.25 E103.90203
G1 X75.75 Y107.25 E105.11187
G0 F7800 X75.45 Y107.55
G1 F1800 X75.45 Y92.45 E105.48854
G1 X124.55 Y92.45 E106.71334
G1 X124.55 Y107.55 E107.09001
G1 X75.45 Y107.55 E108.31482
G0 F7800 X75.15 Y107.85
; TYPE:WALL-OUTER
G1 F1260 X75.15 Y92.15 E108.70646
G1 X124.85 Y92.15 E109.94623
G1 X124.85 Y107.85 E110.33787
G1 X75.15 Y107.85 E111.57764
G0 F7800 X75.989 Y106.867
; TYPE:FILL
G1 F3600 X89.868 Y92.989 E112.06724
G0 F7800 X90.292 Y92.989
G1 F3600 X76.272 Y107.009 E112.56183
G0 F7800 X76.697 Y107.009
G1 F3600 X90.716 Y92.989 E113.05641
G0 F7800 X91.141 Y92.989
G1 F3600 X77.121 Y107.009 E113.551
G0 F7800 X77.545 Y107.009
G1 F3600 X91.565 Y92.989 E114.0456
G0 F7800 X91.989 Y92.989
G1 F3600 X77.969 Y107.009 E114.54019
G0 F7800 X78.394 Y107.009
G1 F3600 X92.413 Y92.989 E115.03476
G0 F7800 X92.838 Y92.989
G1 F3600 X78.818 Y107.009 E115.52936
G0 F7800 X79.242 Y107.009
G1 F3600 X93.262 Y92.989 E116.02395
G0 F7800 X93.686 Y92.989
G1 F3600 X79.666 Y107.009 E116.51854
G0 F7800 X80.091 Y107.009
G1 F3600 X94.11 Y92.989 E117.01312
G0 F7800 X94.535 Y92.989
G1 F3600 X80.515 Y107.009 E117.50771
G0 F7800 X80.939 Y107.009
G1 F3600 X94.959 Y92.989 E118.00231
G0 F7800 X95.383 Y92.989
G1 F3600 X81.363 Y107.009 E118.4969
G0 F7800 X81.788 Y107.009
G1 F3600 X95.808 Y92.989 E118.99149
G0 F7800 X96.232 Y92.989
G1 F3600 X82.212 Y107.009 E119.48609
G0 F7800 X82.636 Y107.009
G1 F3600 X96.656 Y92.989 E119.98068
G0 F7800 X97.08 Y92.989
G1 F3600 X83.061 Y107.009 E120.47526
G0 F7800 X83.485 Y107.009
G1 F3600 X97.505 Y92.989 E120.96985
G0 F7800 X97.929 Y92.989
G1 F3600 X83.909 Y107.009 E121.46444
G0 F7800 X84.333 Y107.009
G1 F3600 X98.353 Y92.989 E121.95904
G0 F7800 X98.777 Y92.989
G1 F3600 X84.758 Y107.009 E122.45361
G0 F7800 X85.182 Y107.009
G1 F3600 X99.202 Y92.989 E122.94821
G0 F7800 X99.626 Y92.989
G1 F3600 X85.606 Y107.009 E123.4428
G0 F7800 X86.03 Y107.009
G1 F3600 X100.05 Y92.989 E123.93739
G0 F7800 X100.474 Y92.989
G1 F3600 X86.455 Y107.009 E124.43197
G0 F7800 X86.879 Y107.009
G1 F3600 X100.899 Y92.989 E124.92656
G0 F7800 X101.323 Y92.989
G1 F3600 X87.303 Y107.009 E125.42115
G0 F7800 X87.727 Y107.009
G1 F3600 X101.747 Y92.989 E125.91575
G0 F7800 X102.171 Y92.989
G1 F3600 X88.152 Y107.009 E126.41032
G0 F7800 X88.576 Y107.009
G1 F3600 X102.596 Y92.989 E126.90492
G0 F7800 X103.02 Y92.989
G1 F3600 X89 Y107.009 E127.39951
G0 F7800 X89.424 Y107.009
G1 F3600 X103.444 Y92.989 E127.8941
G0 F7800 X103.869 Y92.989
G1 F3600 X89.849 Y107.009 E128.3887
G0 F7800 X90.273 Y107.009
G1 F3600 X104.293 Y92.989 E128.88329
G0 F7800 X104.717 Y92.989
G1 F3600 X90.697 Y107.009 E129.37788
G0 F7800 X91.122 Y107.009
G1 F3600 X105.141 Y92.989 E129.87246
G0 F7800 X105.566 Y92.989
G1 F3600 X91.546 Y107.009 E130.36705
G0 F7800 X91.97 Y107.009
G1 F3600 X105.99 Y92.989 E130.86165
G0 F7800 X106.414 Y92.989
G1 F3600 X92.394 Y107.009 E131.35624
G0 F7800 X92.819 Y107.009
G1 F3600 X106.838 Y92.989 E131.85082
G0 F7800 X107.263 Y92.989
G1 F3600 X93.243 Y107.009 E132.34541
G0 F7800 X93.667 Y107.009
G1 F3600 X107.687 Y92.989 E132.84
G0 F7800 X108.111 Y92.989
G1 F3600 X94.091 Y107.009 E133.3346
G0 F7800 X94.516 Y107.009
G1 F3600 X108.535 Y92.989 E133.82917
G0 F7800 X108.96 Y92.989
G1 F3600 X94.94 Y107.009 E134.32376
G0 F7800 X95.364 Y107.009
G1 F3600 X109.384 Y92.989 E134.81836
G0 F7800 X109.808 Y92.989
G1 F3600 X95.788 Y107.009 E135.31295
G0 F7800 X96.213 Y107.009
G1 F3600 X110.232 Y92.989 E135.80753
G0 F7800 X110.657 Y92.989
G1 F3600 X96.637 Y107.009 E136.30212
G0 F7800 X97.061 Y107.009
G1 F3600 X111.081 Y92.989 E136.79671
G0 F7800 X111.505 Y92.989
G1 F3600 X97.485 Y107.009 E137.29131
G0 F7800 X97.91 Y107.009
G1 F3600 X111.93 Y92.989 E137.7859
G0 F7800 X112.353 Y92.99
G1 F3600 X98.334 Y107.009 E138.28046
G0 F7800 X98.758 Y107.009
G1 F3600 X112.777 Y92.99 E138.77502
G0 F7800 X113.202 Y92.99
G1 F3600 X99.183 Y107.009 E139.26957
G0 F7800 X99.607 Y107.009
G1 F3600 X113.626 Y92.99 E139.76413
G0 F7800 X114.05 Y92.99
G1 F3600 X100.03 Y107.01 E140.25873
G0 F7800 X100.455 Y107.01
G1 F3600 X114.474 Y92.99 E140.7533
G0 F7800 X114.899 Y92.99
G1 F3600 X100.879 Y107.01 E141.2479
G0 F7800 X101.303 Y107.01
G1 F3600 X115.323 Y92.99 E141.74249
G0 F7800 X115.747 Y92.99
G1 F3600 X101.727 Y107.01 E142.23708
G0 F7800 X102.152 Y107.01
G1 F3600 X116.171 Y92.99 E142.73166
G0 F7800 X116.596 Y92.99
G1 F3600 X102.576 Y107.01 E143.22625
G0 F7800 X103 Y107.01
G1 F3600 X117.02 Y92.99 E143.72084
G0 F7800 X117.444 Y92.99
G1 F3600 X103.424 Y107.01 E144.21544
G0 F7800 X103.849 Y107.01
G1 F3600 X117.869 Y92.99 E144.71003
G0 F7800 X118.293 Y92.99
G1 F3600 X104.273 Y107.01 E145.20462
G0 F7800 X104.697 Y107.01
G1 F3600 X118.717 Y92.99 E145.69922
G0 F7800 X119.141 Y92.99
G1 F3600 X105.122 Y107.01 E146.19379
G0 F7800 X105.546 Y107.01
G1 F3600 X119.566 Y92.99 E146.68839
G0 F7800 X119.99 Y92.99
G1 F3600 X105.97 Y107.01 E147.18298
G0 F7800 X106.394 Y107.01
G1 F3600 X120.414 Y92.99 E147.67757
G0 F7800 X120.838 Y92.99
G1 F3600 X106.819 Y107.01 E148.17215
G0 F7800 X107.243 Y107.01
G1 F3600 X121.263 Y92.99 E148.66674
G0 F7800 X121.687 Y92.99
G1 F3600 X107.667 Y107.01 E149.16134
G0 F7800 X108.091 Y107.01
G1 F3600 X122.111 Y92.99 E149.65593
G0 F7800 X122.535 Y92.99
G1 F3600 X108.516 Y107.01 E150.15051
G0 F7800 X108.94 Y107.01
G1 F3600 X122.96 Y92.99 E150.6451
G0 F7800 X123.384 Y92.99
G1 F3600 X109.364 Y107.01 E151.13969
G0 F7800 X109.788 Y107.01
G1 F3600 X123.808 Y92.99 E151.63429
G0 F7800 X124.009 Y93.213
G1 F3600 X110.213 Y107.01 E152.12099
G0 F7800 X110.637 Y107.01
G1 F3600 X124.009 Y93.637 E152.59275
G0 F7800 X124.009 Y94.062
G1 F3600 X111.061 Y107.01 E153.04952
G0 F7800 X111.485 Y107.01
G1 F3600 X124.009 Y94.486 E153.49134
G0 F7800 X124.009 Y94.91
G1 F3600 X111.91 Y107.01 E153.91818
G0 F7800 X112.334 Y107.01
G1 F3600 X124.009 Y95.334 E154.33007
G0 F7800 X124.009 Y95.759
G1 F3600 X112.758 Y107.01 E154.72698
G0 F7800 X113.183 Y107.01
G1 F3600 X124.009 Y96.183 E155.10891
G0 F7800 X124.009 Y96.607
G1 F3600 X113.607 Y107.01 E155.47589
G0 F7800 X114.031 Y107.01
G1 F3600 X124.009 Y97.032 E155.82789
G0 F7800 X124.009 Y97.456
G1 F3600 X114.455 Y107.01 E156.16493
G0 F7800 X114.88 Y107.01
G1 F3600 X124.009 Y97.88 E156.487
G0 F7800 X124.009 Y98.304
G1 F3600 X115.304 Y107.01 E156.79411
G0 F7800 X115.728 Y107.01
G1 F3600 X124.009 Y98.729 E157.08624
G0 F7800 X124.009 Y99.153
G1 F3600 X116.152 Y107.01 E157.36342
G0 F7800 X116.577 Y107.01
G1 F3600 X124.009 Y99.577 E157.62562
G0 F7800 X124.008 Y100.002
G1 F3600 X117.001 Y107.01 E157.87283
G0 F7800 X117.425 Y107.01
G1 F3600 X124.008 Y100.426 E158.10508
G0 F7800 X124.008 Y100.851
G1 F3600 X117.849 Y107.01 E158.32236
G0 F7800 X118.274 Y107.01
G1 F3600 X124.008 Y101.275 E158.52466
G0 F7800 X124.008 Y101.699
G1 F3600 X118.698 Y107.01 E158.712
G0 F7800 X119.122 Y107.01
G1 F3600 X124.008 Y102.123 E158.88438
G0 F7800 X124.008 Y102.548
G1 F3600 X119.547 Y107.01 E159.04177
G0 F7800 X119.971 Y107.01
G1 F3600 X124.008 Y102.972 E159.18421
G0 F7800 X124.008 Y103.396
G1 F3600 X120.395 Y107.01 E159.31168
G0 F7800 X120.819 Y107.01
G1 F3600 X124.008 Y103.82 E159.4242
G0 F7800 X124.008 Y104.245
G1 F3600 X121.244 Y107.01 E159.52173
G0 F7800 X121.668 Y107.01
G1 F3600 X124.008 Y104.669 E159.60429
G0 F7800 X124.008 Y105.093
G1 F3600 X122.092 Y107.01 E159.6719
G0 F7800 X122.516 Y107.01
G1 F3600 X124.008 Y105.518 E159.72454
G0 F7800 X124.008 Y105.942
G1 F3600 X122.941 Y107.01 E159.7622
G0 F7800 X123.365 Y107.01
G1 F3600 X124.008 Y106.366 E159.7849
G0 F7800 X124.008 Y106.79
G1 F3600 X123.789 Y107.01 E159.79264
G0 F7800 X89.444 Y92.989
G0 X89.444 Y92.989
G1 F3600 X75.989 Y106.443 E160.26729
G0 F7800 X75.989 Y106.019
G1 F3600 X89.019 Y92.989 E160.72695
G0 F7800 X88.595 Y92.989
G1 F3600 X75.989 Y105.595 E161.17166
G0 F7800 X75.989 Y105.17
G1 F3600 X88.171 Y92.989 E161.6014
G0 F7800 X87.747 Y92.988
G1 F3600 X75.989 Y104.746 E162.0162
G0 F7800 X75.989 Y104.322
G1 F3600 X87.323 Y92.988 E162.41603
G0 F7800 X86.899 Y92.988
G1 F3600 X75.989 Y103.898 E162.80091
G0 F7800 X75.989 Y103.473
G1 F3600 X86.474 Y92.988 E163.1708
G0 F7800 X86.05 Y92.988
G1 F3600 X75.989 Y103.049 E163.52573
G0 F7800 X75.989 Y102.625
G1 F3600 X85.626 Y92.988 E163.8657
G0 F7800 X85.202 Y92.988
G1 F3600 X75.989 Y102.2 E164.19069
G0 F7800 X75.989 Y101.776
G1 F3600 X84.777 Y92.988 E164.50072
G0 F7800 X84.353 Y92.988
G1 F3600 X75.989 Y101.352 E164.79578
G0 F7800 X75.989 Y100.928
G1 F3600 X83.929 Y92.988 E165.07588
G0 F7800 X83.505 Y92.988
G1 F3600 X75.989 Y100.503 E165.34101
G0 F7800 X75.989 Y100.079
G1 F3600 X83.08 Y92.988 E165.59117
G0 F7800 X82.656 Y92.988
G1 F3600 X75.989 Y99.655 E165.82636
G0 F7800 X75.989 Y99.231
G1 F3600 X82.232 Y92.988 E166.0466
G0 F7800 X81.808 Y92.988
G1 F3600 X75.989 Y98.806 E166.25187
G0 F7800 X75.989 Y98.382
G1 F3600 X81.383 Y92.988 E166.44215
G0 F7800 X80.959 Y92.988
G1 F3600 X75.989 Y97.958 E166.61748
G0 F7800 X75.989 Y97.534
G1 F3600 X80.535 Y92.988 E166.77786
G0 F7800 X80.11 Y92.988
G1 F3600 X75.989 Y97.109 E166.92323
G0 F7800 X75.989 Y96.685
G1 F3600 X79.686 Y92.988 E167.05366
G0 F7800 X79.262 Y92.988
G1 F3600 X75.989 Y96.261 E167.16912
G0 F7800 X75.989 Y95.837
G1 F3600 X78.838 Y92.988 E167.26963
G0 F7800 X78.413 Y92.988
G1 F3600 X75.989 Y95.412 E167.35514
G0 F7800 X75.989 Y94.988
G1 F3600 X77.989 Y92.988 E167.4257
G0 F7800 X77.565 Y92.988
G1 F3600 X75.989 Y94.564 E167.48129
G0 F7800 X75.989 Y94.139
G1 F3600 X77.141 Y92.988 E167.52192
G0 F7800 X76.716 Y92.988
G1 F3600 X75.989 Y93.715 E167.54756
G0 F7800 X75.989 Y93.291
G1 F3600 X76.292 Y92.988 E167.55825
; Layer Change GCode
; LAYER:2
G0 F7800 X75.316 Y107.499 Z0.65
G0 X75.289 Y107.898
G0 X75.31 Y107.6
G0 X75.31 Y107.6
G0 X75.15 Y107.85
G0 X75.15 Y107.85
G0 X75.75 Y107.25
; TYPE:WALL-INNER
G1 F1800 X75.75 Y92.75 E167.91996
G1 X124.25 Y92.75 E169.12979
G1 X124.25 Y107.25 E169.4915
G1 X75.75 Y107.25 E170.70133
G0 F7800 X75.45 Y107.55
G1 F1800 X75.45 Y92.45 E171.07801
G1 X124.55 Y92.45 E172.30281
G1 X124.55 Y107.55 E172.67948
G1 X75.45 Y107.55 E173.90429
G0 F7800 X75.15 Y107.85
; TYPE:WALL-OUTER
G1 F1260 X75.15 Y92.15 E174.29592
G1 X124.85 Y92.15 E175.53569
G1 X124.85 Y107.85 E175.92733
G1 X75.15 Y107.85 E177.1671
G0 F7800 X75.989 Y106.961
; TYPE:FILL
G1 F3600 X76.038 Y107.009 E177.16882
G0 F7800 X76.462 Y107.009
G1 F3600 X75.989 Y106.536 E177.1855
G0 F7800 X75.989 Y106.112
G1 F3600 X76.886 Y107.009 E177.21715
G0 F7800 X77.31 Y107.009
G1 F3600 X75.989 Y105.688 E177.26375
G0 F7800 X75.989 Y105.264
G1 F3600 X77.735 Y107.009 E177.32532
G0 F7800 X78.159 Y107.009
G1 F3600 X75.989 Y104.839 E177.40188
G0 F7800 X75.989 Y104.415
G1 F3600 X78.583 Y107.009 E177.49339
G0 F7800 X79.007 Y107.009
G1 F3600 X75.989 Y103.991 E177.59986
G0 F7800 X75.989 Y103.567
G1 F3600 X79.432 Y107.009 E177.7213
G0 F7800 X79.856 Y107.009
G1 F3600 X75.989 Y103.142 E177.85772
G0 F7800 X75.989 Y102.718
G1 F3600 X80.28 Y107.009 E178.00909
G0 F7800 X80.704 Y107.009
G1 F3600 X75.989 Y102.294 E178.17543
G0 F7800 X75.989 Y101.87
G1 F3600 X81.129 Y107.009 E178.35674
G0 F7800 X81.553 Y107.009
G1 F3600 X75.989 Y101.445 E178.55302
G0 F7800 X75.989 Y101.021
G1 F3600 X81.977 Y107.009 E178.76427
G0 F7800 X82.401 Y107.009
G1 F3600 X75.989 Y100.597 E178.99047
G0 F7800 X75.989 Y100.172
G1 F3600 X82.826 Y107.009 E179.23166
G0 F7800 X83.25 Y107.009
G1 F3600 X75.989 Y99.748 E179.48781
G0 F7800 X75.989 Y99.324
G1 F3600 X83.674 Y107.009 E179.75892
G0 F7800 X84.099 Y107.009
G1 F3600 X75.989 Y98.9 E180.04501
G0 F7800 X75.989 Y98.475
G1 F3600 X84.523 Y107.009 E180.34607
G0 F7800 X84.947 Y107.009
G1 F3600 X75.989 Y98.051 E180.66208
G0 F7800 X75.989 Y97.627
G1 F3600 X85.371 Y107.009 E180.99306
G0 F7800 X85.796 Y107.009
G1 F3600 X75.989 Y97.203 E181.33901
G0 F7800 X75.989 Y96.778
G1 F3600 X86.22 Y107.009 E181.69994
G0 F7800 X86.644 Y107.009
G1 F3600 X75.989 Y96.354 E182.07582
G0 F7800 X75.989 Y95.93
G1 F3600 X87.068 Y107.009 E182.46666
G0 F7800 X87.493 Y107.009
G1 F3600 X75.989 Y95.506 E182.87248
G0 F7800 X75.989 Y95.081
G1 F3600 X87.917 Y107.009 E183.29327
G0 F7800 X88.341 Y107.009
G1 F3600 X75.989 Y94.657 E183.72902
G0 F7800 X75.989 Y94.233
G1 F3600 X88.765 Y107.009 E184.17973
G0 F7800 X89.19 Y107.009
G1 F3600 X75.989 Y93.809 E184.64541
G0 F7800 X75.989 Y93.384
G1 F3600 X89.614 Y107.009 E185.12607
G0 F7800 X90.038 Y107.009
G1 F3600 X76.018 Y92.988 E185.62068
G0 F7800 X76.442 Y92.988
G1 F3600 X90.462 Y107.009 E186.11529
G0 F7800 X90.887 Y107.009
G1 F3600 X76.866 Y92.988 E186.60992
G0 F7800 X77.291 Y92.988
G1 F3600 X91.311 Y107.009 E187.10453
G0 F7800 X91.735 Y107.009
G1 F3600 X77.715 Y92.988 E187.59914
G0 F7800 X78.139 Y92.988
G1 F3600 X92.16 Y107.009 E188.09377
G0 F7800 X92.584 Y107.009
G1 F3600 X78.563 Y92.988 E188.5884
G0 F7800 X78.988 Y92.988
G1 F3600 X93.008 Y107.009 E189.08301
G0 F7800 X93.432 Y107.009
G1 F3600 X79.412 Y92.988 E189.57762
G0 F7800 X79.836 Y92.988
G1 F3600 X93.857 Y107.009 E190.07225
G0 F7800 X94.281 Y107.009
G1 F3600 X80.26 Y92.988 E190.56688
G0 F7800 X80.685 Y92.988
G1 F3600 X94.705 Y107.009 E191.06149
G0 F7800 X95.129 Y107.009
G1 F3600 X81.109 Y92.988 E191.5561
G0 F7800 X81.533 Y92.988
G1 F3600 X95.554 Y107.009 E192.05073
G0 F7800 X95.978 Y107.009
G1 F3600 X81.957 Y92.988 E192.54536
G0 F7800 X82.382 Y92.988
G1 F3600 X96.402 Y107.009 E193.03997
G0 F7800 X96.826 Y107.009
G1 F3600 X82.806 Y92.988 E193.53458
G0 F7800 X83.23 Y92.988
G1 F3600 X97.251 Y107.009 E194.02921
G0 F7800 X97.675 Y107.009
G1 F3600 X83.654 Y92.988 E194.52384
G0 F7800 X84.079 Y92.988
G1 F3600 X98.099 Y107.009 E195.01845
G0 F7800 X98.524 Y107.009
G1 F3600 X84.503 Y92.988 E195.51308
G0 F7800 X84.927 Y92.988
G1 F3600 X98.948 Y107.009 E196.00771
G0 F7800 X99.372 Y107.009
G1 F3600 X85.352 Y92.988 E196.50232
G0 F7800 X85.776 Y92.988
G1 F3600 X99.796 Y107.009 E196.99693
G0 F7800 X100.221 Y107.01
G1 F3600 X86.2 Y92.988 E197.49158
G0 F7800 X86.624 Y92.988
G1 F3600 X100.646 Y107.01 E197.98624
G0 F7800 X101.07 Y107.01
G1 F3600 X87.049 Y92.988 E198.48089
G0 F7800 X87.473 Y92.988
G1 F3600 X101.494 Y107.01 E198.97553
G0 F7800 X101.918 Y107.01
G1 F3600 X87.897 Y92.988 E199.47018
G0 F7800 X88.322 Y92.989
G1 F3600 X102.343 Y107.01 E199.96481
G0 F7800 X102.767 Y107.01
G1 F3600 X88.746 Y92.989 E200.45944
G0 F7800 X89.171 Y92.989
G1 F3600 X103.191 Y107.01 E200.95405
G0 F7800 X103.615 Y107.01
G1 F3600 X89.595 Y92.989 E201.44866
G0 F7800 X90.019 Y92.989
G1 F3600 X104.04 Y107.01 E201.94329
G0 F7800 X104.464 Y107.01
G1 F3600 X90.443 Y92.989 E202.43791
G0 F7800 X90.868 Y92.989
G1 F3600 X104.888 Y107.01 E202.93253
G0 F7800 X105.312 Y107.01
G1 F3600 X91.292 Y92.989 E203.42714
G0 F7800 X91.716 Y92.989
G1 F3600 X105.737 Y107.01 E203.92177
G0 F7800 X106.161 Y107.01
G1 F3600 X92.14 Y92.989 E204.41639
G0 F7800 X92.565 Y92.989
G1 F3600 X106.585 Y107.01 E204.91101
G0 F7800 X107.01 Y107.01
G1 F3600 X92.989 Y92.989 E205.40563
G0 F7800 X93.413 Y92.989
G1 F3600 X107.434 Y107.01 E205.90026
G0 F7800 X107.858 Y107.01
G1 F3600 X93.838 Y92.989 E206.39487
G0 F7800 X94.262 Y92.989
G1 F3600 X108.282 Y107.01 E206.88948
G0 F7800 X108.707 Y107.01
G1 F3600 X94.686 Y92.989 E207.38411
G0 F7800 X95.11 Y92.989
G1 F3600 X109.131 Y107.01 E207.87874
G0 F7800 X109.555 Y107.01
G1 F3600 X95.535 Y92.989 E208.37335
G0 F7800 X95.959 Y92.989
G1 F3600 X109.979 Y107.01 E208.86796
G0 F7800 X110.404 Y107.01
G1 F3600 X96.383 Y92.989 E209.36259
G0 F7800 X96.807 Y92.989
G1 F3600 X110.828 Y107.01 E209.85722
G0 F7800 X111.252 Y107.01
G1 F3600 X97.232 Y92.989 E210.35183
G0 F7800 X97.656 Y92.989
G1 F3600 X111.676 Y107.01 E210.84644
G0 F7800 X112.101 Y107.01
G1 F3600 X98.08 Y92.989 E211.34107
G0 F7800 X98.504 Y92.989
G1 F3600 X112.525 Y107.01 E211.8357
G0 F7800 X112.949 Y107.01
G1 F3600 X98.929 Y92.989 E212.33031
G0 F7800 X99.353 Y92.989
G1 F3600 X113.373 Y107.01 E212.82492
G0 F7800 X113.798 Y107.01
G1 F3600 X99.777 Y92.989 E213.31955
G0 F7800 X100.201 Y92.989
G1 F3600 X114.222 Y107.01 E213.81418
G0 F7800 X114.646 Y107.01
G1 F3600 X100.626 Y92.989 E214.30879
G0 F7800 X101.05 Y92.989
G1 F3600 X115.071 Y107.01 E214.80342
G0 F7800 X115.495 Y107.01
G1 F3600 X101.474 Y92.989 E215.29805
G0 F7800 X101.899 Y92.989
G1 F3600 X115.919 Y107.01 E215.79266
G0 F7800 X116.343 Y107.01
G1 F3600 X102.323 Y92.989 E216.28727
G0 F7800 X102.747 Y92.989
G1 F3600 X116.768 Y107.01 E216.7819
G0 F7800 X117.192 Y107.01
G1 F3600 X103.171 Y92.989 E217.27653
G0 F7800 X103.596 Y92.989
G1 F3600 X117.616 Y107.01 E217.77114
G0 F7800 X118.04 Y107.01
G1 F3600 X104.02 Y92.989 E218.26575
G0 F7800 X104.444 Y92.989
G1 F3600 X118.465 Y107.01 E218.76038
G0 F7800 X118.889 Y107.01
G1 F3600 X104.868 Y92.989 E219.25501
G0 F7800 X105.293 Y92.989
G1 F3600 X119.313 Y107.01 E219.74962
G0 F7800 X119.737 Y107.01
G1 F3600 X105.717 Y92.989 E220.24423
G0 F7800 X106.141 Y92.989
G1 F3600 X120.162 Y107.01 E220.73886
G0 F7800 X120.586 Y107.01
G1 F3600 X106.565 Y92.989 E221.23349
G0 F7800 X106.99 Y92.989
G1 F3600 X121.01 Y107.01 E221.7281
G0 F7800 X121.434 Y107.01
G1 F3600 X107.414 Y92.989 E222.22271
G0 F7800 X107.838 Y92.989
G1 F3600 X121.859 Y107.01 E222.71734
G0 F7800 X122.283 Y107.01
G1 F3600 X108.262 Y92.989 E223.21196
G0 F7800 X108.687 Y92.989
G1 F3600 X122.707 Y107.01 E223.70658
G0 F7800 X123.132 Y107.01
G1 F3600 X109.111 Y92.989 E224.2012
G0 F7800 X109.535 Y92.989
G1 F3600 X123.556 Y107.01 E224.69583
G0 F7800 X123.98 Y107.01
G1 F3600 X109.96 Y92.989 E225.19044
G0 F7800 X110.384 Y92.989
G1 F3600 X124.008 Y106.614 E225.67109
G0 F7800 X124.008 Y106.189
G1 F3600 X110.808 Y92.989 E226.13675
G0 F7800 X111.232 Y92.989
G1 F3600 X124.008 Y105.765 E226.58746
G0 F7800 X124.008 Y105.341
G1 F3600 X111.657 Y92.989 E227.02319
G0 F7800 X112.082 Y92.99
G1 F3600 X124.008 Y104.916 E227.44391
G0 F7800 X124.008 Y104.492
G1 F3600 X112.506 Y92.99 E227.84968
G0 F7800 X112.93 Y92.99
G1 F3600 X124.008 Y104.068 E228.24048
G0 F7800 X124.008 Y103.644
G1 F3600 X113.354 Y92.99 E228.61633
G0 F7800 X113.779 Y92.99
G1 F3600 X124.008 Y103.219 E228.97719
G0 F7800 X124.008 Y102.795
G1 F3600 X114.203 Y92.99 E229.32309
G0 F7800 X114.627 Y92.99
G1 F3600 X124.008 Y102.371 E229.65403
G0 F7800 X124.008 Y101.947
G1 F3600 X115.051 Y92.99 E229.97001
G0 F7800 X115.476 Y92.99
G1 F3600 X124.008 Y101.522 E230.271
G0 F7800 X124.008 Y101.098
G1 F3600 X115.9 Y92.99 E230.55703
G0 F7800 X116.324 Y92.99
G1 F3600 X124.008 Y100.674 E230.8281
G0 F7800 X124.008 Y100.25
G1 F3600 X116.748 Y92.99 E231.08422
G0 F7800 X117.173 Y92.99
G1 F3600 X124.009 Y99.826 E231.32538
G0 F7800 X124.009 Y99.402
G1 F3600 X117.597 Y92.99 E231.55158
G0 F7800 X118.021 Y92.99
G1 F3600 X124.009 Y98.977 E231.7628
G0 F7800 X124.009 Y98.553
G1 F3600 X118.446 Y92.99 E231.95905
G0 F7800 X118.87 Y92.99
G1 F3600 X124.009 Y98.129 E232.14035
G0 F7800 X124.009 Y97.705
G1 F3600 X119.294 Y92.99 E232.30668
G0 F7800 X119.718 Y92.99
G1 F3600 X124.009 Y97.28 E232.45804
G0 F7800 X124.009 Y96.856
G1 F3600 X120.143 Y92.99 E232.59442
G0 F7800 X120.567 Y92.99
G1 F3600 X124.009 Y96.432 E232.71585
G0 F7800 X124.009 Y96.008
G1 F3600 X120.991 Y92.99 E232.82232
G0 F7800 X121.415 Y92.99
G1 F3600 X124.009 Y95.583 E232.91381
G0 F7800 X124.009 Y95.159
G1 F3600 X121.84 Y92.99 E232.99033
G0 F7800 X122.264 Y92.99
G1 F3600 X124.009 Y94.735 E233.05189
G0 F7800 X124.009 Y94.311
G1 F3600 X122.688 Y92.99 E233.09849
G0 F7800 X123.112 Y92.99
G1 F3600 X124.009 Y93.886 E233.13011
G0 F7800 X124.009 Y93.462
G1 F3600 X123.537 Y92.99 E233.14677
G0 F7800 X123.961 Y92.99
G1 F3600 X124.009 Y93.038 E233.14846
; Layer Change GCode
; LAYER:3
G0 F7800 X75.49 Y107.545 Z0.85
G0 X75.107 Y107.66
G0 X75.31 Y107.6
G0 X75.31 Y107.6
G0 X75.15 Y107.85
G0 X75.15 Y107.85
G0 X75.75 Y107.25
; TYPE:WALL-INNER
G1 F1800 X75.75 Y92.75 E233.51016
G1 X124.25 Y92.75 E234.72
G1 X124.25 Y107.25 E235.0817
G1 X75.75 Y107.25 E236.29154
G0 F7800 X75.45 Y107.55
G1 F1800 X75.45 Y92.45 E236.66821
G1 X124.55 Y92.45 E237.89302
G1 X124.55 Y107.55 E238.26969
G1 X75.45 Y107.55 E239.49449
G0 F7800 X75.15 Y107.85
; TYPE:WALL-OUTER
G1 F1260 X75.15 Y92.15 E239.88613
G1 X124.85 Y92.15 E241.1259
G1 X124.85 Y107.85 E241.51754
G1 X75.15 Y107.85 E242.75731
G0 F7800 X75.989 Y106.867
; TYPE:FILL
G1 F3600 X89.868 Y92.989 E243.24691
G0 F7800 X90.292 Y92.989
G1 F3600 X76.272 Y107.009 E243.74151
G0 F7800 X76.697 Y107.009
G1 F3600 X90.716 Y92.989 E244.23608
G0 F7800 X91.141 Y92.989
G1 F3600 X77.121 Y107.009 E244.73068
G0 F7800 X77.545 Y107.009
G1 F3600 X91.565 Y92.989 E245.22527
G0 F7800 X91.989 Y92.989
G1 F3600 X77.969 Y107.009 E245.71986
G0 F7800 X78.394 Y107.009
G1 F3600 X92.413 Y92.989 E246.21444
G0 F7800 X92.838 Y92.989
G1 F3600 X78.818 Y107.009 E246.70903
G0 F7800 X79.242 Y107.009
G1 F3600 X93.262 Y92.989 E247.20362
G0 F7800 X93.686 Y92.989
G1 F3600 X79.666 Y107.009 E247.69822
G0 F7800 X80.091 Y107.009
G1 F3600 X94.11 Y92.989 E248.19279
G0 F7800 X94.535 Y92.989
G1 F3600 X80.515 Y107.009 E248.68739
G0 F7800 X80.939 Y107.009
G1 F3600 X94.959 Y92.989 E249.18198
G0 F7800 X95.383 Y92.989
G1 F3600 X81.363 Y107.009 E249.67657
G0 F7800 X81.788 Y107.009
G1 F3600 X95.808 Y92.989 E250.17117
G0 F7800 X96.232 Y92.989
G1 F3600 X82.212 Y107.009 E250.66576
G0 F7800 X82.636 Y107.009
G1 F3600 X96.656 Y92.989 E251.16035
G0 F7800 X97.08 Y92.989
G1 F3600 X83.061 Y107.009 E251.65493
G0 F7800 X83.485 Y107.009
G1 F3600 X97.505 Y92.989 E252.14952
G0 F7800 X97.929 Y92.989
G1 F3600 X83.909 Y107.009 E252.64412
G0 F7800 X84.333 Y107.009
G1 F3600 X98.353 Y92.989 E253.13871
G0 F7800 X98.777 Y92.989
G1 F3600 X84.758 Y107.009 E253.63329
G0 F7800 X85.182 Y107.009
G1 F3600 X99.202 Y92.989 E254.12788
G0 F7800 X99.626 Y92.989
G1 F3600 X85.606 Y107.009 E254.62247
G0 F7800 X86.03 Y107.009
G1 F3600 X100.05 Y92.989 E255.11707
G0 F7800 X100.474 Y92.989
G1 F3600 X86.455 Y107.009 E255.61164
G0 F7800 X86.879 Y107.009
G1 F3600 X100.899 Y92.989 E256.10623
G0 F7800 X101.323 Y92.989
G1 F3600 X87.303 Y107.009 E256.60083
G0 F7800 X87.727 Y107.009
G1 F3600 X101.747 Y92.989 E257.09542
G0 F7800 X102.171 Y92.989
G1 F3600 X88.152 Y107.009 E257.59
G0 F7800 X88.576 Y107.009
G1 F3600 X102.596 Y92.989 E258.08459
G0 F7800 X103.02 Y92.989
G1 F3600 X89 Y107.009 E258.57918
G0 F7800 X89.424 Y107.009
G1 F3600 X103.444 Y92.989 E259.07378
G0 F7800 X103.869 Y92.989
G1 F3600 X89.849 Y107.009 E259.56837
G0 F7800 X90.273 Y107.009
G1 F3600 X104.293 Y92.989 E260.06296
G0 F7800 X104.717 Y92.989
G1 F3600 X90.697 Y107.009 E260.55756
G0 F7800 X91.122 Y107.009
G1 F3600 X105.141 Y92.989 E261.05213
G0 F7800 X105.566 Y92.989
G1 F3600 X91.546 Y107.009 E261.54673
G0 F7800 X91.97 Y107.009
G1 F3600 X105.99 Y92.989 E262.04132
G0 F7800 X106.414 Y92.989
G1 F3600 X92.394 Y107.009 E262.53591
G0 F7800 X92.819 Y107.009
G1 F3600 X106.838 Y92.989 E263.03049
G0 F7800 X107.263 Y92.989
G1 F3600 X93.243 Y107.009 E263.52508
G0 F7800 X93.667 Y107.009
G1 F3600 X107.687 Y92.989 E264.01968
G0 F7800 X108.111 Y92.989
G1 F3600 X94.091 Y107.009 E264.51427
G0 F7800 X94.516 Y107.009
G1 F3600 X108.535 Y92.989 E265.00884
G0 F7800 X108.96 Y92.989
G1 F3600 X94.94 Y107.009 E265.50344
G0 F7800 X95.364 Y107.009
G1 F3600 X109.384 Y92.989 E265.99803
G0 F7800 X109.808 Y92.989
G1 F3600 X95.788 Y107.009 E266.49262
G0 F7800 X96.213 Y107.009
G1 F3600 X110.232 Y92.989 E266.9872
G0 F7800 X110.657 Y92.989
G1 F3600 X96.637 Y107.009 E267.48179
G0 F7800 X97.061 Y107.009
G1 F3600 X111.081 Y92.989 E267.97639
G0 F7800 X111.505 Y92.989
G1 F3600 X97.485 Y107.009 E268.47098
G0 F7800 X97.91 Y107.009
G1 F3600 X111.93 Y92.989 E268.96557
G0 F7800 X112.353 Y92.99
G1 F3600 X98.334 Y107.009 E269.46013
G0 F7800 X98.758 Y107.009
G1 F3600 X112.777 Y92.99 E269.95469
G0 F7800 X113.202 Y92.99
G1 F3600 X99.183 Y107.009 E270.44925
G0 F7800 X99.607 Y107.009
G1 F3600 X113.626 Y92.99 E270.94381
G0 F7800 X114.05 Y92.99
G1 F3600 X100.03 Y107.01 E271.4384
G0 F7800 X100.455 Y107.01
G1 F3600 X114.474 Y92.99 E271.93298
G0 F7800 X114.899 Y92.99
G1 F3600 X100.879 Y107.01 E272.42757
G0 F7800 X101.303 Y107.01
G1 F3600 X115.323 Y92.99 E272.92216
G0 F7800 X115.747 Y92.99
G1 F3600 X101.727 Y107.01 E273.41676
G0 F7800 X102.152 Y107.01
G1 F3600 X116.171 Y92.99 E273.91133
G0 F7800 X116.596 Y92.99
G1 F3600 X102.576 Y107.01 E274.40592
G0 F7800 X103 Y107.01
G1 F3600 X117.02 Y92.99 E274.90052
G0 F7800 X117.444 Y92.99
G1 F3600 X103.424 Y107.01 E275.39511
G0 F7800 X103.849 Y107.01
G1 F3600 X117.869 Y92.99 E275.8897
G0 F7800 X118.293 Y92.99
G1 F3600 X104.273 Y107.01 E276.3843
G0 F7800 X104.697 Y107.01
G1 F3600 X118.717 Y92.99 E276.87889
G0 F7800 X119.141 Y92.99
G1 F3600 X105.122 Y107.01 E277.37347
G0 F7800 X105.546 Y107.01
G1 F3600 X119.566 Y92.99 E277.86806
G0 F7800 X119.99 Y92.99
G1 F3600 X105.97 Y107.01 E278.36265
G0 F7800 X106.394 Y107.01
G1 F3600 X120.414 Y92.99 E278.85725
G0 F7800 X120.838 Y92.99
G1 F3600 X106.819 Y107.01 E279.35182
G0 F7800 X107.243 Y107.01
G1 F3600 X121.263 Y92.99 E279.84642
G0 F7800 X121.687 Y92.99
G1 F3600 X107.667 Y107.01 E280.34101
G0 F7800 X108.091 Y107.01
G1 F3600 X122.111 Y92.99 E280.8356
G0 F7800 X122.535 Y92.99
G1 F3600 X108.516 Y107.01 E281.33018
G0 F7800 X108.94 Y107.01
G1 F3600 X122.96 Y92.99 E281.82477
G0 F7800 X123.384 Y92.99
G1 F3600 X109.364 Y107.01 E282.31937
G0 F7800 X109.788 Y107.01
G1 F3600 X123.808 Y92.99 E282.81396
G0 F7800 X124.009 Y93.213
G1 F3600 X110.213 Y107.01 E283.30067
G0 F7800 X110.637 Y107.01
G1 F3600 X124.009 Y93.637 E283.77242
G0 F7800 X124.009 Y94.062
G1 F3600 X111.061 Y107.01 E284.22919
G0 F7800 X111.485 Y107.01
G1 F3600 X124.009 Y94.486 E284.67101
G0 F7800 X124.009 Y94.91
G1 F3600 X111.91 Y107.01 E285.09785
G0 F7800 X112.334 Y107.01
G1 F3600 X124.009 Y95.334 E285.50974
G0 F7800 X124.009 Y95.759
G1 F3600 X112.758 Y107.01 E285.90665
G0 F7800 X113.183 Y107.01
G1 F3600 X124.009 Y96.183 E286.28858
G0 F7800 X124.009 Y96.607
G1 F3600 X113.607 Y107.01 E286.65556
G0 F7800 X114.031 Y107.01
G1 F3600 X124.009 Y97.032 E287.00756
G0 F7800 X124.009 Y97.456
G1 F3600 X114.455 Y107.01 E287.3446
G0 F7800 X114.88 Y107.01
G1 F3600 X124.009 Y97.88 E287.66667
G0 F7800 X124.009 Y98.304
G1 F3600 X115.304 Y107.01 E287.97378
G0 F7800 X115.728 Y107.01
G1 F3600 X124.009 Y98.729 E288.26592
G0 F7800 X124.009 Y99.153
G1 F3600 X116.152 Y107.01 E288.54309
G0 F7800 X116.577 Y107.01
G1 F3600 X124.009 Y99.577 E288.80529
G0 F7800 X124.008 Y100.002
G1 F3600 X117.001 Y107.01 E289.0525
G0 F7800 X117.425 Y107.01
G1 F3600 X124.008 Y100.426 E289.28475
G0 F7800 X124.008 Y100.851
G1 F3600 X117.849 Y107.01 E289.50203
G0 F7800 X118.274 Y107.01
G1 F3600 X124.008 Y101.275 E289.70433
G0 F7800 X124.008 Y101.699
G1 F3600 X118.698 Y107.01 E289.89167
G0 F7800 X119.122 Y107.01
G1 F3600 X124.008 Y102.123 E290.06406
G0 F7800 X124.008 Y102.548
G1 F3600 X119.547 Y107.01 E290.22145
G0 F7800 X119.971 Y107.01
G1 F3600 X124.008 Y102.972 E290.36388
G0 F7800 X124.008 Y103.396
G1 F3600 X120.395 Y107.01 E290.49136
G0 F7800 X120.819 Y107.01
G1 F3600 X124.008 Y103.82 E290.60387
G0 F7800 X124.008 Y104.245
G1 F3600 X121.244 Y107.01 E290.7014
G0 F7800 X121.668 Y107.01
G1 F3600 X124.008 Y104.669 E290.78397
G0 F7800 X124.008 Y105.093
G1 F3600 X122.092 Y107.01 E290.85158
G0 F7800 X122.516 Y107.01
G1 F3600 X124.008 Y105.518 E290.90421
G0 F7800 X124.008 Y105.942
G1 F3600 X122.941 Y107.01 E290.94187
G0 F7800 X123.365 Y107.01
G1 F3600 X124.008 Y106.366 E290.96457
G0 F7800 X124.008 Y106.79
G1 F3600 X123.789 Y107.01 E290.97231
G0 F7800 X89.444 Y92.989
G0 X89.444 Y92.989
G1 F3600 X75.989 Y106.443 E291.44696
G0 F7800 X75.989 Y106.019
G1 F3600 X89.019 Y92.989 E291.90663
G0 F7800 X88.595 Y92.989
G1 F3600 X75.989 Y105.595 E292.35134
G0 F7800 X75.989 Y105.17
G1 F3600 X88.171 Y92.989 E292.78107
G0 F7800 X87.747 Y92.988
G1 F3600 X75.989 Y104.746 E293.19587
G0 F7800 X75.989 Y104.322
G1 F3600 X87.323 Y92.988 E293.59571
G0 F7800 X86.899 Y92.988
G1 F3600 X75.989 Y103.898 E293.98059
G0 F7800 X75.989 Y103.473
G1 F3600 X86.474 Y92.988 E294.35047
G0 F7800 X86.05 Y92.988
G1 F3600 X75.989 Y103.049 E294.7054
G0 F7800 X75.989 Y102.625
G1 F3600 X85.626 Y92.988 E295.04537
G0 F7800 X85.202 Y92.988
G1 F3600 X75.989 Y102.2 E295.37037
G0 F7800 X75.989 Y101.776
G1 F3600 X84.777 Y92.988 E295.68039
G0 F7800 X84.353 Y92.988
G1 F3600 X75.989 Y101.352 E295.97545
G0 F7800 X75.989 Y100.928
G1 F3600 X83.929 Y92.988 E296.25556
G0 F7800 X83.505 Y92.988
G1 F3600 X75.989 Y100.503 E296.52069
G0 F7800 X75.989 Y100.079
G1 F3600 X83.08 Y92.988 E296.77084
G0 F7800 X82.656 Y92.988
G1 F3600 X75.989 Y99.655 E297.00604
G0 F7800 X75.989 Y99.231
G1 F3600 X82.232 Y92.988 E297.22628
G0 F7800 X81.808 Y92.988
G1 F3600 X75.989 Y98.806 E297.43154
G0 F7800 X75.989 Y98.382
G1 F3600 X81.383 Y92.988 E297.62183
G0 F7800 X80.959 Y92.988
G1 F3600 X75.989 Y97.958 E297.79716
G0 F7800 X75.989 Y97.534
G1 F3600 X80.535 Y92.988 E297.95753
G0 F7800 X80.11 Y92.988
G1 F3600 X75.989 Y97.109 E298.10291
G0 F7800 X75.989 Y96.685
G1 F3600 X79.686 Y92.988 E298.23333
G0 F7800 X79.262 Y92.988
G1 F3600 X75.989 Y96.261 E298.34879
G0 F7800 X75.989 Y95.837
G1 F3600 X78.838 Y92.988 E298.4493
G0 F7800 X78.413 Y92.988
G1 F3600 X75.989 Y95.412 E298.53481
G0 F7800 X75.989 Y94.988
G1 F3600 X77.989 Y92.988 E298.60537
G0 F7800 X77.565 Y92.988
G1 F3600 X75.989 Y94.564 E298.66097
G0 F7800 X75.989 Y94.139
G1 F3600 X77.141 Y92.988 E298.70159
G0 F7800 X76.716 Y92.988
G1 F3600 X75.989 Y93.715 E298.72724
G0 F7800 X75.989 Y93.291
G1 F3600 X76.292 Y92.988 E298.73792
; Layer Change GCode
; LAYER:4
G0 F7800 X75.316 Y107.499 Z1.05
G0 X75.289 Y107.898
G0 X75.31 Y107.6
G0 X75.31 Y107.6
G0 X75.15 Y107.85
G0 X75.15 Y107.85
G0 X75.75 Y107.25
; TYPE:WALL-INNER
G1 F1800 X75.75 Y92.75 E299.09963
G1 X124.25 Y92.75 E300.30947
G1 X124.25 Y107.25 E300.67117
G1 X75.75 Y107.25 E301.88101
G0 F7800 X75.45 Y107.55
G1 F1800 X75.45 Y92.45 E302.25768
G1 X124.55 Y92.45 E303.48248
G1 X124.55 Y107.55 E303.85915
G1 X75.45 Y107.55 E305.08396
G0 F7800 X75.15 Y107.85
; TYPE:WALL-OUTER
G1 F1260 X75.15 Y92.15 E305.4756
G1 X124.85 Y92.15 E306.71537
G1 X124.85 Y107.85 E307.10701
G1 X75.15 Y107.85 E308.34678
G0 F7800 X75.989 Y106.961
; TYPE:FILL
G1 F3600 X76.038 Y107.009 E308.34849
G0 F7800 X76.462 Y107.009
G1 F3600 X75.989 Y106.536 E308.36518
G0 F7800 X75.989 Y106.112
G1 F3600 X76.886 Y107.009 E308.39682
G0 F7800 X77.31 Y107.009
G1 F3600 X75.989 Y105.688 E308.44342
G0 F7800 X75.989 Y105.264
G1 F3600 X77.735 Y107.009 E308.505
G0 F7800 X78.159 Y107.009
G1 F3600 X75.989 Y104.839 E308.58155
G0 F7800 X75.989 Y104.415
G1 F3600 X78.583 Y107.009 E308.67306
G0 F7800 X79.007 Y107.009
G1 F3600 X75.989 Y103.991 E308.77953
G0 F7800 X75.989 Y103.567
G1 F3600 X79.432 Y107.009 E308.90097
G0 F7800 X79.856 Y107.009
G1 F3600 X75.989 Y103.142 E309.03739
G0 F7800 X75.989 Y102.718
G1 F3600 X80.28 Y107.009 E309.18877
G0 F7800 X80.704 Y107.009
G1 F3600 X75.989 Y102.294 E309.3551
G0 F7800 X75.989 Y101.87
G1 F3600 X81.129 Y107.009 E309.53641
G0 F7800 X81.553 Y107.009
G1 F3600 X75.989 Y101.445 E309.7327
G0 F7800 X75.989 Y101.021
G1 F3600 X81.977 Y107.009 E309.94394
G0 F7800 X82.401 Y107.009
G1 F3600 X75.989 Y100.597 E310.17014
G0 F7800 X75.989 Y100.172
G1 F3600 X82.826 Y107.009 E310.41133
G0 F7800 X83.25 Y107.009
G1 F3600 X75.989 Y99.748 E310.66749
G0 F7800 X75.989 Y99.324
G1 F3600 X83.674 Y107.009 E310.9386
G0 F7800 X84.099 Y107.009
G1 F3600 X75.989 Y98.9 E311.22468
G0 F7800 X75.989 Y98.475
G1 F3600 X84.523 Y107.009 E311.52574
G0 F7800 X84.947 Y107.009
G1 F3600 X75.989 Y98.051 E311.84176
G0 F7800 X75.989 Y97.627
G1 F3600 X85.371 Y107.009 E312.17273
G0 F7800 X85.796 Y107.009
G1 F3600 X75.989 Y97.203 E312.51868
G0 F7800 X75.989 Y96.778
G1 F3600 X86.22 Y107.009 E312.87961
G0 F7800 X86.644 Y107.009
G1 F3600 X75.989 Y96.354 E313.25549
G0 F7800 X75.989 Y95.93
G1 F3600 X87.068 Y107.009 E313.64633
G0 F7800 X87.493 Y107.009
G1 F3600 X75.989 Y95.506 E314.05215
G0 F7800 X75.989 Y95.081
G1 F3600 X87.917 Y107.009 E314.47294
G0 F7800 X88.341 Y107.009
G1 F3600 X75.989 Y94.657 E314.90869
G0 F7800 X75.989 Y94.233
G1 F3600 X88.765 Y107.009 E315.3594
G0 F7800 X89.19 Y107.009
G1 F3600 X75.989 Y93.809 E315.82509
G0 F7800 X75.989 Y93.384
G1 F3600 X89.614 Y107.009 E316.30574
G0 F7800 X90.038 Y107.009
G1 F3600 X76.018 Y92.988 E316.80036
G0 F7800 X76.442 Y92.988
G1 F3600 X90.462 Y107.009 E317.29497
G0 F7800 X90.887 Y107.009
G1 F3600 X76.866 Y92.988 E317.7896
G0 F7800 X77.291 Y92.988
G1 F3600 X91.311 Y107.009 E318.28421
G0 F7800 X91.735 Y107.009
G1 F3600 X77.715 Y92.988 E318.77882
G0 F7800 X78.139 Y92.988
G1 F3600 X92.16 Y107.009 E319.27345
G0 F7800 X92.584 Y107.009
G1 F3600 X78.563 Y92.988 E319.76807
G0 F7800 X78.988 Y92.988
G1 F3600 X93.008 Y107.009 E320.26269
G0 F7800 X93.432 Y107.009
G1 F3600 X79.412 Y92.988 E320.7573
G0 F7800 X79.836 Y92.988
G1 F3600 X93.857 Y107.009 E321.25192
G0 F7800 X94.281 Y107.009
G1 F3600 X80.26 Y92.988 E321.74655
G0 F7800 X80.685 Y92.988
G1 F3600 X94.705 Y107.009 E322.24116
G0 F7800 X95.129 Y107.009
G1 F3600 X81.109 Y92.988 E322.73578
G0 F7800 X81.533 Y92.988
G1 F3600 X95.554 Y107.009 E323.2304
G0 F7800 X95.978 Y107.009
G1 F3600 X81.957 Y92.988 E323.72503
G0 F7800 X82.382 Y92.988
G1 F3600 X96.402 Y107.009 E324.21964
G0 F7800 X96.826 Y107.009
G1 F3600 X82.806 Y92.988 E324.71425
G0 F7800 X83.23 Y92.988
G1 F3600 X97.251 Y107.009 E325.20888
G0 F7800 X97.675 Y107.009
G1 F3600 X83.654 Y92.988 E325.70351
G0 F7800 X84.079 Y92.988
G1 F3600 X98.099 Y107.009 E326.19812
G0 F7800 X98.524 Y107.009
G1 F3600 X84.503 Y92.988 E326.69275
G0 F7800 X84.927 Y92.988
G1 F3600 X98.948 Y107.009 E327.18738
G0 F7800 X99.372 Y107.009
G1 F3600 X85.352 Y92.988 E327.68199
G0 F7800 X85.776 Y92.988
G1 F3600 X99.796 Y107.009 E328.1766
G0 F7800 X100.221 Y107.01
G1 F3600 X86.2 Y92.988 E328.67125
G0 F7800 X86.624 Y92.988
G1 F3600 X100.646 Y107.01 E329.16591
G0 F7800 X101.07 Y107.01
G1 F3600 X87.049 Y92.988 E329.66056
G0 F7800 X87.473 Y92.988
G1 F3600 X101.494 Y107.01 E330.15521
G0 F7800 X101.918 Y107.01
G1 F3600 X87.897 Y92.988 E330.64985
G0 F7800 X88.322 Y92.989
G1 F3600 X102.343 Y107.01 E331.14448
G0 F7800 X102.767 Y107.01
G1 F3600 X88.746 Y92.989 E331.63911
G0 F7800 X89.171 Y92.989
G1 F3600 X103.191 Y107.01 E332.13372
G0 F7800 X103.615 Y107.01
G1 F3600 X89.595 Y92.989 E332.62833
G0 F7800 X90.019 Y92.989
G1 F3600 X104.04 Y107.01 E333.12296
G0 F7800 X104.464 Y107.01
G1 F3600 X90.443 Y92.989 E333.61759
G0 F7800 X90.868 Y92.989
G1 F3600 X104.888 Y107.01 E334.1122
G0 F7800 X105.312 Y107.01
G1 F3600 X91.292 Y92.989 E334.60681
G0 F7800 X91.716 Y92.989
G1 F3600 X105.737 Y107.01 E335.10144
G0 F7800 X106.161 Y107.01
G1 F3600 X92.14 Y92.989 E335.59607
G0 F7800 X92.565 Y92.989
G1 F3600 X106.585 Y107.01 E336.09068
G0 F7800 X107.01 Y107.01
G1 F3600 X92.989 Y92.989 E336.58531
G0 F7800 X93.413 Y92.989
G1 F3600 X107.434 Y107.01 E337.07994
G0 F7800 X107.858 Y107.01
G1 F3600 X93.838 Y92.989 E337.57455
G0 F7800 X94.262 Y92.989
G1 F3600 X108.282 Y107.01 E338.06916
G0 F7800 X108.707 Y107.01
G1 F3600 X94.686 Y92.989 E338.56379
G0 F7800 X95.11 Y92.989
G1 F3600 X109.131 Y107.01 E339.05841
G0 F7800 X109.555 Y107.01
G1 F3600 X95.535 Y92.989 E339.55303
G0 F7800 X95.959 Y92.989
G1 F3600 X109.979 Y107.01 E340.04764
G0 F7800 X110.404 Y107.01
G1 F3600 X96.383 Y92.989 E340.54227
G0 F7800 X96.807 Y92.989
G1 F3600 X110.828 Y107.01 E341.03689
G0 F7800 X111.252 Y107.01
G1 F3600 X97.232 Y92.989 E341.53151
G0 F7800 X97.656 Y92.989
G1 F3600 X111.676 Y107.01 E342.02612
G0 F7800 X112.101 Y107.01
G1 F3600 X98.08 Y92.989 E342.52074
G0 F7800 X98.504 Y92.989
G1 F3600 X112.525 Y107.01 E343.01537
G0 F7800 X112.949 Y107.01
G1 F3600 X98.929 Y92.989 E343.50998
G0 F7800 X99.353 Y92.989
G1 F3600 X113.373 Y107.01 E344.0046
G0 F7800 X113.798 Y107.01
G1 F3600 X99.777 Y92.989 E344.49922
G0 F7800 X100.201 Y92.989
G1 F3600 X114.222 Y107.01 E344.99385
G0 F7800 X114.646 Y107.01
G1 F3600 X100.626 Y92.989 E345.48846
G0 F7800 X101.05 Y92.989
G1 F3600 X115.071 Y107.01 E345.98309
G0 F7800 X115.495 Y107.01
G1 F3600 X101.474 Y92.989 E346.47772
G0 F7800 X101.899 Y92.989
G1 F3600 X115.919 Y107.01 E346.97233
G0 F7800 X116.343 Y107.01
G1 F3600 X102.323 Y92.989 E347.46694
G0 F7800 X102.747 Y92.989
G1 F3600 X116.768 Y107.01 E347.96157
G0 F7800 X117.192 Y107.01
G1 F3600 X103.171 Y92.989 E348.4562
G0 F7800 X103.596 Y92.989
G1 F3600 X117.616 Y107.01 E348.95081
G0 F7800 X118.04 Y107.01
G1 F3600 X104.02 Y92.989 E349.44542
G0 F7800 X104.444 Y92.989
G1 F3600 X118.465 Y107.01 E349.94005
G0 F7800 X118.889 Y107.01
G1 F3600 X104.868 Y92.989 E350.43468
G0 F7800 X105.293 Y92.989
G1 F3600 X119.313 Y107.01 E350.92929
G0 F7800 X119.737 Y107.01
G1 F3600 X105.717 Y92.989 E351.4239
G0 F7800 X106.141 Y92.989
G1 F3600 X120.162 Y107.01 E351.91853
G0 F7800 X120.586 Y107.01
G1 F3600 X106.565 Y92.989 E352.41316
G0 F7800 X106.99 Y92.989
G1 F3600 X121.01 Y107.01 E352.90777
G0 F7800 X121.434 Y107.01
G1 F3600 X107.414 Y92.989 E353.40238
G0 F7800 X107.838 Y92.989
G1 F3600 X121.859 Y107.01 E353.89701
G0 F7800 X122.283 Y107.01
G1 F3600 X108.262 Y92.989 E354.39164
G0 F7800 X108.687 Y92.989
G1 F3600 X122.707 Y107.01 E354.88625
G0 F7800 X123.132 Y107.01
G1 F3600 X109.111 Y92.989 E355.38088
G0 F7800 X109.535 Y92.989
G1 F3600 X123.556 Y107.01 E355.87551
G0 F7800 X123.98 Y107.01
G1 F3600 X109.96 Y92.989 E356.37012
G0 F7800 X110.384 Y92.989
G1 F3600 X124.008 Y106.614 E356.85076
G0 F7800 X124.008 Y106.189
G1 F3600 X110.808 Y92.989 E357.31642
G0 F7800 X111.232 Y92.989
G1 F3600 X124.008 Y105.765 E357.76713
G0 F7800 X124.008 Y105.341
G1 F3600 X111.657 Y92.989 E358.20286
G0 F7800 X112.082 Y92.99
G1 F3600 X124.008 Y104.916 E358.62359
G0 F7800 X124.008 Y104.492
G1 F3600 X112.506 Y92.99 E359.02935
G0 F7800 X112.93 Y92.99
G1 F3600 X124.008 Y104.068 E359.42016
G0 F7800 X124.008 Y103.644
G1 F3600 X113.354 Y92.99 E359.79601
G0 F7800 X113.779 Y92.99
G1 F3600 X124.008 Y103.219 E360.15686
G0 F7800 X124.008 Y102.795
G1 F3600 X114.203 Y92.99 E360.50276
G0 F7800 X114.627 Y92.99
G1 F3600 X124.008 Y102.371 E360.8337
G0 F7800 X124.008 Y101.947
G1 F3600 X115.051 Y92.99 E361.14968
G0 F7800 X115.476 Y92.99
G1 F3600 X124.008 Y101.522 E361.45067
G0 F7800 X124.008 Y101.098
G1 F3600 X115.9 Y92.99 E361.7367
G0 F7800 X116.324 Y92.99
G1 F3600 X124.008 Y100.674 E362.00778
G0 F7800 X124.008 Y100.25
G1 F3600 X116.748 Y92.99 E362.26389
G0 F7800 X117.173 Y92.99
G1 F3600 X124.009 Y99.826 E362.50505
G0 F7800 X124.009 Y99.402
G1 F3600 X117.597 Y92.99 E362.73125
G0 F7800 X118.021 Y92.99
G1 F3600 X124.009 Y98.977 E362.94248
G0 F7800 X124.009 Y98.553
G1 F3600 X118.446 Y92.99 E363.13873
G0 F7800 X118.87 Y92.99
G1 F3600 X124.009 Y98.129 E363.32002
G0 F7800 X124.009 Y97.705
G1 F3600 X119.294 Y92.99 E363.48635
G0 F7800 X119.718 Y92.99
G1 F3600 X124.009 Y97.28 E363.63771
G0 F7800 X124.009 Y96.856
G1 F3600 X120.143 Y92.99 E363.7741
G0 F7800 X120.567 Y92.99
G1 F3600 X124.009 Y96.432 E363.89552
G0 F7800 X124.009 Y96.008
G1 F3600 X120.991 Y92.99 E364.00199
G0 F7800 X121.415 Y92.99
G1 F3600 X124.009 Y95.583 E364.09348
G0 F7800 X124.009 Y95.159
G1 F3600 X121.84 Y92.99 E364.17
G0 F7800 X122.264 Y92.99
G1 F3600 X124.009 Y94.735 E364.23156
G0 F7800 X124.009 Y94.311
G1 F3600 X122.688 Y92.99 E364.27816
G0 F7800 X123.112 Y92.99
G1 F3600 X124.009 Y93.886 E364.30979
G0 F7800 X124.009 Y93.462
G1 F3600 X123.537 Y92.99 E364.32644
G0 F7800 X123.961 Y92.99
G1 F3600 X124.009 Y93.038 E364.32813
; Layer Change GCode
; LAYER:5
G0 F7800 X75.49 Y107.545 Z1.25
G0 X75.107 Y107.66
G0 X75.31 Y107.6
G0 X75.31 Y107.6
G0 X75.15 Y107.85
G0 X75.15 Y107.85
G0 X75.75 Y107.25
; TYPE:WALL-INNER
G1 F1800 X75.75 Y92.75 E364.68984
G1 X124.25 Y92.75 E365.89967
G1 X124.25 Y107.25 E366.26138
G1 X75.75 Y107.25 E367.47121
G0 F7800 X75.45 Y107.55
G1 F1800 X75.45 Y92.45 E367.84789
G1 X124.55 Y92.45 E369.07269
G1 X124.55 Y107.55 E369.44936
G1 X75.45 Y107.55 E370.67417
G0 F7800 X75.15 Y107.85
; TYPE:WALL-OUTER
G1 F1260 X75.15 Y92.15 E371.0658
G1 X124.85 Y92.15 E372.30558
G1 X124.85 Y107.85 E372.69721
G1 X75.15 Y107.85 E373.93698
G0 F7800 X75.989 Y106.977
; TYPE:FILL
G1 F3600 X89.334 Y103.401 E374.28162
G0 F7800 X89.166 Y103.449
G1 F3600 X94.45 Y98.165 E374.46803
G0 F7800 X94.293 Y97.898
G1 F3600 X88.898 Y103.293 E374.65835
G0 F7800 X88.645 Y103.121
G1 F3600 X94.12 Y97.647 E374.85148
G0 F7800 X93.929 Y97.413
G1 F3600 X88.411 Y102.931 E375.04614
G0 F7800 X88.194 Y102.724
G1 F3600 X93.722 Y97.196 E375.24116
G0 F7800 X93.499 Y96.995
G1 F3600 X87.994 Y102.5 E375.43536
G0 F7800 X87.811 Y102.258
G1 F3600 X93.259 Y96.81 E375.62755
G0 F7800 X93.002 Y96.643
G1 F3600 X87.644 Y102.001 E375.81657
G0 F7800 X87.647 Y101.764
G1 F3600 X86.242 Y107.009 E375.95202
G0 F7800 X85.796 Y107.009
G1 F3600 X82.255 Y103.468 E376.07694
G0 F7800 X82.223 Y103.604
G1 F3600 X84.606 Y101.221 E376.16101
G0 F7800 X84.415 Y101.386
G1 F3600 X90.038 Y107.009 E376.35937
G0 F7800 X89.348 Y107.009
G1 F3600 X90.232 Y103.71 E376.44457
G0 F7800 X90.088 Y103.799
G1 F3600 X94.799 Y99.088 E376.61076
G0 F7800 X94.625 Y98.906
G1 F3600 X96.21 Y92.989 E376.76357
G0 F7800 X97.232 Y92.989
G1 F3600 X100.399 Y96.157 E376.87531
G0 F7800 X100.398 Y96.035
G1 F3600 X97.036 Y99.397 E376.99391
G0 F7800 X96.993 Y99.864
G1 F3600 X100.865 Y95.992 E377.13051
G0 F7800 X101.281 Y96.001
G1 F3600 X97 Y100.282 E377.28153
G0 F7800 X97.044 Y100.662
G1 F3600 X101.66 Y96.046 E377.44437
G0 F7800 X101.574 Y96.152
G1 F3600 X102.422 Y92.989 E377.52606
G0 F7800 X101.474 Y92.989
G1 F3600 X106.524 Y98.038 E377.7042
G0 F7800 X106.317 Y98.178
G1 F3600 X108.18 Y96.315 E377.76992
G0 F7800 X108.895 Y96.167
G1 F3600 X105.717 Y92.989 E377.88203
G0 F7800 X105.528 Y92.989
G1 F3600 X104.23 Y97.834 E378.00715
G0 F7800 X104.267 Y97.681
G1 F3600 X98.681 Y103.267 E378.20421
G0 F7800 X98.441 Y103.084
G1 F3600 X104.084 Y97.44 E378.4033
G0 F7800 X103.886 Y97.215
G1 F3600 X98.217 Y102.883 E378.60328
G0 F7800 X98.009 Y102.666
G1 F3600 X103.668 Y97.008 E378.80289
G0 F7800 X103.434 Y96.817
G1 F3600 X97.817 Y102.435 E379.00107
G0 F7800 X97.641 Y102.186
G1 F3600 X103.185 Y96.642 E379.19665
G0 F7800 X102.963 Y96.644
G1 F3600 X116.601 Y92.989 E379.54885
G0 F7800 X117.951 Y92.989
G1 F3600 X117.034 Y96.412 E379.63725
G0 F7800 X117.217 Y96.187
G1 F3600 X115.186 Y98.217 E379.70888
G0 F7800 X115.277 Y98.306
G1 F3600 X109.96 Y92.989 E379.89645
G0 F7800 X108.634 Y92.989
G1 F3600 X107.613 Y96.799 E379.99485
G0 F7800 X108.868 Y96.05
G1 F3600 X106.049 Y98.869 E380.0943
G0 F7800 X106.167 Y98.891
G1 F3600 X104.814 Y99.254 E380.12924
G0 F7800 X104.915 Y99.155
G1 F3600 X100.151 Y103.919 E380.2973
G0 F7800 X99.816 Y103.83
G1 F3600 X104.827 Y98.818 E380.4741
G0 F7800 X104.717 Y98.504
G1 F3600 X99.501 Y103.72 E380.65811
G0 F7800 X99.574 Y103.617
G1 F3600 X98.665 Y107.009 E380.74571
G0 F7800 X98.524 Y107.009
G1 F3600 X93.923 Y102.408 E380.90802
G0 F7800 X94.226 Y102.208
G1 F3600 X93.222 Y103.211 E380.94342
G0 F7800 X93.592 Y102.76
G1 F3600 X92.454 Y107.009 E381.05315
G0 F7800 X94.281 Y107.009
G1 F3600 X91.058 Y103.786 E381.16685
G0 F7800 X91.264 Y103.897
G1 F3600 X94.898 Y100.262 E381.29506
G0 F7800 X94.903 Y99.833
G1 F3600 X90.832 Y103.905 E381.4387
G0 F7800 X90.444 Y103.868
G1 F3600 X94.867 Y99.445 E381.59473
G0 F7800 X94.616 Y98.88
G1 F3600 X97.618 Y98.076 E381.67225
G0 F7800 X97.452 Y98.132
G1 F3600 X99.134 Y96.451 E381.73157
G0 F7800 X99.85 Y96.159
G1 F3600 X97.161 Y98.848 E381.82644
G0 F7800 X97.794 Y97.794
G1 F3600 X92.989 Y92.989 E381.99595
G0 F7800 X93.105 Y92.988
G1 F3600 X92.19 Y96.403 E382.08414
G0 F7800 X92.224 Y96.415
G1 F3600 X105.01 Y92.989 E382.41434
G0 F7800 X102.92 Y96.483
G1 F3600 X97.482 Y101.921 E382.60618
G0 F7800 X97.551 Y101.793
G1 F3600 X94.608 Y98.85 E382.71
G0 F7800 X94.705 Y98.758
G1 F3600 X89.759 Y103.704 E382.88448
G0 F7800 X89.452 Y103.587
G1 F3600 X94.588 Y98.451 E383.06567
G0 F7800 X94.832 Y100.752
G1 F3600 X91.751 Y103.834 E383.17438
G0 F7800 X92.34 Y103.669
G1 F3600 X94.671 Y101.338 E383.25661
G0 F7800 X94.145 Y102.112
G1 F3600 X97.318 Y101.262 E383.33855
G0 F7800 X97.217 Y101.338
G1 F3600 X102.333 Y96.221 E383.51905
G0 F7800 X102.637 Y96.342
G1 F3600 X97.339 Y101.64 E383.70595
G0 F7800 X97.118 Y101.012
G1 F3600 X102.009 Y96.121 E383.87849
G0 F7800 X104.434 Y97.939
G1 F3600 X98.937 Y103.436 E384.07242
G0 F7800 X99.207 Y103.449
G1 F3600 X102.767 Y107.01 E384.19802
G0 F7800 X101.771 Y107.009
G1 F3600 X102.715 Y103.487 E384.28898
G0 F7800 X102.458 Y103.733
G1 F3600 X104.73 Y101.461 E384.36913
G0 F7800 X104.913 Y100.854
G1 F3600 X101.848 Y103.919 E384.47726
G0 F7800 X101.352 Y103.991
G1 F3600 X104.993 Y100.35 E384.6057
G0 F7800 X104.841 Y100.598
G1 F3600 X111.252 Y107.01 E384.83189
G0 F7800 X111.089 Y107.009
G1 F3600 X112.051 Y103.419 E384.9246
G0 F7800 X111.957 Y103.472
G1 F3600 X115.495 Y107.01 E385.04941
G0 F7800 X114.195 Y107.009
G1 F3600 X115.505 Y102.118 E385.17572
G0 F7800 X115.425 Y102.222
G1 F3600 X121.221 Y96.426 E385.38019
G0 F7800 X121.473 Y96.597
G1 F3600 X115.596 Y102.475 E385.58753
G0 F7800 X115.783 Y102.526
G1 F3600 X111.616 Y103.643 E385.69515
G0 F7800 X111.864 Y103.661
G1 F3600 X113.654 Y101.871 E385.7583
G0 F7800 X113.937 Y101.164
G1 F3600 X111.161 Y103.94 E385.85623
G0 F7800 X110.616 Y104.06
G1 F3600 X114.059 Y100.617 E385.97769
G0 F7800 X114.102 Y100.15
G1 F3600 X110.146 Y104.107 E386.11726
G0 F7800 X110.415 Y103.964
G1 F3600 X99.053 Y107.009 E386.41069
G0 F7800 X100.514 Y103.98
G1 F3600 X104.976 Y99.518 E386.5681
G0 F7800 X105.006 Y99.913
G1 F3600 X100.913 Y104.006 E386.71249
G0 F7800 X99.809 Y103.7
G1 F3600 X87.461 Y107.009 E387.03138
G0 F7800 X83.136 Y107.009
G1 F3600 X86.893 Y92.989 E387.39345
G0 F7800 X88.746 Y92.989
G1 F3600 X92.144 Y96.387 E387.51333
G0 F7800 X92.12 Y96.252
G1 F3600 X87.255 Y101.117 E387.68495
G0 F7800 X87.307 Y100.839
G1 F3600 X84.299 Y101.645 E387.76263
G0 F7800 X84.214 Y102.037
G1 F3600 X83.035 Y103.216 E387.80423
G0 F7800 X81.65 Y103.753
G1 F3600 X84.752 Y100.65 E387.91368
G0 F7800 X84.802 Y100.176
G1 F3600 X81.176 Y103.802 E388.04159
G0 F7800 X80.921 Y103.686
G1 F3600 X80.03 Y107.009 E388.12741
G0 F7800 X81.553 Y107.009
G1 F3600 X75.989 Y101.445 E388.3237
G0 F7800 X75.989 Y100.766
G1 F3600 X77.333 Y100.405 E388.35841
G0 F7800 X77.23 Y100.535
G1 F3600 X81.536 Y96.23 E388.5103
G0 F7800 X81.892 Y96.298
G1 F3600 X77.298 Y100.892 E388.67237
G0 F7800 X77.393 Y101.221
G1 F3600 X82.222 Y96.392 E388.84272
G0 F7800 X82.527 Y96.511
G1 F3600 X77.512 Y101.527 E389.01966
G0 F7800 X77.651 Y101.812
G1 F3600 X82.812 Y96.65 E389.20174
G0 F7800 X82.775 Y96.766
G1 F3600 X83.787 Y92.989 E389.29928
G0 F7800 X84.503 Y92.988
G1 F3600 X88.59 Y97.075 E389.44346
G0 F7800 X88.979 Y96.793
G1 F3600 X89.999 Y92.989 E389.54171
G0 F7800 X90.561 Y96.114
G0 X90.561 Y96.114
G1 F3600 X87.116 Y99.559 E389.66324
G0 F7800 X87.211 Y99.938
G1 F3600 X80.26 Y92.988 E389.90844
G0 F7800 X80.681 Y92.989
G1 F3600 X79.732 Y96.531 E389.99991
G0 F7800 X79.611 Y96.581
G1 F3600 X76.018 Y92.988 E390.12666
G0 F7800 X77.575 Y92.989
G1 F3600 X75.989 Y98.909 E390.27954
G0 F7800 X75.989 Y97.66
G1 F3600 X79.128 Y96.818 E390.36062
G0 F7800 X78.62 Y97.024
G1 F3600 X78.027 Y97.617 E390.38153
G0 F7800 X77.45 Y98.619
G1 F3600 X79.62 Y96.449 E390.45809
G0 F7800 X80.221 Y96.272
G1 F3600 X77.272 Y99.221 E390.56212
G0 F7800 X77.2 Y99.717
G1 F3600 X80.717 Y96.2 E390.68619
G0 F7800 X81.028 Y96.309
G1 F3600 X93.419 Y92.989 E391.00619
G0 F7800 X92.435 Y96.362
G1 F3600 X87.364 Y101.433 E391.18508
G0 F7800 X87.495 Y101.726
G1 F3600 X92.729 Y96.492 E391.36973
G0 F7800 X91.78 Y96.168
G1 F3600 X87.17 Y100.778 E391.53236
G0 F7800 X87.112 Y100.411
G1 F3600 X91.411 Y96.112 E391.68402
G0 F7800 X91.008 Y96.091
G1 F3600 X87.088 Y100.011 E391.8223
G0 F7800 X87.208 Y99.043
G1 F3600 X90.04 Y96.211 E391.92221
G0 F7800 X89.388 Y96.439
G1 F3600 X87.432 Y98.395 E391.99121
G0 F7800 X88.145 Y97.508
G1 F3600 X84.377 Y98.518 E392.08853
G0 F7800 X84.457 Y98.4
G1 F3600 X79.401 Y103.456 E392.26689
G0 F7800 X79.121 Y103.312
G1 F3600 X84.313 Y98.12 E392.45005
G0 F7800 X84.149 Y97.86
G1 F3600 X78.86 Y103.149 E392.63664
G0 F7800 X78.964 Y103.074
G1 F3600 X75.989 Y103.871 E392.71346
G0 F7800 X75.989 Y105.688
G1 F3600 X77.31 Y107.009 E392.76007
G0 F7800 X76.924 Y107.009
G1 F3600 X78.169 Y102.366 E392.87998
G0 F7800 X77.986 Y102.325
G1 F3600 X83.326 Y96.985 E393.06836
G0 F7800 X83.557 Y97.179
G1 F3600 X78.179 Y102.556 E393.25807
G0 F7800 X78.389 Y102.771
G1 F3600 X83.771 Y97.389 E393.44793
G0 F7800 X83.969 Y97.615
G1 F3600 X78.615 Y102.969 E393.63681
G0 F7800 X77.81 Y102.077
G1 F3600 X83.078 Y96.809 E393.82265
G0 F7800 X81.148 Y96.194
G1 F3600 X77.195 Y100.146 E393.96209
G0 F7800 X77.528 Y98.741
G1 F3600 X75.989 Y97.203 E394.01636
G0 F7800 X75.989 Y94.554
G1 F3600 X81.827 Y92.989 E394.16713
G0 F7800 X84.581 Y98.7
G1 F3600 X79.701 Y103.58 E394.33929
G0 F7800 X80.023 Y103.682
G1 F3600 X84.682 Y99.023 E394.50365
G0 F7800 X84.756 Y99.373
G1 F3600 X80.373 Y103.756 E394.65827
G0 F7800 X80.755 Y103.799
G1 F3600 X84.799 Y99.755 E394.80093
G0 F7800 X97.208 Y100.857
G1 F3600 X95.559 Y107.009 E394.95981
G0 F7800 X99.209 Y103.588
G1 F3600 X104.585 Y98.212 E395.14946
G0 F7800 X105.933 Y99.41
G1 F3600 X109.412 Y95.931 E395.27219
G0 F7800 X109.875 Y95.892
G1 F3600 X105.892 Y99.875 E395.41271
G0 F7800 X105.899 Y100.292
G1 F3600 X110.29 Y95.901 E395.56761
G0 F7800 X110.669 Y95.947
G1 F3600 X105.944 Y100.672 E395.7343
G0 F7800 X106.017 Y101.022
G1 F3600 X111.02 Y96.02 E395.91077
G0 F7800 X110.902 Y96.113
G1 F3600 X111.739 Y92.989 E395.99145
G0 F7800 X114.203 Y92.99
G1 F3600 X117.435 Y96.222 E396.10547
G0 F7800 X117.888 Y95.94
G1 F3600 X114.941 Y98.887 E396.20943
G0 F7800 X114.832 Y99.421
G1 F3600 X118.421 Y95.832 E396.33604
G0 F7800 X118.884 Y95.793
G1 F3600 X114.792 Y99.885 E396.4804
G0 F7800 X114.923 Y99.651
G1 F3600 X113.984 Y99.902 E396.50465
G0 F7800 X114.098 Y99.731
G1 F3600 X109.73 Y104.098 E396.65872
G0 F7800 X109.348 Y104.056
G1 F3600 X114.055 Y99.349 E396.82477
G0 F7800 X113.983 Y98.997
G1 F3600 X108.997 Y103.982 E397.00065
G0 F7800 X108.839 Y103.816
G1 F3600 X107.983 Y107.009 E397.08311
G0 F7800 X107.01 Y107.01
G1 F3600 X103.201 Y103.201 E397.21749
G0 F7800 X103.43 Y103.185
G1 F3600 X104.178 Y102.438 E397.24386
G0 F7800 X103.879 Y102.61
G1 F3600 X106.496 Y101.909 E397.31144
G0 F7800 X106.376 Y101.937
G1 F3600 X111.935 Y96.377 E397.50756
G0 F7800 X112.205 Y96.532
G1 F3600 X106.533 Y102.204 E397.70766
G0 F7800 X106.706 Y102.455
G1 F3600 X112.456 Y96.705 E397.91051
G0 F7800 X112.691 Y96.894
G1 F3600 X106.896 Y102.69 E398.11496
G0 F7800 X107.1 Y102.91
G1 F3600 X112.91 Y97.1 E398.31992
G0 F7800 X112.761 Y97.124
G1 F3600 X124.009 Y94.11 E398.6104
G0 F7800 X124.009 Y94.311
G1 F3600 X122.688 Y92.99 E398.657
G0 F7800 X124.01 Y93.561
G1 F3600 X122.732 Y98.329 E398.78014
G0 F7800 X122.815 Y98.226
G1 F3600 X117.225 Y103.816 E398.97734
G0 F7800 X116.944 Y103.673
G1 F3600 X122.673 Y97.944 E399.17945
G0 F7800 X122.512 Y97.68
G1 F3600 X116.68 Y103.512 E399.38519
G0 F7800 X116.432 Y103.335
G1 F3600 X122.335 Y97.432 E399.59343
G0 F7800 X122.351 Y97.66
G1 F3600 X124.009 Y97.216 E399.63625
G0 F7800 X124.009 Y98.553
G1 F3600 X118.446 Y92.99 E399.8325
G0 F7800 X121.057 Y92.989
G1 F3600 X120.223 Y96.1 E399.91284
G0 F7800 X120.358 Y96.015
G1 F3600 X115.015 Y101.359 E400.10135
G0 F7800 X115.132 Y101.666
G1 F3600 X120.664 Y96.133 E400.29652
G0 F7800 X120.952 Y96.271
G1 F3600 X115.27 Y101.952 E400.49695
G0 F7800 X115.783 Y102.712
G1 F3600 X121.711 Y96.784 E400.70608
G0 F7800 X121.934 Y96.985
G1 F3600 X115.986 Y102.934 E400.91593
G0 F7800 X116.202 Y103.142
G1 F3600 X122.142 Y97.202 E401.12548
G0 F7800 X122.939 Y98.526
G1 F3600 X117.526 Y103.939 E401.31644
G0 F7800 X117.845 Y104.045
G1 F3600 X123.044 Y98.845 E401.49986
G0 F7800 X123.126 Y99.187
G1 F3600 X118.186 Y104.127 E401.67414
G0 F7800 X118.11 Y103.988
G1 F3600 X117.3 Y107.008 E401.75213
G0 F7800 X119.737 Y107.01
G1 F3600 X113.83 Y101.102 E401.96054
G0 F7800 X114.918 Y101.032
G1 F3600 X120.031 Y95.919 E402.14091
G0 F7800 X119.68 Y95.845
G1 F3600 X114.844 Y100.681 E402.31151
G0 F7800 X114.8 Y100.301
G1 F3600 X119.3 Y95.8 E402.47028
G0 F7800 X114.845 Y92.989
G1 F3600 X113.486 Y98.06 E402.60124
G0 F7800 X113.629 Y98.078
G1 F3600 X108.077 Y103.63 E402.7971
G0 F7800 X107.807 Y103.475
G1 F3600 X113.472 Y97.81 E402.99695
G0 F7800 X113.301 Y97.557
G1 F3600 X107.553 Y103.305 E403.19973
G0 F7800 X107.319 Y103.115
G1 F3600 X113.113 Y97.321 E403.40413
G0 F7800 X113.768 Y98.363
G1 F3600 X108.364 Y103.767 E403.59477
G0 F7800 X108.67 Y103.886
G1 F3600 X113.886 Y98.669 E403.77879
G0 F7800 X111.65 Y96.238
G1 F3600 X106.235 Y101.653 E403.96982
G0 F7800 X106.334 Y101.573
G1 F3600 X104.877 Y107.009 E404.11021
G0 F7800 X110.644 Y107.009
G0 X110.644 Y107.009
G1 F3600 X124.009 Y103.428 E404.45536
G0 F7800 X124.008 Y102.795
G1 F3600 X122.775 Y101.562 E404.49886
G0 F7800 X122.923 Y101.512
G1 F3600 X120.511 Y103.924 E404.58395
G0 F7800 X120.691 Y103.721
G1 F3600 X123.98 Y107.01 E404.69998
G0 F7800 X123.512 Y107.009
G1 F3600 X124.009 Y105.154 E404.74788
G0 F7800 X124.009 Y106.534
G1 F3600 X122.236 Y107.009 E404.79367
G0 F7800 X120.406 Y107.008
G1 F3600 X121.398 Y103.308 E404.88923
G0 F7800 X121.419 Y103.44
G1 F3600 X122.438 Y102.421 E404.92517
G0 F7800 X123.107 Y100.904
G1 F3600 X119.904 Y104.107 E405.03817
G0 F7800 X119.397 Y104.189
G1 F3600 X123.188 Y100.398 E405.17191
G0 F7800 X123.044 Y100.58
G1 F3600 X124.008 Y100.322 E405.1968
G0 F7800 X123.208 Y99.954
G1 F3600 X118.954 Y104.208 E405.34687
G0 F7800 X118.554 Y104.183
G1 F3600 X123.182 Y99.556 E405.51012
G0 F7800 X111.345 Y96.119
G0 X111.345 Y96.119
G1 F3600 X106.115 Y101.349 E405.69462
G0 F7800 X98.146 Y97.357
G1 F3600 X99.316 Y92.989 E405.80742
; Layer Change GCode
; LAYER:6
G0 F7800 X75.469 Y107.502 Z1.45
G0 X75.127 Y107.71
G0 X75.31 Y107.6
G0 X75.31 Y107.6
G0 X75.15 Y107.85
G0 X75.15 Y107.85
G0 X75.75 Y107.25
; TYPE:WALL-INNER
G1 F1800 X75.75 Y92.75 E406.16913
G1 X124.25 Y92.75 E407.37896
G1 X124.25 Y107.25 E407.74067
G1 X75.75 Y107.25 E408.9505
G0 F7800 X75.45 Y107.55
G1 F1800 X75.45 Y92.45 E409.32718
G1 X124.55 Y92.45 E410.55198
G1 X124.55 Y107.55 E410.92865
G1 X75.45 Y107.55 E412.15346
G0 F7800 X75.15 Y107.85
; TYPE:WALL-OUTER
G1 F1260 X75.15 Y92.15 E412.54509
G1 X124.85 Y92.15 E413.78487
G1 X124.85 Y107.85 E414.1765
G1 X75.15 Y107.85 E415.41627
G0 F7800 X75.989 Y106.977
; TYPE:FILL
G1 F3600 X89.332 Y103.402 E415.76086
G0 F7800 X89.673 Y103.673
G1 F3600 X87.318 Y101.319 E415.84392
G0 F7800 X87.307 Y100.839
G1 F3600 X84.296 Y101.646 E415.92168
G0 F7800 X84.369 Y101.763
G1 F3600 X79.232 Y96.626 E416.1029
G0 F7800 X79.128 Y96.818
G1 F3600 X75.989 Y97.66 E416.18397
G0 F7800 X75.989 Y97.203
G1 F3600 X77.528 Y98.741 E416.23825
G0 F7800 X77.437 Y98.65
G1 F3600 X82.348 Y103.561 E416.4115
G0 F7800 X82.256 Y103.469
G1 F3600 X85.796 Y107.009 E416.53638
G0 F7800 X86.242 Y107.009
G1 F3600 X87.647 Y101.764 E416.67183
G0 F7800 X87.752 Y102.177
G1 F3600 X88.792 Y103.217 E416.70852
G0 F7800 X90.232 Y103.71
G1 F3600 X89.348 Y107.009 E416.79371
G0 F7800 X90.038 Y107.009
G1 F3600 X84.415 Y101.386 E416.99208
G0 F7800 X84.507 Y101.478
G1 F3600 X79.52 Y96.491 E417.16801
G0 F7800 X79.611 Y96.581
G1 F3600 X76.018 Y92.988 E417.29476
G0 F7800 X77.575 Y92.989
G1 F3600 X75.989 Y98.909 E417.44765
G0 F7800 X77.251 Y99.313
G1 F3600 X81.684 Y103.746 E417.60403
G0 F7800 X82.029 Y103.666
G1 F3600 X77.332 Y98.969 E417.76973
G0 F7800 X77.564 Y98.353
G1 F3600 X82.643 Y103.432 E417.94891
G0 F7800 X82.923 Y103.287
G1 F3600 X77.711 Y98.076 E418.13276
G0 F7800 X77.875 Y97.816
G1 F3600 X83.181 Y103.122 E418.31994
G0 F7800 X83.422 Y102.938
G1 F3600 X78.059 Y97.575 E418.50913
G0 F7800 X78.26 Y97.352
G1 F3600 X83.645 Y102.737 E418.6991
G0 F7800 X83.852 Y102.52
G1 F3600 X78.477 Y97.145 E418.88872
G0 F7800 X78.712 Y96.955
G1 F3600 X84.038 Y102.282 E419.07663
G0 F7800 X84.215 Y102.034
G1 F3600 X78.963 Y96.782 E419.26191
G0 F7800 X79.732 Y96.531
G1 F3600 X80.681 Y92.989 E419.35338
G0 F7800 X80.26 Y92.988
G1 F3600 X87.211 Y99.938 E419.59858
G0 F7800 X87.095 Y99.823
G1 F3600 X91.177 Y103.905 E419.74258
G0 F7800 X91.057 Y103.785
G1 F3600 X94.281 Y107.009 E419.85632
G0 F7800 X95.559 Y107.009
G1 F3600 X97.208 Y100.857 E420.0152
G0 F7800 X97.098 Y100.916
G1 F3600 X100.083 Y103.901 E420.1205
G0 F7800 X99.809 Y103.7
G1 F3600 X87.461 Y107.009 E420.43939
G0 F7800 X90.26 Y103.836
G1 F3600 X87.162 Y100.738 E420.54868
G0 F7800 X87.1 Y100.252
G1 F3600 X90.746 Y103.898 E420.6773
G0 F7800 X91.563 Y103.866
G1 F3600 X87.136 Y99.44 E420.83346
G0 F7800 X87.205 Y99.084
G1 F3600 X91.918 Y103.797 E420.99972
G0 F7800 X92.244 Y103.7
G1 F3600 X87.295 Y98.75 E421.17433
G0 F7800 X87.413 Y98.444
G1 F3600 X92.551 Y103.581 E421.35557
G0 F7800 X92.834 Y103.441
G1 F3600 X87.551 Y98.158 E421.54194
G0 F7800 X87.709 Y97.891
G1 F3600 X93.106 Y103.288 E421.73234
G0 F7800 X93.356 Y103.114
G1 F3600 X87.882 Y97.64 E421.92545
G0 F7800 X88.144 Y97.509
G1 F3600 X84.373 Y98.519 E422.02283
G0 F7800 X84.495 Y98.495
G1 F3600 X82.498 Y96.498 E422.09328
G0 F7800 X82.775 Y96.766
G1 F3600 X83.787 Y92.989 E422.19082
G0 F7800 X84.503 Y92.988
G1 F3600 X88.596 Y97.081 E422.33521
G0 F7800 X88.511 Y96.996
G1 F3600 X94 Y102.485 E422.52885
G0 F7800 X93.915 Y102.4
G1 F3600 X98.524 Y107.009 E422.69145
G0 F7800 X98.665 Y107.009
G1 F3600 X99.574 Y103.616 E422.77907
G0 F7800 X99.45 Y103.692
G1 F3600 X97.3 Y101.543 E422.8549
G0 F7800 X97.318 Y101.262
G1 F3600 X94.145 Y102.112 E422.93684
G0 F7800 X94.19 Y102.251
G1 F3600 X88.745 Y96.806 E423.12893
G0 F7800 X88.979 Y96.793
G1 F3600 X89.999 Y92.989 E423.22717
G0 F7800 X88.746 Y92.989
G1 F3600 X92.143 Y96.385 E423.34699
G0 F7800 X92.19 Y96.402
G1 F3600 X93.105 Y92.988 E423.43516
G0 F7800 X92.989 Y92.989
G1 F3600 X97.794 Y97.794 E423.60467
G0 F7800 X97.708 Y97.708
G1 F3600 X103.288 Y103.288 E423.80152
G0 F7800 X103.201 Y103.201
G1 F3600 X107.01 Y107.01 E423.93589
G0 F7800 X107.983 Y107.009
G1 F3600 X108.839 Y103.816 E424.01835
G0 F7800 X109.1 Y104.009
G1 F3600 X105.991 Y100.9 E424.12803
G0 F7800 X105.908 Y100.392
G1 F3600 X109.604 Y104.088 E424.25842
G0 F7800 X110.046 Y104.106
G1 F3600 X105.889 Y99.95 E424.40505
G0 F7800 X105.914 Y99.55
G1 F3600 X110.448 Y104.084 E424.565
G0 F7800 X110.41 Y103.966
G1 F3600 X99.053 Y107.009 E424.85829
G0 F7800 X101.771 Y107.009
G1 F3600 X102.715 Y103.487 E424.94925
G0 F7800 X102.754 Y103.603
G1 F3600 X97.396 Y98.244 E425.13829
G0 F7800 X97.618 Y98.076
G1 F3600 X94.616 Y98.88 E425.21581
G0 F7800 X94.625 Y98.906
G1 F3600 X96.21 Y92.989 E425.36861
G0 F7800 X97.232 Y92.989
G1 F3600 X100.409 Y96.167 E425.48071
G0 F7800 X100.302 Y96.059
G1 F3600 X104.945 Y100.703 E425.64452
G0 F7800 X104.84 Y100.597
G1 F3600 X111.252 Y107.01 E425.87074
G0 F7800 X111.089 Y107.009
G1 F3600 X112.051 Y103.419 E425.96345
G0 F7800 X111.957 Y103.472
G1 F3600 X115.495 Y107.01 E426.08826
G0 F7800 X114.195 Y107.009
G1 F3600 X115.505 Y102.118 E426.21457
G0 F7800 X115.52 Y102.367
G1 F3600 X116.627 Y103.475 E426.25364
G0 F7800 X117.509 Y103.933
G1 F3600 X115.073 Y101.496 E426.3396
G0 F7800 X114.887 Y100.886
G1 F3600 X118.108 Y104.107 E426.45323
G0 F7800 X118.111 Y103.984
G1 F3600 X117.3 Y107.008 E426.53133
G0 F7800 X119.737 Y107.01
G1 F3600 X113.831 Y101.103 E426.73969
G0 F7800 X113.926 Y101.199
G1 F3600 X108.803 Y96.075 E426.92044
G0 F7800 X108.897 Y96.17
G1 F3600 X105.717 Y92.989 E427.03264
G0 F7800 X105.528 Y92.989
G1 F3600 X104.227 Y97.845 E427.15804
G0 F7800 X104.592 Y98.228
G1 F3600 X102.763 Y96.399 E427.22257
G0 F7800 X102.963 Y96.644
G1 F3600 X116.601 Y92.989 E427.57477
G0 F7800 X117.951 Y92.989
G1 F3600 X117.034 Y96.412 E427.66317
G0 F7800 X117.055 Y96.266
G1 F3600 X122.731 Y101.942 E427.86341
G0 F7800 X122.577 Y102.212
G1 F3600 X116.785 Y96.421 E428.06772
G0 F7800 X116.531 Y96.591
G1 F3600 X122.406 Y102.466 E428.27498
G0 F7800 X122.22 Y102.704
G1 F3600 X116.293 Y96.777 E428.48407
G0 F7800 X116.07 Y96.978
G1 F3600 X122.019 Y102.927 E428.69393
G0 F7800 X121.804 Y103.136
G1 F3600 X115.861 Y97.193 E428.90359
G0 F7800 X115.667 Y97.423
G1 F3600 X121.573 Y103.33 E429.11196
G0 F7800 X121.398 Y103.308
G1 F3600 X120.406 Y107.008 E429.20751
G0 F7800 X122.236 Y107.009
G1 F3600 X124.009 Y106.534 E429.2533
G0 F7800 X123.98 Y107.01
G1 F3600 X120.691 Y103.721 E429.36933
G0 F7800 X120.781 Y103.811
G1 F3600 X115.19 Y98.219 E429.56658
G0 F7800 X115.28 Y98.309
G1 F3600 X109.96 Y92.989 E429.75426
G0 F7800 X108.634 Y92.989
G1 F3600 X107.611 Y96.806 E429.85284
G0 F7800 X107.658 Y96.627
G1 F3600 X113.373 Y102.343 E430.05447
G0 F7800 X113.193 Y102.587
G1 F3600 X107.413 Y96.807 E430.25837
G0 F7800 X107.188 Y97.006
G1 F3600 X112.994 Y102.812 E430.46319
G0 F7800 X112.779 Y103.021
G1 F3600 X106.977 Y97.219 E430.66788
G0 F7800 X106.784 Y97.45
G1 F3600 X112.551 Y103.217 E430.87132
G0 F7800 X112.306 Y103.397
G1 F3600 X106.606 Y97.696 E431.07242
G0 F7800 X106.438 Y97.953
G1 F3600 X112.045 Y103.56 E431.27022
G0 F7800 X111.766 Y103.704
G1 F3600 X106.29 Y98.229 E431.46339
G0 F7800 X106.525 Y98.04
G1 F3600 X101.474 Y92.989 E431.64158
G0 F7800 X102.422 Y92.989
G1 F3600 X101.574 Y96.152 E431.72326
G0 F7800 X101.54 Y96.025
G1 F3600 X104.968 Y99.453 E431.8442
G0 F7800 X104.814 Y99.254
G1 F3600 X106.168 Y98.891 E431.87916
G0 F7800 X106.057 Y98.845
G1 F3600 X111.15 Y103.937 E432.05882
G0 F7800 X111.468 Y103.831
G1 F3600 X106.163 Y98.526 E432.24596
G0 F7800 X105.974 Y99.185
G1 F3600 X110.807 Y104.019 E432.41648
G0 F7800 X111.585 Y103.651
G1 F3600 X115.783 Y102.526 E432.52489
G0 F7800 X113.817 Y101.513
G0 X113.817 Y101.513
G1 F3600 X108.482 Y96.178 E432.7131
G0 F7800 X108.189 Y96.31
G1 F3600 X113.687 Y101.807 E432.90704
G0 F7800 X113.538 Y102.083
G1 F3600 X107.914 Y96.459 E433.10544
G0 F7800 X109.141 Y95.989
G1 F3600 X114.007 Y100.855 E433.2771
G0 F7800 X114.069 Y100.493
G1 F3600 X109.496 Y95.919 E433.43844
G0 F7800 X109.892 Y95.892
G1 F3600 X114.101 Y100.1 E433.58691
G0 F7800 X113.985 Y99.902
G1 F3600 X114.924 Y99.65 E433.61116
G0 F7800 X114.816 Y99.542
G1 F3600 X119.455 Y104.182 E433.77483
G0 F7800 X119.822 Y104.124
G1 F3600 X114.877 Y99.179 E433.94928
G0 F7800 X114.962 Y98.84
G1 F3600 X120.163 Y104.041 E434.13276
G0 F7800 X120.481 Y103.935
G1 F3600 X115.063 Y98.517 E434.3239
G0 F7800 X115.331 Y97.936
G1 F3600 X121.063 Y103.668 E434.52611
G0 F7800 X121.326 Y103.506
G1 F3600 X115.49 Y97.671 E434.73197
G0 F7800 X113.855 Y98.581
G1 F3600 X111.419 Y96.146 E434.81789
G0 F7800 X110.902 Y96.113
G1 F3600 X111.739 Y92.989 E434.89857
G0 F7800 X114.203 Y92.99
G1 F3600 X117.436 Y96.223 E435.01262
G0 F7800 X117.343 Y96.13
G1 F3600 X122.868 Y101.655 E435.20753
G0 F7800 X122.775 Y101.562
G1 F3600 X124.008 Y102.795 E435.25103
G0 F7800 X124.009 Y103.428
G1 F3600 X110.644 Y107.009 E435.59618
G0 F7800 X108.489 Y103.823
G0 X108.489 Y103.823
G1 F3600 X106.179 Y101.512 E435.67769
G0 F7800 X106.334 Y101.573
G1 F3600 X104.877 Y107.009 E435.81807
G0 F7800 X102.767 Y107.01
G1 F3600 X99.208 Y103.451 E435.94363
G0 F7800 X98.132 Y102.799
G1 F3600 X98.086 Y102.753 E435.94525
G0 F7800 X97.551 Y101.793
G1 F3600 X94.608 Y98.85 E436.04907
G0 F7800 X94.786 Y99.029
G1 F3600 X91.981 Y96.223 E436.14804
G0 F7800 X92.225 Y96.415
G1 F3600 X105.01 Y92.989 E436.47822
G0 F7800 X102.079 Y96.139
G1 F3600 X104.858 Y98.919 E436.57627
G0 F7800 X105.006 Y99.915
G1 F3600 X101.083 Y95.991 E436.71469
G0 F7800 X100.678 Y96.011
G1 F3600 X104.995 Y100.328 E436.86698
G0 F7800 X104.868 Y101.049
G1 F3600 X99.95 Y96.132 E437.04046
G0 F7800 X99.627 Y96.233
G1 F3600 X104.767 Y101.372 E437.22177
G0 F7800 X104.643 Y101.673
G1 F3600 X99.327 Y96.357 E437.4093
G0 F7800 X99.045 Y96.5
G1 F3600 X104.499 Y101.954 E437.60171
G0 F7800 X104.338 Y102.217
G1 F3600 X98.786 Y96.665 E437.79757
G0 F7800 X98.541 Y96.844
G1 F3600 X104.161 Y102.464 E437.99583
G0 F7800 X103.966 Y102.693
G1 F3600 X98.304 Y97.031 E438.19557
G0 F7800 X98.089 Y97.24
G1 F3600 X103.756 Y102.908 E438.39551
G0 F7800 X103.53 Y103.106
G1 F3600 X97.89 Y97.466 E438.59448
G0 F7800 X98.146 Y97.356
G1 F3600 X99.316 Y92.989 E438.70725
G0 F7800 X97.543 Y97.968
G1 F3600 X103.029 Y103.453 E438.90077
G0 F7800 X102.46 Y103.733
G1 F3600 X97.268 Y98.541 E439.08393
G0 F7800 X97.162 Y98.859
G1 F3600 X102.145 Y103.842 E439.25972
G0 F7800 X101.803 Y103.924
G1 F3600 X97.075 Y99.196 E439.42651
G0 F7800 X97.017 Y99.562
G1 F3600 X101.429 Y103.975 E439.58218
G0 F7800 X101.034 Y104.004
G1 F3600 X96.989 Y99.959 E439.72487
G0 F7800 X97.01 Y100.404
G1 F3600 X100.593 Y103.987 E439.85127
G0 F7800 X103.879 Y102.61
G1 F3600 X106.496 Y101.909 E439.91886
G0 F7800 X106.746 Y102.503
G1 F3600 X107.488 Y103.245 E439.94503
G0 F7800 X114.095 Y99.67
G1 F3600 X110.329 Y95.904 E440.07789
G0 F7800 X110.823 Y95.974
G1 F3600 X114.021 Y99.172 E440.19071
G0 F7800 X114.79 Y99.941
G1 F3600 X119.056 Y104.207 E440.3412
G0 F7800 X118.608 Y104.183
G1 F3600 X114.807 Y100.382 E440.47529
G0 F7800 X113.486 Y98.06
G1 F3600 X114.845 Y92.989 E440.60625
G0 F7800 X118.446 Y92.99
G1 F3600 X124.009 Y98.553 E440.8025
G0 F7800 X123.05 Y98.867
G1 F3600 X120.131 Y95.948 E440.90548
G0 F7800 X120.223 Y96.1
G1 F3600 X121.057 Y92.989 E440.98582
G0 F7800 X122.688 Y92.99
G1 F3600 X124.009 Y94.311 E441.03242
G0 F7800 X124.009 Y94.11
G1 F3600 X112.757 Y97.125 E441.32301
G0 F7800 X112.301 Y96.604
G1 F3600 X113.416 Y97.718 E441.36232
G0 F7800 X117.655 Y96.018
G1 F3600 X122.985 Y101.348 E441.55035
G0 F7800 X123.082 Y101.02
G1 F3600 X117.985 Y95.923 E441.73017
G0 F7800 X118.334 Y95.848
G1 F3600 X123.155 Y100.669 E441.90024
G0 F7800 X123.044 Y100.58
G1 F3600 X124.008 Y100.322 E441.92513
G0 F7800 X123.197 Y100.287
G1 F3600 X118.711 Y95.8 E442.08341
G0 F7800 X119.128 Y95.793
G1 F3600 X123.204 Y99.87 E442.22722
G0 F7800 X123.163 Y99.404
G1 F3600 X119.593 Y95.834 E442.35316
G0 F7800 X120.809 Y96.202
G1 F3600 X122.798 Y98.19 E442.42331
G0 F7800 X122.732 Y98.329
G1 F3600 X124.01 Y93.561 E442.54644
G0 F7800 X124.009 Y97.216
G1 F3600 X122.351 Y97.66 E442.58926
G0 F7800 X124.009 Y105.155
G1 F3600 X123.512 Y107.009 E442.63714
G0 F7800 X94.83 Y100.769
G0 X94.83 Y100.769
G1 F3600 X90.231 Y96.171 E442.79936
G0 F7800 X89.893 Y96.257
G1 F3600 X94.745 Y101.109 E442.97053
G0 F7800 X94.637 Y101.425
G1 F3600 X89.576 Y96.364 E443.14907
G0 F7800 X89.277 Y96.49
G1 F3600 X94.506 Y101.719 E443.33354
G0 F7800 X94.358 Y101.995
G1 F3600 X89.002 Y96.639 E443.52249
G0 F7800 X88.285 Y97.194
G1 F3600 X93.809 Y102.718 E443.71736
G0 F7800 X93.592 Y102.761
G1 F3600 X92.454 Y107.009 E443.82706
G0 F7800 X93.591 Y102.925
G1 F3600 X88.073 Y97.407 E444.02173
G0 F7800 X90.595 Y96.111
G1 F3600 X94.886 Y100.402 E444.1731
G0 F7800 X94.911 Y100.002
G1 F3600 X91 Y96.091 E444.31107
G0 F7800 X91.448 Y96.115
G1 F3600 X94.881 Y99.547 E444.43217
G0 F7800 X94.555 Y98.374
G1 F3600 X92.628 Y96.447 E444.50015
G0 F7800 X93.419 Y92.989
G1 F3600 X81.03 Y96.309 E444.82009
G0 F7800 X80.918 Y96.191
G1 F3600 X84.807 Y100.081 E444.95731
G0 F7800 X84.776 Y100.474
G1 F3600 X80.523 Y96.22 E445.10736
G0 F7800 X80.162 Y96.284
G1 F3600 X84.713 Y100.835 E445.26791
G0 F7800 X84.622 Y101.168
G1 F3600 X79.829 Y96.375 E445.437
G0 F7800 X81.356 Y96.206
G1 F3600 X84.792 Y99.641 E445.55819
G0 F7800 X84.706 Y99.131
G1 F3600 X81.868 Y96.293 E445.65831
G0 F7800 X81.827 Y92.989
G1 F3600 X75.989 Y94.554 E445.80908
G0 F7800 X77.201 Y99.687
G1 F3600 X81.31 Y103.796 E445.95404
G0 F7800 X80.921 Y103.686
G1 F3600 X80.03 Y107.009 E446.03986
G0 F7800 X81.553 Y107.009
G1 F3600 X75.989 Y101.445 E446.23614
G0 F7800 X75.989 Y100.766
G1 F3600 X77.333 Y100.405 E446.27086
G0 F7800 X77.234 Y100.568
G1 F3600 X80.416 Y103.75 E446.38311
G0 F7800 X80.895 Y103.805
G1 F3600 X77.193 Y100.103 E446.51371
G0 F7800 X77.361 Y101.12
G1 F3600 X79.877 Y103.636 E446.60247
G0 F7800 X79.138 Y103.321
G1 F3600 X77.677 Y101.86 E446.65401
G0 F7800 X78.169 Y102.364
G1 F3600 X76.924 Y107.009 E446.77397
G0 F7800 X77.31 Y107.009
G1 F3600 X75.989 Y105.688 E446.82057
G0 F7800 X75.989 Y103.871
G1 F3600 X78.964 Y103.074 E446.8974
G0 F7800 X83.136 Y107.009
G0 X83.136 Y107.009
G1 F3600 X86.893 Y92.989 E447.25947
; Layer Change GCode
; LAYER:7
G0 F7800 X75.423 Y107.455 Z1.65
G0 X75.175 Y107.769
G0 X75.31 Y107.6
G0 X75.31 Y107.6
G0 X75.15 Y107.85
G0 X75.15 Y107.85
G0 X75.75 Y107.25
; TYPE:WALL-INNER
G1 F1800 X75.75 Y92.75 E447.62117
G1 X124.25 Y92.75 E448.83101
G1 X124.25 Y107.25 E449.19271
G1 X75.75 Y107.25 E450.40255
G0 F7800 X75.45 Y107.55
G1 F1800 X75.45 Y92.45 E450.77922
G1 X124.55 Y92.45 E452.00403
G1 X124.55 Y107.55 E452.3807
G1 X75.45 Y107.55 E453.6055
G0 F7800 X75.15 Y107.85
; TYPE:WALL-OUTER
G1 F1260 X75.15 Y92.15 E453.99714
G1 X124.85 Y92.15 E455.23691
G1 X124.85 Y107.85 E455.62855
G1 X75.15 Y107.85 E456.86832
G0 F7800 X75.989 Y106.977
; TYPE:FILL
G1 F3600 X89.334 Y103.401 E457.21296
G0 F7800 X89.167 Y103.448
G1 F3600 X94.45 Y98.165 E457.39933
G0 F7800 X94.289 Y97.902
G1 F3600 X88.903 Y103.287 E457.58932
G0 F7800 X88.645 Y103.121
G1 F3600 X94.117 Y97.65 E457.78234
G0 F7800 X93.926 Y97.416
G1 F3600 X88.411 Y102.931 E457.9769
G0 F7800 X88.194 Y102.724
G1 F3600 X93.722 Y97.196 E458.17191
G0 F7800 X93.496 Y96.998
G1 F3600 X87.995 Y102.499 E458.36598
G0 F7800 X87.818 Y102.251
G1 F3600 X93.253 Y96.817 E458.55769
G0 F7800 X93.004 Y96.641
G1 F3600 X87.647 Y101.998 E458.74668
G0 F7800 X87.648 Y101.763
G1 F3600 X86.242 Y107.009 E458.88216
G0 F7800 X85.796 Y107.009
G1 F3600 X82.256 Y103.469 E459.00704
G0 F7800 X82.22 Y103.606
G1 F3600 X84.606 Y101.22 E459.09121
G0 F7800 X84.412 Y101.383
G1 F3600 X90.038 Y107.009 E459.28968
G0 F7800 X89.348 Y107.009
G1 F3600 X90.234 Y103.703 E459.37506
G0 F7800 X90.09 Y103.798
G1 F3600 X94.799 Y99.088 E459.5412
G0 F7800 X94.625 Y98.906
G1 F3600 X96.21 Y92.989 E459.69401
G0 F7800 X97.232 Y92.989
G1 F3600 X100.399 Y96.157 E459.80575
G0 F7800 X100.398 Y96.035
G1 F3600 X97.036 Y99.397 E459.92435
G0 F7800 X96.993 Y99.864
G1 F3600 X100.863 Y95.994 E460.06088
G0 F7800 X101.281 Y96.001
G1 F3600 X97 Y100.282 E460.2119
G0 F7800 X97.044 Y100.662
G1 F3600 X101.66 Y96.046 E460.37474
G0 F7800 X101.574 Y96.152
G1 F3600 X102.422 Y92.989 E460.45643
G0 F7800 X101.474 Y92.989
G1 F3600 X106.525 Y98.04 E460.63462
G0 F7800 X106.317 Y98.178
G1 F3600 X108.179 Y96.315 E460.70032
G0 F7800 X108.895 Y96.167
G1 F3600 X105.717 Y92.989 E460.81244
G0 F7800 X105.528 Y92.989
G1 F3600 X104.23 Y97.833 E460.93753
G0 F7800 X104.267 Y97.682
G1 F3600 X98.68 Y103.268 E461.13461
G0 F7800 X98.447 Y103.077
G1 F3600 X104.085 Y97.44 E461.33349
G0 F7800 X103.885 Y97.215
G1 F3600 X98.221 Y102.879 E461.5333
G0 F7800 X98.012 Y102.664
G1 F3600 X103.659 Y97.017 E461.73252
G0 F7800 X103.432 Y96.819
G1 F3600 X97.817 Y102.435 E461.93062
G0 F7800 X97.643 Y102.184
G1 F3600 X103.186 Y96.641 E462.12616
G0 F7800 X102.963 Y96.644
G1 F3600 X116.601 Y92.989 E462.47837
G0 F7800 X117.951 Y92.989
G1 F3600 X117.033 Y96.416 E462.56687
G0 F7800 X117.214 Y96.19
G1 F3600 X115.197 Y98.207 E462.63802
G0 F7800 X115.278 Y98.308
G1 F3600 X109.96 Y92.989 E462.82565
G0 F7800 X108.634 Y92.989
G1 F3600 X107.611 Y96.806 E462.92422
G0 F7800 X108.869 Y96.049
G1 F3600 X106.065 Y98.854 E463.02316
G0 F7800 X106.18 Y98.888
G1 F3600 X104.814 Y99.254 E463.05844
G0 F7800 X104.916 Y99.154
G1 F3600 X100.151 Y103.919 E463.22654
G0 F7800 X99.816 Y103.83
G1 F3600 X104.825 Y98.821 E463.40324
G0 F7800 X104.716 Y98.506
G1 F3600 X99.505 Y103.717 E463.58707
G0 F7800 X99.574 Y103.616
G1 F3600 X98.665 Y107.009 E463.6747
G0 F7800 X98.524 Y107.009
G1 F3600 X93.915 Y102.401 E463.83728
G0 F7800 X94.218 Y102.215
G1 F3600 X93.263 Y103.171 E463.87098
G0 F7800 X93.593 Y102.758
G1 F3600 X92.454 Y107.009 E463.98076
G0 F7800 X94.281 Y107.009
G1 F3600 X91.057 Y103.785 E464.0945
G0 F7800 X91.263 Y103.898
G1 F3600 X94.897 Y100.263 E464.22272
G0 F7800 X94.903 Y99.833
G1 F3600 X90.831 Y103.905 E464.36637
G0 F7800 X90.445 Y103.867
G1 F3600 X94.867 Y99.445 E464.52237
G0 F7800 X94.616 Y98.88
G1 F3600 X97.62 Y98.075 E464.59994
G0 F7800 X97.451 Y98.134
G1 F3600 X99.132 Y96.453 E464.65925
G0 F7800 X99.851 Y96.158
G1 F3600 X97.16 Y98.849 E464.75418
G0 F7800 X97.8 Y97.8
G1 F3600 X92.989 Y92.989 E464.9239
G0 F7800 X93.105 Y92.988
G1 F3600 X92.189 Y96.405 E465.01215
G0 F7800 X92.223 Y96.416
G1 F3600 X105.01 Y92.989 E465.34238
G0 F7800 X102.92 Y96.483
G1 F3600 X97.481 Y101.922 E465.53425
G0 F7800 X97.551 Y101.793
G1 F3600 X94.608 Y98.85 E465.63807
G0 F7800 X94.704 Y98.759
G1 F3600 X89.762 Y103.701 E465.81242
G0 F7800 X89.456 Y103.584
G1 F3600 X94.586 Y98.454 E465.99339
G0 F7800 X94.834 Y100.751
G1 F3600 X91.751 Y103.834 E466.10215
G0 F7800 X92.341 Y103.668
G1 F3600 X94.671 Y101.338 E466.18435
G0 F7800 X94.145 Y102.112
G1 F3600 X97.318 Y101.262 E466.26629
G0 F7800 X97.217 Y101.338
G1 F3600 X102.334 Y96.22 E466.44682
G0 F7800 X102.637 Y96.342
G1 F3600 X97.339 Y101.64 E466.63373
G0 F7800 X97.118 Y101.012
G1 F3600 X102.01 Y96.121 E466.80629
G0 F7800 X104.434 Y97.939
G1 F3600 X98.937 Y103.436 E467.00021
G0 F7800 X99.209 Y103.451
G1 F3600 X102.767 Y107.01 E467.12574
G0 F7800 X101.771 Y107.009
G1 F3600 X102.715 Y103.487 E467.2167
G0 F7800 X102.458 Y103.733
G1 F3600 X104.73 Y101.462 E467.29684
G0 F7800 X104.913 Y100.854
G1 F3600 X101.848 Y103.919 E467.40496
G0 F7800 X101.359 Y103.984
G1 F3600 X104.993 Y100.35 E467.53316
G0 F7800 X104.84 Y100.597
G1 F3600 X111.252 Y107.01 E467.75938
G0 F7800 X111.089 Y107.009
G1 F3600 X112.05 Y103.42 E467.85206
G0 F7800 X111.957 Y103.472
G1 F3600 X115.495 Y107.01 E467.97687
G0 F7800 X114.195 Y107.009
G1 F3600 X115.505 Y102.118 E468.10318
G0 F7800 X115.425 Y102.221
G1 F3600 X121.221 Y96.426 E468.30763
G0 F7800 X121.473 Y96.597
G1 F3600 X115.596 Y102.475 E468.51498
G0 F7800 X115.783 Y102.526
G1 F3600 X111.61 Y103.644 E468.62274
G0 F7800 X111.864 Y103.661
G1 F3600 X113.654 Y101.871 E468.68589
G0 F7800 X113.938 Y101.163
G1 F3600 X111.172 Y103.929 E468.78347
G0 F7800 X110.62 Y104.057
G1 F3600 X114.055 Y100.622 E468.90465
G0 F7800 X114.095 Y100.157
G1 F3600 X110.15 Y104.103 E469.04384
G0 F7800 X110.428 Y103.961
G1 F3600 X99.053 Y107.009 E469.3376
G0 F7800 X100.515 Y103.979
G1 F3600 X104.976 Y99.518 E469.49497
G0 F7800 X105.006 Y99.913
G1 F3600 X100.916 Y104.002 E469.63924
G0 F7800 X99.809 Y103.7
G1 F3600 X87.461 Y107.009 E469.95813
G0 F7800 X83.136 Y107.009
G1 F3600 X86.893 Y92.989 E470.3202
G0 F7800 X88.746 Y92.989
G1 F3600 X92.148 Y96.391 E470.44021
G0 F7800 X92.118 Y96.254
G1 F3600 X87.255 Y101.117 E470.61177
G0 F7800 X87.307 Y100.839
G1 F3600 X84.296 Y101.646 E470.68953
G0 F7800 X84.207 Y102.043
G1 F3600 X83.034 Y103.217 E470.73093
G0 F7800 X81.651 Y103.752
G1 F3600 X84.753 Y100.65 E470.84036
G0 F7800 X84.8 Y100.178
G1 F3600 X81.18 Y103.799 E470.96808
G0 F7800 X80.921 Y103.686
G1 F3600 X80.03 Y107.009 E471.0539
G0 F7800 X81.553 Y107.009
G1 F3600 X75.989 Y101.445 E471.25019
G0 F7800 X75.989 Y100.766
G1 F3600 X77.333 Y100.405 E471.2849
G0 F7800 X77.23 Y100.536
G1 F3600 X81.535 Y96.231 E471.43677
G0 F7800 X81.892 Y96.298
G1 F3600 X77.298 Y100.892 E471.59884
G0 F7800 X77.395 Y101.219
G1 F3600 X82.222 Y96.392 E471.76912
G0 F7800 X82.528 Y96.51
G1 F3600 X77.512 Y101.527 E471.94609
G0 F7800 X77.651 Y101.812
G1 F3600 X82.807 Y96.656 E472.12799
G0 F7800 X82.773 Y96.775
G1 F3600 X83.787 Y92.989 E472.22576
G0 F7800 X84.503 Y92.988
G1 F3600 X88.596 Y97.081 E472.37015
G0 F7800 X88.975 Y96.809
G1 F3600 X89.999 Y92.989 E472.4688
G0 F7800 X90.561 Y96.114
G0 X90.561 Y96.114
G1 F3600 X87.119 Y99.556 E472.59023
G0 F7800 X87.211 Y99.938
G1 F3600 X80.26 Y92.988 E472.83543
G0 F7800 X80.681 Y92.989
G1 F3600 X79.73 Y96.538 E472.92708
G0 F7800 X79.611 Y96.581
G1 F3600 X76.018 Y92.988 E473.05383
G0 F7800 X77.575 Y92.989
G1 F3600 X75.989 Y98.909 E473.20672
G0 F7800 X75.989 Y97.66
G1 F3600 X79.128 Y96.818 E473.28779
G0 F7800 X78.62 Y97.024
G1 F3600 X78.027 Y97.618 E473.30872
G0 F7800 X77.448 Y98.62
G1 F3600 X79.62 Y96.448 E473.38535
G0 F7800 X80.222 Y96.271
G1 F3600 X77.271 Y99.221 E473.48943
G0 F7800 X77.2 Y99.717
G1 F3600 X80.717 Y96.2 E473.61351
G0 F7800 X81.029 Y96.309
G1 F3600 X93.419 Y92.989 E473.93348
G0 F7800 X92.43 Y96.366
G1 F3600 X87.364 Y101.433 E474.11221
G0 F7800 X87.495 Y101.726
G1 F3600 X92.728 Y96.493 E474.29682
G0 F7800 X91.771 Y96.177
G1 F3600 X87.17 Y100.778 E474.45913
G0 F7800 X87.113 Y100.411
G1 F3600 X91.412 Y96.112 E474.61079
G0 F7800 X91.008 Y96.091
G1 F3600 X87.088 Y100.011 E474.74908
G0 F7800 X87.22 Y99.031
G1 F3600 X90.041 Y96.21 E474.8486
G0 F7800 X89.388 Y96.438
G1 F3600 X87.438 Y98.388 E474.91739
G0 F7800 X88.152 Y97.506
G1 F3600 X84.375 Y98.518 E475.01493
G0 F7800 X84.456 Y98.401
G1 F3600 X79.401 Y103.456 E475.19326
G0 F7800 X79.123 Y103.309
G1 F3600 X84.314 Y98.118 E475.37639
G0 F7800 X84.149 Y97.859
G1 F3600 X78.86 Y103.149 E475.56299
G0 F7800 X78.966 Y103.074
G1 F3600 X75.989 Y103.871 E475.63987
G0 F7800 X75.989 Y105.688
G1 F3600 X77.31 Y107.009 E475.68647
G0 F7800 X76.924 Y107.009
G1 F3600 X78.169 Y102.366 E475.80638
G0 F7800 X77.986 Y102.326
G1 F3600 X83.325 Y96.986 E475.99475
G0 F7800 X83.554 Y97.181
G1 F3600 X78.179 Y102.556 E476.18436
G0 F7800 X78.393 Y102.767
G1 F3600 X83.772 Y97.388 E476.37412
G0 F7800 X83.969 Y97.615
G1 F3600 X78.623 Y102.961 E476.56272
G0 F7800 X77.81 Y102.077
G1 F3600 X83.077 Y96.809 E476.74854
G0 F7800 X81.148 Y96.194
G1 F3600 X77.195 Y100.146 E476.88798
G0 F7800 X77.528 Y98.741
G1 F3600 X75.989 Y97.203 E476.94225
G0 F7800 X75.989 Y94.554
G1 F3600 X81.827 Y92.989 E477.09302
G0 F7800 X84.577 Y98.705
G1 F3600 X79.701 Y103.58 E477.26502
G0 F7800 X80.026 Y103.68
G1 F3600 X84.683 Y99.023 E477.42931
G0 F7800 X84.753 Y99.377
G1 F3600 X80.385 Y103.745 E477.5834
G0 F7800 X80.755 Y103.799
G1 F3600 X84.799 Y99.755 E477.72606
G0 F7800 X97.208 Y100.857
G1 F3600 X95.559 Y107.009 E477.88494
G0 F7800 X99.209 Y103.588
G1 F3600 X104.585 Y98.212 E478.0746
G0 F7800 X105.933 Y99.41
G1 F3600 X109.412 Y95.931 E478.19733
G0 F7800 X109.875 Y95.892
G1 F3600 X105.892 Y99.875 E478.33784
G0 F7800 X105.9 Y100.291
G1 F3600 X110.29 Y95.902 E478.49269
G0 F7800 X110.669 Y95.947
G1 F3600 X105.944 Y100.672 E478.65938
G0 F7800 X106.017 Y101.022
G1 F3600 X111.02 Y96.02 E478.83585
G0 F7800 X110.902 Y96.113
G1 F3600 X111.739 Y92.989 E478.91653
G0 F7800 X114.203 Y92.99
G1 F3600 X117.436 Y96.223 E479.03058
G0 F7800 X117.887 Y95.941
G1 F3600 X114.946 Y98.882 E479.13434
G0 F7800 X114.831 Y99.422
G1 F3600 X118.411 Y95.841 E479.26065
G0 F7800 X118.881 Y95.795
G1 F3600 X114.792 Y99.885 E479.40492
G0 F7800 X114.924 Y99.65
G1 F3600 X113.985 Y99.902 E479.42917
G0 F7800 X114.098 Y99.731
G1 F3600 X109.729 Y104.099 E479.58328
G0 F7800 X109.348 Y104.056
G1 F3600 X114.049 Y99.354 E479.74914
G0 F7800 X113.977 Y99.002
G1 F3600 X108.997 Y103.982 E479.92482
G0 F7800 X108.839 Y103.816
G1 F3600 X107.983 Y107.009 E480.00728
G0 F7800 X107.01 Y107.01
G1 F3600 X103.201 Y103.201 E480.14165
G0 F7800 X103.43 Y103.185
G1 F3600 X104.183 Y102.432 E480.16822
G0 F7800 X103.879 Y102.61
G1 F3600 X106.503 Y101.907 E480.23598
G0 F7800 X106.381 Y101.932
G1 F3600 X111.935 Y96.377 E480.43193
G0 F7800 X112.205 Y96.532
G1 F3600 X106.54 Y102.197 E480.63178
G0 F7800 X106.713 Y102.449
G1 F3600 X112.456 Y96.705 E480.8344
G0 F7800 X112.688 Y96.897
G1 F3600 X106.899 Y102.686 E481.03862
G0 F7800 X107.106 Y102.903
G1 F3600 X112.909 Y97.101 E481.24332
G0 F7800 X112.759 Y97.125
G1 F3600 X124.009 Y94.11 E481.53386
G0 F7800 X124.009 Y94.311
G1 F3600 X122.688 Y92.99 E481.58046
G0 F7800 X124.01 Y93.561
G1 F3600 X122.732 Y98.329 E481.70359
G0 F7800 X122.815 Y98.226
G1 F3600 X117.231 Y103.809 E481.90057
G0 F7800 X116.944 Y103.673
G1 F3600 X122.673 Y97.944 E482.10267
G0 F7800 X122.512 Y97.68
G1 F3600 X116.68 Y103.512 E482.30841
G0 F7800 X116.432 Y103.335
G1 F3600 X122.335 Y97.432 E482.51666
G0 F7800 X122.351 Y97.66
G1 F3600 X124.009 Y97.216 E482.55947
G0 F7800 X124.009 Y98.553
G1 F3600 X118.446 Y92.99 E482.75572
G0 F7800 X121.057 Y92.989
G1 F3600 X120.224 Y96.099 E482.83604
G0 F7800 X120.36 Y96.014
G1 F3600 X115.014 Y101.36 E483.02463
G0 F7800 X115.143 Y101.655
G1 F3600 X120.664 Y96.133 E483.21942
G0 F7800 X120.952 Y96.271
G1 F3600 X115.272 Y101.95 E483.41978
G0 F7800 X115.783 Y102.712
G1 F3600 X121.711 Y96.784 E483.6289
G0 F7800 X121.934 Y96.985
G1 F3600 X115.985 Y102.934 E483.83877
G0 F7800 X116.201 Y103.142
G1 F3600 X122.142 Y97.201 E484.04835
G0 F7800 X122.939 Y98.526
G1 F3600 X117.527 Y103.938 E484.23928
G0 F7800 X117.847 Y104.042
G1 F3600 X123.045 Y98.845 E484.42263
G0 F7800 X123.125 Y99.188
G1 F3600 X118.192 Y104.122 E484.59668
G0 F7800 X118.111 Y103.984
G1 F3600 X117.3 Y107.008 E484.67478
G0 F7800 X119.737 Y107.01
G1 F3600 X113.831 Y101.103 E484.88314
G0 F7800 X114.918 Y101.032
G1 F3600 X120.03 Y95.919 E485.0635
G0 F7800 X119.68 Y95.845
G1 F3600 X114.845 Y100.68 E485.23407
G0 F7800 X114.801 Y100.3
G1 F3600 X119.3 Y95.8 E485.3928
G0 F7800 X114.845 Y92.989
G1 F3600 X113.486 Y98.061 E485.52378
G0 F7800 X113.629 Y98.078
G1 F3600 X108.077 Y103.63 E485.71965
G0 F7800 X107.806 Y103.476
G1 F3600 X113.471 Y97.811 E485.91949
G0 F7800 X113.301 Y97.558
G1 F3600 X107.555 Y103.304 E486.1222
G0 F7800 X107.319 Y103.115
G1 F3600 X113.113 Y97.321 E486.3266
G0 F7800 X113.767 Y98.364
G1 F3600 X108.363 Y103.768 E486.51724
G0 F7800 X108.67 Y103.885
G1 F3600 X113.883 Y98.672 E486.70114
G0 F7800 X111.65 Y96.239
G1 F3600 X106.236 Y101.652 E486.89212
G0 F7800 X106.333 Y101.574
G1 F3600 X104.877 Y107.009 E487.03248
G0 F7800 X110.644 Y107.009
G0 X110.644 Y107.009
G1 F3600 X124.009 Y103.428 E487.37763
G0 F7800 X124.008 Y102.795
G1 F3600 X122.774 Y101.561 E487.42116
G0 F7800 X122.919 Y101.516
G1 F3600 X120.519 Y103.915 E487.50581
G0 F7800 X120.691 Y103.72
G1 F3600 X123.98 Y107.01 E487.62185
G0 F7800 X123.512 Y107.009
G1 F3600 X124.009 Y105.155 E487.66974
G0 F7800 X124.009 Y106.534
G1 F3600 X122.236 Y107.009 E487.71552
G0 F7800 X120.406 Y107.008
G1 F3600 X121.398 Y103.308 E487.81108
G0 F7800 X121.418 Y103.441
G1 F3600 X122.424 Y102.435 E487.84657
G0 F7800 X123.095 Y100.915
G1 F3600 X119.912 Y104.098 E487.95886
G0 F7800 X119.398 Y104.188
G1 F3600 X123.188 Y100.398 E488.09256
G0 F7800 X123.044 Y100.58
G1 F3600 X124.008 Y100.322 E488.11745
G0 F7800 X123.208 Y99.954
G1 F3600 X118.955 Y104.207 E488.26749
G0 F7800 X118.559 Y104.179
G1 F3600 X123.182 Y99.555 E488.4306
G0 F7800 X111.345 Y96.119
G0 X111.345 Y96.119
G1 F3600 X106.115 Y101.349 E488.6151
G0 F7800 X98.144 Y97.362
G1 F3600 X99.316 Y92.989 E488.72803
; Layer Change GCode
; LAYER:8
G0 F7800 X75.469 Y107.502 Z1.85
G0 X75.127 Y107.71
G0 X75.31 Y107.6
G0 X75.31 Y107.6
G0 X75.15 Y107.85
G0 X75.15 Y107.85
G0 X75.75 Y107.25
; TYPE:WALL-INNER
G1 F1800 X75.75 Y92.75 E489.08974
G1 X124.25 Y92.75 E490.29957
G1 X124.25 Y107.25 E490.66128
G1 X75.75 Y107.25 E491.87112
G0 F7800 X75.45 Y107.55
G1 F1800 X75.45 Y92.45 E492.24779
G1 X124.55 Y92.45 E493.47259
G1 X124.55 Y107.55 E493.84926
G1 X75.45 Y107.55 E495.07407
G0 F7800 X75.15 Y107.85
; TYPE:WALL-OUTER
G1 F1260 X75.15 Y92.15 E495.46571
G1 X124.85 Y92.15 E496.70548
G1 X124.85 Y107.85 E497.09712
G1 X75.15 Y107.85 E498.33689
G0 F7800 X75.989 Y106.977
; TYPE:FILL
G1 F3600 X89.333 Y103.402 E498.68149
G0 F7800 X89.663 Y103.664
G1 F3600 X87.318 Y101.319 E498.76422
G0 F7800 X87.307 Y100.839
G1 F3600 X84.289 Y101.647 E498.84215
G0 F7800 X84.365 Y101.76
G1 F3600 X79.232 Y96.627 E499.02324
G0 F7800 X79.128 Y96.818
G1 F3600 X75.989 Y97.66 E499.10431
G0 F7800 X75.989 Y97.203
G1 F3600 X77.528 Y98.741 E499.15858
G0 F7800 X77.437 Y98.65
G1 F3600 X82.348 Y103.561 E499.33183
G0 F7800 X82.254 Y103.468
G1 F3600 X85.796 Y107.009 E499.45677
G0 F7800 X86.242 Y107.009
G1 F3600 X87.648 Y101.762 E499.59227
G0 F7800 X87.797 Y102.222
G1 F3600 X88.787 Y103.212 E499.6272
G0 F7800 X90.231 Y103.712
G1 F3600 X89.348 Y107.009 E499.71234
G0 F7800 X90.038 Y107.009
G1 F3600 X84.41 Y101.381 E499.91088
G0 F7800 X84.504 Y101.474
G1 F3600 X79.519 Y96.49 E500.08672
G0 F7800 X79.611 Y96.581
G1 F3600 X76.018 Y92.988 E500.21347
G0 F7800 X77.575 Y92.989
G1 F3600 X75.989 Y98.909 E500.36636
G0 F7800 X77.251 Y99.313
G1 F3600 X81.684 Y103.745 E500.52273
G0 F7800 X82.028 Y103.666
G1 F3600 X77.332 Y98.969 E500.68841
G0 F7800 X77.571 Y98.36
G1 F3600 X82.643 Y103.432 E500.86734
G0 F7800 X82.919 Y103.284
G1 F3600 X77.715 Y98.079 E501.05094
G0 F7800 X77.875 Y97.815
G1 F3600 X83.181 Y103.122 E501.23814
G0 F7800 X83.422 Y102.938
G1 F3600 X78.059 Y97.575 E501.42733
G0 F7800 X78.26 Y97.352
G1 F3600 X83.645 Y102.736 E501.61729
G0 F7800 X83.853 Y102.521
G1 F3600 X78.477 Y97.145 E501.80694
G0 F7800 X78.712 Y96.955
G1 F3600 X84.038 Y102.281 E501.99483
G0 F7800 X84.215 Y102.034
G1 F3600 X78.963 Y96.782 E502.18011
G0 F7800 X79.73 Y96.538
G1 F3600 X80.681 Y92.989 E502.27176
G0 F7800 X80.26 Y92.988
G1 F3600 X87.214 Y99.942 E502.51708
G0 F7800 X87.097 Y99.825
G1 F3600 X91.175 Y103.902 E502.66093
G0 F7800 X91.055 Y103.783
G1 F3600 X94.281 Y107.009 E502.77473
G0 F7800 X95.559 Y107.009
G1 F3600 X97.208 Y100.857 E502.93361
G0 F7800 X97.098 Y100.916
G1 F3600 X100.083 Y103.902 E503.03893
G0 F7800 X99.809 Y103.7
G1 F3600 X87.461 Y107.009 E503.35782
G0 F7800 X90.262 Y103.838
G1 F3600 X87.162 Y100.738 E503.46719
G0 F7800 X87.1 Y100.252
G1 F3600 X90.746 Y103.898 E503.59581
G0 F7800 X91.561 Y103.865
G1 F3600 X87.137 Y99.441 E503.75188
G0 F7800 X87.206 Y99.085
G1 F3600 X91.913 Y103.793 E503.91795
G0 F7800 X92.244 Y103.7
G1 F3600 X87.297 Y98.753 E504.09246
G0 F7800 X87.42 Y98.451
G1 F3600 X92.548 Y103.579 E504.27337
G0 F7800 X92.838 Y103.445
G1 F3600 X87.552 Y98.159 E504.45985
G0 F7800 X87.71 Y97.892
G1 F3600 X93.107 Y103.289 E504.65024
G0 F7800 X93.357 Y103.115
G1 F3600 X87.883 Y97.641 E504.84335
G0 F7800 X88.078 Y97.412
G1 F3600 X93.591 Y102.925 E505.03784
G0 F7800 X93.594 Y102.755
G1 F3600 X92.454 Y107.009 E505.1477
G0 F7800 X93.805 Y102.715
G1 F3600 X88.283 Y97.193 E505.3425
G0 F7800 X88.508 Y96.993
G1 F3600 X94.002 Y102.487 E505.53632
G0 F7800 X93.916 Y102.401
G1 F3600 X98.524 Y107.009 E505.69888
G0 F7800 X98.665 Y107.009
G1 F3600 X99.574 Y103.616 E505.7865
G0 F7800 X99.451 Y103.694
G1 F3600 X97.301 Y101.544 E505.86235
G0 F7800 X97.322 Y101.261
G1 F3600 X94.146 Y102.112 E505.94437
G0 F7800 X94.19 Y102.251
G1 F3600 X88.748 Y96.809 E506.13635
G0 F7800 X88.975 Y96.809
G1 F3600 X89.999 Y92.989 E506.235
G0 F7800 X88.746 Y92.989
G1 F3600 X92.144 Y96.387 E506.35488
G0 F7800 X92.19 Y96.403
G1 F3600 X93.105 Y92.988 E506.44307
G0 F7800 X92.989 Y92.989
G1 F3600 X97.8 Y97.8 E506.61279
G0 F7800 X97.714 Y97.714
G1 F3600 X103.285 Y103.285 E506.80932
G0 F7800 X103.198 Y103.198
G1 F3600 X107.01 Y107.01 E506.9438
G0 F7800 X107.983 Y107.009
G1 F3600 X108.839 Y103.816 E507.02626
G0 F7800 X109.1 Y104.009
G1 F3600 X105.991 Y100.9 E507.13594
G0 F7800 X105.908 Y100.392
G1 F3600 X109.6 Y104.085 E507.2662
G0 F7800 X110.043 Y104.103
G1 F3600 X105.889 Y99.95 E507.41273
G0 F7800 X105.914 Y99.55
G1 F3600 X110.443 Y104.079 E507.5725
G0 F7800 X110.434 Y103.959
G1 F3600 X99.053 Y107.009 E507.86642
G0 F7800 X101.771 Y107.009
G1 F3600 X102.717 Y103.478 E507.95761
G0 F7800 X102.747 Y103.596
G1 F3600 X97.4 Y98.248 E508.14626
G0 F7800 X97.618 Y98.076
G1 F3600 X94.608 Y98.882 E508.22399
G0 F7800 X94.622 Y98.918
G1 F3600 X96.21 Y92.989 E508.3771
G0 F7800 X97.232 Y92.989
G1 F3600 X100.401 Y96.158 E508.48889
G0 F7800 X100.298 Y96.055
G1 F3600 X104.945 Y100.703 E508.65285
G0 F7800 X104.84 Y100.597
G1 F3600 X111.252 Y107.01 E508.87907
G0 F7800 X111.089 Y107.009
G1 F3600 X112.05 Y103.42 E508.97175
G0 F7800 X111.957 Y103.472
G1 F3600 X115.495 Y107.01 E509.09656
G0 F7800 X114.195 Y107.009
G1 F3600 X115.505 Y102.119 E509.22284
G0 F7800 X115.52 Y102.367
G1 F3600 X116.628 Y103.475 E509.26193
G0 F7800 X117.51 Y103.934
G1 F3600 X115.062 Y101.486 E509.34829
G0 F7800 X114.887 Y100.886
G1 F3600 X118.112 Y104.111 E509.46206
G0 F7800 X118.11 Y103.988
G1 F3600 X117.3 Y107.008 E509.54006
G0 F7800 X119.737 Y107.01
G1 F3600 X113.831 Y101.103 E509.74842
G0 F7800 X113.926 Y101.199
G1 F3600 X108.799 Y96.071 E509.92931
G0 F7800 X108.897 Y96.169
G1 F3600 X105.717 Y92.989 E510.04149
G0 F7800 X105.528 Y92.989
G1 F3600 X104.225 Y97.851 E510.16706
G0 F7800 X104.594 Y98.23
G1 F3600 X102.763 Y96.399 E510.23165
G0 F7800 X102.963 Y96.644
G1 F3600 X116.601 Y92.989 E510.58386
G0 F7800 X117.951 Y92.989
G1 F3600 X117.033 Y96.415 E510.67233
G0 F7800 X117.057 Y96.269
G1 F3600 X122.728 Y101.939 E510.87238
G0 F7800 X122.576 Y102.211
G1 F3600 X116.785 Y96.421 E511.07665
G0 F7800 X116.531 Y96.591
G1 F3600 X122.406 Y102.466 E511.28391
G0 F7800 X122.221 Y102.705
G1 F3600 X116.292 Y96.776 E511.49307
G0 F7800 X116.07 Y96.978
G1 F3600 X122.019 Y102.927 E511.70294
G0 F7800 X121.804 Y103.136
G1 F3600 X115.861 Y97.193 E511.91259
G0 F7800 X115.667 Y97.423
G1 F3600 X121.573 Y103.33 E512.12096
G0 F7800 X121.398 Y103.308
G1 F3600 X120.406 Y107.008 E512.21652
G0 F7800 X122.236 Y107.009
G1 F3600 X124.009 Y106.534 E512.2623
G0 F7800 X123.98 Y107.01
G1 F3600 X120.691 Y103.72 E512.37835
G0 F7800 X120.78 Y103.81
G1 F3600 X115.19 Y98.219 E512.57557
G0 F7800 X115.278 Y98.308
G1 F3600 X109.96 Y92.989 E512.76319
G0 F7800 X108.634 Y92.989
G1 F3600 X107.612 Y96.8 E512.86162
G0 F7800 X107.66 Y96.629
G1 F3600 X113.373 Y102.343 E513.06318
G0 F7800 X113.189 Y102.582
G1 F3600 X107.414 Y96.807 E513.26691
G0 F7800 X107.191 Y97.009
G1 F3600 X112.994 Y102.812 E513.47162
G0 F7800 X112.779 Y103.021
G1 F3600 X106.983 Y97.225 E513.67609
G0 F7800 X106.778 Y97.444
G1 F3600 X112.551 Y103.217 E513.87975
G0 F7800 X112.306 Y103.397
G1 F3600 X106.598 Y97.688 E514.08113
G0 F7800 X106.437 Y97.952
G1 F3600 X112.046 Y103.56 E514.27899
G0 F7800 X111.767 Y103.706
G1 F3600 X106.29 Y98.229 E514.47221
G0 F7800 X106.524 Y98.038
G1 F3600 X101.474 Y92.989 E514.65034
G0 F7800 X102.422 Y92.989
G1 F3600 X101.574 Y96.152 E514.73203
G0 F7800 X101.54 Y96.025
G1 F3600 X104.967 Y99.452 E514.85292
G0 F7800 X104.813 Y99.254
G1 F3600 X106.181 Y98.887 E514.88826
G0 F7800 X106.066 Y98.853
G1 F3600 X111.148 Y103.936 E515.06755
G0 F7800 X111.47 Y103.833
G1 F3600 X106.163 Y98.526 E515.25477
G0 F7800 X105.979 Y99.19
G1 F3600 X110.806 Y104.018 E515.42508
G0 F7800 X111.608 Y103.645
G1 F3600 X115.783 Y102.526 E515.5329
G0 F7800 X113.817 Y101.513
G0 X113.817 Y101.513
G1 F3600 X108.482 Y96.179 E515.72109
G0 F7800 X108.192 Y96.312
G1 F3600 X113.687 Y101.807 E515.91494
G0 F7800 X113.538 Y102.083
G1 F3600 X107.922 Y96.467 E516.11306
G0 F7800 X109.132 Y95.98
G1 F3600 X114.013 Y100.861 E516.28525
G0 F7800 X114.071 Y100.494
G1 F3600 X109.495 Y95.919 E516.44666
