; generated by Slic3r 1.2.9 on 2017-04-18 at 13:19:58

; external perimeters extrusion width = 0.30mm
; perimeters extrusion width = 0.40mm
; infill extrusion width = 0.40mm
; solid infill extrusion width = 0.40mm
; top infill extrusion width = 0.40mm

M107
M190 S85 ; set bed temperature
M104 S210 ; set temperature
G28 ; home all axes
G1 Z5 F5000 ; lift nozzle

M109 S210 ; wait for temperature to be reached
G21 ; set units to millimeters
G90 ; use absolute coordinates
M82 ; use absolute distances for extrusion
G92 E0
G1 Z0.300 F7800.000
G1 E-1.00000 F2400.00000
G92 E0
G1 X62.951 Y73.377 F7800.000
G1 E1.00000 F2400.00000
G1 X64.632 Y72.285 E1.13389 F1260.000
G1 X66.500 Y71.929 E1.26096
G1 X133.500 Y71.929 E5.73692
G1 X135.465 Y72.325 E5.87081
G1 X137.123 Y73.451 E6.00471 F1260.000
G1 X138.215 Y75.132 E6.13860
G1 X138.571 Y77.000 E6.26567
G1 X138.571 Y123.000 E9.33871
G1 X138.175 Y124.965 E9.47261
G1 X137.049 Y126.623 E9.60650
G1 X135.368 Y127.715 E9.74040
G1 X133.500 Y128.071 E9.86746
G1 X66.500 Y128.071 E14.34342
G1 X64.535 Y127.675 E14.47732
G1 X62.877 Y126.549 E14.61121
G1 X61.785 Y124.868 E14.74511
G1 X61.429 Y123.000 E14.87217
G1 X61.429 Y77.000 E17.94522
G1 X61.825 Y75.035 E18.07911
G1 X62.926 Y73.415 E18.21000
G1 X63.409 Y73.712 F7800.000
G1 X63.478 Y73.618 E18.21778 F1260.000
G1 X65.123 Y72.679 E18.34433
G1 X66.500 Y72.464 E18.43745
G1 X133.500 Y72.464 E22.91341
G1 X135.353 Y72.860 E23.03997
G1 X136.882 Y73.978 E23.16652 F1260.000
G1 X137.821 Y75.623 E23.29307
G1 X138.036 Y77.000 E23.38619
G1 X138.036 Y123.000 E26.45924
G1 X137.640 Y124.853 E26.58579
G1 X136.522 Y126.382 E26.71234
G1 X134.877 Y127.321 E26.83889
G1 X133.500 Y127.536 E26.93201
G1 X66.500 Y127.536 E31.40797
G1 X64.647 Y127.140 E31.53452
G1 X63.118 Y126.022 E31.66107
G1 X62.179 Y124.377 E31.78762
G1 X61.964 Y123.000 E31.88074
G1 X61.964 Y77.000 E34.95379
G1 X62.360 Y75.147 E35.08034
G1 X63.382 Y73.748 E35.19611
G1 E34.19611 F2400.00000
G92 E0
G1 X65.652 Y75.955 F7800.000
G1 E1.00000 F2400.00000
G1 X65.945 Y75.661 E1.02775 F1260.000
G1 X134.055 Y75.661 E5.57782
G1 X134.839 Y76.445 E5.65193
G1 X134.839 Y123.555 E8.79909 F1260.000
G1 X134.055 Y124.339 E8.87319
G1 X65.945 Y124.339 E13.42326
G1 X65.161 Y123.555 E13.49737
G1 X65.161 Y76.445 E16.64453
G1 X65.620 Y75.987 E16.68788
G1 X66.030 Y76.333 F7800.000
G1 X66.167 Y76.197 E16.70081 F1260.000
G1 X133.833 Y76.197 E21.22123
G1 X134.303 Y76.667 E21.26570 F1260.000
G1 X134.303 Y123.333 E24.38321
G1 X133.833 Y123.803 E24.42768
G1 X66.167 Y123.803 E28.94810
G1 X65.697 Y123.333 E28.99257
G1 X65.697 Y76.667 E32.11008
G1 X65.999 Y76.365 E32.13861
G1 X66.389 Y76.732 F7800.000
G1 X133.611 Y76.732 E36.62939 F1260.000
G1 X133.768 Y76.889 E36.64421
G1 X133.768 Y123.111 E39.73208 F1260.000
G1 X133.611 Y123.268 E39.74691
G1 X66.389 Y123.268 E44.23769
G1 X66.232 Y123.111 E44.25251
G1 X66.232 Y76.889 E47.34038
G1 X66.357 Y76.764 E47.35220
G1 E46.35220 F2400.00000
G92 E0
G1 X133.200 Y122.700 F7800.000
G1 E1.00000 F2400.00000
G1 X66.800 Y122.700 E5.43588 F315.000
G1 X66.800 Y77.300 E8.46884
G1 X133.200 Y77.300 E12.90472
G1 X133.200 Y122.655 E15.93468
G1 X132.940 Y122.550 F7800.000
G1 X132.664 Y122.164 F7800.000
G1 X67.336 Y122.164 E20.29900 F630.000
G1 X67.336 Y77.836 E23.26040
G1 X132.664 Y77.836 E27.62471
G1 X132.664 Y122.119 E30.58311
G1 X132.129 Y121.629 F7800.000
G1 X67.871 Y121.629 E34.87586 F630.000
G1 X67.871 Y78.371 E37.76570
G1 X132.129 Y78.371 E42.05845
G1 X132.129 Y121.584 E44.94528
G1 E43.94528 F2400.00000
G92 E0
G1 X106.537 Y118.115 F7800.000
G1 X92.122 Y113.890 F7800.000
G1 X85.726 Y109.785 F7800.000
G1 X85.890 Y107.015 F7800.000
G1 X85.953 Y105.591 F7800.000
G1 X85.969 Y105.216 F7800.000
G1 X85.971 Y105.174 F7800.000
G1 X78.868 Y102.361 F7800.000
G1 X78.205 Y102.138 F7800.000
G1 E1.00000 F2400.00000
G1 X77.972 Y102.653 E1.03774 F315.000
G1 X77.815 Y102.907 E1.05769
G1 X77.456 Y103.353 E1.09597
G1 X77.020 Y103.736 E1.13470
G1 X76.527 Y104.039 E1.17340
G1 X76.002 Y104.249 E1.21114
G1 X75.713 Y104.325 E1.23109
G1 X75.145 Y104.398 E1.26937
G1 X74.566 Y104.373 E1.30810
G1 X74.006 Y104.252 E1.34637
G1 X73.725 Y104.152 E1.36632
G1 X73.220 Y103.898 E1.40407
G1 X72.759 Y103.557 E1.44236
G1 X72.538 Y103.345 E1.46285
G1 X72.183 Y102.905 E1.50059
G1 X71.900 Y102.399 E1.53931
G1 X71.708 Y101.853 E1.57801
G1 X71.612 Y101.296 E1.61576
G1 X71.600 Y100.998 E1.63570
G1 X71.648 Y100.427 E1.67398
G1 X71.794 Y99.866 E1.71270
G1 X72.026 Y99.351 E1.75044
G1 X72.187 Y99.090 E1.77093
G1 X72.547 Y98.644 E1.80922
G1 X72.971 Y98.271 E1.84697
G1 X73.219 Y98.104 E1.86691
G1 X73.730 Y97.845 E1.90519
G1 X74.284 Y97.675 E1.94392
G1 X74.859 Y97.602 E1.98262 F315.000
G1 X75.424 Y97.626 E2.02037
G1 X75.718 Y97.676 E2.04031
G1 X76.266 Y97.843 E2.07859
G1 X76.784 Y98.104 E2.11731
G1 X77.238 Y98.440 E2.15505
G1 X77.460 Y98.652 E2.17553
G1 X77.815 Y99.093 E2.21340
G1 X77.972 Y99.347 E2.23335
G1 X78.205 Y99.862 E2.27110
G1 X78.352 Y100.422 E2.30979
G1 X78.401 Y101.000 E2.34852
G1 X78.352 Y101.578 E2.38725
G1 X78.216 Y102.094 E2.42294
G1 X78.393 Y102.371 F7800.000
G1 X78.723 Y102.274 F7800.000
G1 X78.446 Y102.904 E2.46895 F315.000
G1 X78.254 Y103.217 E2.49345
G1 X77.844 Y103.725 E2.53707
G1 X77.340 Y104.168 E2.58193
G1 X76.768 Y104.519 E2.62671
G1 X76.170 Y104.759 E2.66975
G1 X75.816 Y104.852 E2.69425
G1 X75.168 Y104.935 E2.73786
G1 X74.497 Y104.906 E2.78272
G1 X73.859 Y104.768 E2.82632
G1 X73.514 Y104.646 E2.85080
G1 X72.938 Y104.356 E2.89385
G1 X72.413 Y103.968 E2.93750
G1 X72.142 Y103.708 E2.96257
G1 X71.737 Y103.206 E3.00562
G1 X71.410 Y102.620 E3.05045
G1 X71.188 Y101.988 E3.09524
G1 X71.079 Y101.353 E3.13829
G1 X71.063 Y100.987 E3.16278
G1 X71.118 Y100.336 E3.20638
G1 X71.287 Y99.687 E3.25121
G1 X71.552 Y99.100 E3.29426
G1 X71.748 Y98.780 E3.31933
G1 X72.159 Y98.272 E3.36298
G1 X72.643 Y97.846 E3.40603
G1 X72.947 Y97.641 E3.43051
G1 X73.529 Y97.346 E3.47411
G1 X74.171 Y97.150 E3.51897
G1 X74.837 Y97.065 E3.56377 F315.000
G1 X75.480 Y97.092 E3.60683
G1 X75.842 Y97.154 E3.63131
G1 X76.466 Y97.344 E3.67490
G1 X77.065 Y97.646 E3.71974
G1 X77.583 Y98.029 E3.76278
G1 X77.855 Y98.288 E3.78784
G1 X78.254 Y98.783 E3.83031
G1 X78.446 Y99.096 E3.85482
G1 X78.711 Y99.683 E3.89785
G1 X78.881 Y100.331 E3.94263
G1 X78.939 Y101.000 E3.98749
G1 X78.881 Y101.669 E4.03235
G1 X78.734 Y102.230 E4.07111
G1 X79.241 Y102.410 F7800.000
G1 X79.218 Y102.497 E4.07714 F315.000
G1 X78.920 Y103.156 E4.12547
G1 X78.692 Y103.526 E4.15452
G1 X78.232 Y104.097 E4.20347
G1 X77.659 Y104.601 E4.25447
G1 X77.010 Y104.999 E4.30533
G1 X76.338 Y105.269 E4.35367
G1 X75.918 Y105.378 E4.38272
G1 X75.191 Y105.472 E4.43166
G1 X74.428 Y105.440 E4.48266
G1 X73.713 Y105.284 E4.53157
G1 X73.303 Y105.140 E4.56059
G1 X72.657 Y104.814 E4.60896
G1 X72.067 Y104.378 E4.65796
G1 X71.747 Y104.070 E4.68761
G1 X71.292 Y103.507 E4.73596
G1 X70.920 Y102.842 E4.78690
G1 X70.667 Y102.123 E4.83779
G1 X70.545 Y101.410 E4.88614
G1 X70.527 Y100.976 E4.91517
G1 X70.588 Y100.246 E4.96410
G1 X70.780 Y99.508 E5.01504
G1 X71.078 Y98.848 E5.06339
G1 X71.310 Y98.470 E5.09305
G1 X71.772 Y97.900 E5.14204
G1 X72.315 Y97.422 E5.19040
G1 X72.675 Y97.178 E5.21942
G1 X73.328 Y96.848 E5.26834
G1 X74.058 Y96.624 E5.31934
G1 X74.814 Y96.528 E5.37024 F315.000
G1 X75.537 Y96.559 E5.41861
G1 X75.965 Y96.632 E5.44762
G1 X76.666 Y96.845 E5.49653
G1 X77.347 Y97.188 E5.54749
G1 X77.929 Y97.619 E5.59583
G1 X78.250 Y97.925 E5.62547
G1 X78.692 Y98.474 E5.67254
G1 X78.920 Y98.844 E5.70159
G1 X79.218 Y99.503 E5.74992
G1 X79.411 Y100.239 E5.80078
G1 X79.476 Y101.000 E5.85177
G1 X79.411 Y101.761 E5.90277
G1 X79.252 Y102.366 E5.94459
G1 E4.94459 F2400.00000
G92 E0
G1 X85.479 Y90.683 F7800.000
G1 E1.00000 F2400.00000
G1 X85.038 Y90.349 E1.03700 F315.000
G1 X84.665 Y89.940 E1.07399
G1 X84.376 Y89.476 E1.11046
G1 X84.260 Y89.222 E1.12912
G1 X84.109 Y88.719 E1.16418
G1 X84.045 Y88.171 E1.20109
G1 X84.082 Y87.618 E1.23809
G1 X84.218 Y87.081 E1.27508
G1 X84.448 Y86.579 E1.31200
G1 X84.747 Y86.148 E1.34706
G1 X84.936 Y85.942 E1.36571
G1 X85.354 Y85.590 E1.40218
G1 X85.835 Y85.317 E1.43918
G1 X86.358 Y85.135 E1.47618
G1 X86.904 Y85.051 E1.51308 F315.000
G1 X87.429 Y85.063 E1.54813
G1 X87.705 Y85.107 E1.56679
G1 X88.228 Y85.262 E1.60328
G1 X88.722 Y85.514 E1.64027
G1 X89.155 Y85.846 E1.67675
G1 X89.353 Y86.043 E1.69542
G1 X89.670 Y86.461 E1.73047
G1 X89.924 Y86.952 E1.76737
G1 X90.084 Y87.482 E1.80437
G1 X90.146 Y88.032 E1.84136
G1 X90.107 Y88.577 E1.87784
G1 X90.051 Y88.850 E1.89649
G1 X89.878 Y89.345 E1.93155
G1 X89.607 Y89.827 E1.96846
G1 X89.253 Y90.253 E2.00546
G1 X88.828 Y90.607 E2.04241
G1 X88.365 Y90.869 E2.07792
G1 X87.844 Y91.053 E2.11486
G1 X87.297 Y91.140 E2.15185
G1 X86.744 Y91.126 E2.18879
G1 X86.230 Y91.020 E2.22386
G1 X85.967 Y90.928 E2.24250
G1 X85.520 Y90.703 E2.27595
G1 X85.210 Y90.816 F7800.000
G1 X85.239 Y91.162 F7800.000
G1 X84.675 Y90.746 E2.32271 F315.000
G1 X84.236 Y90.264 E2.36626
G1 X83.903 Y89.730 E2.40835
G1 X83.758 Y89.411 E2.43176
G1 X83.583 Y88.828 E2.47237
G1 X83.507 Y88.184 E2.51570
G1 X83.550 Y87.534 E2.55925
G1 X83.711 Y86.902 E2.60279
G1 X83.981 Y86.313 E2.64612
G1 X84.328 Y85.813 E2.68673
G1 X84.564 Y85.554 E2.71014
G1 X85.046 Y85.149 E2.75224
G1 X85.613 Y84.827 E2.79578
G1 X86.229 Y84.613 E2.83932
G1 X86.869 Y84.515 E2.88263 F315.000
G1 X87.477 Y84.528 E2.92322
G1 X87.823 Y84.583 E2.94665
G1 X88.428 Y84.763 E2.98877
G1 X89.008 Y85.059 E3.03231
G1 X89.509 Y85.442 E3.07443
G1 X89.757 Y85.690 E3.09786
G1 X90.125 Y86.173 E3.13845
G1 X90.422 Y86.749 E3.18176
G1 X90.611 Y87.373 E3.22530
G1 X90.684 Y88.021 E3.26885
G1 X90.639 Y88.650 E3.31094
G1 X90.569 Y88.993 E3.33435
G1 X90.368 Y89.567 E3.37496
G1 X90.050 Y90.132 E3.41829
G1 X89.633 Y90.633 E3.46183
G1 X89.134 Y91.049 E3.50525
G1 X88.589 Y91.358 E3.54712
G1 X87.976 Y91.575 E3.59050
G1 X87.333 Y91.677 E3.63404
G1 X86.683 Y91.660 E3.67742
G1 X86.087 Y91.538 E3.71807
G1 X85.757 Y91.422 E3.74144
G1 X85.279 Y91.182 E3.77721
G1 X84.998 Y91.640 F7800.000
G1 X84.910 Y91.596 E3.78376 F315.000
G1 X84.313 Y91.143 E3.83385
G1 X83.807 Y90.589 E3.88394
G1 X83.430 Y89.983 E3.93165
G1 X83.255 Y89.599 E3.95982
G1 X83.056 Y88.937 E4.00599
G1 X82.970 Y88.198 E4.05573
G1 X83.019 Y87.450 E4.10582
G1 X83.203 Y86.723 E4.15592
G1 X83.514 Y86.046 E4.20566
G1 X83.908 Y85.478 E4.25182
G1 X84.192 Y85.167 E4.27999
G1 X84.739 Y84.707 E4.32770
G1 X85.391 Y84.337 E4.37780
G1 X86.099 Y84.091 E4.42789
G1 X86.835 Y83.978 E4.47760 F315.000
G1 X87.525 Y83.994 E4.52372
G1 X87.942 Y84.060 E4.55193
G1 X88.627 Y84.263 E4.59968
G1 X89.295 Y84.604 E4.64977
G1 X89.863 Y85.038 E4.69752
G1 X90.161 Y85.337 E4.72572
G1 X90.579 Y85.886 E4.77185
G1 X90.921 Y86.547 E4.82156
G1 X91.138 Y87.265 E4.87165
G1 X91.221 Y88.010 E4.92174
G1 X91.171 Y88.723 E4.96946
G1 X91.086 Y89.136 E4.99763
G1 X90.858 Y89.788 E5.04379
G1 X90.493 Y90.437 E5.09353
G1 X90.014 Y91.014 E5.14363
G1 X89.440 Y91.491 E5.19351
G1 X88.812 Y91.848 E5.24174
G1 X88.109 Y92.096 E5.29156
G1 X87.368 Y92.213 E5.34165
G1 X86.622 Y92.194 E5.39147
G1 X85.944 Y92.055 E5.43770
G1 X85.547 Y91.916 E5.46581
G1 X85.038 Y91.660 E5.50389
G1 E4.50389 F2400.00000
G92 E0
G1 X94.693 Y97.606 F7800.000
G1 E1.00000 F2400.00000
G1 X94.946 Y97.238 E1.02986 F315.000
G1 X95.226 Y96.889 E1.05973
G1 X95.530 Y96.562 E1.08956
G1 X95.889 Y96.226 E1.12243
G1 X96.239 Y95.946 E1.15240
G1 X96.646 Y95.669 E1.18527
G1 X97.031 Y95.444 E1.21507
G1 X97.432 Y95.247 E1.24494
G1 X97.847 Y95.079 E1.27480
G1 X98.272 Y94.943 E1.30462
G1 X98.750 Y94.825 E1.33750
G1 X99.192 Y94.752 E1.36746
G1 X99.683 Y94.710 E1.40034
G1 X100.129 Y94.702 E1.43015 F315.000
G1 X100.575 Y94.726 E1.46001
G1 X101.019 Y94.783 E1.48989
G1 X101.501 Y94.882 E1.52277
G1 X101.931 Y95.003 E1.55262
G1 X102.352 Y95.155 E1.58253
G1 X102.800 Y95.358 E1.61541
G1 X103.193 Y95.570 E1.64523
G1 X103.571 Y95.809 E1.67509
G1 X103.930 Y96.076 E1.70497
G1 X104.302 Y96.398 E1.73784
G1 X104.618 Y96.714 E1.76770
G1 X104.910 Y97.053 E1.79756
G1 X105.176 Y97.411 E1.82740
G1 X105.442 Y97.826 E1.86028
G1 X105.654 Y98.220 E1.89017
G1 X105.836 Y98.628 E1.92004
G1 X106.003 Y99.091 E1.95292
G1 X106.124 Y99.521 E1.98278
G1 X106.213 Y99.959 E2.01265
G1 X106.270 Y100.402 E2.04247
G1 X106.299 Y100.893 E2.07535
G1 X106.291 Y101.341 E2.10525
G1 X106.250 Y101.786 E2.13511
G1 X106.170 Y102.272 E2.16799
G1 X106.065 Y102.706 E2.19786
G1 X105.928 Y103.132 E2.22773
G1 X105.761 Y103.546 E2.25755
G1 X105.546 Y103.988 E2.29042
G1 X105.320 Y104.375 E2.32039
G1 X105.038 Y104.779 E2.35326
G1 X104.759 Y105.127 E2.38307
G1 X104.455 Y105.455 E2.41294
G1 X104.127 Y105.759 E2.44282
G1 X103.743 Y106.067 E2.47570
G1 X103.375 Y106.320 E2.50555
G1 X102.989 Y106.546 E2.53541
G1 X102.588 Y106.743 E2.56525
G1 X102.132 Y106.928 E2.59813
G1 X101.706 Y107.065 E2.62802
G1 X101.272 Y107.170 E2.65789
G1 X100.832 Y107.243 E2.68769
G1 X100.342 Y107.291 E2.72056
G1 X99.894 Y107.299 E2.75049
G1 X99.448 Y107.275 E2.78032
G1 X98.960 Y107.213 E2.81320
G1 X98.520 Y107.124 E2.84317
G1 X98.047 Y106.988 E2.87604
G1 X97.628 Y106.836 E2.90583
G1 X97.220 Y106.654 E2.93570
G1 X96.826 Y106.442 E2.96559
G1 X96.411 Y106.176 E2.99847
G1 X96.053 Y105.910 E3.02831
G1 X95.714 Y105.617 E3.05823
G1 X95.368 Y105.267 E3.09111
G1 X95.076 Y104.930 E3.12091
G1 X94.809 Y104.571 E3.15078
G1 X94.569 Y104.193 E3.18066
G1 X94.337 Y103.759 E3.21354
G1 X94.155 Y103.351 E3.24338
G1 X94.003 Y102.931 E3.27325
G1 X93.882 Y102.501 E3.30310
G1 X93.783 Y102.019 E3.33597
G1 X93.726 Y101.575 E3.36586
G1 X93.702 Y101.129 E3.39574
G1 X93.711 Y100.636 E3.42861
G1 X93.752 Y100.191 E3.45847
G1 X93.825 Y99.750 E3.48833
G1 X93.930 Y99.316 E3.51817
G1 X94.079 Y98.847 E3.55105
G1 X94.247 Y98.432 E3.58094
G1 X94.444 Y98.031 E3.61081
G1 X94.670 Y97.645 E3.64068
G1 X94.557 Y97.339 F7800.000
G1 X94.231 Y97.336 F7800.000
G1 X94.516 Y96.918 E3.67445 F630.000
G1 X94.820 Y96.539 E3.70693
G1 X95.150 Y96.184 E3.73931
G1 X95.538 Y95.821 E3.77480
G1 X95.921 Y95.514 E3.80757
G1 X96.360 Y95.216 E3.84305
G1 X96.777 Y94.972 E3.87535
G1 X97.214 Y94.757 E3.90783
G1 X97.665 Y94.575 E3.94031
G1 X98.126 Y94.427 E3.97267
G1 X98.642 Y94.300 E4.00816
G1 X99.125 Y94.220 E4.04092
G1 X99.655 Y94.175 E4.07641
G1 X100.139 Y94.166 E4.10873 F630.000
G1 X100.624 Y94.192 E4.14121
G1 X101.107 Y94.254 E4.17375
G1 X101.627 Y94.361 E4.20924
G1 X102.095 Y94.493 E4.24167
G1 X102.554 Y94.659 E4.27429
G1 X103.038 Y94.878 E4.30978
G1 X103.464 Y95.107 E4.34212
G1 X103.875 Y95.368 E4.37460
G1 X104.265 Y95.658 E4.40711
G1 X104.667 Y96.006 E4.44260
G1 X105.010 Y96.349 E4.47506
G1 X105.328 Y96.717 E4.50754
G1 X105.618 Y97.107 E4.53994
G1 X105.904 Y97.554 E4.57543
G1 X106.135 Y97.983 E4.60799
G1 X106.333 Y98.427 E4.64048
G1 X106.514 Y98.927 E4.67597
G1 X106.645 Y99.395 E4.70845
G1 X106.742 Y99.871 E4.74093
G1 X106.804 Y100.352 E4.77330
G1 X106.835 Y100.883 E4.80880
G1 X106.826 Y101.370 E4.84138
G1 X106.782 Y101.854 E4.87384
G1 X106.695 Y102.378 E4.90934
G1 X106.581 Y102.851 E4.94184
G1 X106.432 Y103.314 E4.97432
G1 X106.251 Y103.763 E5.00667
G1 X106.019 Y104.241 E5.04216
G1 X105.771 Y104.664 E5.07492
G1 X105.468 Y105.100 E5.11041
G1 X105.165 Y105.478 E5.14274
G1 X104.834 Y105.834 E5.17522
G1 X104.477 Y106.165 E5.20774
G1 X104.062 Y106.497 E5.24324
G1 X103.662 Y106.772 E5.27567
G1 X103.243 Y107.018 E5.30816
G1 X102.807 Y107.232 E5.34057
G1 X102.315 Y107.432 E5.37606
G1 X101.851 Y107.581 E5.40861
G1 X101.379 Y107.695 E5.44109
G1 X100.902 Y107.774 E5.47339
G1 X100.373 Y107.826 E5.50888
G1 X99.884 Y107.835 E5.54154
G1 X99.400 Y107.808 E5.57393
G1 X98.873 Y107.742 E5.60942
G1 X98.392 Y107.645 E5.64219
G1 X97.882 Y107.497 E5.67767
G1 X97.427 Y107.333 E5.70996
G1 X96.983 Y107.135 E5.74244
G1 X96.554 Y106.904 E5.77501
G1 X96.107 Y106.618 E5.81050
G1 X95.717 Y106.328 E5.84290
G1 X95.347 Y106.009 E5.87555
G1 X94.974 Y105.631 E5.91104
G1 X94.658 Y105.265 E5.94335
G1 X94.368 Y104.875 E5.97583
G1 X94.107 Y104.464 E6.00837
G1 X93.856 Y103.995 E6.04386
G1 X93.658 Y103.552 E6.07628
G1 X93.493 Y103.095 E6.10876
G1 X93.361 Y102.627 E6.14119
G1 X93.254 Y102.107 E6.17669
G1 X93.192 Y101.624 E6.20922
G1 X93.166 Y101.138 E6.24173
G1 X93.176 Y100.607 E6.27723
