; generated by Slic3r 1.2.9 on 2017-03-23 at 09:28:33

; external perimeters extrusion width = 0.30mm
; perimeters extrusion width = 0.40mm
; infill extrusion width = 0.40mm
; solid infill extrusion width = 0.40mm
; top infill extrusion width = 0.40mm
; support material extrusion width = 0.30mm

M107
M190 S85 ; set bed temperature
M104 S210 ; set temperature
G28 ; home all axes
G1 Z5 F5000 ; lift nozzle

M109 S210 ; wait for temperature to be reached
G21 ; set units to millimeters
G90 ; use absolute coordinates
M82 ; use absolute distances for extrusion
G92 E0
G1 Z0.200 F7800.000
G1 E-1.00000 F2400.00000
G92 E0
G1 X86.440 Y111.827 F7800.000
G1 E1.00000 F2400.00000
G1 X86.336 Y111.714 E1.00456 F1080.000
G1 X85.361 Y111.300 E1.03601
G1 X84.663 Y110.566 E1.06608
G1 X84.389 Y110.387 E1.07581
G1 X83.765 Y109.103 E1.11818
G1 X83.647 Y108.582 E1.13405
G1 X83.651 Y107.963 E1.15241
G1 X83.486 Y107.435 E1.16884
G1 X83.567 Y107.273 E1.17422
G1 X83.577 Y107.132 E1.17844
G1 X83.486 Y106.857 E1.18704
G1 X83.567 Y106.695 E1.19241
G1 X83.577 Y106.553 E1.19663
G1 X83.486 Y106.278 E1.20523
G1 X83.567 Y106.117 E1.21060
G1 X83.577 Y105.975 E1.21482
G1 X83.486 Y105.700 E1.22342
G1 X83.567 Y105.538 E1.22880
G1 X83.577 Y105.396 E1.23301
G1 X83.486 Y105.122 E1.24161
G1 X83.567 Y104.960 E1.24699
G1 X83.577 Y104.818 E1.25121
G1 X83.486 Y104.543 E1.25980
G1 X83.567 Y104.381 E1.26518
G1 X83.577 Y104.240 E1.26940
G1 X83.486 Y103.965 E1.27800
G1 X83.567 Y103.803 E1.28337
G1 X83.577 Y103.661 E1.28759
G1 X83.486 Y103.386 E1.29619
G1 X83.567 Y103.225 E1.30156
G1 X83.577 Y103.083 E1.30578
G1 X83.486 Y102.808 E1.31438
G1 X83.567 Y102.646 E1.31976
G1 X83.577 Y102.505 E1.32397
G1 X83.486 Y102.230 E1.33257
G1 X83.567 Y102.068 E1.33795
G1 X83.577 Y101.926 E1.34217
G1 X83.486 Y101.651 E1.35077
G1 X83.567 Y101.489 E1.35614
G1 X83.577 Y101.348 E1.36036
G1 X83.486 Y101.073 E1.36896
G1 X83.567 Y100.911 E1.37433
G1 X83.577 Y100.769 E1.37855
G1 X83.486 Y100.495 E1.38715
G1 X83.567 Y100.333 E1.39253
G1 X83.577 Y100.191 E1.39674
G1 X83.486 Y99.916 E1.40534
G1 X83.576 Y99.736 E1.41131
G1 X83.586 Y99.595 E1.41553
G1 X83.495 Y99.320 E1.42413
G1 X83.613 Y99.084 E1.43196
G1 X83.623 Y98.942 E1.43618
G1 X83.532 Y98.668 E1.44478
G1 X83.690 Y98.353 E1.45524
G1 X83.700 Y98.211 E1.45946
G1 X83.608 Y97.936 E1.46806
G1 X83.828 Y97.498 E1.48261
G1 X83.838 Y97.356 E1.48683
G1 X83.747 Y97.081 E1.49543
G1 X84.079 Y96.418 E1.51746
G1 X84.090 Y96.276 E1.52168
G1 X83.998 Y96.001 E1.53028
G1 X84.774 Y94.454 E1.58167
G1 X84.784 Y94.312 E1.58589
G1 X84.693 Y94.037 E1.59449
G1 X86.294 Y90.842 E1.70061
G1 X86.569 Y90.751 E1.70921
G1 X86.676 Y90.658 E1.71342
G1 X87.453 Y89.109 E1.76486
G1 X87.728 Y89.018 E1.77346
G1 X87.835 Y88.925 E1.77768
G1 X88.167 Y88.263 E1.79967
G1 X88.442 Y88.171 E1.80827
G1 X88.549 Y88.078 E1.81249
G1 X88.769 Y87.640 E1.82705
G1 X89.044 Y87.548 E1.83565
G1 X89.151 Y87.455 E1.83987
G1 X89.307 Y87.144 E1.85022
G1 X89.582 Y87.053 E1.85882
G1 X89.690 Y86.960 E1.86303
G1 X89.807 Y86.725 E1.87084
G1 X90.082 Y86.633 E1.87944
G1 X90.190 Y86.540 E1.88366
G1 X90.280 Y86.360 E1.88963
G1 X90.875 Y86.148 E1.90841
G1 X91.022 Y86.022 E1.91415
G1 X92.390 Y85.130 E1.96265
G1 X92.514 Y85.109 E1.96638
G1 X93.366 Y84.633 E1.99536
G1 X93.484 Y84.618 E1.99889
G1 X94.281 Y84.236 E2.02512
G1 X94.393 Y84.227 E2.02846
G1 X95.148 Y83.914 E2.05272
G1 X95.258 Y83.911 E2.05599
G1 X95.985 Y83.656 E2.07887
G1 X96.071 Y83.656 E2.08142
G1 X96.786 Y83.450 E2.10351
G1 X96.953 Y83.436 E2.10848
G1 X97.549 Y83.288 E2.12673
G1 X97.657 Y83.299 E2.12995
G1 X98.319 Y83.171 E2.14997
G1 X98.400 Y83.179 E2.15240
G1 X99.014 Y83.079 E2.17086
G1 X99.111 Y83.100 E2.17381
G1 X99.756 Y83.039 E2.19306
G1 X99.941 Y83.052 E2.19854
G1 X100.464 Y83.023 E2.21409
G1 X100.540 Y83.040 E2.21641
G1 X101.145 Y83.027 E2.23438
G1 X105.657 Y83.040 E2.36836
G1 X105.823 Y83.010 E2.37335
G1 X106.101 Y83.040 E2.38165
G1 X106.391 Y83.040 E2.39026
G1 X106.500 Y83.084 E2.39377
G1 X106.893 Y83.103 E2.40544
G1 X107.007 Y83.139 E2.40901
G1 X107.184 Y83.159 E2.41427
G1 X107.369 Y83.277 E2.42079
G1 X113.910 Y85.657 E2.62748
G1 X114.371 Y85.752 E2.64145
G1 X115.462 Y86.552 E2.68162
G1 X115.917 Y87.237 E2.70603
G1 X116.238 Y88.454 E2.74341
G1 X116.293 Y88.546 E2.74658
G1 X116.350 Y90.208 E2.79597
G1 X116.324 Y90.497 E2.80457
G1 X116.251 Y90.829 E2.81466
G1 X116.154 Y91.102 E2.82326
G1 X115.542 Y92.324 E2.86385
G1 X114.904 Y92.550 E2.88395
G1 X114.807 Y92.632 E2.88772
G1 X106.728 Y97.819 E3.17276
G1 X106.664 Y97.891 E3.17562
G1 X106.583 Y98.052 E3.18098
G1 X106.573 Y98.194 E3.18520
G1 X106.664 Y98.469 E3.19380
G1 X106.583 Y98.630 E3.19918
G1 X106.573 Y98.772 E3.20339
G1 X106.664 Y99.047 E3.21199
G1 X106.583 Y99.209 E3.21737
G1 X106.573 Y99.351 E3.22159
G1 X106.664 Y99.625 E3.23019
G1 X106.583 Y99.787 E3.23556
G1 X106.573 Y99.929 E3.23978
G1 X106.664 Y100.204 E3.24838
G1 X106.583 Y100.366 E3.25375
G1 X106.573 Y100.507 E3.25797
G1 X106.664 Y100.782 E3.26657
G1 X106.583 Y100.944 E3.27194
G1 X106.573 Y101.086 E3.27616
G1 X106.664 Y101.360 E3.28476
G1 X106.583 Y101.522 E3.29014
G1 X106.573 Y101.664 E3.29435
G1 X106.664 Y101.939 E3.30295
G1 X106.583 Y102.101 E3.30833
G1 X106.573 Y102.242 E3.31255
G1 X106.664 Y102.517 E3.32115
G1 X106.583 Y102.679 E3.32652
G1 X106.573 Y102.821 E3.33074
G1 X106.664 Y103.096 E3.33934
G1 X106.583 Y103.257 E3.34471
G1 X106.573 Y103.399 E3.34893
G1 X106.664 Y103.674 E3.35753
G1 X106.583 Y103.836 E3.36291
G1 X106.573 Y103.978 E3.36712
G1 X106.664 Y104.252 E3.37572
G1 X106.583 Y104.414 E3.38110
G1 X106.573 Y104.556 E3.38532
G1 X106.664 Y104.831 E3.39391
G1 X106.583 Y104.993 E3.39929
G1 X106.573 Y105.134 E3.40351
G1 X106.664 Y105.409 E3.41211
G1 X106.583 Y105.571 E3.41748
G1 X106.573 Y105.713 E3.42170
G1 X106.664 Y105.988 E3.43030
G1 X106.583 Y106.149 E3.43567
G1 X106.573 Y106.291 E3.43989
G1 X106.664 Y106.566 E3.44849
G1 X106.583 Y106.728 E3.45387
G1 X106.573 Y106.869 E3.45808
G1 X106.664 Y107.144 E3.46668
G1 X106.583 Y107.306 E3.47206
G1 X106.573 Y107.448 E3.47628
G1 X106.664 Y107.723 E3.48488
G1 X106.583 Y107.885 E3.49025
G1 X106.573 Y108.026 E3.49447
G1 X106.664 Y108.301 E3.50307
G1 X105.620 Y110.386 E3.57230
G1 X105.366 Y110.723 E3.58483
G1 X105.001 Y111.058 E3.59954
G1 X104.644 Y111.283 E3.61207
G1 X103.746 Y111.648 E3.64086
G1 X103.632 Y111.902 E3.64912
G1 X103.664 Y112.000 E3.65220
G1 X103.583 Y112.161 E3.65754
G1 X103.573 Y112.303 E3.66176
G1 X103.664 Y112.576 E3.67032
G1 X103.583 Y112.738 E3.67567
G1 X103.573 Y112.879 E3.67989
G1 X103.664 Y113.153 E3.68845
G1 X103.583 Y113.314 E3.69380
G1 X103.573 Y113.456 E3.69802
G1 X103.664 Y113.729 E3.70658
G1 X102.692 Y115.669 E3.77100
G1 X102.223 Y115.825 E3.78566
G1 X101.809 Y116.158 E3.80147
G1 X100.435 Y116.942 E3.84843
G1 X100.072 Y116.902 E3.85926
G1 X98.820 Y117.019 E3.89660
G1 X98.655 Y116.960 E3.90181
G1 X90.857 Y116.960 E4.13334
G1 X90.754 Y116.986 E4.13648
G1 X89.868 Y116.963 E4.16280
G1 X89.142 Y116.653 E4.18625
G1 X89.044 Y116.632 E4.18920
G1 X88.935 Y116.565 E4.19302
G1 X88.628 Y116.434 E4.20292
G1 X88.439 Y116.242 E4.21091
G1 X87.473 Y115.618 E4.24507
G1 X86.966 Y114.925 E4.27054
G1 X86.701 Y113.950 E4.30055
G1 X86.703 Y113.771 E4.30588
G1 X86.486 Y113.118 E4.32630
G1 X86.566 Y112.957 E4.33165
G1 X86.577 Y112.815 E4.33586
G1 X86.486 Y112.542 E4.34443
G1 X86.566 Y112.381 E4.34978
G1 X86.577 Y112.239 E4.35399
G1 X86.454 Y111.870 E4.36554
G1 X86.845 Y111.543 F7800.000
G1 X85.569 Y111.000 E4.40671 F1080.000
G1 X85.008 Y110.411 E4.43086
G1 X84.929 Y110.305 E4.43479
G1 X84.666 Y110.139 E4.44403
G1 X84.105 Y108.984 E4.48216
G1 X84.005 Y108.543 E4.49559
G1 X84.009 Y107.877 E4.51536
G1 X83.871 Y107.463 E4.52831
G1 X83.952 Y107.301 E4.53369
G1 X83.962 Y107.159 E4.53791
G1 X83.871 Y106.885 E4.54650
G1 X83.952 Y106.723 E4.55188
G1 X83.962 Y106.581 E4.55610
G1 X83.871 Y106.306 E4.56470
G1 X83.952 Y106.144 E4.57007
G1 X83.962 Y106.003 E4.57429
G1 X83.871 Y105.728 E4.58289
G1 X83.952 Y105.566 E4.58826
G1 X83.962 Y105.424 E4.59248
G1 X83.871 Y105.149 E4.60108
G1 X83.952 Y104.988 E4.60646
G1 X83.962 Y104.846 E4.61067
G1 X83.871 Y104.571 E4.61927
G1 X83.952 Y104.409 E4.62465
G1 X83.962 Y104.267 E4.62887
G1 X83.871 Y103.993 E4.63747
G1 X83.952 Y103.831 E4.64284
G1 X83.962 Y103.689 E4.64706
G1 X83.871 Y103.414 E4.65566
G1 X83.952 Y103.252 E4.66103
G1 X83.962 Y103.111 E4.66525
G1 X83.871 Y102.836 E4.67385
G1 X83.952 Y102.674 E4.67923
G1 X83.962 Y102.532 E4.68344
G1 X83.871 Y102.257 E4.69204
G1 X83.952 Y102.096 E4.69742
G1 X83.962 Y101.954 E4.70164
G1 X83.871 Y101.679 E4.71023
G1 X83.952 Y101.517 E4.71561
G1 X83.962 Y101.376 E4.71983
G1 X83.871 Y101.101 E4.72843
G1 X83.952 Y100.939 E4.73380
G1 X83.962 Y100.797 E4.73802
G1 X83.871 Y100.522 E4.74662
G1 X83.952 Y100.360 E4.75199
G1 X83.962 Y100.219 E4.75621
G1 X83.871 Y99.944 E4.76481
G1 X83.961 Y99.764 E4.77078
G1 X83.971 Y99.623 E4.77500
G1 X83.880 Y99.348 E4.78360
G1 X83.998 Y99.112 E4.79143
G1 X84.008 Y98.970 E4.79565
G1 X83.917 Y98.695 E4.80425
G1 X84.075 Y98.380 E4.81471
G1 X84.085 Y98.239 E4.81893
G1 X83.994 Y97.964 E4.82753
G1 X84.214 Y97.526 E4.84208
G1 X84.224 Y97.384 E4.84630
G1 X84.132 Y97.109 E4.85490
G1 X84.465 Y96.446 E4.87693
G1 X84.475 Y96.304 E4.88115
G1 X84.384 Y96.029 E4.88975
G1 X85.159 Y94.482 E4.94114
G1 X85.170 Y94.340 E4.94536
G1 X85.078 Y94.065 E4.95396
G1 X86.547 Y91.134 E5.05129
G1 X86.822 Y91.043 E5.05989
G1 X86.929 Y90.950 E5.06411
G1 X87.706 Y89.401 E5.11555
G1 X87.981 Y89.310 E5.12415
G1 X88.088 Y89.217 E5.12837
G1 X88.420 Y88.555 E5.15036
G1 X88.695 Y88.463 E5.15896
G1 X88.802 Y88.370 E5.16318
G1 X89.022 Y87.932 E5.17774
G1 X89.297 Y87.841 E5.18634
G1 X89.404 Y87.748 E5.19056
G1 X89.560 Y87.436 E5.20090
G1 X89.835 Y87.345 E5.20950
G1 X89.943 Y87.252 E5.21372
G1 X90.060 Y87.017 E5.22153
G1 X90.335 Y86.925 E5.23013
G1 X90.443 Y86.833 E5.23434
G1 X90.533 Y86.653 E5.24032
G1 X91.055 Y86.465 E5.25679
G1 X91.237 Y86.308 E5.26392
G1 X92.484 Y85.495 E5.30813
G1 X92.594 Y85.473 E5.31147
G1 X93.438 Y85.002 E5.34015
G1 X93.544 Y84.986 E5.34333
G1 X94.332 Y84.607 E5.36930
G1 X94.434 Y84.596 E5.37233
G1 X95.181 Y84.287 E5.39635
G1 X95.281 Y84.281 E5.39931
G1 X96.001 Y84.029 E5.42196
G1 X96.094 Y84.027 E5.42474
G1 X96.785 Y83.822 E5.44614
G1 X96.873 Y83.824 E5.44876
G1 X97.534 Y83.660 E5.46897
G1 X97.688 Y83.663 E5.47353
G1 X98.292 Y83.540 E5.49185
G1 X98.363 Y83.547 E5.49396
G1 X98.972 Y83.448 E5.51229
G1 X99.051 Y83.461 E5.51467
G1 X99.708 Y83.403 E5.53424
G1 X99.955 Y83.409 E5.54157
G1 X100.397 Y83.384 E5.55474
G1 X100.451 Y83.397 E5.55637
G1 X105.692 Y83.397 E5.71200
G1 X105.838 Y83.371 E5.71640
G1 X106.298 Y83.397 E5.73007
G1 X106.389 Y83.431 E5.73297
G1 X106.833 Y83.461 E5.74616
G1 X107.058 Y83.504 E5.75297
G1 X107.206 Y83.597 E5.75817
G1 X113.813 Y86.002 E5.96694
G1 X114.224 Y86.087 E5.97937
G1 X115.200 Y86.803 E6.01532
G1 X115.585 Y87.382 E6.03597
G1 X115.940 Y88.674 E6.07574
G1 X115.992 Y90.198 E6.12104
G1 X115.970 Y90.442 E6.12831
G1 X115.907 Y90.731 E6.13708
G1 X115.825 Y90.962 E6.14435
G1 X115.289 Y92.032 E6.17990
G1 X114.725 Y92.233 E6.19766
G1 X114.594 Y92.345 E6.20278
G1 X106.453 Y97.571 E6.49002
G1 X106.389 Y97.643 E6.49288
G1 X106.198 Y98.024 E6.50554
G1 X106.188 Y98.166 E6.50976
G1 X106.279 Y98.441 E6.51836
G1 X106.198 Y98.603 E6.52374
G1 X106.188 Y98.744 E6.52795
G1 X106.279 Y99.019 E6.53655
G1 X106.198 Y99.181 E6.54193
G1 X106.188 Y99.323 E6.54615
G1 X106.279 Y99.598 E6.55474
G1 X106.198 Y99.759 E6.56012
G1 X106.188 Y99.901 E6.56434
G1 X106.279 Y100.176 E6.57294
G1 X106.198 Y100.338 E6.57831
G1 X106.188 Y100.479 E6.58253
G1 X106.279 Y100.754 E6.59113
G1 X106.198 Y100.916 E6.59650
G1 X106.188 Y101.058 E6.60072
G1 X106.279 Y101.333 E6.60932
G1 X106.198 Y101.495 E6.61470
G1 X106.188 Y101.636 E6.61891
G1 X106.279 Y101.911 E6.62751
G1 X106.198 Y102.073 E6.63289
G1 X106.188 Y102.215 E6.63711
G1 X106.279 Y102.489 E6.64571
G1 X106.198 Y102.651 E6.65108
G1 X106.188 Y102.793 E6.65530
G1 X106.279 Y103.068 E6.66390
G1 X106.198 Y103.230 E6.66927
G1 X106.188 Y103.371 E6.67349
G1 X106.279 Y103.646 E6.68209
G1 X106.198 Y103.808 E6.68747
G1 X106.188 Y103.950 E6.69168
G1 X106.279 Y104.225 E6.70028
G1 X106.198 Y104.386 E6.70566
G1 X106.188 Y104.528 E6.70988
G1 X106.279 Y104.803 E6.71847
G1 X106.198 Y104.965 E6.72385
G1 X106.188 Y105.107 E6.72807
G1 X106.279 Y105.381 E6.73667
G1 X106.198 Y105.543 E6.74204
G1 X106.188 Y105.685 E6.74626
G1 X106.279 Y105.960 E6.75486
G1 X106.198 Y106.122 E6.76023
G1 X106.188 Y106.263 E6.76445
G1 X106.279 Y106.538 E6.77305
G1 X106.198 Y106.700 E6.77843
G1 X106.188 Y106.842 E6.78264
G1 X106.279 Y107.117 E6.79124
G1 X106.198 Y107.278 E6.79662
G1 X106.188 Y107.420 E6.80084
G1 X106.279 Y107.695 E6.80944
G1 X106.198 Y107.857 E6.81481
G1 X106.188 Y107.998 E6.81903
G1 X106.279 Y108.273 E6.82763
G1 X105.315 Y110.197 E6.89151
G1 X105.100 Y110.482 E6.90211
G1 X104.783 Y110.773 E6.91489
G1 X104.481 Y110.963 E6.92549
G1 X103.303 Y111.449 E6.96332
G1 X103.189 Y111.703 E6.97158
G1 X103.279 Y111.972 E6.98000
G1 X103.198 Y112.133 E6.98535
G1 X103.188 Y112.275 E6.98957
G1 X103.279 Y112.549 E6.99813
G1 X103.198 Y112.710 E7.00348
G1 X103.188 Y112.851 E7.00770
G1 X103.279 Y113.125 E7.01626
G1 X103.198 Y113.286 E7.02161
G1 X103.188 Y113.428 E7.02583
G1 X103.279 Y113.702 E7.03439
G1 X102.439 Y115.377 E7.09002
G1 X102.026 Y115.514 E7.10295
G1 X101.609 Y115.861 E7.11906
G1 X100.360 Y116.573 E7.16174
G1 X100.077 Y116.543 E7.17020
G1 X98.884 Y116.654 E7.20578
G1 X98.734 Y116.603 E7.21047
G1 X90.793 Y116.603 E7.44625
G1 X90.695 Y116.627 E7.44925
G1 X89.945 Y116.608 E7.47152
G1 X88.836 Y116.134 E7.50732
G1 X88.669 Y115.965 E7.51439
G1 X87.722 Y115.353 E7.54785
G1 X87.294 Y114.768 E7.56940
G1 X87.062 Y113.920 E7.59550
G1 X87.065 Y113.730 E7.60113
G1 X86.871 Y113.146 E7.61941
G1 X86.952 Y112.985 E7.62476
G1 X86.962 Y112.843 E7.62898
G1 X86.871 Y112.569 E7.63754
G1 X86.952 Y112.408 E7.64289
G1 X86.962 Y112.267 E7.64711
G1 X86.871 Y111.993 E7.65567
G1 X86.952 Y111.833 E7.66099
G1 X86.861 Y111.585 E7.66883
G1 X87.195 Y111.258 F7800.000
G1 X87.013 Y111.124 E7.67553 F1080.000
G1 X86.756 Y111.117 E7.68316
G1 X85.777 Y110.700 E7.71478
G1 X85.318 Y110.218 E7.73453
G1 X85.296 Y110.160 E7.73639
G1 X85.222 Y110.068 E7.73990
G1 X84.942 Y109.891 E7.74972
G1 X84.444 Y108.865 E7.78361
G1 X84.362 Y108.504 E7.79459
G1 X84.380 Y107.861 E7.81369
G1 X84.257 Y107.491 E7.82527
G1 X84.338 Y107.329 E7.83065
G1 X84.348 Y107.187 E7.83487
G1 X84.257 Y106.912 E7.84347
G1 X84.338 Y106.750 E7.84884
G1 X84.348 Y106.609 E7.85306
G1 X84.257 Y106.334 E7.86166
G1 X84.338 Y106.172 E7.86703
G1 X84.348 Y106.030 E7.87125
G1 X84.257 Y105.756 E7.87985
G1 X84.338 Y105.594 E7.88523
G1 X84.348 Y105.452 E7.88944
G1 X84.257 Y105.177 E7.89804
G1 X84.338 Y105.015 E7.90342
G1 X84.348 Y104.874 E7.90764
G1 X84.257 Y104.599 E7.91624
G1 X84.338 Y104.437 E7.92161
G1 X84.348 Y104.295 E7.92583
G1 X84.257 Y104.020 E7.93443
G1 X84.338 Y103.859 E7.93980
G1 X84.348 Y103.717 E7.94402
G1 X84.257 Y103.442 E7.95262
G1 X84.338 Y103.280 E7.95800
G1 X84.348 Y103.138 E7.96221
G1 X84.257 Y102.864 E7.97081
G1 X84.338 Y102.702 E7.97619
G1 X84.348 Y102.560 E7.98041
G1 X84.257 Y102.285 E7.98900
G1 X84.338 Y102.123 E7.99438
G1 X84.348 Y101.982 E7.99860
G1 X84.257 Y101.707 E8.00720
G1 X84.338 Y101.545 E8.01257
G1 X84.348 Y101.403 E8.01679
G1 X84.257 Y101.128 E8.02539
G1 X84.338 Y100.967 E8.03076
G1 X84.348 Y100.825 E8.03498
G1 X84.257 Y100.550 E8.04358
G1 X84.338 Y100.388 E8.04896
G1 X84.348 Y100.247 E8.05318
G1 X84.257 Y99.972 E8.06177
G1 X84.347 Y99.792 E8.06774
G1 X84.357 Y99.650 E8.07196
G1 X84.266 Y99.375 E8.08056
G1 X84.384 Y99.140 E8.08839
G1 X84.394 Y98.998 E8.09261
G1 X84.303 Y98.723 E8.10121
G1 X84.461 Y98.408 E8.11167
G1 X84.471 Y98.266 E8.11589
G1 X84.379 Y97.992 E8.12449
G1 X84.599 Y97.553 E8.13904
G1 X84.609 Y97.412 E8.14326
G1 X84.518 Y97.137 E8.15186
G1 X84.850 Y96.473 E8.17390
G1 X84.861 Y96.332 E8.17811
G1 X84.769 Y96.057 E8.18671
G1 X85.545 Y94.509 E8.23811
G1 X85.555 Y94.368 E8.24232
G1 X85.464 Y94.093 E8.25092
G1 X86.800 Y91.427 E8.33947
G1 X87.075 Y91.335 E8.34807
G1 X87.182 Y91.242 E8.35229
G1 X87.959 Y89.693 E8.40373
