; generated by Slic3r 1.2.9 on 2017-03-23 at 14:34:57

; external perimeters extrusion width = 0.30mm
; perimeters extrusion width = 0.40mm
; infill extrusion width = 0.40mm
; solid infill extrusion width = 0.40mm
; top infill extrusion width = 0.40mm

M107
M190 S85 ; set bed temperature
M104 S210 ; set temperature
G28 ; home all axes
G1 Z5 F5000 ; lift nozzle

M109 S210 ; wait for temperature to be reached
G21 ; set units to millimeters
G90 ; use absolute coordinates
M82 ; use absolute distances for extrusion
G92 E0
G1 Z0.300 F7800.000
G1 E-1.00000 F2400.00000
G92 E0
G1 X89.753 Y89.701 F7800.000
G1 E1.00000 F2400.00000
G1 X90.354 Y89.100 E1.05684 F720.000
G1 X91.188 Y88.415 E1.12887
G1 X92.670 Y87.425 E1.24796
G1 X93.622 Y86.917 E1.32004
G1 X95.261 Y86.238 E1.43858
G1 X96.294 Y85.924 E1.51070
G1 X98.043 Y85.577 E1.62985
G1 X98.715 Y85.511 E1.67490
G1 X99.598 Y85.468 E1.73396
G1 X100.401 Y85.468 E1.78763
G1 X101.285 Y85.511 E1.84674
G1 X101.956 Y85.577 E1.89182 F720.000
G1 X103.705 Y85.924 E2.01095
G1 X104.738 Y86.237 E2.08302
G1 X106.379 Y86.917 E2.20169
G1 X107.330 Y87.425 E2.27373
G1 X108.813 Y88.416 E2.39283
G1 X109.646 Y89.100 E2.46484
G1 X110.903 Y90.358 E2.58367
G1 X111.587 Y91.192 E2.65573
G1 X112.574 Y92.670 E2.77449
G1 X113.082 Y93.621 E2.84652
G1 X113.762 Y95.262 E2.96519
G1 X114.075 Y96.294 E3.03723
G1 X114.421 Y98.035 E3.15582
G1 X114.488 Y98.707 E3.20090
G1 X114.532 Y99.599 E3.26057
G1 X114.531 Y100.402 E3.31422
G1 X114.487 Y101.294 E3.37390
G1 X114.421 Y101.965 E3.41891
G1 X114.075 Y103.705 E3.53745
G1 X113.762 Y104.737 E3.60949
G1 X113.082 Y106.378 E3.72816
G1 X112.574 Y107.329 E3.80019
G1 X111.587 Y108.808 E3.91895
G1 X110.903 Y109.642 E3.99101
G1 X109.646 Y110.900 E4.10984
G1 X108.813 Y111.584 E4.18184
G1 X107.330 Y112.574 E4.30096
G1 X106.379 Y113.082 E4.37299
G1 X104.738 Y113.762 E4.49166
G1 X103.706 Y114.075 E4.56372
G1 X101.965 Y114.422 E4.68230
G1 X101.294 Y114.488 E4.72734
G1 X100.401 Y114.532 E4.78703
G1 X99.597 Y114.532 E4.84076
G1 X98.706 Y114.488 E4.90037
G1 X98.035 Y114.422 E4.94539
G1 X96.294 Y114.075 E5.06399
G1 X95.262 Y113.762 E5.13603
G1 X93.621 Y113.082 E5.25470
G1 X92.670 Y112.574 E5.32673
G1 X91.187 Y111.584 E5.44585
G1 X90.354 Y110.900 E5.51785
G1 X89.097 Y109.642 E5.63668
G1 X88.413 Y108.808 E5.70875
G1 X87.426 Y107.329 E5.82750
G1 X86.918 Y106.378 E5.89953
G1 X86.238 Y104.737 E6.01820
G1 X85.925 Y103.705 E6.09024
G1 X85.579 Y101.965 E6.20878
G1 X85.513 Y101.295 E6.25374
G1 X85.469 Y100.403 E6.31342
G1 X85.468 Y99.598 E6.36717
G1 X85.512 Y98.708 E6.42670
G1 X85.579 Y98.035 E6.47187
G1 X85.925 Y96.295 E6.59043
G1 X86.238 Y95.262 E6.66251
G1 X86.917 Y93.622 E6.78112
G1 X87.426 Y92.670 E6.85320
G1 X88.413 Y91.192 E6.97196
G1 X89.097 Y90.358 E7.04403
G1 X89.721 Y89.733 E7.10301
G1 X90.130 Y90.078 F7800.000
G1 X90.694 Y89.514 E7.15634 F720.000
G1 X91.528 Y88.829 E7.22837
G1 X92.922 Y87.897 E7.34043
G1 X93.874 Y87.389 E7.41251
G1 X95.417 Y86.750 E7.52405
G1 X96.450 Y86.437 E7.59616
G1 X98.096 Y86.110 E7.70827
G1 X98.767 Y86.044 E7.75333
G1 X99.598 Y86.004 E7.80890
G1 X100.401 Y86.004 E7.86256
G1 X101.233 Y86.044 E7.91819
G1 X101.904 Y86.110 E7.96327 F720.000
G1 X103.550 Y86.437 E8.07536
G1 X104.582 Y86.750 E8.14743
G1 X106.127 Y87.389 E8.25909
G1 X107.078 Y87.898 E8.33113
G1 X108.473 Y88.830 E8.44321
G1 X109.306 Y89.514 E8.51521
G1 X110.489 Y90.697 E8.62702
G1 X111.173 Y91.531 E8.69908
G1 X112.102 Y92.923 E8.81083
G1 X112.610 Y93.874 E8.88286
G1 X113.249 Y95.418 E8.99452
G1 X113.562 Y96.450 E9.06657
G1 X113.888 Y98.088 E9.17816
G1 X113.955 Y98.760 E9.22323
G1 X113.996 Y99.599 E9.27938
G1 X113.996 Y100.402 E9.33303
G1 X113.954 Y101.242 E9.38919
G1 X113.888 Y101.912 E9.43420
G1 X113.562 Y103.550 E9.54573
G1 X113.249 Y104.582 E9.61778
G1 X112.610 Y106.126 E9.72944
G1 X112.102 Y107.077 E9.80147
G1 X111.173 Y108.468 E9.91322
G1 X110.489 Y109.302 E9.98528
G1 X109.306 Y110.486 E10.09709
G1 X108.473 Y111.170 E10.16910
G1 X107.078 Y112.102 E10.28118
G1 X106.127 Y112.610 E10.35321
G1 X104.582 Y113.249 E10.46487
G1 X103.550 Y113.562 E10.53693
G1 X101.912 Y113.888 E10.64850
G1 X101.241 Y113.955 E10.69355
G1 X100.401 Y113.996 E10.74971
G1 X99.597 Y113.996 E10.80344
G1 X98.758 Y113.955 E10.85954
G1 X98.088 Y113.888 E10.90456
G1 X96.450 Y113.562 E11.01615
G1 X95.418 Y113.249 E11.08819
G1 X93.873 Y112.610 E11.19986
G1 X92.922 Y112.102 E11.27188
G1 X91.527 Y111.170 E11.38397
G1 X90.694 Y110.486 E11.45597
G1 X89.511 Y109.302 E11.56779
G1 X88.827 Y108.468 E11.63985
G1 X87.898 Y107.077 E11.75160
G1 X87.390 Y106.126 E11.82362
G1 X86.751 Y104.582 E11.93529
G1 X86.438 Y103.550 E12.00733
G1 X86.112 Y101.912 E12.11886
G1 X86.046 Y101.242 E12.16383
G1 X86.004 Y100.403 E12.21998
G1 X86.004 Y99.598 E12.27374
G1 X86.045 Y98.761 E12.32975
G1 X86.112 Y98.088 E12.37491
G1 X86.438 Y96.450 E12.48647
G1 X86.751 Y95.418 E12.55854
G1 X87.390 Y93.874 E12.67015
G1 X87.898 Y92.923 E12.74223
G1 X88.827 Y91.531 E12.85398
G1 X89.511 Y90.697 E12.92605
G1 X90.098 Y90.110 E12.98152
G1 E11.98152 F2400.00000
G92 E0
G1 X94.433 Y94.379 F7800.000
G1 E1.00000 F2400.00000
G1 X95.506 Y93.488 E1.09317 F720.000
G1 X95.704 Y93.356 E1.10903
G1 X96.864 Y92.736 E1.19689
G1 X97.082 Y92.646 E1.21268
G1 X98.341 Y92.264 E1.30057
G1 X98.574 Y92.218 E1.31644
G1 X100.000 Y92.078 E1.41215
G1 X100.643 Y92.141 E1.45534
G1 X101.426 Y92.218 E1.50787 F720.000
G1 X101.659 Y92.264 E1.52373
G1 X102.918 Y92.646 E1.61162
G1 X103.136 Y92.737 E1.62742
G1 X104.296 Y93.356 E1.71529
G1 X104.494 Y93.488 E1.73115
G1 X105.510 Y94.323 E1.81900
G1 X105.678 Y94.490 E1.83482
G1 X106.512 Y95.507 E1.92270
G1 X106.643 Y95.704 E1.93851
G1 X107.263 Y96.864 E2.02635
G1 X107.353 Y97.083 E2.04217
G1 X107.735 Y98.341 E2.13000
G1 X107.781 Y98.573 E2.14580
G1 X107.922 Y100.001 E2.24166
G1 X107.781 Y101.427 E2.33741
G1 X107.735 Y101.659 E2.35319
G1 X107.353 Y102.917 E2.44103
G1 X107.263 Y103.136 E2.45683
G1 X106.643 Y104.295 E2.54467
G1 X106.512 Y104.492 E2.56049
G1 X105.678 Y105.509 E2.64837
G1 X105.510 Y105.677 E2.66419
G1 X104.494 Y106.511 E2.75204
G1 X104.296 Y106.643 E2.76791
G1 X103.136 Y107.263 E2.85577
G1 X102.918 Y107.353 E2.87157
G1 X101.659 Y107.735 E2.95942
G1 X101.427 Y107.781 E2.97522
G1 X100.000 Y107.922 E3.07105
G1 X98.572 Y107.781 E3.16688
G1 X98.341 Y107.735 E3.18267
G1 X97.082 Y107.353 E3.27050
G1 X96.864 Y107.263 E3.28632
G1 X95.704 Y106.643 E3.37418
G1 X95.506 Y106.511 E3.39004
G1 X94.490 Y105.677 E3.47789
G1 X94.322 Y105.509 E3.49371
G1 X93.488 Y104.492 E3.58160
G1 X93.357 Y104.295 E3.59742
G1 X92.737 Y103.135 E3.68525
G1 X92.647 Y102.917 E3.70106
G1 X92.265 Y101.659 E3.78889
G1 X92.219 Y101.427 E3.80468
G1 X92.078 Y100.001 E3.90040
G1 X92.219 Y98.573 E3.99629
G1 X92.265 Y98.341 E4.01208
G1 X92.647 Y97.083 E4.09992
G1 X92.737 Y96.864 E4.11572
G1 X93.357 Y95.704 E4.20357
G1 X93.488 Y95.507 E4.21938
G1 X94.402 Y94.411 E4.31471
G1 X94.812 Y94.758 F7800.000
G1 X95.826 Y93.919 E4.40261 F720.000
G1 X95.979 Y93.816 E4.41494
G1 X97.093 Y93.221 E4.49929
G1 X97.263 Y93.151 E4.51157
G1 X98.471 Y92.784 E4.59594
G1 X98.652 Y92.748 E4.60828
G1 X99.867 Y92.630 E4.68978
G1 X100.133 Y92.630 E4.70755
G1 X101.347 Y92.748 E4.78909 F720.000
G1 X101.529 Y92.784 E4.80143
G1 X102.737 Y93.151 E4.88580
G1 X102.907 Y93.221 E4.89809
G1 X104.021 Y93.816 E4.98243
G1 X104.174 Y93.919 E4.99477
G1 X105.150 Y94.720 E5.07910
G1 X105.280 Y94.850 E5.09141
G1 X106.081 Y95.827 E5.17577
G1 X106.183 Y95.980 E5.18807
G1 X106.778 Y97.093 E5.27240
G1 X106.848 Y97.263 E5.28470
G1 X107.215 Y98.471 E5.36902
G1 X107.251 Y98.651 E5.38131
G1 X107.370 Y99.866 E5.46283
G1 X107.358 Y100.102 E5.47865
G1 X107.371 Y100.135 E5.48098
G1 X107.250 Y101.348 E5.56243
G1 X107.215 Y101.528 E5.57471
G1 X106.848 Y102.736 E5.65904
G1 X106.778 Y102.906 E5.67133
G1 X106.183 Y104.020 E5.75565
G1 X106.081 Y104.173 E5.76796
G1 X105.280 Y105.149 E5.85232
G1 X105.150 Y105.280 E5.86463
G1 X104.174 Y106.081 E5.94896
G1 X104.021 Y106.183 E5.96130
G1 X102.907 Y106.778 E6.04564
G1 X102.737 Y106.848 E6.05793
G1 X101.529 Y107.215 E6.14227
G1 X101.349 Y107.251 E6.15455
G1 X100.134 Y107.371 E6.23607
G1 X100.102 Y107.358 E6.23842
G1 X99.865 Y107.371 E6.25427
G1 X98.651 Y107.251 E6.33574
G1 X98.471 Y107.215 E6.34802
G1 X97.263 Y106.849 E6.43235
G1 X97.093 Y106.778 E6.44464
G1 X95.979 Y106.183 E6.52899
G1 X95.826 Y106.081 E6.54133
G1 X94.850 Y105.280 E6.62565
G1 X94.720 Y105.149 E6.63796
G1 X93.919 Y104.173 E6.72233
G1 X93.817 Y104.020 E6.73463
G1 X93.222 Y102.906 E6.81896
G1 X93.152 Y102.736 E6.83125
G1 X92.785 Y101.528 E6.91557
G1 X92.749 Y101.348 E6.92785
G1 X92.630 Y100.135 E7.00926
G1 X92.643 Y100.102 E7.01164
G1 X92.630 Y99.865 E7.02749
G1 X92.749 Y98.651 E7.10898
G1 X92.785 Y98.471 E7.12127
G1 X93.152 Y97.263 E7.20560
G1 X93.222 Y97.093 E7.21788
G1 X93.817 Y95.980 E7.30222
G1 X93.919 Y95.827 E7.31452
G1 X94.780 Y94.790 E7.40458
G1 X95.191 Y95.136 F7800.000
G1 X96.255 Y94.276 E7.49597 F720.000
G1 X97.443 Y93.656 E7.58553
G1 X98.731 Y93.279 E7.67516
G1 X99.790 Y93.175 E7.74624
G1 X99.897 Y93.218 E7.75397
G1 X100.102 Y93.218 E7.76762
G1 X100.209 Y93.175 E7.77535
G1 X100.539 Y93.208 E7.79748
G1 X101.398 Y93.305 E7.85526 F720.000
G1 X102.678 Y93.706 E7.94484
G1 X103.745 Y94.276 E8.02567
G1 X104.790 Y95.117 E8.11525
G1 X104.883 Y95.210 E8.12404
G1 X105.723 Y96.255 E8.21364
G1 X106.343 Y97.444 E8.30320
G1 X106.720 Y98.730 E8.39275
G1 X106.825 Y99.790 E8.46386
G1 X106.782 Y99.898 E8.47167
G1 X106.782 Y100.102 E8.48530
G1 X106.825 Y100.211 E8.49312
G1 X106.720 Y101.269 E8.56416
G1 X106.343 Y102.556 E8.65370
G1 X105.723 Y103.744 E8.74325
G1 X104.883 Y104.789 E8.83285
G1 X103.855 Y105.650 E8.92242
G1 X103.745 Y105.723 E8.93123
G1 X102.556 Y106.344 E9.02080
G1 X101.399 Y106.695 E9.10162
G1 X100.211 Y106.825 E9.18145
G1 X100.102 Y106.782 E9.18929
G1 X99.898 Y106.782 E9.20293
G1 X99.788 Y106.825 E9.21077
G1 X98.730 Y106.720 E9.28183
G1 X97.444 Y106.344 E9.37138
G1 X96.255 Y105.723 E9.46095
G1 X96.145 Y105.650 E9.46976
G1 X95.117 Y104.789 E9.55932
G1 X94.277 Y103.744 E9.64892
G1 X93.657 Y102.556 E9.73848
G1 X93.280 Y101.269 E9.82802
G1 X93.175 Y100.212 E9.89902
G1 X93.219 Y100.102 E9.90688
G1 X93.219 Y99.898 E9.92051
G1 X93.175 Y99.789 E9.92836
G1 X93.280 Y98.730 E9.99943
G1 X93.657 Y97.444 E10.08899
G1 X93.707 Y97.322 E10.09777
G1 X94.350 Y96.146 E10.18733
G1 X95.159 Y95.168 E10.27213
G1 X95.571 Y95.514 F7800.000
G1 X96.531 Y94.736 E10.35468 F720.000
G1 X97.624 Y94.161 E10.43722
G1 X98.809 Y93.809 E10.51981
G1 X99.713 Y93.721 E10.58049
G1 X99.898 Y93.794 E10.59373
G1 X100.102 Y93.794 E10.60739
G1 X100.286 Y93.721 E10.62063
G1 X101.268 Y93.825 E10.68660 F720.000
G1 X102.449 Y94.191 E10.76917
G1 X103.469 Y94.736 E10.84647
G1 X104.429 Y95.514 E10.92902
G1 X105.263 Y96.531 E11.01685
G1 X105.838 Y97.624 E11.09940
G1 X106.190 Y98.809 E11.18195
G1 X106.279 Y99.713 E11.24264
G1 X106.206 Y99.898 E11.25593
G1 X106.206 Y100.102 E11.26956
G1 X106.279 Y100.287 E11.28286
G1 X106.190 Y101.190 E11.34349
G1 X105.838 Y102.375 E11.42603
G1 X105.263 Y103.469 E11.50858
G1 X104.485 Y104.429 E11.59116
G1 X103.535 Y105.219 E11.67370
G1 X102.376 Y105.839 E11.76151
G1 X101.268 Y106.174 E11.83882
G1 X100.287 Y106.279 E11.90474
G1 X100.102 Y106.206 E11.91806
G1 X99.898 Y106.206 E11.93170
G1 X99.712 Y106.279 E11.94503
G1 X98.809 Y106.190 E12.00567
G1 X97.624 Y105.839 E12.08822
G1 X96.465 Y105.219 E12.17603
G1 X95.515 Y104.429 E12.25857
G1 X94.737 Y103.469 E12.34115
G1 X94.162 Y102.375 E12.42370
G1 X93.810 Y101.190 E12.50624
G1 X93.721 Y100.288 E12.56682
G1 X93.795 Y100.102 E12.58017
G1 X93.795 Y99.898 E12.59380
G1 X93.721 Y99.713 E12.60714
G1 X93.810 Y98.809 E12.66779
G1 X94.192 Y97.551 E12.75558
G1 X94.781 Y96.465 E12.83813
G1 X95.539 Y95.546 E12.91772
G1 X95.931 Y95.912 F7800.000
G1 X96.806 Y95.196 E12.99324 F720.000
G1 X97.805 Y94.666 E13.06877
G1 X98.888 Y94.340 E13.14433
G1 X99.636 Y94.267 E13.19459
G1 X99.898 Y94.370 E13.21335
G1 X100.102 Y94.370 E13.22700
G1 X100.363 Y94.267 E13.24576
G1 X100.435 Y94.274 E13.25057
G1 X101.138 Y94.345 E13.29780 F720.000
G1 X102.220 Y94.676 E13.37335
G1 X103.194 Y95.196 E13.44714
G1 X104.069 Y95.912 E13.52266
G1 X104.803 Y96.806 E13.59998
G1 X105.333 Y97.805 E13.67551
G1 X105.659 Y98.888 E13.75106
G1 X105.733 Y99.637 E13.80134
G1 X105.630 Y99.898 E13.82011
G1 X105.630 Y100.102 E13.83374
G1 X105.733 Y100.364 E13.85252
G1 X105.659 Y101.112 E13.90273
G1 X105.333 Y102.195 E13.97828
G1 X104.803 Y103.193 E14.05381
G1 X104.088 Y104.069 E14.12938
G1 X103.216 Y104.789 E14.20489
G1 X102.195 Y105.334 E14.28218
G1 X101.138 Y105.654 E14.35598
G1 X100.364 Y105.733 E14.40799
G1 X100.102 Y105.630 E14.42680
G1 X99.898 Y105.630 E14.44043
G1 X99.636 Y105.733 E14.45925
G1 X98.888 Y105.659 E14.50948
G1 X97.805 Y105.334 E14.58502
G1 X96.784 Y104.789 E14.66231
G1 X95.912 Y104.069 E14.73783
G1 X95.212 Y103.215 E14.81165
G1 X94.677 Y102.219 E14.88718
G1 X94.346 Y101.137 E14.96273
G1 X94.267 Y100.364 E15.01464
G1 X94.370 Y100.102 E15.03347
G1 X94.370 Y99.898 E15.04710
G1 X94.267 Y99.636 E15.06593
G1 X94.346 Y98.862 E15.11791
G1 X94.677 Y97.781 E15.19345
G1 X95.197 Y96.806 E15.26724
G1 X95.900 Y95.945 E15.34155
G1 E14.34155 F2400.00000
G92 E0
G1 X104.547 Y100.000 F7800.000
G1 E1.00000 F2400.00000
G1 X105.147 Y100.526 E1.05328 F180.000
G1 X105.098 Y101.013 E1.08601
G1 X104.802 Y101.989 E1.15411
G1 X104.322 Y102.888 E1.22220
G1 X103.676 Y103.676 E1.29031
G1 X102.888 Y104.323 E1.35836
G1 X101.990 Y104.803 E1.42643
G1 X101.014 Y105.099 E1.49454
G1 X100.526 Y105.147 E1.52730
G1 X100.000 Y104.546 E1.58065
G1 X99.474 Y105.147 E1.63403
G1 X98.986 Y105.099 E1.66677
G1 X98.010 Y104.803 E1.73488
G1 X97.111 Y104.323 E1.80295
G1 X96.324 Y103.676 E1.87100
G1 X95.678 Y102.888 E1.93911
G1 X95.197 Y101.989 E2.00720
G1 X94.902 Y101.013 E2.07530
G1 X94.853 Y100.527 E2.10798
G1 X95.454 Y100.000 E2.16134
G1 X94.853 Y99.474 E2.21470
G1 X94.902 Y98.986 E2.24744
G1 X95.197 Y98.011 E2.31555
G1 X95.678 Y97.112 E2.38363
G1 X96.324 Y96.323 E2.45174
G1 X97.111 Y95.677 E2.51979
G1 X98.010 Y95.197 E2.58787
G1 X98.986 Y94.901 E2.65596
G1 X99.474 Y94.853 E2.68874
G1 X99.998 Y95.451 E2.74185
G1 X100.531 Y94.854 E2.79535
G1 X101.014 Y94.901 E2.82779
G1 X101.990 Y95.197 E2.89588
G1 X102.888 Y95.677 E2.96395
G1 X103.676 Y96.323 E3.03201
G1 X104.322 Y97.112 E3.10012
G1 X104.802 Y98.011 E3.16820
G1 X105.098 Y98.986 E3.23630
G1 X105.147 Y99.475 E3.26910
G1 X104.581 Y99.971 E3.31937
G1 X104.339 Y100.217 F7800.000
G1 X103.734 Y100.000 F7800.000
G1 X104.586 Y100.747 E3.39509 F180.000
G1 X104.570 Y100.908 E3.40591
G1 X104.305 Y101.783 E3.46698
G1 X103.875 Y102.589 E3.52802
G1 X103.295 Y103.296 E3.58908
G1 X102.589 Y103.875 E3.65007
G1 X101.784 Y104.305 E3.71109
G1 X100.909 Y104.571 E3.77216
G1 X100.748 Y104.587 E3.78300
G1 X100.000 Y103.733 E3.85880
G1 X99.252 Y104.587 E3.93464
G1 X99.091 Y104.571 E3.94547
G1 X98.216 Y104.305 E4.00654
G1 X97.410 Y103.875 E4.06756
G1 X96.705 Y103.296 E4.12855
G1 X96.125 Y102.589 E4.18961
G1 X95.695 Y101.783 E4.25065
G1 X95.429 Y100.908 E4.31172
G1 X95.414 Y100.748 E4.32248
G1 X96.267 Y100.000 E4.39828
G1 X95.414 Y99.252 E4.47409
G1 X95.429 Y99.091 E4.48492
G1 X95.695 Y98.216 E4.54598
G1 X96.125 Y97.410 E4.60702
G1 X96.705 Y96.704 E4.66808
G1 X97.410 Y96.124 E4.72908
G1 X98.216 Y95.694 E4.79010
G1 X99.090 Y95.429 E4.85114
G1 X99.252 Y95.413 E4.86200
G1 X99.994 Y96.260 E4.93721
G1 X100.750 Y95.413 E5.01301
G1 X100.909 Y95.429 E5.02374
G1 X101.784 Y95.694 E5.08477
G1 X102.589 Y96.124 E5.14580
G1 X103.295 Y96.704 E5.20679
G1 X103.875 Y97.410 E5.26785
G1 X104.305 Y98.216 E5.32889
G1 X104.570 Y99.091 E5.38995
G1 X104.586 Y99.253 E5.40084
G1 X103.768 Y99.971 E5.47356
G1 X102.974 Y99.954 F7800.000
G1 X102.974 Y97.157 E5.66038 F180.000
G1 X103.427 Y97.709 E5.70809
G1 X103.808 Y98.422 E5.76208
G1 X104.000 Y99.055 E5.80626
G1 X103.008 Y99.924 E5.89435
G1 X102.974 Y100.047 F7800.000
G1 X104.000 Y100.945 E5.98542 F180.000
G1 X103.808 Y101.577 E6.02955
G1 X103.427 Y102.290 E6.08354
G1 X102.974 Y102.842 E6.13125
G1 X102.974 Y100.092 E6.31500
G1 E5.31500 F2400.00000
G92 E0
G1 X103.134 Y100.400 F7800.000
G1 X96.866 Y100.399 F7800.000
G1 X97.026 Y100.048 F7800.000
