;FLAVOR:RepRap
;TIME:17876
;Generated with Cura_SteamEngine 2.3.1
M190 S85
M104 S210
M109 S210
G21 ;metric values
G90 ;absolute positioning
M82 ;set extruder to absolute mode
M107 ;start with the fan off
G28 X0 Y0 ;move X/Y to min endstops
G28 Z0 ;move Z to min endstops
G1 Z15.0 F9000 ;move the platform down 15mm
G92 E0 ;zero the extruded length
G1 F200 E3 ;extrude 3mm of feed stock
G92 E0 ;zero the extruded length again
G1 F9000
;Put printing message on LCD screen
M117 Printing...
;LAYER_COUNT:128
;LAYER:-9
M107
G1 F1500 E-6.5
G0 F7200 X57.822 Y36.946 Z.36
G1 F1500 E0
G1 F1350 X58.444 Y36.076 E0.12806
G1 X59.122 Y35.261 E0.25499
G1 X59.853 Y34.503 E0.38108
G1 X60.662 Y33.778 E0.51116
G1 X61.511 Y33.122 E0.63962
G1 X62.384 Y32.544 E0.76499
G1 X63.322 Y32.017 E0.89381
G1 X64.278 Y31.568 E1.02028
G1 X65.285 Y31.183 E1.14936
G1 X66.303 Y30.876 E1.27668
G1 X67.335 Y30.645 E1.4033
G1 X68.401 Y30.488 E1.53232
G1 X69.453 Y30.411 E1.65862
G1 X70.018 Y30.4 E1.72628
G1 X129.995 Y30.4 E8.90772
G1 X131.057 Y30.438 E9.03496
G1 X132.145 Y30.559 E9.16604
G1 X133.167 Y30.747 E9.29046
G1 X134.191 Y31.015 E9.4172
G1 X135.23 Y31.369 E9.54863
G1 X136.189 Y31.776 E9.67337
G1 X137.147 Y32.268 E9.80232
G1 X138.054 Y32.822 E9.92958
G1 X138.924 Y33.444 E10.05763
G1 X139.739 Y34.122 E10.18457
G1 X140.497 Y34.853 E10.31066
G1 X141.222 Y35.662 E10.44073
G1 X141.878 Y36.511 E10.5692
G1 X142.456 Y37.384 E10.69456
G1 X142.983 Y38.322 E10.82339
G1 X143.432 Y39.278 E10.94985
G1 X143.817 Y40.285 E11.07894
G1 X144.124 Y41.303 E11.20625
G1 X144.354 Y42.332 E11.3325
G1 X144.512 Y43.401 E11.46189
G1 X144.589 Y44.453 E11.58819
G1 X144.6 Y44.991 E11.65262
G1 X144.6 Y155.003 E24.82507
G1 X144.562 Y156.058 E24.95148
G1 X144.441 Y157.145 E25.08243
G1 X144.253 Y158.167 E25.20686
G1 X143.985 Y159.191 E25.3336
G1 X143.631 Y160.23 E25.46503
G1 X143.224 Y161.189 E25.58977
G1 X142.743 Y162.126 E25.71588
G1 X142.171 Y163.064 E25.84743
G1 X141.556 Y163.924 E25.97402
G1 X140.878 Y164.739 E26.10096
G1 X140.147 Y165.497 E26.22705
G1 X139.338 Y166.222 E26.35712
G1 X138.494 Y166.874 E26.48482
G1 X137.616 Y167.456 E26.61095
G1 X136.678 Y167.983 E26.73977
G1 X135.722 Y168.432 E26.86624
G1 X134.715 Y168.817 E26.99533
G1 X133.697 Y169.124 E27.12264
G1 X132.665 Y169.355 E27.24927
G1 X131.599 Y169.512 E27.37828
G1 X130.547 Y169.589 E27.50458
G1 X129.982 Y169.6 E27.57224
G1 X70.005 Y169.6 E34.75368
G1 X68.943 Y169.562 E34.88092
G1 X67.855 Y169.441 E35.012
G1 X66.833 Y169.253 E35.13642
G1 X65.809 Y168.985 E35.26316
G1 X64.77 Y168.631 E35.39459
G1 X63.811 Y168.224 E35.51933
G1 X62.853 Y167.732 E35.64828
G1 X61.946 Y167.178 E35.77554
G1 X61.076 Y166.556 E35.90359
G1 X60.261 Y165.878 E36.03053
G1 X59.503 Y165.147 E36.15662
G1 X58.778 Y164.338 E36.28669
G1 X58.122 Y163.489 E36.41516
G1 X57.544 Y162.616 E36.54053
G1 X57.017 Y161.678 E36.66935
G1 X56.568 Y160.722 E36.79582
G1 X56.183 Y159.715 E36.9249
G1 X55.876 Y158.697 E37.05222
G1 X55.645 Y157.665 E37.17884
G1 X55.488 Y156.599 E37.30786
G1 X55.411 Y155.547 E37.43416
G1 X55.4 Y155.009 E37.49859
G1 X55.4 Y44.997 E50.67104
G1 X55.438 Y43.942 E50.79744
G1 X55.559 Y42.853 E50.92864
G1 X55.747 Y41.833 E51.05283
G1 X56.015 Y40.809 E51.17957
G1 X56.371 Y39.764 E51.31175
G1 X56.776 Y38.811 E51.43574
G1 X57.268 Y37.853 E51.56469
G1 X57.822 Y36.946 E51.69195
G0 F7200 X57.6 Y37.309
G1 F1350 X57.6 Y162.7 E66.70582
G0 F7200 X59.2 Y164.808
G1 F1350 X59.2 Y35.18 E82.22702
G0 F7200 X60.8 Y33.671
G1 F1350 X60.8 Y166.326 E98.11067
G0 F7200 X62.4 Y167.455
G1 F1350 X62.4 Y32.535 E114.26552
G0 F7200 X64 Y31.698
G1 F1350 X64 Y168.304 E130.62224
G0 F7200 X65.6 Y168.913
G1 F1350 X65.6 Y31.088 E147.12492
G0 F7200 X67.2 Y30.675
G1 F1350 X67.2 Y169.32 E163.72578
G0 F7200 X68.8 Y169.546
G1 F1350 X68.8 Y30.458 E180.37969
G0 F7200 X70.4 Y30.4
G1 F1350 X70.4 Y169.6 E197.04701
G0 F7200 X72 Y169.6
G1 F1350 X72 Y30.4 E213.71433
G0 F7200 X73.6 Y30.4
G1 F1350 X73.6 Y169.6 E230.38165
G0 F7200 X75.2 Y169.6
G1 F1350 X75.2 Y30.4 E247.04897
G0 F7200 X76.8 Y30.4
G1 F1350 X76.8 Y169.6 E263.71629
G0 F7200 X78.4 Y169.6
G1 F1350 X78.4 Y30.4 E280.38361
G0 F7200 X80 Y30.4
G1 F1350 X80 Y169.6 E297.05092
G0 F7200 X81.6 Y169.6
G1 F1350 X81.6 Y30.4 E313.71824
G0 F7200 X83.2 Y30.4
G1 F1350 X83.2 Y169.6 E330.38556
G0 F7200 X84.8 Y169.6
G1 F1350 X84.8 Y30.4 E347.05288
G0 F7200 X86.4 Y30.4
G1 F1350 X86.4 Y169.6 E363.7202
G0 F7200 X88 Y169.6
G1 F1350 X88 Y30.4 E380.38752
G0 F7200 X89.6 Y30.4
G1 F1350 X89.6 Y169.6 E397.05484
G0 F7200 X91.2 Y169.6
G1 F1350 X91.2 Y30.4 E413.72216
G0 F7200 X92.8 Y30.4
G1 F1350 X92.8 Y169.6 E430.38948
G0 F7200 X94.4 Y169.6
G1 F1350 X94.4 Y30.4 E447.05679
G0 F7200 X96 Y30.4
G1 F1350 X96 Y169.6 E463.72411
G0 F7200 X97.6 Y169.6
G1 F1350 X97.6 Y30.4 E480.39143
G0 F7200 X99.2 Y30.4
G1 F1350 X99.2 Y169.6 E497.05875
G0 F7200 X100.8 Y169.6
G1 F1350 X100.8 Y30.4 E513.72607
G0 F7200 X102.4 Y30.4
G1 F1350 X102.4 Y169.6 E530.39339
G0 F7200 X104 Y169.6
G1 F1350 X104 Y30.4 E547.06071
G0 F7200 X105.6 Y30.4
G1 F1350 X105.6 Y169.6 E563.72803
G0 F7200 X107.2 Y169.6
G1 F1350 X107.2 Y30.4 E580.39535
G0 F7200 X108.8 Y30.4
G1 F1350 X108.8 Y169.6 E597.06266
G0 F7200 X110.4 Y169.6
G1 F1350 X110.4 Y30.4 E613.72998
G0 F7200 X112 Y30.4
G1 F1350 X112 Y169.6 E630.3973
G0 F7200 X113.6 Y169.6
G1 F1350 X113.6 Y30.4 E647.06462
G0 F7200 X115.2 Y30.4
G1 F1350 X115.2 Y169.6 E663.73194
G0 F7200 X116.8 Y169.6
G1 F1350 X116.8 Y30.4 E680.39926
G0 F7200 X118.4 Y30.4
G1 F1350 X118.4 Y169.6 E697.06658
G0 F7200 X120 Y169.6
G1 F1350 X120 Y30.4 E713.7339
G0 F7200 X121.6 Y30.4
G1 F1350 X121.6 Y169.6 E730.40122
G0 F7200 X123.2 Y169.6
G1 F1350 X123.2 Y30.4 E747.06853
G0 F7200 X124.8 Y30.4
G1 F1350 X124.8 Y169.6 E763.73585
G0 F7200 X126.4 Y169.6
G1 F1350 X126.4 Y30.4 E780.40317
G0 F7200 X128 Y30.4
G1 F1350 X128 Y169.6 E797.07049
G0 F7200 X129.6 Y169.6
G1 F1350 X129.6 Y30.4 E813.73781
G0 F7200 X131.2 Y30.454
G1 F1350 X131.2 Y169.542 E830.39172
G0 F7200 X132.8 Y169.325
G1 F1350 X132.8 Y30.68 E846.99258
G0 F7200 X134.4 Y31.087
G1 F1350 X134.4 Y168.912 E863.49526
G0 F7200 X136 Y168.302
G1 F1350 X136 Y31.696 E879.85199
G0 F7200 X137.6 Y32.545
G1 F1350 X137.6 Y167.465 E896.00683
G0 F7200 X139.2 Y166.329
G1 F1350 X139.2 Y33.674 E911.89048
G0 F7200 X140.8 Y35.192
G1 F1350 X140.8 Y164.82 E927.41168
G0 F7200 X142.4 Y162.689
G1 F1350 X142.4 Y37.3 E942.42532
G0 F7200 X144 Y40.892
G1 F1350 X144 Y159.134 E956.5832
G0 F7200 X56 Y159.108
G1 F1350 X56 Y40.866 E970.74108
;TIME_ELAPSED:371.560706
;LAYER:-8
G0 F7200 X56.014 Y40.808 Z.51
;TYPE:SUPPORT
G1 F1350 X56.103 Y40.546 E970.75488
G1 X144.599 Y129.043 E976.99879
G1 X144.599 Y127.629 E977.06934
G1 X56.478 Y39.508 E983.28675
G1 X56.775 Y38.81 E983.32459
G1 X56.917 Y38.533 E983.34012
G1 X144.599 Y126.215 E989.52656
G1 X144.599 Y124.8 E989.59716
G1 X57.412 Y37.613 E995.74867
G1 X57.821 Y36.946 E995.7877
G1 X57.962 Y36.749 E995.79979
G1 X144.599 Y123.386 E1001.9125
G1 X144.599 Y121.972 E1001.98304
G1 X58.561 Y35.933 E1008.05352
G1 X59.121 Y35.26 E1008.0972
G1 X59.209 Y35.167 E1008.10359
G1 X144.599 Y120.558 E1014.12835
G1 X144.599 Y119.143 E1014.19895
G1 X59.908 Y34.453 E1020.17432
G1 X60.654 Y33.784 E1020.22431
G1 X144.599 Y117.729 E1026.14708
G1 X144.599 Y116.315 E1026.21763
G1 X61.451 Y33.167 E1032.08417
G1 X61.51 Y33.121 E1032.0879
G1 X62.298 Y32.6 E1032.13503
G1 X144.599 Y114.901 E1037.94181
G1 X144.599 Y113.487 E1038.01236
G1 X63.199 Y32.086 E1043.7556
G1 X63.32 Y32.017 E1043.76255
G1 X64.153 Y31.626 E1043.80846
G1 X144.599 Y112.072 E1049.48436
G1 X144.599 Y110.658 E1049.5549
G1 X65.169 Y31.227 E1055.15915
G1 X65.284 Y31.183 E1055.1653
G1 X66.248 Y30.892 E1055.21554
G1 X144.599 Y109.244 E1060.74366
G1 X144.599 Y107.83 E1060.8142
G1 X67.404 Y30.635 E1066.26073
G1 X68.4 Y30.488 E1066.31095
G1 X68.653 Y30.469 E1066.32361
G1 X144.599 Y106.416 E1071.68205
G1 X144.599 Y105.001 E1071.75264
G1 X69.998 Y30.4 E1077.01615
G1 X70.017 Y30.399 E1077.0171
G1 X71.412 Y30.399 E1077.08669
G1 X144.599 Y103.587 E1082.25047
G1 X144.599 Y102.173 E1082.32101
G1 X72.826 Y30.399 E1087.38502
G1 X74.24 Y30.399 E1087.45556
G1 X144.599 Y100.759 E1092.41981
G1 X144.599 Y99.344 E1092.4904
G1 X75.654 Y30.399 E1097.35484
G1 X77.068 Y30.399 E1097.42539
G1 X144.599 Y97.93 E1102.19006
G1 X144.599 Y96.516 E1102.26061
G1 X78.483 Y30.399 E1106.92549
G1 X79.897 Y30.399 E1106.99603
G1 X144.599 Y95.102 E1111.56114
G1 X144.599 Y93.688 E1111.63169
G1 X81.311 Y30.399 E1116.09703
G1 X82.725 Y30.399 E1116.16758
G1 X144.599 Y92.273 E1120.53312
G1 X144.599 Y90.859 E1120.60367
G1 X84.14 Y30.399 E1124.86941
G1 X85.554 Y30.399 E1124.93995
G1 X144.599 Y89.445 E1129.10593
G1 X144.599 Y88.031 E1129.17648
G1 X86.968 Y30.399 E1133.24269
G1 X88.382 Y30.399 E1133.31324
G1 X144.599 Y86.617 E1137.27969
G1 X144.599 Y85.202 E1137.35028
G1 X89.796 Y30.399 E1141.21693
G1 X91.211 Y30.399 E1141.28752
G1 X144.599 Y83.788 E1145.05437
G1 X144.599 Y82.374 E1145.12491
G1 X92.625 Y30.399 E1148.792
G1 X94.039 Y30.399 E1148.86254
G1 X144.599 Y80.96 E1152.42986
G1 X144.599 Y79.545 E1152.50045
G1 X95.453 Y30.399 E1155.96797
G1 X96.867 Y30.399 E1156.03851
G1 X144.599 Y78.131 E1159.40626
G1 X144.599 Y76.717 E1159.47681
G1 X98.282 Y30.399 E1162.74476
G1 X99.696 Y30.399 E1162.8153
G1 X144.599 Y75.303 E1165.98349
G1 X144.599 Y73.889 E1166.05403
G1 X101.11 Y30.399 E1169.12245
G1 X102.524 Y30.399 E1169.19299
G1 X144.599 Y72.474 E1172.16161
G1 X144.599 Y71.06 E1172.23216
G1 X103.939 Y30.399 E1175.10098
G1 X105.353 Y30.399 E1175.17152
G1 X144.599 Y69.646 E1177.94057
G1 X144.599 Y68.232 E1178.01112
G1 X106.767 Y30.399 E1180.6804
G1 X108.181 Y30.399 E1180.75095
G1 X144.599 Y66.818 E1183.32047
G1 X144.599 Y65.403 E1183.39107
G1 X109.595 Y30.399 E1185.86079
G1 X111.01 Y30.399 E1185.93138
G1 X144.599 Y63.989 E1188.3013
G1 X144.599 Y62.575 E1188.37185
G1 X112.424 Y30.399 E1190.642
G1 X113.838 Y30.399 E1190.71255
G1 X144.599 Y61.161 E1192.88294
G1 X144.599 Y59.746 E1192.95353
G1 X115.252 Y30.399 E1195.02412
G1 X116.666 Y30.399 E1195.09467
G1 X144.599 Y58.332 E1197.06549
G1 X144.599 Y56.918 E1197.13603
G1 X118.081 Y30.399 E1199.00706
G1 X119.495 Y30.399 E1199.0776
G1 X144.599 Y55.504 E1200.84886
G1 X144.599 Y54.09 E1200.91941
G1 X120.909 Y30.399 E1202.5909
G1 X122.323 Y30.399 E1202.66144
G1 X144.599 Y52.675 E1204.23314
G1 X144.599 Y51.261 E1204.30368
G1 X123.738 Y30.399 E1205.77557
G1 X125.152 Y30.399 E1205.84612
G1 X144.599 Y49.847 E1207.21824
G1 X144.599 Y48.433 E1207.28879
G1 X126.566 Y30.399 E1208.56115
G1 X127.98 Y30.399 E1208.63169
G1 X144.599 Y47.019 E1209.80429
G1 X144.599 Y45.604 E1209.87488
G1 X129.394 Y30.399 E1210.94768
G0 F7200 X129.994 Y30.399
G1 F1350 X130.839 Y30.43 E1210.98986
G1 X144.566 Y44.157 E1211.95838
G1 X144.511 Y43.4 E1211.99624
G1 X144.387 Y42.564 E1212.03841
G1 X132.436 Y30.612 E1212.88165
G1 X133.165 Y30.747 E1212.91864
G1 X134.19 Y31.015 E1212.9715
G1 X134.285 Y31.047 E1212.9765
G1 X143.943 Y40.706 E1213.65796
G1 X143.816 Y40.284 E1213.67994
G1 X143.43 Y39.278 E1213.7337
G1 X142.989 Y38.337 E1213.78555
G1 X136.68 Y32.029 E1214.23065
G0 F7200 X56.014 Y40.808
G1 F1350 X55.793 Y41.651 E1214.27412
G1 X144.599 Y130.457 E1220.53987
G1 X144.599 Y131.871 E1220.61041
G1 X55.56 Y42.832 E1226.89259
G1 X55.558 Y42.852 E1226.8936
G1 X55.437 Y43.942 E1226.94831
G1 X55.43 Y44.117 E1226.95705
G1 X144.599 Y133.286 E1233.2484
G1 X144.599 Y134.7 E1233.31895
G1 X55.399 Y45.5 E1239.61249
G1 X55.399 Y46.914 E1239.68304
G1 X144.599 Y136.114 E1245.97658
G1 X144.599 Y137.528 E1246.04712
G1 X55.399 Y48.328 E1252.34066
G1 X55.399 Y49.742 E1252.41121
G1 X144.599 Y138.942 E1258.70475
G1 X144.599 Y140.357 E1258.77534
G1 X55.399 Y51.157 E1265.06889
G1 X55.399 Y52.571 E1265.13943
G1 X144.599 Y141.771 E1271.43297
G1 X144.599 Y143.185 E1271.50352
G1 X55.399 Y53.985 E1277.79706
G1 X55.399 Y55.399 E1277.8676
G1 X144.599 Y144.599 E1284.16115
G1 X144.599 Y146.014 E1284.23174
G1 X55.399 Y56.813 E1290.52532
G1 X55.399 Y58.228 E1290.59591
G1 X144.599 Y147.428 E1296.88945
G1 X144.599 Y148.842 E1296.96
G1 X55.399 Y59.642 E1303.25354
G1 X55.399 Y61.056 E1303.32409
G1 X144.599 Y150.256 E1309.61763
G1 X144.599 Y151.67 E1309.68817
G1 X55.399 Y62.47 E1315.98171
G1 X55.399 Y63.884 E1316.05226
G1 X144.599 Y153.085 E1322.34584
G1 X144.599 Y154.499 E1322.41638
G1 X55.399 Y65.299 E1328.70992
G1 X55.399 Y66.713 E1328.78047
G1 X144.568 Y155.882 E1335.07182
G1 X144.562 Y156.057 E1335.08056
G1 X144.44 Y157.144 E1335.13513
G1 X144.437 Y157.165 E1335.13619
G1 X55.399 Y68.127 E1341.4183
G1 X55.399 Y69.541 E1341.48884
G1 X144.205 Y158.348 E1347.75462
G1 X143.984 Y159.19 E1347.79805
G1 X143.896 Y159.452 E1347.81184
G1 X55.399 Y70.956 E1354.05575
G1 X55.399 Y72.37 E1354.12629
G1 X143.52 Y160.491 E1360.3437
G1 X143.223 Y161.188 E1360.3815
G1 X143.081 Y161.466 E1360.39708
G1 X55.399 Y73.784 E1366.58352
G1 X55.399 Y75.198 E1366.65406
G1 X142.585 Y162.384 E1372.8055
G1 X142.17 Y163.063 E1372.84521
G1 X142.037 Y163.25 E1372.85665
G1 X55.399 Y76.612 E1378.96943
G1 X55.399 Y78.027 E1379.04003
G1 X141.437 Y164.065 E1385.11047
G1 X140.877 Y164.738 E1385.15415
G1 X140.789 Y164.83 E1385.1605
G1 X55.399 Y79.441 E1391.18519
G1 X55.399 Y80.855 E1391.25574
G1 X140.089 Y165.545 E1397.23108
G1 X139.344 Y166.214 E1397.28103
G1 X55.399 Y82.269 E1403.2038
G1 X55.399 Y83.683 E1403.27435
G1 X138.546 Y166.831 E1409.14085
G1 X138.493 Y166.872 E1409.1442
G1 X137.7 Y167.399 E1409.1917
G1 X55.399 Y85.098 E1414.99848
G1 X55.399 Y86.512 E1415.06902
G1 X136.799 Y167.912 E1420.81223
G1 X136.678 Y167.981 E1420.81918
G1 X135.845 Y168.372 E1420.86509
G1 X55.399 Y87.926 E1426.54099
G1 X55.399 Y89.34 E1426.61154
G1 X134.83 Y168.771 E1432.21582
G1 X134.715 Y168.816 E1432.22198
G1 X133.75 Y169.106 E1432.27225
G1 X55.399 Y90.755 E1437.80034
G1 X55.399 Y92.169 E1437.87089
G1 X132.594 Y169.364 E1443.31741
G1 X131.598 Y169.511 E1443.36764
G1 X131.345 Y169.529 E1443.38029
G1 X55.399 Y93.583 E1448.73869
G1 X55.399 Y94.997 E1448.80924
G1 X130 Y169.598 E1454.07274
G1 X129.981 Y169.599 E1454.07369
G1 X128.587 Y169.599 E1454.14324
G1 X55.399 Y96.411 E1459.30705
G1 X55.399 Y97.826 E1459.37764
G1 X127.173 Y169.599 E1464.44165
G1 X125.758 Y169.599 E1464.51224
G1 X55.399 Y99.24 E1469.47645
G1 X55.399 Y100.654 E1469.547
G1 X124.344 Y169.599 E1474.41144
G1 X122.93 Y169.599 E1474.48198
G1 X55.399 Y102.068 E1479.24666
G1 X55.399 Y103.482 E1479.3172
G1 X121.516 Y169.599 E1483.98212
G1 X120.102 Y169.599 E1484.05266
G1 X55.399 Y104.897 E1488.61777
G1 X55.399 Y106.311 E1488.68832
G1 X118.687 Y169.599 E1493.15363
G1 X117.273 Y169.599 E1493.22417
G1 X55.399 Y107.725 E1497.58972
G1 X55.399 Y109.139 E1497.66026
G1 X115.859 Y169.599 E1501.92604
G1 X114.445 Y169.599 E1501.99659
G1 X55.399 Y110.554 E1506.16256
G1 X55.399 Y111.968 E1506.23311
G1 X113.031 Y169.599 E1510.29932
G1 X111.616 Y169.599 E1510.36992
G1 X55.399 Y113.382 E1514.33633
G1 X55.399 Y114.796 E1514.40687
G1 X110.202 Y169.599 E1518.27352
G1 X108.788 Y169.599 E1518.34407
G1 X55.399 Y116.21 E1522.11095
G1 X55.399 Y117.625 E1522.18154
G1 X107.374 Y169.599 E1525.84863
G1 X105.959 Y169.599 E1525.91922
G1 X55.399 Y119.039 E1529.4865
G1 X55.399 Y120.453 E1529.55705
G1 X104.545 Y169.599 E1533.02456
G1 X103.131 Y169.599 E1533.09511
G1 X55.399 Y121.867 E1536.46286
G1 X55.399 Y123.281 E1536.5334
G1 X101.717 Y169.599 E1539.80139
G1 X100.303 Y169.599 E1539.87193
G1 X55.399 Y124.696 E1543.04012
G1 X55.399 Y126.11 E1543.11066
G1 X98.888 Y169.599 E1546.17904
G1 X97.474 Y169.599 E1546.24959
G1 X55.399 Y127.524 E1549.21821
G1 X55.399 Y128.938 E1549.28875
G1 X96.06 Y169.599 E1552.15761
G1 X94.646 Y169.599 E1552.22815
G1 X55.399 Y130.353 E1554.9972
G1 X55.399 Y131.767 E1555.06775
G1 X93.232 Y169.599 E1557.73704
G1 X91.817 Y169.599 E1557.80763
G1 X55.399 Y133.181 E1560.37712
G1 X55.399 Y134.595 E1560.44766
G1 X90.403 Y169.599 E1562.91738
G1 X88.989 Y169.599 E1562.98793
G1 X55.399 Y136.009 E1565.35788
G1 X55.399 Y137.424 E1565.42848
G1 X87.575 Y169.599 E1567.69863
G1 X86.16 Y169.599 E1567.76923
G1 X55.399 Y138.838 E1569.93958
G1 X55.399 Y140.252 E1570.01013
G1 X84.746 Y169.599 E1572.08072
G1 X83.332 Y169.599 E1572.15126
G1 X55.399 Y141.666 E1574.12209
G1 X55.399 Y143.08 E1574.19263
