; Generated with MatterSlice 1.0
; filamentDiameter = 1.75
; extrusionWidth = 0.3
; firstLayerExtrusionWidth = 0.3
; layerThickness = 0.2
; firstLayerThickness = 0.25
; automatic settings before start_gcode
G21 ; set units to millimeters
M107 ; fan off
M190 S75 ; wait for bed temperature to be reached
M104 T0 S210 ; start heating extruder 1
T0 ; set the active extruder to 0
; settings from start_gcode
G28 ; home all axes
G1 Z5 F5000 ; lift nozzle
; automatic settings after start_gcode
M109 T0 S210 ; wait for extruder 1 to reach temperature
T0 ; set the active extruder to 0
G90 ; use absolute coordinates
G92 E0 ; reset the expected extruder position
M82 ; use absolute distance for extrusion
; Layer count: 65
; RAFT BASE
; Layer Change GCode
; LAYER:-3
G0 F7800 X57.2 Y32.2 Z0.225
; TYPE:SUPPORT
G1 F1800 E0
G1 F1080 X142.8 Y32.2 E7.20664
G1 X142.8 Y167.8 E18.62277
G1 X57.2 Y167.8 E25.82941
G1 X57.2 Y32.2 E37.24553
G0 F7800 X65 Y40
G1 F1080 X135 Y40 E43.13881
G1 X135 Y160 E53.24158
G1 X65 Y160 E59.13486
G1 X65 Y40 E69.23762
G0 F7800 X64.94 Y40.799
G1 F1080 X135.06 Y40.799 E75.14101
G0 F7800 X135.06 Y41.999
G1 F1080 X64.94 Y41.999 E81.04439
G0 F7800 X64.94 Y43.199
G1 F1080 X135.06 Y43.199 E86.94777
G0 F7800 X135.06 Y44.399
G1 F1080 X64.94 Y44.399 E92.85115
G0 F7800 X64.94 Y45.599
G1 F1080 X135.06 Y45.599 E98.75454
G0 F7800 X135.06 Y46.799
G1 F1080 X64.94 Y46.799 E104.65792
G0 F7800 X64.94 Y47.999
G1 F1080 X135.06 Y47.999 E110.5613
G0 F7800 X135.06 Y49.199
G1 F1080 X64.94 Y49.199 E116.46469
G0 F7800 X64.94 Y50.399
G1 F1080 X135.06 Y50.399 E122.36807
G0 F7800 X135.06 Y51.599
G1 F1080 X64.94 Y51.599 E128.27145
G0 F7800 X64.94 Y52.799
G1 F1080 X135.06 Y52.799 E134.17484
G0 F7800 X135.06 Y53.999
G1 F1080 X64.94 Y53.999 E140.07822
G0 F7800 X64.94 Y55.199
G1 F1080 X135.06 Y55.199 E145.9816
G0 F7800 X135.06 Y56.399
G1 F1080 X64.94 Y56.399 E151.88498
G0 F7800 X64.94 Y57.599
G1 F1080 X135.06 Y57.599 E157.78837
G0 F7800 X135.06 Y58.799
G1 F1080 X64.94 Y58.799 E163.69175
G0 F7800 X64.94 Y59.999
G1 F1080 X135.06 Y59.999 E169.59513
G0 F7800 X135.06 Y61.199
G1 F1080 X64.94 Y61.199 E175.49852
G0 F7800 X64.94 Y62.399
G1 F1080 X135.06 Y62.399 E181.4019
G0 F7800 X135.06 Y63.599
G1 F1080 X64.94 Y63.599 E187.30528
G0 F7800 X64.94 Y64.799
G1 F1080 X135.06 Y64.799 E193.20866
G0 F7800 X135.06 Y65.999
G1 F1080 X64.94 Y66 E199.11205
G0 F7800 X64.94 Y67.2
G1 F1080 X135.06 Y67.199 E205.01543
G0 F7800 X135.06 Y68.399
G1 F1080 X64.94 Y68.4 E210.91881
G0 F7800 X64.94 Y69.6
G1 F1080 X135.06 Y69.599 E216.8222
G0 F7800 X135.06 Y70.799
G1 F1080 X64.94 Y70.8 E222.72558
G0 F7800 X64.94 Y72
G1 F1080 X135.06 Y71.999 E228.62896
G0 F7800 X135.06 Y73.199
G1 F1080 X64.94 Y73.2 E234.53235
G0 F7800 X64.94 Y74.4
G1 F1080 X135.06 Y74.399 E240.43573
G0 F7800 X135.06 Y75.599
G1 F1080 X64.94 Y75.6 E246.33911
G0 F7800 X64.94 Y76.8
G1 F1080 X135.06 Y76.799 E252.24249
G0 F7800 X135.06 Y77.999
G1 F1080 X64.94 Y78 E258.14588
G0 F7800 X64.94 Y79.2
G1 F1080 X135.06 Y79.199 E264.04926
G0 F7800 X135.06 Y80.399
G1 F1080 X64.94 Y80.4 E269.95264
G0 F7800 X64.94 Y81.6
G1 F1080 X135.06 Y81.599 E275.85603
G0 F7800 X135.06 Y82.799
G1 F1080 X64.94 Y82.8 E281.75941
G0 F7800 X64.94 Y84
G1 F1080 X135.06 Y83.999 E287.66279
G0 F7800 X135.06 Y85.199
G1 F1080 X64.94 Y85.2 E293.56618
G0 F7800 X64.94 Y86.4
G1 F1080 X135.06 Y86.399 E299.46956
G0 F7800 X135.06 Y87.599
G1 F1080 X64.94 Y87.6 E305.37294
G0 F7800 X64.94 Y88.8
G1 F1080 X135.06 Y88.799 E311.27632
G0 F7800 X135.06 Y89.999
G1 F1080 X64.94 Y90 E317.17971
G0 F7800 X64.94 Y91.2
G1 F1080 X135.06 Y91.199 E323.08309
G0 F7800 X135.06 Y92.399
G1 F1080 X64.94 Y92.4 E328.98647
G0 F7800 X64.94 Y93.6
G1 F1080 X135.06 Y93.599 E334.88986
G0 F7800 X135.06 Y94.799
G1 F1080 X64.94 Y94.8 E340.79324
G0 F7800 X64.94 Y96
G1 F1080 X135.06 Y95.999 E346.69662
G0 F7800 X135.06 Y97.199
G1 F1080 X64.94 Y97.2 E352.6
G0 F7800 X64.94 Y98.4
G1 F1080 X135.06 Y98.399 E358.50339
G0 F7800 X135.06 Y99.599
G1 F1080 X64.94 Y99.6 E364.40677
G0 F7800 X64.939 Y100.8
G1 F1080 X135.06 Y100.799 E370.31024
G0 F7800 X135.06 Y101.999
G1 F1080 X64.939 Y102 E376.2137
G0 F7800 X64.939 Y103.2
G1 F1080 X135.06 Y103.199 E382.11717
G0 F7800 X135.06 Y104.399
G1 F1080 X64.939 Y104.4 E388.02064
G0 F7800 X64.939 Y105.6
G1 F1080 X135.06 Y105.599 E393.92411
G0 F7800 X135.06 Y106.799
G1 F1080 X64.939 Y106.8 E399.82757
G0 F7800 X64.939 Y108
G1 F1080 X135.06 Y107.999 E405.73104
G0 F7800 X135.06 Y109.199
G1 F1080 X64.939 Y109.2 E411.63451
G0 F7800 X64.939 Y110.4
G1 F1080 X135.06 Y110.399 E417.53797
G0 F7800 X135.06 Y111.599
G1 F1080 X64.939 Y111.6 E423.44144
G0 F7800 X64.939 Y112.8
G1 F1080 X135.06 Y112.799 E429.34491
G0 F7800 X135.06 Y113.999
G1 F1080 X64.939 Y114 E435.24838
G0 F7800 X64.939 Y115.2
G1 F1080 X135.06 Y115.199 E441.15184
G0 F7800 X135.06 Y116.399
G1 F1080 X64.939 Y116.4 E447.05531
G0 F7800 X64.939 Y117.6
G1 F1080 X135.06 Y117.599 E452.95878
G0 F7800 X135.06 Y118.799
G1 F1080 X64.939 Y118.8 E458.86224
G0 F7800 X64.939 Y120
G1 F1080 X135.06 Y119.999 E464.76571
G0 F7800 X135.06 Y121.199
G1 F1080 X64.939 Y121.2 E470.66918
G0 F7800 X64.939 Y122.4
G1 F1080 X135.06 Y122.399 E476.57265
G0 F7800 X135.06 Y123.599
G1 F1080 X64.939 Y123.6 E482.47611
G0 F7800 X64.939 Y124.8
G1 F1080 X135.06 Y124.799 E488.37958
G0 F7800 X135.06 Y125.999
G1 F1080 X64.939 Y126 E494.28305
G0 F7800 X64.939 Y127.2
G1 F1080 X135.06 Y127.199 E500.18651
G0 F7800 X135.06 Y128.399
G1 F1080 X64.939 Y128.4 E506.08998
G0 F7800 X64.939 Y129.6
G1 F1080 X135.06 Y129.599 E511.99345
G0 F7800 X135.06 Y130.799
G1 F1080 X64.939 Y130.8 E517.89692
G0 F7800 X64.939 Y132
G1 F1080 X135.06 Y132 E523.80038
G0 F7800 X135.06 Y133.2
G1 F1080 X64.939 Y133.2 E529.70385
G0 F7800 X64.939 Y134.4
G1 F1080 X135.06 Y134.4 E535.60732
G0 F7800 X135.06 Y135.6
G1 F1080 X64.939 Y135.6 E541.51078
G0 F7800 X64.939 Y136.8
G1 F1080 X135.06 Y136.8 E547.41425
G0 F7800 X135.06 Y138
G1 F1080 X64.939 Y138 E553.31772
G0 F7800 X64.939 Y139.2
G1 F1080 X135.06 Y139.2 E559.22119
G0 F7800 X135.06 Y140.4
G1 F1080 X64.939 Y140.4 E565.12465
G0 F7800 X64.939 Y141.6
G1 F1080 X135.06 Y141.6 E571.02812
G0 F7800 X135.06 Y142.8
G1 F1080 X64.939 Y142.8 E576.93159
G0 F7800 X64.939 Y144
G1 F1080 X135.06 Y144 E582.83505
G0 F7800 X135.06 Y145.2
G1 F1080 X64.939 Y145.2 E588.73852
G0 F7800 X64.939 Y146.4
G1 F1080 X135.06 Y146.4 E594.64199
G0 F7800 X135.06 Y147.6
G1 F1080 X64.939 Y147.6 E600.54546
G0 F7800 X64.939 Y148.8
G1 F1080 X135.06 Y148.8 E606.44892
G0 F7800 X135.06 Y150
G1 F1080 X64.939 Y150 E612.35239
G0 F7800 X64.939 Y151.2
G1 F1080 X135.06 Y151.2 E618.25586
G0 F7800 X135.06 Y152.4
G1 F1080 X64.939 Y152.4 E624.15932
G0 F7800 X64.939 Y153.6
G1 F1080 X135.06 Y153.6 E630.06279
G0 F7800 X135.06 Y154.8
G1 F1080 X64.939 Y154.8 E635.96626
G0 F7800 X64.939 Y156
G1 F1080 X135.06 Y156 E641.86973
G0 F7800 X135.06 Y157.2
G1 F1080 X64.939 Y157.2 E647.77319
G0 F7800 X64.939 Y158.4
G1 F1080 X135.06 Y158.4 E653.67666
G0 F7800 X135.06 Y159.6
G1 F1080 X64.939 Y159.6 E659.58013
G4 P0
M106 S255
; RAFT MIDDLE
; Layer Change GCode
; LAYER:-2
G0 F7800 X64.94 Y159.339 Z0.412
; TYPE:SUPPORT
G1 F3600 X65.66 Y160.059 E659.60087
G0 F7800 X66.721 Y160.059
G1 F3600 X64.94 Y158.278 E659.65217
G0 F7800 X64.94 Y157.218
G1 F3600 X67.781 Y160.059 E659.73401
G0 F7800 X68.842 Y160.059
G1 F3600 X64.94 Y156.157 E659.84642
G0 F7800 X64.94 Y155.096
G1 F3600 X69.903 Y160.059 E659.98938
G0 F7800 X70.963 Y160.059
G1 F3600 X64.94 Y154.036 E660.16288
G0 F7800 X64.94 Y152.975
G1 F3600 X72.024 Y160.059 E660.36695
G0 F7800 X73.085 Y160.059
G1 F3600 X64.94 Y151.914 E660.60158
G0 F7800 X64.94 Y150.854
G1 F3600 X74.145 Y160.059 E660.86674
G0 F7800 X75.206 Y160.059
G1 F3600 X64.94 Y149.793 E661.16247
G0 F7800 X64.94 Y148.732
G1 F3600 X76.267 Y160.059 E661.48877
G0 F7800 X77.327 Y160.059
G1 F3600 X64.94 Y147.672 E661.84559
G0 F7800 X64.94 Y146.611
G1 F3600 X78.388 Y160.059 E662.23298
G0 F7800 X79.449 Y160.059
G1 F3600 X64.94 Y145.55 E662.65094
G0 F7800 X64.94 Y144.49
G1 F3600 X80.509 Y160.059 E663.09943
G0 F7800 X81.57 Y160.059
G1 F3600 X64.94 Y143.429 E663.57848
G0 F7800 X64.94 Y142.368
G1 F3600 X82.631 Y160.059 E664.0881
G0 F7800 X83.691 Y160.059
G1 F3600 X64.94 Y141.308 E664.62825
G0 F7800 X64.94 Y140.247
G1 F3600 X84.752 Y160.059 E665.19897
G0 F7800 X85.813 Y160.059
G1 F3600 X64.94 Y139.186 E665.80025
G0 F7800 X64.94 Y138.126
G1 F3600 X86.873 Y160.059 E666.43206
G0 F7800 X87.934 Y160.059
G1 F3600 X64.94 Y137.065 E667.09444
G0 F7800 X64.94 Y136.004
G1 F3600 X88.995 Y160.059 E667.78739
G0 F7800 X90.055 Y160.059
G1 F3600 X64.94 Y134.944 E668.51086
G0 F7800 X64.94 Y133.883
G1 F3600 X91.116 Y160.059 E669.2649
G0 F7800 X92.177 Y160.059
G1 F3600 X64.94 Y132.822 E670.04951
G0 F7800 X64.94 Y131.762
G1 F3600 X93.237 Y160.059 E670.86465
G0 F7800 X94.298 Y160.059
G1 F3600 X64.94 Y130.701 E671.71035
G0 F7800 X64.939 Y129.64
G1 F3600 X95.359 Y160.059 E672.58664
G0 F7800 X96.419 Y160.059
G1 F3600 X64.939 Y128.579 E673.49347
G0 F7800 X64.939 Y127.518
G1 F3600 X97.48 Y160.059 E674.43086
G0 F7800 X98.54 Y160.059
G1 F3600 X64.939 Y126.458 E675.39879
G0 F7800 X64.939 Y125.397
G1 F3600 X99.601 Y160.059 E676.39729
G0 F7800 X100.662 Y160.059
G1 F3600 X64.939 Y124.336 E677.42635
G0 F7800 X64.939 Y123.276
G1 F3600 X101.722 Y160.059 E678.48594
G0 F7800 X102.783 Y160.059
G1 F3600 X64.939 Y122.215 E679.57609
G0 F7800 X64.939 Y121.154
G1 F3600 X103.844 Y160.059 E680.69682
G0 F7800 X104.904 Y160.059
G1 F3600 X64.939 Y120.094 E681.84807
G0 F7800 X64.939 Y119.033
G1 F3600 X105.965 Y160.059 E683.02989
G0 F7800 X107.026 Y160.059
G1 F3600 X64.939 Y117.972 E684.24227
G0 F7800 X64.939 Y116.912
G1 F3600 X108.086 Y160.059 E685.48519
G0 F7800 X109.147 Y160.059
G1 F3600 X64.939 Y115.851 E686.75867
G0 F7800 X64.939 Y114.791
G1 F3600 X110.208 Y160.059 E688.0627
G0 F7800 X111.268 Y160.059
G1 F3600 X64.939 Y113.73 E689.39729
G0 F7800 X64.939 Y112.669
G1 F3600 X112.329 Y160.059 E690.76243
G0 F7800 X113.39 Y160.059
G1 F3600 X64.939 Y111.609 E692.15812
G0 F7800 X64.939 Y110.548
G1 F3600 X114.45 Y160.059 E693.58437
G0 F7800 X115.511 Y160.059
G1 F3600 X64.939 Y109.487 E695.04117
G0 F7800 X64.939 Y108.427
G1 F3600 X116.572 Y160.059 E696.52853
G0 F7800 X117.632 Y160.059
G1 F3600 X64.939 Y107.366 E698.04644
G0 F7800 X64.939 Y106.305
G1 F3600 X118.693 Y160.059 E699.59491
G0 F7800 X119.754 Y160.059
G1 F3600 X64.939 Y105.245 E701.17393
G0 F7800 X64.939 Y104.184
G1 F3600 X120.814 Y160.059 E702.78349
G0 F7800 X121.875 Y160.059
G1 F3600 X64.939 Y103.123 E704.42363
G0 F7800 X64.939 Y102.063
G1 F3600 X122.936 Y160.059 E706.09431
G0 F7800 X123.996 Y160.059
G1 F3600 X64.939 Y101.002 E707.79554
G0 F7800 X64.939 Y99.941
G1 F3600 X125.057 Y160.059 E709.52733
G0 F7800 X126.118 Y160.059
G1 F3600 X64.939 Y98.881 E711.28968
G0 F7800 X64.939 Y97.82
G1 F3600 X127.178 Y160.059 E713.08257
G0 F7800 X128.239 Y160.059
G1 F3600 X64.939 Y96.759 E714.90603
G0 F7800 X64.939 Y95.699
G1 F3600 X129.3 Y160.059 E716.76004
G0 F7800 X130.36 Y160.059
G1 F3600 X64.939 Y94.638 E718.64459
G0 F7800 X64.939 Y93.577
G1 F3600 X131.421 Y160.059 E720.55971
G0 F7800 X132.482 Y160.059
G1 F3600 X64.939 Y92.517 E722.50538
G0 F7800 X64.939 Y91.456
G1 F3600 X133.542 Y160.059 E724.4816
G0 F7800 X134.603 Y160.059
G1 F3600 X64.939 Y90.395 E726.48838
G0 F7800 X64.939 Y89.335
G1 F3600 X135.06 Y159.455 E728.50832
G0 F7800 X135.06 Y158.394
G1 F3600 X64.939 Y88.274 E730.52825
G0 F7800 X64.939 Y87.213
G1 F3600 X135.06 Y157.334 E732.5482
G0 F7800 X135.06 Y156.273
G1 F3600 X64.939 Y86.153 E734.56813
G0 F7800 X64.939 Y85.092
G1 F3600 X135.06 Y155.212 E736.58806
G0 F7800 X135.06 Y154.152
G1 F3600 X64.939 Y84.031 E738.60801
G0 F7800 X64.939 Y82.971
G1 F3600 X135.06 Y153.091 E740.62794
G0 F7800 X135.06 Y152.03
G1 F3600 X64.939 Y81.91 E742.64787
G0 F7800 X64.939 Y80.849
G1 F3600 X135.06 Y150.97 E744.66782
G0 F7800 X135.06 Y149.909
G1 F3600 X64.939 Y79.789 E746.68775
G0 F7800 X64.939 Y78.728
G1 F3600 X135.06 Y148.848 E748.70769
G0 F7800 X135.06 Y147.788
G1 F3600 X64.939 Y77.667 E750.72763
G0 F7800 X64.939 Y76.607
G1 F3600 X135.06 Y146.727 E752.74757
G0 F7800 X135.06 Y145.666
G1 F3600 X64.939 Y75.546 E754.7675
G0 F7800 X64.939 Y74.485
G1 F3600 X135.06 Y144.606 E756.78745
G0 F7800 X135.06 Y143.545
G1 F3600 X64.939 Y73.425 E758.80738
G0 F7800 X64.939 Y72.364
G1 F3600 X135.06 Y142.484 E760.82731
G0 F7800 X135.06 Y141.424
G1 F3600 X64.939 Y71.303 E762.84726
G0 F7800 X64.939 Y70.243
G1 F3600 X135.06 Y140.363 E764.86719
G0 F7800 X135.06 Y139.302
G1 F3600 X64.939 Y69.181 E766.88714
G0 F7800 X64.939 Y68.121
G1 F3600 X135.06 Y138.242 E768.90709
G0 F7800 X135.06 Y137.181
G1 F3600 X64.939 Y67.06 E770.92703
G0 F7800 X64.939 Y65.999
G1 F3600 X135.06 Y136.12 E772.94698
G0 F7800 X135.06 Y135.06
G1 F3600 X64.939 Y64.939 E774.96693
G0 F7800 X64.939 Y63.878
G1 F3600 X135.06 Y133.999 E776.98688
G0 F7800 X135.06 Y132.938
G1 F3600 X64.939 Y62.817 E779.00682
G0 F7800 X64.939 Y61.757
G1 F3600 X135.06 Y131.878 E781.02677
G0 F7800 X135.06 Y130.817
G1 F3600 X64.939 Y60.696 E783.04672
G0 F7800 X64.939 Y59.635
G1 F3600 X135.059 Y129.756 E785.06665
G0 F7800 X135.059 Y128.695
G1 F3600 X64.939 Y58.575 E787.08657
G0 F7800 X64.939 Y57.514
G1 F3600 X135.059 Y127.634 E789.10649
G0 F7800 X135.059 Y126.574
G1 F3600 X64.939 Y56.453 E791.12642
G0 F7800 X64.939 Y55.393
G1 F3600 X135.059 Y125.513 E793.14634
G0 F7800 X135.059 Y124.452
G1 F3600 X64.939 Y54.332 E795.16626
G0 F7800 X64.939 Y53.272
G1 F3600 X135.059 Y123.392 E797.18617
G0 F7800 X135.059 Y122.331
G1 F3600 X64.939 Y52.211 E799.20609
G0 F7800 X64.939 Y51.15
G1 F3600 X135.059 Y121.27 E801.22601
G0 F7800 X135.059 Y120.21
G1 F3600 X64.939 Y50.09 E803.24593
G0 F7800 X64.939 Y49.029
G1 F3600 X135.059 Y119.149 E805.26585
G0 F7800 X135.059 Y118.088
G1 F3600 X64.939 Y47.968 E807.28577
G0 F7800 X64.939 Y46.908
G1 F3600 X135.059 Y117.028 E809.30569
G0 F7800 X135.059 Y115.967
G1 F3600 X64.939 Y45.847 E811.3256
G0 F7800 X64.939 Y44.786
G1 F3600 X135.059 Y114.906 E813.34552
G0 F7800 X135.059 Y113.846
G1 F3600 X64.939 Y43.726 E815.36544
G0 F7800 X64.939 Y42.665
G1 F3600 X135.059 Y112.785 E817.38536
G0 F7800 X135.059 Y111.724
G1 F3600 X64.939 Y41.604 E819.40528
G0 F7800 X64.939 Y40.544
G1 F3600 X135.059 Y110.664 E821.4252
G0 F7800 X135.059 Y109.603
G1 F3600 X65.396 Y39.94 E823.43195
G0 F7800 X66.456 Y39.94
G1 F3600 X135.059 Y108.543 E825.40817
G0 F7800 X135.059 Y107.482
G1 F3600 X67.517 Y39.94 E827.35382
G0 F7800 X68.578 Y39.94
G1 F3600 X135.059 Y106.421 E829.26891
G0 F7800 X135.059 Y105.361
G1 F3600 X69.638 Y39.94 E831.15347
G0 F7800 X70.699 Y39.94
G1 F3600 X135.059 Y104.3 E833.00746
G0 F7800 X135.059 Y103.239
G1 F3600 X71.76 Y39.94 E834.83089
G0 F7800 X72.82 Y39.94
G1 F3600 X135.059 Y102.179 E836.62379
G0 F7800 X135.059 Y101.118
G1 F3600 X73.881 Y39.94 E838.38611
G0 F7800 X74.942 Y39.94
G1 F3600 X135.059 Y100.057 E840.11788
G0 F7800 X135.059 Y98.997
G1 F3600 X76.002 Y39.94 E841.81911
G0 F7800 X77.063 Y39.94
G1 F3600 X135.059 Y97.936 E843.48978
G0 F7800 X135.059 Y96.875
G1 F3600 X78.123 Y39.94 E845.1299
G0 F7800 X79.184 Y39.94
G1 F3600 X135.059 Y95.815 E846.73947
G0 F7800 X135.059 Y94.754
G1 F3600 X80.245 Y39.94 E848.31847
G0 F7800 X81.305 Y39.94
G1 F3600 X135.059 Y93.693 E849.86693
G0 F7800 X135.059 Y92.633
G1 F3600 X82.366 Y39.94 E851.38483
G0 F7800 X83.427 Y39.94
G1 F3600 X135.059 Y91.572 E852.87217
G0 F7800 X135.059 Y90.511
G1 F3600 X84.487 Y39.94 E854.32897
G0 F7800 X85.548 Y39.94
G1 F3600 X135.059 Y89.451 E855.75521
G0 F7800 X135.059 Y88.39
G1 F3600 X86.609 Y39.94 E857.15089
G0 F7800 X87.669 Y39.94
G1 F3600 X135.059 Y87.329 E858.51602
G0 F7800 X135.059 Y86.269
G1 F3600 X88.73 Y39.94 E859.8506
G0 F7800 X89.791 Y39.94
G1 F3600 X135.059 Y85.208 E861.15462
G0 F7800 X135.059 Y84.147
G1 F3600 X90.851 Y39.94 E862.42808
G0 F7800 X91.912 Y39.94
G1 F3600 X135.059 Y83.087 E863.671
G0 F7800 X135.059 Y82.026
G1 F3600 X92.973 Y39.94 E864.88336
G0 F7800 X94.033 Y39.94
G1 F3600 X135.059 Y80.965 E866.06516
G0 F7800 X135.059 Y79.905
G1 F3600 X95.094 Y39.94 E867.21642
G0 F7800 X96.155 Y39.94
G1 F3600 X135.059 Y78.844 E868.33711
G0 F7800 X135.059 Y77.783
G1 F3600 X97.215 Y39.94 E869.42725
G0 F7800 X98.276 Y39.94
G1 F3600 X135.059 Y76.723 E870.48684
G0 F7800 X135.059 Y75.662
G1 F3600 X99.337 Y39.94 E871.51587
G0 F7800 X100.397 Y39.94
G1 F3600 X135.059 Y74.601 E872.51435
G0 F7800 X135.059 Y73.541
G1 F3600 X101.458 Y39.94 E873.48228
G0 F7800 X102.519 Y39.94
G1 F3600 X135.059 Y72.48 E874.41965
G0 F7800 X135.059 Y71.419
G1 F3600 X103.579 Y39.94 E875.32647
G0 F7800 X104.64 Y39.94
G1 F3600 X135.059 Y70.359 E876.20274
G0 F7800 X135.058 Y69.297
G1 F3600 X105.701 Y39.94 E877.04841
G0 F7800 X106.761 Y39.94
G1 F3600 X135.058 Y68.237 E877.86355
G0 F7800 X135.058 Y67.176
G1 F3600 X107.822 Y39.94 E878.64813
G0 F7800 X108.883 Y39.94
G1 F3600 X135.058 Y66.115 E879.40214
G0 F7800 X135.058 Y65.055
G1 F3600 X109.943 Y39.94 E880.12562
G0 F7800 X111.004 Y39.94
G1 F3600 X135.058 Y63.994 E880.81853
G0 F7800 X135.058 Y62.933
G1 F3600 X112.065 Y39.94 E881.48088
G0 F7800 X113.125 Y39.94
G1 F3600 X135.058 Y61.873 E882.1127
G0 F7800 X135.058 Y60.812
G1 F3600 X114.186 Y39.94 E882.71395
G0 F7800 X115.247 Y39.94
G1 F3600 X135.058 Y59.751 E883.28463
G0 F7800 X135.058 Y58.691
G1 F3600 X116.307 Y39.94 E883.82479
G0 F7800 X117.368 Y39.94
G1 F3600 X135.058 Y57.63 E884.33438
G0 F7800 X135.058 Y56.569
G1 F3600 X118.429 Y39.94 E884.8134
G0 F7800 X119.489 Y39.94
G1 F3600 X135.058 Y55.509 E885.26189
G0 F7800 X135.058 Y54.448
G1 F3600 X120.55 Y39.94 E885.67982
G0 F7800 X121.611 Y39.94
G1 F3600 X135.058 Y53.387 E886.06718
G0 F7800 X135.058 Y52.327
G1 F3600 X122.671 Y39.94 E886.42401
G0 F7800 X123.732 Y39.94
G1 F3600 X135.058 Y51.266 E886.75027
G0 F7800 X135.058 Y50.205
G1 F3600 X124.793 Y39.94 E887.04597
G0 F7800 X125.853 Y39.94
G1 F3600 X135.058 Y49.145 E887.31113
G0 F7800 X135.058 Y48.084
G1 F3600 X126.914 Y39.94 E887.54573
G0 F7800 X127.975 Y39.94
G1 F3600 X135.058 Y47.024 E887.74979
G0 F7800 X135.058 Y45.963
G1 F3600 X129.035 Y39.94 E887.92329
G0 F7800 X130.096 Y39.94
G1 F3600 X135.058 Y44.902 E888.06623
G0 F7800 X135.058 Y43.842
G1 F3600 X131.156 Y39.94 E888.17863
G0 F7800 X132.217 Y39.94
G1 F3600 X135.058 Y42.781 E888.26047
G0 F7800 X135.058 Y41.72
G1 F3600 X133.278 Y39.94 E888.31175
G0 F7800 X134.338 Y39.94
G1 F3600 X135.058 Y40.66 E888.33249
; RAFT SURFACE
; Layer Change GCode
; LAYER:-1
G0 F7800 X135 Y39.939 Z0.599
; TYPE:SUPPORT
G1 F3600 X135 Y160.059 E891.13413
G0 F7800 X134.7 Y160.059
G1 F3600 X134.7 Y39.939 E893.93576
G0 F7800 X134.4 Y39.939
G1 F3600 X134.4 Y160.059 E896.7374
G0 F7800 X134.1 Y160.059
G1 F3600 X134.1 Y39.939 E899.53904
G0 F7800 X133.8 Y39.939
G1 F3600 X133.8 Y160.059 E902.34068
G0 F7800 X133.5 Y160.059
G1 F3600 X133.5 Y39.939 E905.14232
G0 F7800 X133.2 Y39.939
G1 F3600 X133.2 Y160.059 E907.94396
G0 F7800 X132.9 Y160.059
G1 F3600 X132.9 Y39.939 E910.7456
G0 F7800 X132.6 Y39.939
G1 F3600 X132.6 Y160.059 E913.54724
G0 F7800 X132.3 Y160.059
G1 F3600 X132.3 Y39.939 E916.34888
G0 F7800 X132 Y39.939
G1 F3600 X132 Y160.059 E919.15052
G0 F7800 X131.7 Y160.059
G1 F3600 X131.7 Y39.939 E921.95216
G0 F7800 X131.4 Y39.939
G1 F3600 X131.4 Y160.059 E924.7538
G0 F7800 X131.1 Y160.059
G1 F3600 X131.1 Y39.939 E927.55544
G0 F7800 X130.8 Y39.939
G1 F3600 X130.8 Y160.059 E930.35707
G0 F7800 X130.5 Y160.059
G1 F3600 X130.5 Y39.939 E933.15871
G0 F7800 X130.2 Y39.939
G1 F3600 X130.2 Y160.059 E935.96035
G0 F7800 X129.9 Y160.059
G1 F3600 X129.9 Y39.939 E938.76199
G0 F7800 X129.6 Y39.939
G1 F3600 X129.6 Y160.059 E941.56363
G0 F7800 X129.3 Y160.059
G1 F3600 X129.3 Y39.939 E944.36527
G0 F7800 X129 Y39.939
G1 F3600 X129 Y160.059 E947.16691
G0 F7800 X128.7 Y160.059
G1 F3600 X128.7 Y39.939 E949.96855
G0 F7800 X128.4 Y39.939
G1 F3600 X128.4 Y160.059 E952.77019
G0 F7800 X128.1 Y160.059
G1 F3600 X128.1 Y39.939 E955.57183
G0 F7800 X127.8 Y39.939
G1 F3600 X127.8 Y160.059 E958.37347
G0 F7800 X127.5 Y160.059
G1 F3600 X127.5 Y39.939 E961.17511
G0 F7800 X127.2 Y39.939
G1 F3600 X127.2 Y160.059 E963.97674
G0 F7800 X126.9 Y160.059
G1 F3600 X126.9 Y39.939 E966.77838
G0 F7800 X126.6 Y39.939
G1 F3600 X126.6 Y160.059 E969.58002
G0 F7800 X126.3 Y160.059
G1 F3600 X126.3 Y39.939 E972.38166
G0 F7800 X126 Y39.939
G1 F3600 X126 Y160.059 E975.1833
G0 F7800 X125.7 Y160.059
G1 F3600 X125.7 Y39.939 E977.98494
G0 F7800 X125.4 Y39.939
G1 F3600 X125.4 Y160.059 E980.78658
G0 F7800 X125.1 Y160.059
G1 F3600 X125.1 Y39.939 E983.58822
G0 F7800 X124.8 Y39.939
G1 F3600 X124.8 Y160.059 E986.38986
G0 F7800 X124.5 Y160.059
G1 F3600 X124.5 Y39.939 E989.1915
G0 F7800 X124.2 Y39.939
G1 F3600 X124.2 Y160.059 E991.99314
G0 F7800 X123.9 Y160.059
G1 F3600 X123.9 Y39.939 E994.79478
G0 F7800 X123.6 Y39.939
G1 F3600 X123.6 Y160.059 E997.59642
G0 F7800 X123.3 Y160.059
G1 F3600 X123.3 Y39.939 E1000.39805
G0 F7800 X123 Y39.939
G1 F3600 X123 Y160.059 E1003.19969
G0 F7800 X122.7 Y160.059
G1 F3600 X122.7 Y39.939 E1006.00133
G0 F7800 X122.4 Y39.939
G1 F3600 X122.4 Y160.059 E1008.80297
G0 F7800 X122.1 Y160.059
G1 F3600 X122.1 Y39.939 E1011.60461
G0 F7800 X121.8 Y39.939
G1 F3600 X121.8 Y160.059 E1014.40625
G0 F7800 X121.5 Y160.059
G1 F3600 X121.5 Y39.939 E1017.20789
G0 F7800 X121.2 Y39.939
G1 F3600 X121.2 Y160.059 E1020.00953
G0 F7800 X120.9 Y160.059
G1 F3600 X120.9 Y39.939 E1022.81117
G0 F7800 X120.6 Y39.939
G1 F3600 X120.6 Y160.059 E1025.61281
G0 F7800 X120.3 Y160.059
G1 F3600 X120.3 Y39.939 E1028.41445
G0 F7800 X120 Y39.939
G1 F3600 X120 Y160.059 E1031.21609
G0 F7800 X119.7 Y160.059
G1 F3600 X119.7 Y39.939 E1034.01772
G0 F7800 X119.4 Y39.939
G1 F3600 X119.4 Y160.059 E1036.81936
G0 F7800 X119.1 Y160.059
G1 F3600 X119.1 Y39.939 E1039.621
G0 F7800 X118.8 Y39.939
G1 F3600 X118.8 Y160.06 E1042.42267
G0 F7800 X118.5 Y160.06
G1 F3600 X118.5 Y39.939 E1045.22433
G0 F7800 X118.2 Y39.939
G1 F3600 X118.2 Y160.06 E1048.02599
G0 F7800 X117.9 Y160.06
G1 F3600 X117.9 Y39.939 E1050.82765
G0 F7800 X117.6 Y39.939
G1 F3600 X117.6 Y160.06 E1053.62932
G0 F7800 X117.3 Y160.06
G1 F3600 X117.3 Y39.939 E1056.43098
G0 F7800 X117 Y39.939
G1 F3600 X117 Y160.06 E1059.23264
G0 F7800 X116.7 Y160.06
G1 F3600 X116.7 Y39.939 E1062.0343
G0 F7800 X116.4 Y39.939
G1 F3600 X116.4 Y160.06 E1064.83597
G0 F7800 X116.1 Y160.06
G1 F3600 X116.1 Y39.939 E1067.63763
G0 F7800 X115.8 Y39.939
G1 F3600 X115.8 Y160.06 E1070.43929
G0 F7800 X115.5 Y160.06
G1 F3600 X115.5 Y39.939 E1073.24095
G0 F7800 X115.2 Y39.939
G1 F3600 X115.2 Y160.06 E1076.04262
G0 F7800 X114.9 Y160.06
G1 F3600 X114.9 Y39.939 E1078.84428
G0 F7800 X114.6 Y39.939
G1 F3600 X114.6 Y160.06 E1081.64594
G0 F7800 X114.3 Y160.06
G1 F3600 X114.3 Y39.939 E1084.4476
G0 F7800 X114 Y39.939
G1 F3600 X114 Y160.06 E1087.24927
G0 F7800 X113.7 Y160.06
G1 F3600 X113.7 Y39.939 E1090.05093
G0 F7800 X113.4 Y39.939
G1 F3600 X113.4 Y160.06 E1092.85259
G0 F7800 X113.1 Y160.06
G1 F3600 X113.1 Y39.939 E1095.65425
G0 F7800 X112.8 Y39.939
G1 F3600 X112.8 Y160.06 E1098.45592
G0 F7800 X112.5 Y160.06
G1 F3600 X112.5 Y39.939 E1101.25758
G0 F7800 X112.2 Y39.939
G1 F3600 X112.2 Y160.06 E1104.05924
G0 F7800 X111.9 Y160.06
G1 F3600 X111.9 Y39.939 E1106.8609
G0 F7800 X111.6 Y39.939
G1 F3600 X111.6 Y160.06 E1109.66257
G0 F7800 X111.3 Y160.06
G1 F3600 X111.3 Y39.939 E1112.46423
G0 F7800 X111 Y39.939
G1 F3600 X111 Y160.06 E1115.26589
G0 F7800 X110.7 Y160.06
G1 F3600 X110.7 Y39.939 E1118.06755
G0 F7800 X110.4 Y39.939
G1 F3600 X110.4 Y160.06 E1120.86922
G0 F7800 X110.1 Y160.06
G1 F3600 X110.1 Y39.939 E1123.67088
G0 F7800 X109.8 Y39.939
G1 F3600 X109.8 Y160.06 E1126.47254
G0 F7800 X109.5 Y160.06
G1 F3600 X109.5 Y39.939 E1129.2742
G0 F7800 X109.2 Y39.939
G1 F3600 X109.2 Y160.06 E1132.07587
G0 F7800 X108.9 Y160.06
G1 F3600 X108.9 Y39.939 E1134.87753
G0 F7800 X108.6 Y39.939
G1 F3600 X108.6 Y160.06 E1137.67919
G0 F7800 X108.3 Y160.06
G1 F3600 X108.3 Y39.939 E1140.48085
G0 F7800 X108 Y39.939
G1 F3600 X108 Y160.06 E1143.28252
G0 F7800 X107.7 Y160.06
G1 F3600 X107.7 Y39.939 E1146.08418
G0 F7800 X107.4 Y39.939
G1 F3600 X107.4 Y160.06 E1148.88584
G0 F7800 X107.1 Y160.06
G1 F3600 X107.1 Y39.939 E1151.6875
G0 F7800 X106.8 Y39.939
G1 F3600 X106.8 Y160.06 E1154.48917
G0 F7800 X106.5 Y160.06
G1 F3600 X106.5 Y39.939 E1157.29083
G0 F7800 X106.2 Y39.939
G1 F3600 X106.2 Y160.06 E1160.09249
G0 F7800 X105.9 Y160.06
G1 F3600 X105.9 Y39.939 E1162.89415
G0 F7800 X105.6 Y39.939
G1 F3600 X105.6 Y160.06 E1165.69582
G0 F7800 X105.3 Y160.06
G1 F3600 X105.3 Y39.939 E1168.49748
G0 F7800 X105 Y39.939
G1 F3600 X105 Y160.06 E1171.29914
G0 F7800 X104.7 Y160.06
G1 F3600 X104.7 Y39.939 E1174.1008
G0 F7800 X104.4 Y39.939
G1 F3600 X104.4 Y160.06 E1176.90247
G0 F7800 X104.1 Y160.06
G1 F3600 X104.1 Y39.939 E1179.70413
G0 F7800 X103.8 Y39.939
G1 F3600 X103.8 Y160.06 E1182.50579
G0 F7800 X103.5 Y160.06
G1 F3600 X103.5 Y39.939 E1185.30745
G0 F7800 X103.2 Y39.939
G1 F3600 X103.2 Y160.06 E1188.10912
G0 F7800 X102.9 Y160.06
G1 F3600 X102.9 Y39.939 E1190.91078
G0 F7800 X102.6 Y39.939
G1 F3600 X102.6 Y160.06 E1193.71244
G0 F7800 X102.3 Y160.06
G1 F3600 X102.3 Y39.939 E1196.5141
G0 F7800 X102 Y39.939
G1 F3600 X102 Y160.06 E1199.31577
G0 F7800 X101.7 Y160.06
G1 F3600 X101.7 Y39.939 E1202.11743
G0 F7800 X101.4 Y39.939
G1 F3600 X101.4 Y160.06 E1204.91909
G0 F7800 X101.1 Y160.06
G1 F3600 X101.1 Y39.939 E1207.72075
G0 F7800 X100.8 Y39.939
G1 F3600 X100.8 Y160.06 E1210.52242
G0 F7800 X100.5 Y160.06
G1 F3600 X100.5 Y39.939 E1213.32408
G0 F7800 X100.2 Y39.939
G1 F3600 X100.2 Y160.06 E1216.12574
G0 F7800 X99.9 Y160.06
G1 F3600 X99.9 Y39.939 E1218.92741
G0 F7800 X99.6 Y39.939
G1 F3600 X99.6 Y160.06 E1221.72907
G0 F7800 X99.3 Y160.06
G1 F3600 X99.3 Y39.939 E1224.53073
G0 F7800 X99 Y39.939
G1 F3600 X99 Y160.06 E1227.33239
G0 F7800 X98.7 Y160.06
G1 F3600 X98.7 Y39.939 E1230.13406
G0 F7800 X98.4 Y39.939
G1 F3600 X98.4 Y160.06 E1232.93572
G0 F7800 X98.1 Y160.06
G1 F3600 X98.1 Y39.939 E1235.73738
G0 F7800 X97.8 Y39.939
G1 F3600 X97.8 Y160.06 E1238.53904
G0 F7800 X97.5 Y160.06
G1 F3600 X97.5 Y39.939 E1241.34071
G0 F7800 X97.2 Y39.939
G1 F3600 X97.2 Y160.06 E1244.14237
G0 F7800 X96.9 Y160.06
G1 F3600 X96.9 Y39.939 E1246.94403
G0 F7800 X96.6 Y39.939
G1 F3600 X96.6 Y160.06 E1249.74569
G0 F7800 X96.3 Y160.06
G1 F3600 X96.3 Y39.939 E1252.54736
G0 F7800 X96 Y39.939
G1 F3600 X96 Y160.06 E1255.34902
G0 F7800 X95.7 Y160.06
G1 F3600 X95.7 Y39.939 E1258.15068
G0 F7800 X95.4 Y39.939
G1 F3600 X95.4 Y160.06 E1260.95234
G0 F7800 X95.1 Y160.06
G1 F3600 X95.1 Y39.939 E1263.75401
G0 F7800 X94.8 Y39.939
G1 F3600 X94.8 Y160.06 E1266.55567
G0 F7800 X94.5 Y160.06
G1 F3600 X94.5 Y39.939 E1269.35733
G0 F7800 X94.2 Y39.939
G1 F3600 X94.2 Y160.06 E1272.15899
G0 F7800 X93.9 Y160.06
G1 F3600 X93.9 Y39.939 E1274.96066
G0 F7800 X93.6 Y39.939
G1 F3600 X93.6 Y160.06 E1277.76232
G0 F7800 X93.3 Y160.06
G1 F3600 X93.3 Y39.939 E1280.56398
G0 F7800 X93 Y39.939
G1 F3600 X93 Y160.06 E1283.36564
G0 F7800 X92.7 Y160.06
G1 F3600 X92.7 Y39.939 E1286.16731
G0 F7800 X92.4 Y39.939
G1 F3600 X92.4 Y160.06 E1288.96897
G0 F7800 X92.1 Y160.06
G1 F3600 X92.1 Y39.939 E1291.77063
G0 F7800 X91.8 Y39.939
G1 F3600 X91.8 Y160.06 E1294.57229
G0 F7800 X91.5 Y160.06
G1 F3600 X91.5 Y39.939 E1297.37396
G0 F7800 X91.2 Y39.939
G1 F3600 X91.2 Y160.06 E1300.17562
G0 F7800 X90.9 Y160.06
G1 F3600 X90.9 Y39.939 E1302.97728
G0 F7800 X90.6 Y39.939
G1 F3600 X90.6 Y160.06 E1305.77894
G0 F7800 X90.3 Y160.06
G1 F3600 X90.3 Y39.939 E1308.58061
G0 F7800 X90 Y39.939
G1 F3600 X90 Y160.06 E1311.38227
G0 F7800 X89.7 Y160.06
G1 F3600 X89.7 Y39.939 E1314.18393
G0 F7800 X89.4 Y39.939
G1 F3600 X89.4 Y160.06 E1316.98559
G0 F7800 X89.1 Y160.06
G1 F3600 X89.1 Y39.939 E1319.78726
G0 F7800 X88.8 Y39.939
G1 F3600 X88.8 Y160.06 E1322.58892
G0 F7800 X88.5 Y160.06
G1 F3600 X88.5 Y39.939 E1325.39058
G0 F7800 X88.2 Y39.939
G1 F3600 X88.2 Y160.06 E1328.19224
G0 F7800 X87.9 Y160.06
G1 F3600 X87.9 Y39.939 E1330.99391
G0 F7800 X87.6 Y39.939
G1 F3600 X87.6 Y160.06 E1333.79557
G0 F7800 X87.3 Y160.06
G1 F3600 X87.3 Y39.939 E1336.59723
G0 F7800 X87 Y39.939
G1 F3600 X87 Y160.06 E1339.39889
G0 F7800 X86.7 Y160.06
G1 F3600 X86.7 Y39.939 E1342.20056
G0 F7800 X86.4 Y39.939
G1 F3600 X86.4 Y160.06 E1345.00222
G0 F7800 X86.1 Y160.06
G1 F3600 X86.1 Y39.939 E1347.80388
G0 F7800 X85.8 Y39.939
G1 F3600 X85.8 Y160.06 E1350.60554
G0 F7800 X85.5 Y160.06
G1 F3600 X85.5 Y39.939 E1353.40721
G0 F7800 X85.2 Y39.939
G1 F3600 X85.2 Y160.06 E1356.20887
G0 F7800 X84.9 Y160.06
G1 F3600 X84.9 Y39.939 E1359.01053
G0 F7800 X84.6 Y39.939
G1 F3600 X84.6 Y160.06 E1361.81219
G0 F7800 X84.3 Y160.06
G1 F3600 X84.3 Y39.939 E1364.61386
G0 F7800 X84 Y39.939
G1 F3600 X84 Y160.06 E1367.41552
G0 F7800 X83.7 Y160.06
G1 F3600 X83.7 Y39.939 E1370.21718
G0 F7800 X83.4 Y39.939
G1 F3600 X83.4 Y160.06 E1373.01884
G0 F7800 X83.1 Y160.06
G1 F3600 X83.1 Y39.939 E1375.82051
G0 F7800 X82.8 Y39.939
G1 F3600 X82.8 Y160.06 E1378.62217
G0 F7800 X82.5 Y160.06
G1 F3600 X82.5 Y39.939 E1381.42383
G0 F7800 X82.2 Y39.939
G1 F3600 X82.2 Y160.06 E1384.22549
G0 F7800 X81.9 Y160.06
G1 F3600 X81.9 Y39.939 E1387.02716
G0 F7800 X81.6 Y39.939
G1 F3600 X81.6 Y160.06 E1389.82882
G0 F7800 X81.3 Y160.06
G1 F3600 X81.3 Y39.939 E1392.63048
G0 F7800 X81 Y39.939
G1 F3600 X81 Y160.06 E1395.43214
G0 F7800 X80.7 Y160.06
G1 F3600 X80.7 Y39.939 E1398.23381
G0 F7800 X80.4 Y39.939
G1 F3600 X80.4 Y160.06 E1401.03547
G0 F7800 X80.1 Y160.06
G1 F3600 X80.1 Y39.939 E1403.83713
G0 F7800 X79.8 Y39.939
G1 F3600 X79.8 Y160.06 E1406.63879
G0 F7800 X79.5 Y160.06
G1 F3600 X79.5 Y39.939 E1409.44046
G0 F7800 X79.2 Y39.939
G1 F3600 X79.2 Y160.06 E1412.24212
G0 F7800 X78.9 Y160.06
G1 F3600 X78.9 Y39.939 E1415.04378
G0 F7800 X78.6 Y39.939
G1 F3600 X78.6 Y160.06 E1417.84544
G0 F7800 X78.3 Y160.06
G1 F3600 X78.3 Y39.939 E1420.64711
G0 F7800 X78 Y39.939
G1 F3600 X78 Y160.06 E1423.44877
G0 F7800 X77.7 Y160.06
G1 F3600 X77.7 Y39.939 E1426.25043
G0 F7800 X77.4 Y39.939
G1 F3600 X77.4 Y160.06 E1429.05209
G0 F7800 X77.1 Y160.06
G1 F3600 X77.1 Y39.939 E1431.85376
G0 F7800 X76.8 Y39.939
G1 F3600 X76.8 Y160.06 E1434.65542
G0 F7800 X76.5 Y160.06
G1 F3600 X76.5 Y39.939 E1437.45708
G0 F7800 X76.2 Y39.939
G1 F3600 X76.2 Y160.06 E1440.25874
G0 F7800 X75.9 Y160.06
G1 F3600 X75.9 Y39.939 E1443.06041
G0 F7800 X75.6 Y39.939
G1 F3600 X75.6 Y160.06 E1445.86207
G0 F7800 X75.3 Y160.06
G1 F3600 X75.3 Y39.939 E1448.66373
G0 F7800 X75 Y39.939
G1 F3600 X75 Y160.06 E1451.46539
G0 F7800 X74.7 Y160.06
G1 F3600 X74.7 Y39.939 E1454.26706
G0 F7800 X74.4 Y39.939
G1 F3600 X74.4 Y160.06 E1457.06872
G0 F7800 X74.1 Y160.06
G1 F3600 X74.1 Y39.939 E1459.87038
G0 F7800 X73.8 Y39.939
G1 F3600 X73.8 Y160.06 E1462.67205
G0 F7800 X73.5 Y160.06
G1 F3600 X73.5 Y39.939 E1465.47371
G0 F7800 X73.2 Y39.939
G1 F3600 X73.2 Y160.06 E1468.27537
G0 F7800 X72.9 Y160.06
G1 F3600 X72.9 Y39.939 E1471.07703
G0 F7800 X72.6 Y39.939
G1 F3600 X72.6 Y160.06 E1473.8787
G0 F7800 X72.3 Y160.06
G1 F3600 X72.3 Y39.939 E1476.68036
G0 F7800 X72 Y39.939
G1 F3600 X72 Y160.06 E1479.48202
G0 F7800 X71.7 Y160.06
G1 F3600 X71.7 Y39.939 E1482.28368
G0 F7800 X71.4 Y39.939
G1 F3600 X71.4 Y160.06 E1485.08535
G0 F7800 X71.1 Y160.06
G1 F3600 X71.1 Y39.939 E1487.88701
G0 F7800 X70.8 Y39.939
G1 F3600 X70.8 Y160.06 E1490.68867
G0 F7800 X70.5 Y160.06
G1 F3600 X70.5 Y39.939 E1493.49033
G0 F7800 X70.2 Y39.939
G1 F3600 X70.2 Y160.06 E1496.292
G0 F7800 X69.9 Y160.06
G1 F3600 X69.9 Y39.939 E1499.09366
G0 F7800 X69.6 Y39.939
G1 F3600 X69.6 Y160.06 E1501.89532
G0 F7800 X69.3 Y160.06
G1 F3600 X69.3 Y39.939 E1504.69698
G0 F7800 X69 Y39.939
G1 F3600 X69 Y160.06 E1507.49865
G0 F7800 X68.7 Y160.06
G1 F3600 X68.7 Y39.939 E1510.30031
G0 F7800 X68.4 Y39.939
G1 F3600 X68.4 Y160.06 E1513.10197
G0 F7800 X68.1 Y160.06
G1 F3600 X68.1 Y39.939 E1515.90363
G0 F7800 X67.8 Y39.939
G1 F3600 X67.8 Y160.06 E1518.7053
G0 F7800 X67.5 Y160.06
G1 F3600 X67.5 Y39.939 E1521.50696
G0 F7800 X67.2 Y39.939
G1 F3600 X67.2 Y160.06 E1524.30862
G0 F7800 X66.9 Y160.06
G1 F3600 X66.9 Y39.939 E1527.11028
G0 F7800 X66.6 Y39.939
G1 F3600 X66.6 Y160.06 E1529.91195
G0 F7800 X66.3 Y160.06
G1 F3600 X66.3 Y39.939 E1532.71361
G0 F7800 X66 Y39.939
G1 F3600 X66 Y160.06 E1535.51527
G0 F7800 X65.7 Y160.06
G1 F3600 X65.7 Y39.939 E1538.31693
G0 F7800 X65.4 Y39.939
G1 F3600 X65.4 Y160.06 E1541.1186
G0 F7800 X65.1 Y160.06
G1 F3600 X65.1 Y39.939 E1543.92026
; RAFT SURFACE
; Layer Change GCode
; LAYER:-1
G0 F7800 X65.277 Y39.94 Z0.786
; TYPE:SUPPORT
G1 F3600 X64.939 Y40.278 E1543.93141
G0 F7800 X64.939 Y40.702
G1 F3600 X65.701 Y39.94 E1543.95654
G0 F7800 X66.125 Y39.94
G1 F3600 X64.939 Y41.126 E1543.99566
G0 F7800 X64.939 Y41.551
G1 F3600 X66.55 Y39.94 E1544.0488
G0 F7800 X66.974 Y39.94
G1 F3600 X64.939 Y41.975 E1544.11592
G0 F7800 X64.939 Y42.399
G1 F3600 X67.398 Y39.94 E1544.19703
G0 F7800 X67.822 Y39.94
G1 F3600 X64.939 Y42.823 E1544.29213
G0 F7800 X64.939 Y43.248
G1 F3600 X68.247 Y39.94 E1544.40124
G0 F7800 X68.671 Y39.94
G1 F3600 X64.939 Y43.672 E1544.52434
G0 F7800 X64.939 Y44.096
G1 F3600 X69.095 Y39.94 E1544.66142
G0 F7800 X69.519 Y39.94
G1 F3600 X64.939 Y44.52 E1544.81249
G0 F7800 X64.939 Y44.945
G1 F3600 X69.944 Y39.94 E1544.97758
G0 F7800 X70.368 Y39.94
G1 F3600 X64.939 Y45.369 E1545.15665
G0 F7800 X64.939 Y45.793
G1 F3600 X70.792 Y39.94 E1545.34971
G0 F7800 X71.216 Y39.94
G1 F3600 X64.939 Y46.217 E1545.55676
G0 F7800 X64.939 Y46.642
G1 F3600 X71.641 Y39.94 E1545.77782
G0 F7800 X72.065 Y39.94
G1 F3600 X64.939 Y47.066 E1546.01287
G0 F7800 X64.939 Y47.49
G1 F3600 X72.489 Y39.94 E1546.2619
G0 F7800 X72.914 Y39.94
G1 F3600 X64.939 Y47.914 E1546.52494
G0 F7800 X64.939 Y48.339
G1 F3600 X73.338 Y39.94 E1546.80198
G0 F7800 X73.762 Y39.94
G1 F3600 X64.939 Y48.763 E1547.093
G0 F7800 X64.939 Y49.187
G1 F3600 X74.186 Y39.94 E1547.39801
G0 F7800 X74.611 Y39.94
G1 F3600 X64.939 Y49.612 E1547.71704
G0 F7800 X64.939 Y50.036
G1 F3600 X75.035 Y39.94 E1548.05005
G0 F7800 X75.459 Y39.94
G1 F3600 X64.939 Y50.46 E1548.39705
G0 F7800 X64.939 Y50.884
G1 F3600 X75.883 Y39.94 E1548.75803
G0 F7800 X76.308 Y39.94
G1 F3600 X64.939 Y51.309 E1549.13304
G0 F7800 X64.939 Y51.733
G1 F3600 X76.732 Y39.94 E1549.52202
G0 F7800 X77.156 Y39.94
G1 F3600 X64.939 Y52.157 E1549.925
G0 F7800 X64.939 Y52.581
G1 F3600 X77.58 Y39.94 E1550.34196
G0 F7800 X78.005 Y39.94
G1 F3600 X64.939 Y53.006 E1550.77293
G0 F7800 X64.939 Y53.43
G1 F3600 X78.429 Y39.94 E1551.2179
G0 F7800 X78.853 Y39.94
G1 F3600 X64.939 Y53.854 E1551.67685
G0 F7800 X64.939 Y54.278
G1 F3600 X79.277 Y39.94 E1552.14978
G0 F7800 X79.702 Y39.94
G1 F3600 X64.939 Y54.703 E1552.63673
G0 F7800 X64.939 Y55.127
G1 F3600 X80.126 Y39.94 E1553.13767
G0 F7800 X80.55 Y39.94
G1 F3600 X64.939 Y55.551 E1553.65259
G0 F7800 X64.939 Y55.975
G1 F3600 X80.975 Y39.94 E1554.18152
G0 F7800 X81.399 Y39.94
G1 F3600 X64.939 Y56.4 E1554.72445
G0 F7800 X64.939 Y56.824
G1 F3600 X81.823 Y39.94 E1555.28136
G0 F7800 X82.247 Y39.94
G1 F3600 X64.939 Y57.248 E1555.85226
G0 F7800 X64.939 Y57.673
G1 F3600 X82.672 Y39.94 E1556.43717
G0 F7800 X83.096 Y39.94
G1 F3600 X64.939 Y58.097 E1557.03608
G0 F7800 X64.939 Y58.521
G1 F3600 X83.52 Y39.94 E1557.64896
G0 F7800 X83.944 Y39.94
G1 F3600 X64.939 Y58.945 E1558.27584
G0 F7800 X64.939 Y59.37
G1 F3600 X84.369 Y39.94 E1558.91673
G0 F7800 X84.793 Y39.94
G1 F3600 X64.939 Y59.794 E1559.57161
G0 F7800 X64.939 Y60.218
G1 F3600 X85.217 Y39.94 E1560.24047
G0 F7800 X85.641 Y39.94
G1 F3600 X64.939 Y60.642 E1560.92332
G0 F7800 X64.939 Y61.067
G1 F3600 X86.066 Y39.94 E1561.62018
G0 F7800 X86.49 Y39.94
G1 F3600 X64.939 Y61.491 E1562.33104
G0 F7800 X64.939 Y61.915
G1 F3600 X86.914 Y39.94 E1563.05587
G0 F7800 X87.339 Y39.94
G1 F3600 X64.939 Y62.339 E1563.79471
G0 F7800 X64.939 Y62.764
G1 F3600 X87.763 Y39.94 E1564.54756
G0 F7800 X88.187 Y39.94
G1 F3600 X64.939 Y63.188 E1565.31438
G0 F7800 X64.939 Y63.612
G1 F3600 X88.611 Y39.94 E1566.0952
G0 F7800 X89.036 Y39.94
G1 F3600 X64.939 Y64.037 E1566.89003
G0 F7800 X64.939 Y64.461
G1 F3600 X89.46 Y39.94 E1567.69884
G0 F7800 X89.884 Y39.94
G1 F3600 X64.939 Y64.885 E1568.52165
G0 F7800 X64.939 Y65.309
G1 F3600 X90.308 Y39.94 E1569.35843
G0 F7800 X90.733 Y39.94
G1 F3600 X64.939 Y65.734 E1570.20924
G0 F7800 X64.939 Y66.158
G1 F3600 X91.157 Y39.94 E1571.07403
G0 F7800 X91.581 Y39.94
G1 F3600 X64.939 Y66.582 E1571.95281
G0 F7800 X64.939 Y67.006
G1 F3600 X92.005 Y39.94 E1572.84557
G0 F7800 X92.43 Y39.94
G1 F3600 X64.939 Y67.431 E1573.75235
G0 F7800 X64.939 Y67.855
G1 F3600 X92.854 Y39.94 E1574.67312
G0 F7800 X93.278 Y39.94
G1 F3600 X64.939 Y68.279 E1575.60787
G0 F7800 X64.939 Y68.703
G1 F3600 X93.702 Y39.94 E1576.55661
G0 F7800 X94.127 Y39.94
G1 F3600 X64.939 Y69.128 E1577.51936
G0 F7800 X64.939 Y69.552
G1 F3600 X94.551 Y39.94 E1578.4961
G0 F7800 X94.975 Y39.94
G1 F3600 X64.939 Y69.975 E1579.48681
G0 F7800 X64.939 Y70.4
G1 F3600 X95.4 Y39.94 E1580.49154
G0 F7800 X95.824 Y39.94
G1 F3600 X64.939 Y70.824 E1581.51026
G0 F7800 X64.939 Y71.248
G1 F3600 X96.248 Y39.94 E1582.54296
G0 F7800 X96.672 Y39.94
G1 F3600 X64.939 Y71.673 E1583.58966
G0 F7800 X64.939 Y72.097
G1 F3600 X97.097 Y39.94 E1584.65036
G0 F7800 X97.521 Y39.94
G1 F3600 X64.939 Y72.521 E1585.72505
G0 F7800 X64.939 Y72.945
G1 F3600 X97.945 Y39.94 E1586.81373
G0 F7800 X98.369 Y39.94
G1 F3600 X64.939 Y73.37 E1587.9164
G0 F7800 X64.939 Y73.794
G1 F3600 X98.794 Y39.94 E1589.03308
G0 F7800 X99.218 Y39.94
G1 F3600 X64.939 Y74.218 E1590.16375
G0 F7800 X64.939 Y74.642
G1 F3600 X99.642 Y39.94 E1591.3084
G0 F7800 X100.066 Y39.94
G1 F3600 X64.939 Y75.067 E1592.46705
G0 F7800 X64.939 Y75.491
G1 F3600 X100.491 Y39.94 E1593.6397
G0 F7800 X100.915 Y39.94
G1 F3600 X64.939 Y75.915 E1594.82634
G0 F7800 X64.939 Y76.339
G1 F3600 X101.339 Y39.94 E1596.02697
G0 F7800 X101.763 Y39.94
G1 F3600 X64.939 Y76.764 E1597.24159
G0 F7800 X64.939 Y77.188
G1 F3600 X102.188 Y39.94 E1598.47022
G0 F7800 X102.612 Y39.94
G1 F3600 X64.939 Y77.612 E1599.71284
G0 F7800 X64.939 Y78.037
G1 F3600 X103.036 Y39.94 E1600.96945
G0 F7800 X103.461 Y39.94
G1 F3600 X64.939 Y78.461 E1602.24007
G0 F7800 X64.939 Y78.885
G1 F3600 X103.885 Y39.94 E1603.52468
G0 F7800 X104.309 Y39.94
G1 F3600 X64.939 Y79.309 E1604.82326
G0 F7800 X64.939 Y79.734
G1 F3600 X104.733 Y39.94 E1606.13586
G0 F7800 X105.158 Y39.94
G1 F3600 X64.939 Y80.158 E1607.46245
G0 F7800 X64.939 Y80.582
G1 F3600 X105.582 Y39.94 E1608.80303
G0 F7800 X106.006 Y39.94
G1 F3600 X64.939 Y81.006 E1610.15759
G0 F7800 X64.939 Y81.431
G1 F3600 X106.43 Y39.94 E1611.52616
G0 F7800 X106.855 Y39.94
G1 F3600 X64.939 Y81.855 E1612.90873
G0 F7800 X64.939 Y82.279
G1 F3600 X107.279 Y39.94 E1614.30528
G0 F7800 X107.703 Y39.94
G1 F3600 X64.939 Y82.703 E1615.71582
G0 F7800 X64.939 Y83.128
G1 F3600 X108.127 Y39.94 E1617.14036
G0 F7800 X108.552 Y39.94
G1 F3600 X64.939 Y83.552 E1618.5789
G0 F7800 X64.939 Y83.976
G1 F3600 X108.976 Y39.94 E1620.03143
G0 F7800 X109.4 Y39.94
G1 F3600 X64.939 Y84.4 E1621.49795
G0 F7800 X64.939 Y84.825
G1 F3600 X109.824 Y39.94 E1622.97846
G0 F7800 X110.249 Y39.94
G1 F3600 X64.939 Y85.249 E1624.47298
G0 F7800 X64.939 Y85.673
G1 F3600 X110.673 Y39.94 E1625.98148
G0 F7800 X111.097 Y39.94
G1 F3600 X64.939 Y86.098 E1627.50399
G0 F7800 X64.939 Y86.522
G1 F3600 X111.522 Y39.94 E1629.0405
G0 F7800 X111.946 Y39.94
G1 F3600 X64.939 Y86.946 E1630.59099
G0 F7800 X64.939 Y87.37
G1 F3600 X112.37 Y39.94 E1632.15547
G0 F7800 X112.794 Y39.94
G1 F3600 X64.939 Y87.795 E1633.73395
G0 F7800 X64.939 Y88.219
G1 F3600 X113.219 Y39.94 E1635.32643
G0 F7800 X113.643 Y39.94
G1 F3600 X64.939 Y88.643 E1636.9329
G0 F7800 X64.939 Y89.067
G1 F3600 X114.067 Y39.94 E1638.55335
G0 F7800 X114.491 Y39.94
G1 F3600 X64.939 Y89.492 E1640.18781
G0 F7800 X64.939 Y89.916
G1 F3600 X114.916 Y39.94 E1641.83626
G0 F7800 X115.34 Y39.94
G1 F3600 X64.939 Y90.34 E1643.49871
G0 F7800 X64.939 Y90.764
G1 F3600 X115.764 Y39.94 E1645.17514
G0 F7800 X116.188 Y39.94
G1 F3600 X64.939 Y91.189 E1646.86557
G0 F7800 X64.939 Y91.613
G1 F3600 X116.613 Y39.94 E1648.57
G0 F7800 X117.037 Y39.94
G1 F3600 X64.939 Y92.037 E1650.28842
G0 F7800 X64.939 Y92.461
G1 F3600 X117.461 Y39.94 E1652.02082
G0 F7800 X117.886 Y39.94
G1 F3600 X64.939 Y92.886 E1653.76724
G0 F7800 X64.939 Y93.31
G1 F3600 X118.31 Y39.94 E1655.52765
G0 F7800 X118.734 Y39.94
G1 F3600 X64.939 Y93.734 E1657.30204
G0 F7800 X64.939 Y94.159
G1 F3600 X119.158 Y39.94 E1659.09044
G0 F7800 X119.583 Y39.94
G1 F3600 X64.939 Y94.583 E1660.89283
G0 F7800 X64.939 Y95.007
G1 F3600 X120.007 Y39.94 E1662.70921
G0 F7800 X120.431 Y39.94
G1 F3600 X64.939 Y95.431 E1664.53958
G0 F7800 X64.939 Y95.856
G1 F3600 X120.855 Y39.94 E1666.38395
G0 F7800 X121.28 Y39.94
G1 F3600 X64.939 Y96.28 E1668.24232
G0 F7800 X64.939 Y96.704
G1 F3600 X121.704 Y39.94 E1670.11468
G0 F7800 X122.128 Y39.94
G1 F3600 X64.939 Y97.128 E1672.00102
G0 F7800 X64.939 Y97.553
G1 F3600 X122.552 Y39.94 E1673.90137
G0 F7800 X122.977 Y39.94
G1 F3600 X64.939 Y97.977 E1675.81571
G0 F7800 X64.939 Y98.401
G1 F3600 X123.401 Y39.94 E1677.74405
G0 F7800 X123.825 Y39.94
G1 F3600 X64.939 Y98.825 E1679.68636
G0 F7800 X64.939 Y99.25
G1 F3600 X124.249 Y39.94 E1681.64268
G0 F7800 X124.674 Y39.94
G1 F3600 X64.939 Y99.674 E1683.61301
G0 F7800 X64.939 Y100.098
G1 F3600 X125.098 Y39.94 E1685.59731
G0 F7800 X125.522 Y39.94
G1 F3600 X64.939 Y100.523 E1687.59562
G0 F7800 X64.939 Y100.947
G1 F3600 X125.947 Y39.94 E1689.60793
G0 F7800 X126.371 Y39.94
G1 F3600 X64.939 Y101.371 E1691.63423
G0 F7800 X64.939 Y101.795
G1 F3600 X126.795 Y39.94 E1693.67451
G0 F7800 X127.219 Y39.94
G1 F3600 X64.939 Y102.22 E1695.7288
G0 F7800 X64.939 Y102.644
G1 F3600 X127.644 Y39.94 E1697.79708
G0 F7800 X128.068 Y39.94
G1 F3600 X64.939 Y103.068 E1699.87935
G0 F7800 X64.939 Y103.492
G1 F3600 X128.492 Y39.94 E1701.97561
G0 F7800 X128.916 Y39.94
G1 F3600 X64.939 Y103.917 E1704.08587
G0 F7800 X64.939 Y104.341
G1 F3600 X129.341 Y39.94 E1706.21013
G0 F7800 X129.765 Y39.94
G1 F3600 X64.939 Y104.765 E1708.34838
G0 F7800 X64.939 Y105.189
G1 F3600 X130.189 Y39.94 E1710.50061
G0 F7800 X130.613 Y39.94
G1 F3600 X64.939 Y105.614 E1712.66684
G0 F7800 X64.939 Y106.038
G1 F3600 X131.038 Y39.94 E1714.84708
G0 F7800 X131.462 Y39.94
G1 F3600 X64.939 Y106.462 E1717.0413
G0 F7800 X64.939 Y106.886
G1 F3600 X131.886 Y39.94 E1719.24951
G0 F7800 X132.31 Y39.94
G1 F3600 X64.939 Y107.311 E1721.47171
G0 F7800 X64.939 Y107.735
G1 F3600 X132.735 Y39.94 E1723.70793
G0 F7800 X133.159 Y39.94
G1 F3600 X64.939 Y108.159 E1725.95812
G0 F7800 X64.939 Y108.584
G1 F3600 X133.583 Y39.94 E1728.22232
G0 F7800 X134.008 Y39.94
G1 F3600 X64.939 Y109.008 E1730.50052
G0 F7800 X64.939 Y109.432
G1 F3600 X134.432 Y39.94 E1732.79271
G0 F7800 X134.856 Y39.94
G1 F3600 X64.939 Y109.856 E1735.09888
G0 F7800 X64.939 Y110.281
G1 F3600 X135.058 Y40.162 E1737.41173
G0 F7800 X135.058 Y40.586
G1 F3600 X64.939 Y110.705 E1739.72458
G0 F7800 X64.939 Y111.129
G1 F3600 X135.058 Y41.01 E1742.03743
G0 F7800 X135.058 Y41.435
G1 F3600 X64.939 Y111.553 E1744.35026
G0 F7800 X64.939 Y111.978
G1 F3600 X135.058 Y41.859 E1746.66311
G0 F7800 X135.058 Y42.283
G1 F3600 X64.939 Y112.402 E1748.97597
G0 F7800 X64.939 Y112.826
G1 F3600 X135.058 Y42.707 E1751.28882
G0 F7800 X135.058 Y43.132
G1 F3600 X64.939 Y113.25 E1753.60165
G0 F7800 X64.939 Y113.675
G1 F3600 X135.058 Y43.556 E1755.9145
G0 F7800 X135.058 Y43.98
G1 F3600 X64.939 Y114.099 E1758.22735
G0 F7800 X64.939 Y114.523
G1 F3600 X135.058 Y44.404 E1760.5402
G0 F7800 X135.058 Y44.829
G1 F3600 X64.939 Y114.947 E1762.85304
G0 F7800 X64.939 Y115.372
G1 F3600 X135.058 Y45.253 E1765.16589
G0 F7800 X135.058 Y45.677
G1 F3600 X64.939 Y115.796 E1767.47874
G0 F7800 X64.939 Y116.22
G1 F3600 X135.058 Y46.101 E1769.79159
G0 F7800 X135.058 Y46.526
G1 F3600 X64.939 Y116.645 E1772.10444
G0 F7800 X64.939 Y117.069
G1 F3600 X135.058 Y46.95 E1774.41729
G0 F7800 X135.058 Y47.374
G1 F3600 X64.939 Y117.493 E1776.73014
G0 F7800 X64.939 Y117.917
G1 F3600 X135.058 Y47.799 E1779.04297
G0 F7800 X135.058 Y48.223
G1 F3600 X64.939 Y118.342 E1781.35583
G0 F7800 X64.939 Y118.766
G1 F3600 X135.058 Y48.647 E1783.66868
G0 F7800 X135.058 Y49.071
G1 F3600 X64.939 Y119.19 E1785.98153
G0 F7800 X64.939 Y119.614
G1 F3600 X135.058 Y49.496 E1788.29436
G0 F7800 X135.058 Y49.92
G1 F3600 X64.939 Y120.039 E1790.60721
G0 F7800 X64.939 Y120.463
G1 F3600 X135.058 Y50.344 E1792.92006
G0 F7800 X135.058 Y50.768
G1 F3600 X64.939 Y120.887 E1795.23291
G0 F7800 X64.939 Y121.311
G1 F3600 X135.058 Y51.193 E1797.54575
G0 F7800 X135.058 Y51.617
G1 F3600 X64.939 Y121.736 E1799.8586
G0 F7800 X64.939 Y122.16
G1 F3600 X135.058 Y52.041 E1802.17145
G0 F7800 X135.058 Y52.465
G1 F3600 X64.939 Y122.584 E1804.4843
G0 F7800 X64.939 Y123.009
G1 F3600 X135.058 Y52.89 E1806.79715
G0 F7800 X135.058 Y53.314
G1 F3600 X64.939 Y123.433 E1809.11
G0 F7800 X64.939 Y123.857
G1 F3600 X135.058 Y53.738 E1811.42285
G0 F7800 X135.058 Y54.162
G1 F3600 X64.939 Y124.281 E1813.7357
G0 F7800 X64.939 Y124.706
G1 F3600 X135.058 Y54.587 E1816.04855
G0 F7800 X135.058 Y55.011
G1 F3600 X64.939 Y125.13 E1818.3614
G0 F7800 X64.939 Y125.554
G1 F3600 X135.058 Y55.435 E1820.67425
G0 F7800 X135.058 Y55.86
G1 F3600 X64.939 Y125.978 E1822.98709
G0 F7800 X64.939 Y126.403
G1 F3600 X135.058 Y56.284 E1825.29994
G0 F7800 X135.058 Y56.708
G1 F3600 X64.939 Y126.827 E1827.61279
G0 F7800 X64.939 Y127.251
G1 F3600 X135.058 Y57.132 E1829.92564
G0 F7800 X135.058 Y57.557
G1 F3600 X64.939 Y127.675 E1832.23847
G0 F7800 X64.939 Y128.1
G1 F3600 X135.058 Y57.981 E1834.55132
G0 F7800 X135.058 Y58.405
G1 F3600 X64.939 Y128.524 E1836.86418
G0 F7800 X64.939 Y128.948
G1 F3600 X135.058 Y58.829 E1839.17703
G0 F7800 X135.058 Y59.254
G1 F3600 X64.939 Y129.372 E1841.48986
G0 F7800 X64.939 Y129.797
G1 F3600 X135.058 Y59.678 E1843.80271
G0 F7800 X135.058 Y60.102
G1 F3600 X64.94 Y130.22 E1846.11553
G0 F7800 X64.94 Y130.645
G1 F3600 X135.058 Y60.526 E1848.42836
G0 F7800 X135.058 Y60.951
G1 F3600 X64.94 Y131.069 E1850.74118
G0 F7800 X64.94 Y131.493
G1 F3600 X135.058 Y61.375 E1853.054
G0 F7800 X135.058 Y61.799
G1 F3600 X64.94 Y131.917 E1855.36682
G0 F7800 X64.94 Y132.342
G1 F3600 X135.058 Y62.223 E1857.67965
G0 F7800 X135.058 Y62.648
G1 F3600 X64.94 Y132.766 E1859.99247
G0 F7800 X64.94 Y133.19
G1 F3600 X135.058 Y63.072 E1862.30529
G0 F7800 X135.058 Y63.496
G1 F3600 X64.94 Y133.614 E1864.6181
G0 F7800 X64.94 Y134.039
G1 F3600 X135.058 Y63.921 E1866.93092
G0 F7800 X135.058 Y64.345
G1 F3600 X64.94 Y134.463 E1869.24374
G0 F7800 X64.94 Y134.887
G1 F3600 X135.058 Y64.769 E1871.55656
G0 F7800 X135.058 Y65.193
G1 F3600 X64.94 Y135.311 E1873.86937
G0 F7800 X64.94 Y135.736
G1 F3600 X135.058 Y65.618 E1876.18219
G0 F7800 X135.058 Y66.042
G1 F3600 X64.94 Y136.16 E1878.49501
G0 F7800 X64.94 Y136.584
G1 F3600 X135.058 Y66.466 E1880.80783
G0 F7800 X135.058 Y66.89
G1 F3600 X64.94 Y137.009 E1883.12066
G0 F7800 X64.94 Y137.433
G1 F3600 X135.058 Y67.315 E1885.43348
G0 F7800 X135.058 Y67.739
G1 F3600 X64.94 Y137.857 E1887.7463
G0 F7800 X64.94 Y138.281
G1 F3600 X135.058 Y68.163 E1890.05911
G0 F7800 X135.058 Y68.587
G1 F3600 X64.94 Y138.706 E1892.37195
G0 F7800 X64.94 Y139.13
G1 F3600 X135.058 Y69.012 E1894.68477
G0 F7800 X135.058 Y69.436
G1 F3600 X64.94 Y139.554 E1896.99758
G0 F7800 X64.94 Y139.978
G1 F3600 X135.058 Y69.86 E1899.3104
G0 F7800 X135.059 Y70.284
G1 F3600 X64.94 Y140.403 E1901.62325
G0 F7800 X64.94 Y140.827
G1 F3600 X135.059 Y70.708 E1903.9361
G0 F7800 X135.059 Y71.132
G1 F3600 X64.94 Y141.251 E1906.24895
G0 F7800 X64.94 Y141.675
G1 F3600 X135.059 Y71.557 E1908.56179
G0 F7800 X135.059 Y71.981
G1 F3600 X64.94 Y142.1 E1910.87464
G0 F7800 X64.94 Y142.524
G1 F3600 X135.059 Y72.405 E1913.18749
G0 F7800 X135.059 Y72.829
G1 F3600 X64.94 Y142.948 E1915.50034
G0 F7800 X64.94 Y143.372
G1 F3600 X135.059 Y73.254 E1917.81317
G0 F7800 X135.059 Y73.678
G1 F3600 X64.94 Y143.797 E1920.12602
G0 F7800 X64.94 Y144.221
G1 F3600 X135.059 Y74.102 E1922.43888
G0 F7800 X135.059 Y74.526
G1 F3600 X64.94 Y144.645 E1924.75173
G0 F7800 X64.94 Y145.07
G1 F3600 X135.059 Y74.951 E1927.06458
G0 F7800 X135.059 Y75.375
G1 F3600 X64.94 Y145.494 E1929.37743
G0 F7800 X64.94 Y145.918
G1 F3600 X135.059 Y75.799 E1931.69028
G0 F7800 X135.059 Y76.223
G1 F3600 X64.94 Y146.342 E1934.00313
G0 F7800 X64.94 Y146.767
G1 F3600 X135.059 Y76.648 E1936.31598
G0 F7800 X135.059 Y77.072
G1 F3600 X64.94 Y147.191 E1938.62883
G0 F7800 X64.94 Y147.615
G1 F3600 X135.059 Y77.496 E1940.94168
G0 F7800 X135.059 Y77.921
G1 F3600 X64.94 Y148.039 E1943.25451
G0 F7800 X64.94 Y148.464
G1 F3600 X135.059 Y78.345 E1945.56737
G0 F7800 X135.059 Y78.769
G1 F3600 X64.94 Y148.888 E1947.88022
G0 F7800 X64.94 Y149.312
G1 F3600 X135.059 Y79.193 E1950.19307
G0 F7800 X135.059 Y79.618
G1 F3600 X64.94 Y149.736 E1952.5059
G0 F7800 X64.94 Y150.161
G1 F3600 X135.059 Y80.042 E1954.81875
G0 F7800 X135.059 Y80.466
G1 F3600 X64.94 Y150.585 E1957.1316
G0 F7800 X64.94 Y151.009
G1 F3600 X135.059 Y80.89 E1959.44445
G0 F7800 X135.059 Y81.315
G1 F3600 X64.94 Y151.433 E1961.75729
G0 F7800 X64.94 Y151.858
G1 F3600 X135.059 Y81.739 E1964.07014
G0 F7800 X135.059 Y82.163
G1 F3600 X64.94 Y152.282 E1966.38299
G0 F7800 X64.94 Y152.706
G1 F3600 X135.059 Y82.587 E1968.69584
G0 F7800 X135.059 Y83.012
G1 F3600 X64.94 Y153.131 E1971.00869
G0 F7800 X64.94 Y153.555
G1 F3600 X135.059 Y83.436 E1973.32154
G0 F7800 X135.059 Y83.86
G1 F3600 X64.94 Y153.979 E1975.63439
G0 F7800 X64.94 Y154.403
G1 F3600 X135.059 Y84.285 E1977.94723
G0 F7800 X135.059 Y84.709
G1 F3600 X64.94 Y154.828 E1980.26008
G0 F7800 X64.94 Y155.252
G1 F3600 X135.059 Y85.133 E1982.57293
G0 F7800 X135.059 Y85.557
G1 F3600 X64.94 Y155.676 E1984.88578
G0 F7800 X64.94 Y156.1
G1 F3600 X135.059 Y85.982 E1987.19861
G0 F7800 X135.059 Y86.406
G1 F3600 X64.94 Y156.525 E1989.51146
G0 F7800 X64.94 Y156.949
G1 F3600 X135.059 Y86.83 E1991.82431
G0 F7800 X135.059 Y87.254
G1 F3600 X64.94 Y157.373 E1994.13716
G0 F7800 X64.94 Y157.797
G1 F3600 X135.059 Y87.679 E1996.45
G0 F7800 X135.059 Y88.103
G1 F3600 X64.94 Y158.222 E1998.76285
G0 F7800 X64.94 Y158.646
G1 F3600 X135.059 Y88.527 E2001.0757
G0 F7800 X135.059 Y88.951
G1 F3600 X64.94 Y159.07 E2003.38855
G0 F7800 X64.94 Y159.495
G1 F3600 X135.059 Y89.376 E2005.7014
G0 F7800 X135.059 Y89.8
G1 F3600 X64.94 Y159.919 E2008.01425
G0 F7800 X65.224 Y160.059
G1 F3600 X135.059 Y90.224 E2010.31773
G0 F7800 X135.059 Y90.648
G1 F3600 X65.649 Y160.059 E2012.60722
G0 F7800 X66.073 Y160.059
G1 F3600 X135.059 Y91.073 E2014.88269
G0 F7800 X135.059 Y91.497
G1 F3600 X66.497 Y160.059 E2017.14419
G0 F7800 X66.921 Y160.059
G1 F3600 X135.059 Y91.921 E2019.3917
G0 F7800 X135.059 Y92.346
G1 F3600 X67.346 Y160.059 E2021.62519
G0 F7800 X67.77 Y160.059
G1 F3600 X135.059 Y92.77 E2023.84469
G0 F7800 X135.059 Y93.194
G1 F3600 X68.194 Y160.059 E2026.05021
G0 F7800 X68.619 Y160.059
G1 F3600 X135.059 Y93.618 E2028.24172
G0 F7800 X135.059 Y94.043
G1 F3600 X69.043 Y160.059 E2030.41924
G0 F7800 X69.467 Y160.059
G1 F3600 X135.059 Y94.467 E2032.58277
G0 F7800 X135.059 Y94.891
G1 F3600 X69.891 Y160.059 E2034.73231
G0 F7800 X70.316 Y160.059
G1 F3600 X135.059 Y95.315 E2036.86785
G0 F7800 X135.059 Y95.74
G1 F3600 X70.74 Y160.059 E2038.98939
G0 F7800 X71.164 Y160.059
G1 F3600 X135.059 Y96.164 E2041.09695
G0 F7800 X135.059 Y96.588
G1 F3600 X71.588 Y160.059 E2043.19052
G0 F7800 X72.013 Y160.059
G1 F3600 X135.059 Y97.012 E2045.27008
G0 F7800 X135.059 Y97.437
G1 F3600 X72.437 Y160.059 E2047.33565
G0 F7800 X72.861 Y160.059
G1 F3600 X135.059 Y97.861 E2049.38723
G0 F7800 X135.059 Y98.285
G1 F3600 X73.285 Y160.059 E2051.42482
G0 F7800 X73.71 Y160.059
G1 F3600 X135.059 Y98.709 E2053.44841
G0 F7800 X135.059 Y99.134
G1 F3600 X74.134 Y160.059 E2055.458
G0 F7800 X74.558 Y160.059
G1 F3600 X135.059 Y99.558 E2057.45361
G0 F7800 X135.059 Y99.982
G1 F3600 X74.983 Y160.059 E2059.43521
G0 F7800 X75.407 Y160.059
G1 F3600 X135.059 Y100.407 E2061.40281
G0 F7800 X135.059 Y100.831
G1 F3600 X75.831 Y160.059 E2063.35642
G0 F7800 X76.255 Y160.059
G1 F3600 X135.059 Y101.255 E2065.29605
G0 F7800 X135.059 Y101.679
G1 F3600 X76.68 Y160.059 E2067.22168
G0 F7800 X77.104 Y160.059
G1 F3600 X135.059 Y102.104 E2069.13331
G0 F7800 X135.059 Y102.528
G1 F3600 X77.528 Y160.059 E2071.03095
G0 F7800 X77.952 Y160.059
G1 F3600 X135.059 Y102.952 E2072.9146
G0 F7800 X135.059 Y103.376
G1 F3600 X78.377 Y160.059 E2074.78425
G0 F7800 X78.801 Y160.059
G1 F3600 X135.059 Y103.801 E2076.6399
G0 F7800 X135.059 Y104.225
G1 F3600 X79.225 Y160.059 E2078.48157
G0 F7800 X79.649 Y160.059
G1 F3600 X135.059 Y104.649 E2080.30925
G0 F7800 X135.059 Y105.073
G1 F3600 X80.074 Y160.059 E2082.12293
G0 F7800 X80.498 Y160.059
G1 F3600 X135.059 Y105.498 E2083.9226
G0 F7800 X135.059 Y105.922
G1 F3600 X80.922 Y160.059 E2085.70829
G0 F7800 X81.346 Y160.059
G1 F3600 X135.059 Y106.346 E2087.48
G0 F7800 X135.059 Y106.771
G1 F3600 X81.771 Y160.059 E2089.23768
G0 F7800 X82.195 Y160.059
G1 F3600 X135.059 Y107.195 E2090.98138
G0 F7800 X135.059 Y107.619
G1 F3600 X82.619 Y160.059 E2092.7111
G0 F7800 X83.044 Y160.059
G1 F3600 X135.059 Y108.043 E2094.42681
G0 F7800 X135.059 Y108.468
G1 F3600 X83.468 Y160.059 E2096.12852
G0 F7800 X83.892 Y160.059
G1 F3600 X135.059 Y108.892 E2097.81625
G0 F7800 X135.059 Y109.316
G1 F3600 X84.316 Y160.059 E2099.48999
G0 F7800 X84.741 Y160.059
G1 F3600 X135.059 Y109.74 E2101.14973
G0 F7800 X135.059 Y110.165
G1 F3600 X85.165 Y160.059 E2102.79546
G0 F7800 X85.589 Y160.059
G1 F3600 X135.059 Y110.589 E2104.42721
G0 F7800 X135.059 Y111.013
G1 F3600 X86.013 Y160.059 E2106.04498
G0 F7800 X86.438 Y160.059
G1 F3600 X135.059 Y111.437 E2107.64874
G0 F7800 X135.059 Y111.862
G1 F3600 X86.862 Y160.059 E2109.2385
G0 F7800 X87.286 Y160.059
G1 F3600 X135.059 Y112.286 E2110.81428
G0 F7800 X135.059 Y112.71
G1 F3600 X87.71 Y160.059 E2112.37607
G0 F7800 X88.135 Y160.059
G1 F3600 X135.059 Y113.134 E2113.92386
G0 F7800 X135.059 Y113.559
G1 F3600 X88.559 Y160.059 E2115.45764
G0 F7800 X88.983 Y160.059
G1 F3600 X135.059 Y113.983 E2116.97744
G0 F7800 X135.059 Y114.407
G1 F3600 X89.407 Y160.059 E2118.48326
G0 F7800 X89.832 Y160.059
G1 F3600 X135.059 Y114.832 E2119.97505
G0 F7800 X135.059 Y115.256
G1 F3600 X90.256 Y160.059 E2121.45287
G0 F7800 X90.68 Y160.059
G1 F3600 X135.059 Y115.68 E2122.91669
G0 F7800 X135.059 Y116.104
G1 F3600 X91.105 Y160.059 E2124.36652
G0 F7800 X91.529 Y160.059
G1 F3600 X135.059 Y116.529 E2125.80234
G0 F7800 X135.059 Y116.953
G1 F3600 X91.953 Y160.059 E2127.22417
G0 F7800 X92.377 Y160.059
G1 F3600 X135.059 Y117.377 E2128.63202
G0 F7800 X135.059 Y117.801
G1 F3600 X92.802 Y160.059 E2130.02587
G0 F7800 X93.226 Y160.059
G1 F3600 X135.059 Y118.226 E2131.40572
G0 F7800 X135.059 Y118.65
G1 F3600 X93.65 Y160.059 E2132.77158
G0 F7800 X94.074 Y160.059
G1 F3600 X135.059 Y119.074 E2134.12346
G0 F7800 X135.059 Y119.498
G1 F3600 X94.499 Y160.059 E2135.46133
G0 F7800 X94.923 Y160.059
G1 F3600 X135.059 Y119.923 E2136.7852
G0 F7800 X135.059 Y120.347
G1 F3600 X95.347 Y160.059 E2138.09509
G0 F7800 X95.771 Y160.059
G1 F3600 X135.059 Y120.771 E2139.39099
G0 F7800 X135.059 Y121.195
G1 F3600 X96.196 Y160.059 E2140.67289
G0 F7800 X96.62 Y160.059
G1 F3600 X135.059 Y121.62 E2141.94079
G0 F7800 X135.059 Y122.044
G1 F3600 X97.044 Y160.059 E2143.1947
G0 F7800 X97.469 Y160.059
G1 F3600 X135.059 Y122.468 E2144.43461
G0 F7800 X135.059 Y122.893
G1 F3600 X97.893 Y160.059 E2145.66051
G0 F7800 X98.317 Y160.059
G1 F3600 X135.059 Y123.317 E2146.87244
G0 F7800 X135.059 Y123.741
G1 F3600 X98.741 Y160.059 E2148.07037
G0 F7800 X99.166 Y160.059
G1 F3600 X135.059 Y124.165 E2149.25431
G0 F7800 X135.059 Y124.59
G1 F3600 X99.59 Y160.059 E2150.42424
G0 F7800 X100.014 Y160.059
G1 F3600 X135.059 Y125.014 E2151.58019
G0 F7800 X135.059 Y125.438
G1 F3600 X100.438 Y160.059 E2152.72215
G0 F7800 X100.863 Y160.059
G1 F3600 X135.059 Y125.862 E2153.85011
G0 F7800 X135.059 Y126.287
G1 F3600 X101.287 Y160.059 E2154.96407
G0 F7800 X101.711 Y160.059
G1 F3600 X135.059 Y126.711 E2156.06404
G0 F7800 X135.059 Y127.135
G1 F3600 X102.135 Y160.059 E2157.15003
G0 F7800 X102.56 Y160.059
G1 F3600 X135.059 Y127.559 E2158.22201
G0 F7800 X135.059 Y127.984
G1 F3600 X102.984 Y160.059 E2159.27999
G0 F7800 X103.408 Y160.059
G1 F3600 X135.059 Y128.408 E2160.32399
G0 F7800 X135.059 Y128.832
G1 F3600 X103.832 Y160.059 E2161.354
G0 F7800 X104.257 Y160.059
G1 F3600 X135.059 Y129.256 E2162.37001
G0 F7800 X135.059 Y129.681
G1 F3600 X104.681 Y160.059 E2163.37202
G0 F7800 X105.105 Y160.059
G1 F3600 X135.06 Y130.104 E2164.36007
G0 F7800 X135.06 Y130.529
G1 F3600 X105.53 Y160.059 E2165.33411
G0 F7800 X105.954 Y160.059
G1 F3600 X135.06 Y130.953 E2166.29416
G0 F7800 X135.06 Y131.377
G1 F3600 X106.378 Y160.059 E2167.24023
G0 F7800 X106.802 Y160.059
G1 F3600 X135.06 Y131.801 E2168.17231
G0 F7800 X135.06 Y132.226
G1 F3600 X107.227 Y160.059 E2169.09037
G0 F7800 X107.651 Y160.059
G1 F3600 X135.06 Y132.65 E2169.99445
G0 F7800 X135.06 Y133.074
G1 F3600 X108.075 Y160.059 E2170.88454
G0 F7800 X108.499 Y160.059
G1 F3600 X135.06 Y133.498 E2171.76064
G0 F7800 X135.06 Y133.923
G1 F3600 X108.924 Y160.059 E2172.62273
G0 F7800 X109.348 Y160.059
G1 F3600 X135.06 Y134.347 E2173.47083
G0 F7800 X135.06 Y134.771
G1 F3600 X109.772 Y160.059 E2174.30495
G0 F7800 X110.196 Y160.059
G1 F3600 X135.06 Y135.195 E2175.12508
G0 F7800 X135.06 Y135.62
G1 F3600 X110.621 Y160.059 E2175.93119
G0 F7800 X111.045 Y160.059
G1 F3600 X135.06 Y136.044 E2176.72331
G0 F7800 X135.06 Y136.468
G1 F3600 X111.469 Y160.059 E2177.50146
G0 F7800 X111.893 Y160.059
G1 F3600 X135.06 Y136.893 E2178.26559
G0 F7800 X135.06 Y137.317
G1 F3600 X112.318 Y160.059 E2179.01573
G0 F7800 X112.742 Y160.059
G1 F3600 X135.06 Y137.741 E2179.75188
G0 F7800 X135.06 Y138.165
G1 F3600 X113.166 Y160.059 E2180.47405
G0 F7800 X113.591 Y160.059
G1 F3600 X135.06 Y138.59 E2181.1822
G0 F7800 X135.06 Y139.014
G1 F3600 X114.015 Y160.059 E2181.87636
G0 F7800 X114.439 Y160.059
G1 F3600 X135.06 Y139.438 E2182.55653
G0 F7800 X135.06 Y139.862
G1 F3600 X114.863 Y160.059 E2183.22273
G0 F7800 X115.288 Y160.059
G1 F3600 X135.06 Y140.287 E2183.8749
G0 F7800 X135.06 Y140.711
G1 F3600 X115.712 Y160.059 E2184.51308
G0 F7800 X116.136 Y160.059
G1 F3600 X135.06 Y141.135 E2185.13729
G0 F7800 X135.06 Y141.559
G1 F3600 X116.56 Y160.059 E2185.7475
G0 F7800 X116.985 Y160.059
G1 F3600 X135.06 Y141.984 E2186.3437
G0 F7800 X135.06 Y142.408
G1 F3600 X117.409 Y160.059 E2186.92591
G0 F7800 X117.833 Y160.059
G1 F3600 X135.06 Y142.832 E2187.49414
G0 F7800 X135.06 Y143.257
G1 F3600 X118.257 Y160.059 E2188.04836
G0 F7800 X118.682 Y160.059
G1 F3600 X135.06 Y143.681 E2188.58859
G0 F7800 X135.06 Y144.105
G1 F3600 X119.106 Y160.059 E2189.11482
G0 F7800 X119.53 Y160.059
G1 F3600 X135.06 Y144.529 E2189.62707
G0 F7800 X135.06 Y144.954
G1 F3600 X119.955 Y160.059 E2190.12531
G0 F7800 X120.379 Y160.059
G1 F3600 X135.06 Y145.378 E2190.60956
G0 F7800 X135.06 Y145.802
G1 F3600 X120.803 Y160.059 E2191.07982
G0 F7800 X121.227 Y160.059
G1 F3600 X135.06 Y146.226 E2191.53609
G0 F7800 X135.06 Y146.651
G1 F3600 X121.652 Y160.059 E2191.97835
G0 F7800 X122.076 Y160.059
G1 F3600 X135.06 Y147.075 E2192.40662
G0 F7800 X135.06 Y147.499
G1 F3600 X122.5 Y160.059 E2192.82091
G0 F7800 X122.924 Y160.059
G1 F3600 X135.06 Y147.923 E2193.22121
G0 F7800 X135.06 Y148.348
G1 F3600 X123.349 Y160.059 E2193.6075
G0 F7800 X123.773 Y160.059
G1 F3600 X135.06 Y148.772 E2193.97979
G0 F7800 X135.06 Y149.196
G1 F3600 X124.197 Y160.059 E2194.33811
G0 F7800 X124.621 Y160.059
G1 F3600 X135.06 Y149.62 E2194.68243
G0 F7800 X135.06 Y150.045
G1 F3600 X125.046 Y160.059 E2195.01274
G0 F7800 X125.47 Y160.059
G1 F3600 X135.06 Y150.469 E2195.32906
G0 F7800 X135.06 Y150.893
G1 F3600 X125.894 Y160.059 E2195.6314
G0 F7800 X126.318 Y160.059
G1 F3600 X135.06 Y151.318 E2195.91974
G0 F7800 X135.06 Y151.742
G1 F3600 X126.743 Y160.059 E2196.19407
G0 F7800 X127.167 Y160.059
G1 F3600 X135.06 Y152.166 E2196.45442
G0 F7800 X135.06 Y152.59
G1 F3600 X127.591 Y160.059 E2196.70078
G0 F7800 X128.016 Y160.059
G1 F3600 X135.06 Y153.015 E2196.93312
G0 F7800 X135.06 Y153.439
G1 F3600 X128.44 Y160.059 E2197.15148
G0 F7800 X128.864 Y160.059
G1 F3600 X135.06 Y153.863 E2197.35586
G0 F7800 X135.06 Y154.287
G1 F3600 X129.288 Y160.059 E2197.54624
G0 F7800 X129.713 Y160.059
G1 F3600 X135.06 Y154.712 E2197.72261
G0 F7800 X135.06 Y155.136
G1 F3600 X130.137 Y160.059 E2197.885
G0 F7800 X130.561 Y160.059
G1 F3600 X135.06 Y155.56 E2198.03339
G0 F7800 X135.06 Y155.984
G1 F3600 X130.985 Y160.059 E2198.16781
G0 F7800 X131.41 Y160.059
G1 F3600 X135.06 Y156.409 E2198.2882
G0 F7800 X135.06 Y156.833
G1 F3600 X131.834 Y160.059 E2198.39461
G0 F7800 X132.258 Y160.059
G1 F3600 X135.06 Y157.257 E2198.48703
G0 F7800 X135.06 Y157.681
G1 F3600 X132.682 Y160.059 E2198.56547
G0 F7800 X133.107 Y160.059
G1 F3600 X135.06 Y158.106 E2198.62989
G0 F7800 X135.06 Y158.53
G1 F3600 X133.531 Y160.059 E2198.68032
G0 F7800 X133.955 Y160.059
G1 F3600 X135.06 Y158.954 E2198.71677
G0 F7800 X135.06 Y159.379
G1 F3600 X134.379 Y160.059 E2198.73922
G0 F7800 X134.804 Y160.059
G1 F3600 X135.06 Y159.803 E2198.74766
; Layer Change GCode
; LAYER:0
G4 P0
M107
G1 F1800 E2197.74766
G0 F7800 X70.15 Y154.85 Z1.236
; TYPE:WALL-OUTER
G1 F1800 E2198.74766
G1 F1080 X70.15 Y45.15 E2202.16826
G1 X129.85 Y45.15 E2204.02979
G1 X129.85 Y154.85 E2207.45038
G1 X70.15 Y154.85 E2209.31191
G0 F7800 X70.45 Y154.55
; TYPE:WALL-INNER
G1 F1080 X70.45 Y45.45 E2212.7138
G1 X129.55 Y45.45 E2214.55662
G1 X129.55 Y154.55 E2217.95851
G1 X70.45 Y154.55 E2219.80133
G0 F7800 X70.75 Y154.25
G1 F1080 X70.75 Y45.75 E2223.1845
G1 X129.25 Y45.75 E2225.00862
G1 X129.25 Y154.25 E2228.39179
G1 X70.75 Y154.25 E2230.21591
G0 F7800 X81.985 Y142.9
G0 X81.985 Y142.9
G0 X82.001 Y142.65
; TYPE:WALL-OUTER
G1 F1080 X82.197 Y142.638 E2230.22203
G1 X82.395 Y142.602 E2230.2283
G1 X82.583 Y142.542 E2230.23446
G1 X82.768 Y142.46 E2230.24077
G1 X82.938 Y142.358 E2230.24695
G1 X83.095 Y142.233 E2230.25321
G1 X83.234 Y142.094 E2230.25934
G1 X83.359 Y141.937 E2230.26559
G1 X83.463 Y141.763 E2230.27191
G1 X83.601 Y141.398 E2230.28408
G1 X83.638 Y141.196 E2230.29048
G1 X83.65 Y141 E2230.29661
G1 X83.638 Y140.799 E2230.30289
G1 X83.602 Y140.605 E2230.30904
G1 X83.542 Y140.413 E2230.31531
G1 X83.461 Y140.232 E2230.32149
G1 X83.356 Y140.059 E2230.3278
G1 X83.234 Y139.905 E2230.33393
G1 X83.092 Y139.764 E2230.34017
G1 X82.938 Y139.642 E2230.3463
G1 X82.764 Y139.537 E2230.35263
G1 X82.583 Y139.456 E2230.35882
G1 X82.391 Y139.397 E2230.36508
G1 X82.197 Y139.361 E2230.37123
G1 X82.001 Y139.35 E2230.37735
G1 X81.8 Y139.361 E2230.38363
G1 X81.606 Y139.397 E2230.38978
G1 X81.414 Y139.456 E2230.39605
G1 X81.233 Y139.538 E2230.40224
G1 X81.06 Y139.642 E2230.40854
G1 X80.905 Y139.765 E2230.41471
G1 X80.764 Y139.906 E2230.42092
G1 X80.642 Y140.061 E2230.42707
G1 X80.537 Y140.233 E2230.43336
G1 X80.456 Y140.415 E2230.43957
G1 X80.397 Y140.607 E2230.44583
G1 X80.361 Y140.801 E2230.45199
G1 X80.35 Y141.002 E2230.45826
G1 X80.361 Y141.198 E2230.46438
G1 X80.398 Y141.396 E2230.47066
G1 X80.456 Y141.584 E2230.4768
G1 X80.539 Y141.769 E2230.48312
G1 X80.642 Y141.938 E2230.48929
G1 X80.767 Y142.096 E2230.49557
G1 X80.905 Y142.234 E2230.50166
G1 X81.064 Y142.359 E2230.50797
G1 X81.233 Y142.461 E2230.51412
G1 X81.417 Y142.544 E2230.52042
G1 X81.606 Y142.602 E2230.52658
G1 X81.804 Y142.638 E2230.53286
G1 X82.001 Y142.65 E2230.53901
G0 F7800 X82.001 Y142.951
; TYPE:WALL-INNER
G1 F1080 X82.234 Y142.936 E2230.54629
G1 X82.468 Y142.894 E2230.5537
G1 X82.69 Y142.823 E2230.56097
G1 X82.907 Y142.727 E2230.56837
G1 X83.109 Y142.605 E2230.57573
G1 X83.295 Y142.458 E2230.58312
G1 X83.459 Y142.294 E2230.59035
G1 X83.606 Y142.108 E2230.59774
G1 X83.734 Y141.894 E2230.60552
G1 X83.891 Y141.479 E2230.61935
G1 X83.936 Y141.233 E2230.62715
G1 X83.951 Y141 E2230.63443
G1 X83.936 Y140.762 E2230.64187
G1 X83.893 Y140.532 E2230.64916
G1 X83.823 Y140.307 E2230.65651
G1 X83.728 Y140.093 E2230.66381
G1 X83.603 Y139.888 E2230.6713
G1 X83.458 Y139.704 E2230.6786
G1 X83.291 Y139.539 E2230.68592
G1 X83.109 Y139.395 E2230.69316
G1 X82.903 Y139.27 E2230.70067
G1 X82.688 Y139.175 E2230.708
G1 X82.463 Y139.105 E2230.71535
G1 X82.233 Y139.062 E2230.72265
G1 X82.001 Y139.049 E2230.72989
G1 X81.764 Y139.062 E2230.73729
G1 X81.534 Y139.105 E2230.74459
G1 X81.308 Y139.175 E2230.75197
G1 X81.093 Y139.272 E2230.75932
G1 X80.889 Y139.395 E2230.76675
G1 X80.706 Y139.54 E2230.77403
G1 X80.539 Y139.707 E2230.78139
G1 X80.395 Y139.89 E2230.78866
G1 X80.27 Y140.094 E2230.79612
G1 X80.175 Y140.31 E2230.80347
G1 X80.105 Y140.535 E2230.81082
G1 X80.062 Y140.765 E2230.81812
G1 X80.049 Y141.002 E2230.82552
G1 X80.062 Y141.235 E2230.83279
G1 X80.107 Y141.469 E2230.84022
G1 X80.175 Y141.69 E2230.84743
G1 X80.273 Y141.908 E2230.85489
G1 X80.395 Y142.11 E2230.86225
G1 X80.542 Y142.296 E2230.86964
G1 X80.706 Y142.459 E2230.87685
G1 X80.893 Y142.606 E2230.88426
G1 X81.094 Y142.727 E2230.89158
G1 X81.311 Y142.825 E2230.899
G1 X81.535 Y142.894 E2230.90631
G1 X81.767 Y142.936 E2230.91366
G1 X82.001 Y142.951 E2230.92098
G0 F7800 X82.001 Y143.251
G1 F1080 X82.27 Y143.235 E2230.92938
G1 X82.54 Y143.185 E2230.93794
G1 X82.797 Y143.104 E2230.94634
G1 X83.046 Y142.993 E2230.95484
G1 X83.28 Y142.852 E2230.96336
G1 X83.494 Y142.682 E2230.97188
G1 X83.683 Y142.493 E2230.98022
G1 X83.853 Y142.279 E2230.98874
G1 X84.005 Y142.026 E2230.99794
G1 X84.182 Y141.56 E2231.01349
G1 X84.235 Y141.269 E2231.02271
G1 X84.251 Y141.001 E2231.03108
G1 X84.235 Y140.725 E2231.0397
G1 X84.185 Y140.459 E2231.04814
G1 X84.104 Y140.2 E2231.0566
G1 X83.994 Y139.954 E2231.06501
G1 X83.85 Y139.716 E2231.07368
G1 X83.682 Y139.504 E2231.08211
G1 X83.491 Y139.314 E2231.09052
G1 X83.281 Y139.148 E2231.09886
G1 X83.042 Y139.004 E2231.10756
G1 X82.793 Y138.893 E2231.11606
G1 X82.535 Y138.814 E2231.12448
G1 X82.27 Y138.764 E2231.13289
G1 X82.002 Y138.749 E2231.14126
G1 X81.728 Y138.764 E2231.14981
G1 X81.462 Y138.814 E2231.15825
G1 X81.201 Y138.894 E2231.16676
G1 X80.953 Y139.006 E2231.17525
G1 X80.718 Y139.148 E2231.18381
G1 X80.506 Y139.315 E2231.19222
G1 X80.314 Y139.507 E2231.20069
G1 X80.148 Y139.718 E2231.20906
G1 X80.004 Y139.955 E2231.21771
G1 X79.893 Y140.205 E2231.22624
G1 X79.814 Y140.463 E2231.23465
G1 X79.764 Y140.729 E2231.24309
G1 X79.749 Y141.003 E2231.25165
G1 X79.764 Y141.271 E2231.26002
G1 X79.815 Y141.541 E2231.26859
G1 X79.894 Y141.796 E2231.27691
G1 X80.006 Y142.048 E2231.28551
G1 X80.148 Y142.281 E2231.29402
G1 X80.318 Y142.496 E2231.30256
G1 X80.507 Y142.684 E2231.31088
G1 X80.722 Y142.853 E2231.3194
G1 X80.954 Y142.994 E2231.32787
G1 X81.205 Y143.106 E2231.33644
G1 X81.463 Y143.186 E2231.34486
G1 X81.731 Y143.235 E2231.35336
G1 X82.001 Y143.251 E2231.36179
G1 F1800 E2230.36179
G0 F7800 X81.992 Y143
G0 X82.001 Y143.001
G0 X81.762 Y142.985
G0 X81.524 Y142.942
G0 X81.294 Y142.871
G0 X81.071 Y142.771
G0 X80.865 Y142.646
G0 X80.674 Y142.496
G0 X80.506 Y142.329
G0 X80.354 Y142.138
G0 X80.229 Y141.931
G0 X80.129 Y141.707
G0 X80.058 Y141.48
G0 X80.014 Y141.239
G0 X80 Y141.002
G0 X80.014 Y140.76
G0 X80.057 Y140.524
G0 X80.129 Y140.293
G0 X80.227 Y140.072
G0 X80.354 Y139.863
G0 X80.502 Y139.674
G0 X80.673 Y139.503
G0 X80.862 Y139.355
G0 X81.07 Y139.228
G0 X81.291 Y139.129
G0 X81.523 Y139.057
G0 X81.858 Y138.996
G0 X81.09 Y115.999
G0 X81.076 Y115.599
G0 X81.087 Y115.897
G0 X81.087 Y115.897
G0 X81.097 Y115.647
; TYPE:WALL-OUTER
G1 F1800 E2231.36179
G1 F1080 X81.481 Y115.595 E2231.37387
G1 X81.849 Y115.475 E2231.38594
G1 X82.184 Y115.295 E2231.3978
G1 X82.487 Y115.053 E2231.40989
G1 X82.742 Y114.76 E2231.422
G1 X82.936 Y114.433 E2231.43386
G1 X83.072 Y114.072 E2231.44589
G1 X83.141 Y113.69 E2231.45799
G1 X83.14 Y113.302 E2231.47009
G1 X83.072 Y112.927 E2231.48197
G1 X82.936 Y112.566 E2231.494
G1 X82.738 Y112.233 E2231.50608
G1 X82.487 Y111.946 E2231.51797
G1 X82.184 Y111.704 E2231.53006
G1 X81.843 Y111.52 E2231.54215
G1 X81.474 Y111.402 E2231.55423
G1 X81.097 Y111.352 E2231.56608
G1 X80.71 Y111.369 E2231.57816
G1 X80.332 Y111.455 E2231.59025
G1 X79.981 Y111.604 E2231.60214
G1 X79.659 Y111.818 E2231.6142
G1 X79.377 Y112.087 E2231.62635
G1 X79.152 Y112.401 E2231.63839
G1 X78.986 Y112.744 E2231.65028
G1 X78.884 Y113.116 E2231.6623
G1 X78.849 Y113.503 E2231.67442
G1 X78.884 Y113.883 E2231.68632
G1 X78.986 Y114.255 E2231.69835
G1 X79.155 Y114.604 E2231.71044
G1 X79.383 Y114.917 E2231.72251
G1 X79.659 Y115.181 E2231.73442
G1 X79.982 Y115.395 E2231.7465
G1 X80.338 Y115.546 E2231.75856
G1 X80.71 Y115.63 E2231.77045
G1 X81.097 Y115.647 E2231.78253
G0 F7800 X81.111 Y115.948
; TYPE:WALL-INNER
G1 F1080 X81.548 Y115.888 E2231.79628
G1 X81.968 Y115.752 E2231.81005
G1 X82.35 Y115.546 E2231.82358
G1 X82.696 Y115.27 E2231.83738
G1 X82.986 Y114.937 E2231.85115
G1 X83.207 Y114.564 E2231.86467
G1 X83.363 Y114.152 E2231.87841
G1 X83.441 Y113.717 E2231.89219
G1 X83.44 Y113.275 E2231.90597
G1 X83.363 Y112.846 E2231.91956
G1 X83.207 Y112.435 E2231.93327
G1 X82.982 Y112.056 E2231.94701
G1 X82.695 Y111.728 E2231.9606
G1 X82.35 Y111.453 E2231.97436
G1 X81.961 Y111.243 E2231.98814
G1 X81.54 Y111.108 E2232.00193
G1 X81.11 Y111.051 E2232.01545
G1 X80.67 Y111.07 E2232.02919
G1 X80.239 Y111.168 E2232.04297
G1 X79.838 Y111.339 E2232.05656
G1 X79.471 Y111.583 E2232.0703
G1 X79.15 Y111.889 E2232.08413
G1 X78.893 Y112.247 E2232.09787
G1 X78.704 Y112.638 E2232.11142
G1 X78.587 Y113.063 E2232.12516
G1 X78.548 Y113.503 E2232.13893
G1 X78.587 Y113.937 E2232.15252
G1 X78.704 Y114.361 E2232.16624
G1 X78.896 Y114.759 E2232.18002
G1 X79.156 Y115.116 E2232.19379
G1 X79.471 Y115.416 E2232.20735
G1 X79.839 Y115.66 E2232.22112
G1 X80.245 Y115.833 E2232.23488
G1 X80.67 Y115.929 E2232.24847
G1 X81.111 Y115.948 E2232.26223
G0 F7800 X81.125 Y116.249
G1 F1080 X81.615 Y116.182 E2232.27765
G1 X82.086 Y116.029 E2232.29309
G1 X82.516 Y115.797 E2232.30833
G1 X82.904 Y115.488 E2232.32379
G1 X83.23 Y115.113 E2232.33929
G1 X83.479 Y114.694 E2232.35449
G1 X83.653 Y114.233 E2232.36985
G1 X83.741 Y113.743 E2232.38537
G1 X83.74 Y113.248 E2232.40081
G1 X83.653 Y112.766 E2232.41608
G1 X83.478 Y112.305 E2232.43146
G1 X83.226 Y111.879 E2232.44689
G1 X82.903 Y111.51 E2232.46218
G1 X82.516 Y111.202 E2232.4776
G1 X82.079 Y110.966 E2232.49309
G1 X81.607 Y110.814 E2232.50855
G1 X81.123 Y110.75 E2232.52377
G1 X80.629 Y110.772 E2232.53919
G1 X80.146 Y110.882 E2232.55464
G1 X79.695 Y111.074 E2232.56992
G1 X79.283 Y111.348 E2232.58535
G1 X78.923 Y111.692 E2232.60088
G1 X78.634 Y112.093 E2232.61629
G1 X78.422 Y112.533 E2232.63152
G1 X78.291 Y113.009 E2232.64691
G1 X78.247 Y113.504 E2232.66241
G1 X78.291 Y113.99 E2232.67763
G1 X78.422 Y114.467 E2232.69305
G1 X78.638 Y114.914 E2232.70853
G1 X78.93 Y115.314 E2232.72397
G1 X79.283 Y115.651 E2232.73919
G1 X79.696 Y115.925 E2232.75464
G1 X80.153 Y116.12 E2232.77014
G1 X80.63 Y116.227 E2232.78538
G1 X81.125 Y116.249 E2232.80083
G0 F7800 X118.124 Y115.905
G0 X118.524 Y115.902
G0 X119.087 Y115.897
G0 X119.087 Y115.897
G0 X119.097 Y115.647
; TYPE:WALL-OUTER
G1 F1080 X119.481 Y115.595 E2232.81291
G1 X119.849 Y115.475 E2232.82498
G1 X120.184 Y115.295 E2232.83684
G1 X120.487 Y115.053 E2232.84893
G1 X120.742 Y114.76 E2232.86104
G1 X120.936 Y114.433 E2232.8729
G1 X121.072 Y114.072 E2232.88493
G1 X121.141 Y113.69 E2232.89703
G1 X121.14 Y113.302 E2232.90913
G1 X121.072 Y112.927 E2232.92101
G1 X120.936 Y112.566 E2232.93304
G1 X120.738 Y112.233 E2232.94512
G1 X120.487 Y111.946 E2232.95701
G1 X120.184 Y111.704 E2232.9691
G1 X119.843 Y111.52 E2232.98119
G1 X119.474 Y111.402 E2232.99327
G1 X119.097 Y111.352 E2233.00512
G1 X118.71 Y111.369 E2233.0172
G1 X118.332 Y111.455 E2233.02929
G1 X117.981 Y111.604 E2233.04118
G1 X117.659 Y111.818 E2233.05324
G1 X117.377 Y112.087 E2233.06539
G1 X117.152 Y112.401 E2233.07743
G1 X116.986 Y112.744 E2233.08932
G1 X116.884 Y113.116 E2233.10134
G1 X116.849 Y113.503 E2233.11346
G1 X116.884 Y113.883 E2233.12536
G1 X116.986 Y114.255 E2233.13739
G1 X117.155 Y114.604 E2233.14948
G1 X117.383 Y114.917 E2233.16155
G1 X117.659 Y115.181 E2233.17346
G1 X117.982 Y115.395 E2233.18554
G1 X118.338 Y115.546 E2233.1976
G1 X118.71 Y115.63 E2233.20949
G1 X119.097 Y115.647 E2233.22157
G0 F7800 X119.111 Y115.948
; TYPE:WALL-INNER
G1 F1080 X119.548 Y115.888 E2233.23532
G1 X119.968 Y115.752 E2233.24909
G1 X120.35 Y115.546 E2233.26262
G1 X120.696 Y115.27 E2233.27642
G1 X120.986 Y114.937 E2233.29019
G1 X121.207 Y114.564 E2233.30371
G1 X121.363 Y114.152 E2233.31745
G1 X121.441 Y113.717 E2233.33123
G1 X121.44 Y113.275 E2233.34501
G1 X121.363 Y112.846 E2233.3586
G1 X121.207 Y112.435 E2233.37231
G1 X120.982 Y112.056 E2233.38605
G1 X120.695 Y111.728 E2233.39964
G1 X120.35 Y111.453 E2233.4134
G1 X119.961 Y111.243 E2233.42718
G1 X119.54 Y111.108 E2233.44097
G1 X119.11 Y111.051 E2233.45449
G1 X118.67 Y111.07 E2233.46823
G1 X118.239 Y111.168 E2233.48201
G1 X117.838 Y111.339 E2233.4956
G1 X117.471 Y111.583 E2233.50934
G1 X117.15 Y111.889 E2233.52317
G1 X116.893 Y112.247 E2233.53691
G1 X116.704 Y112.638 E2233.55046
G1 X116.587 Y113.063 E2233.5642
G1 X116.548 Y113.503 E2233.57797
G1 X116.587 Y113.937 E2233.59156
G1 X116.704 Y114.361 E2233.60528
G1 X116.896 Y114.759 E2233.61906
G1 X117.156 Y115.116 E2233.63283
G1 X117.471 Y115.416 E2233.64639
G1 X117.839 Y115.66 E2233.66016
G1 X118.245 Y115.833 E2233.67392
G1 X118.67 Y115.929 E2233.68751
G1 X119.111 Y115.948 E2233.70127
G0 F7800 X119.125 Y116.249
G1 F1080 X119.615 Y116.182 E2233.71669
G1 X120.086 Y116.029 E2233.73213
G1 X120.516 Y115.797 E2233.74737
G1 X120.904 Y115.488 E2233.76283
G1 X121.23 Y115.113 E2233.77833
G1 X121.479 Y114.694 E2233.79353
G1 X121.653 Y114.233 E2233.80889
G1 X121.741 Y113.743 E2233.82441
G1 X121.74 Y113.248 E2233.83985
G1 X121.653 Y112.766 E2233.85512
G1 X121.478 Y112.305 E2233.8705
G1 X121.226 Y111.879 E2233.88593
G1 X120.903 Y111.51 E2233.90122
G1 X120.516 Y111.202 E2233.91664
G1 X120.079 Y110.966 E2233.93213
G1 X119.607 Y110.814 E2233.94759
G1 X119.123 Y110.75 E2233.96281
G1 X118.629 Y110.772 E2233.97823
G1 X118.146 Y110.882 E2233.99368
G1 X117.695 Y111.074 E2234.00896
G1 X117.283 Y111.348 E2234.02439
G1 X116.923 Y111.692 E2234.03992
G1 X116.634 Y112.093 E2234.05533
G1 X116.422 Y112.533 E2234.07056
G1 X116.291 Y113.009 E2234.08595
G1 X116.247 Y113.504 E2234.10145
G1 X116.291 Y113.99 E2234.11667
G1 X116.422 Y114.467 E2234.13209
G1 X116.638 Y114.914 E2234.14757
G1 X116.93 Y115.314 E2234.16301
G1 X117.283 Y115.651 E2234.17823
G1 X117.696 Y115.925 E2234.19368
G1 X118.153 Y116.12 E2234.20918
G1 X118.63 Y116.227 E2234.22442
G1 X119.125 Y116.249 E2234.23987
G0 F7800 X124.96 Y136.794
G0 X124.673 Y137.003
G0 X124.502 Y137.174
G0 X124.354 Y137.363
G0 X124.227 Y137.572
G0 X124.129 Y137.793
G0 X124.057 Y138.024
G0 X124.014 Y138.26
G0 X124 Y138.502
G0 X124.014 Y138.739
G0 X124.058 Y138.98
G0 X124.129 Y139.207
G0 X124.229 Y139.431
G0 X124.354 Y139.638
G0 X124.506 Y139.829
G0 X124.674 Y139.996
G0 X124.865 Y140.146
G0 X125.071 Y140.271
G0 X125.294 Y140.371
G0 X125.524 Y140.442
G0 X125.762 Y140.485
G0 X126.001 Y140.501
G0 X126.011 Y140.496
G0 X125.985 Y140.4
G0 X125.985 Y140.4
G0 X126.001 Y140.15
; TYPE:WALL-OUTER
G1 F1080 X126.197 Y140.138 E2234.24599
G1 X126.395 Y140.102 E2234.25227
G1 X126.583 Y140.042 E2234.25842
G1 X126.768 Y139.96 E2234.26473
G1 X126.938 Y139.858 E2234.27091
G1 X127.095 Y139.733 E2234.27717
G1 X127.234 Y139.594 E2234.2833
G1 X127.359 Y139.437 E2234.28956
G1 X127.463 Y139.263 E2234.29588
G1 X127.601 Y138.898 E2234.30805
G1 X127.638 Y138.696 E2234.31445
G1 X127.65 Y138.5 E2234.32057
G1 X127.638 Y138.299 E2234.32685
G1 X127.602 Y138.105 E2234.333
G1 X127.542 Y137.913 E2234.33928
G1 X127.461 Y137.732 E2234.34546
G1 X127.356 Y137.559 E2234.35177
G1 X127.234 Y137.405 E2234.3579
G1 X127.092 Y137.264 E2234.36414
G1 X126.938 Y137.142 E2234.37026
G1 X126.764 Y137.037 E2234.3766
G1 X126.583 Y136.956 E2234.38278
G1 X126.391 Y136.897 E2234.38904
G1 X126.197 Y136.861 E2234.3952
G1 X126.001 Y136.85 E2234.40132
G1 X125.8 Y136.861 E2234.4076
G1 X125.606 Y136.897 E2234.41375
G1 X125.414 Y136.956 E2234.42001
G1 X125.233 Y137.038 E2234.42621
G1 X125.06 Y137.142 E2234.4325
G1 X124.905 Y137.265 E2234.43867
G1 X124.764 Y137.406 E2234.44489
G1 X124.642 Y137.561 E2234.45104
G1 X124.537 Y137.733 E2234.45732
G1 X124.456 Y137.915 E2234.46353
G1 X124.397 Y138.107 E2234.4698
G1 X124.361 Y138.301 E2234.47595
G1 X124.35 Y138.502 E2234.48223
G1 X124.361 Y138.698 E2234.48835
G1 X124.398 Y138.896 E2234.49463
G1 X124.456 Y139.084 E2234.50076
G1 X124.539 Y139.269 E2234.50709
G1 X124.642 Y139.438 E2234.51326
G1 X124.767 Y139.596 E2234.51954
G1 X124.905 Y139.734 E2234.52562
G1 X125.064 Y139.859 E2234.53193
G1 X125.233 Y139.961 E2234.53809
G1 X125.417 Y140.044 E2234.54438
G1 X125.606 Y140.102 E2234.55054
G1 X125.804 Y140.138 E2234.55682
G1 X126.001 Y140.15 E2234.56297
G0 F7800 X126.001 Y140.451
; TYPE:WALL-INNER
G1 F1080 X126.234 Y140.436 E2234.57025
G1 X126.468 Y140.394 E2234.57767
G1 X126.69 Y140.323 E2234.58494
G1 X126.907 Y140.227 E2234.59233
G1 X127.109 Y140.105 E2234.59969
G1 X127.295 Y139.958 E2234.60708
G1 X127.459 Y139.794 E2234.61432
G1 X127.606 Y139.608 E2234.62171
G1 X127.734 Y139.394 E2234.62948
G1 X127.891 Y138.979 E2234.64332
G1 X127.936 Y138.733 E2234.65112
G1 X127.951 Y138.5 E2234.6584
G1 X127.936 Y138.262 E2234.66583
G1 X127.893 Y138.032 E2234.67313
G1 X127.823 Y137.807 E2234.68048
G1 X127.728 Y137.593 E2234.68778
G1 X127.603 Y137.388 E2234.69526
G1 X127.458 Y137.204 E2234.70257
G1 X127.291 Y137.039 E2234.70989
G1 X127.109 Y136.895 E2234.71713
G1 X126.903 Y136.77 E2234.72464
G1 X126.688 Y136.675 E2234.73197
G1 X126.463 Y136.605 E2234.73932
G1 X126.233 Y136.562 E2234.74661
G1 X126.001 Y136.549 E2234.75386
G1 X125.764 Y136.562 E2234.76126
G1 X125.534 Y136.605 E2234.76855
G1 X125.308 Y136.675 E2234.77593
G1 X125.093 Y136.772 E2234.78329
G1 X124.889 Y136.895 E2234.79071
G1 X124.706 Y137.04 E2234.798
G1 X124.539 Y137.207 E2234.80536
G1 X124.395 Y137.39 E2234.81262
G1 X124.27 Y137.594 E2234.82008
G1 X124.175 Y137.81 E2234.82744
G1 X124.105 Y138.035 E2234.83479
G1 X124.062 Y138.265 E2234.84208
G1 X124.049 Y138.502 E2234.84948
G1 X124.062 Y138.735 E2234.85676
G1 X124.107 Y138.969 E2234.86419
G1 X124.175 Y139.19 E2234.8714
G1 X124.273 Y139.408 E2234.87885
G1 X124.395 Y139.61 E2234.88621
G1 X124.542 Y139.796 E2234.8936
G1 X124.706 Y139.959 E2234.90081
G1 X124.893 Y140.106 E2234.90823
G1 X125.094 Y140.227 E2234.91555
G1 X125.311 Y140.325 E2234.92297
G1 X125.535 Y140.394 E2234.93028
G1 X125.767 Y140.436 E2234.93763
G1 X126.001 Y140.451 E2234.94494
G0 F7800 X126.001 Y140.751
G1 F1080 X126.27 Y140.735 E2234.95334
G1 X126.54 Y140.685 E2234.96191
G1 X126.797 Y140.604 E2234.97031
G1 X127.046 Y140.493 E2234.97881
G1 X127.28 Y140.352 E2234.98733
G1 X127.494 Y140.182 E2234.99585
G1 X127.683 Y139.993 E2235.00418
G1 X127.853 Y139.779 E2235.01271
G1 X128.005 Y139.526 E2235.02191
G1 X128.182 Y139.06 E2235.03745
G1 X128.235 Y138.769 E2235.04668
G1 X128.251 Y138.501 E2235.05505
G1 X128.235 Y138.225 E2235.06367
G1 X128.185 Y137.959 E2235.07211
G1 X128.104 Y137.7 E2235.08057
G1 X127.994 Y137.454 E2235.08897
G1 X127.85 Y137.216 E2235.09764
G1 X127.682 Y137.004 E2235.10608
G1 X127.491 Y136.814 E2235.11448
G1 X127.281 Y136.648 E2235.12283
G1 X127.042 Y136.504 E2235.13153
G1 X126.793 Y136.393 E2235.14003
G1 X126.535 Y136.314 E2235.14844
G1 X126.27 Y136.264 E2235.15685
G1 X126.002 Y136.249 E2235.16522
G1 X125.728 Y136.264 E2235.17378
G1 X125.462 Y136.314 E2235.18222
G1 X125.201 Y136.394 E2235.19073
G1 X124.953 Y136.506 E2235.19921
G1 X124.718 Y136.648 E2235.20777
G1 X124.506 Y136.815 E2235.21619
G1 X124.314 Y137.007 E2235.22466
G1 X124.148 Y137.218 E2235.23303
G1 X124.004 Y137.455 E2235.24167
G1 X123.893 Y137.705 E2235.2502
G1 X123.814 Y137.963 E2235.25862
G1 X123.764 Y138.229 E2235.26706
G1 X123.749 Y138.503 E2235.27561
G1 X123.764 Y138.771 E2235.28398
G1 X123.815 Y139.041 E2235.29255
G1 X123.894 Y139.296 E2235.30087
G1 X124.006 Y139.548 E2235.30947
G1 X124.148 Y139.781 E2235.31798
G1 X124.318 Y139.996 E2235.32653
G1 X124.507 Y140.184 E2235.33484
G1 X124.722 Y140.353 E2235.34337
G1 X124.954 Y140.494 E2235.35183
G1 X125.205 Y140.606 E2235.3604
G1 X125.463 Y140.686 E2235.36883
G1 X125.731 Y140.735 E2235.37732
G1 X126.001 Y140.751 E2235.38576
G1 F1800 E2234.38576
G0 F7800 X125.978 Y140.503
G0 X126.001 Y140.501
G0 X125.762 Y140.485
G0 X125.524 Y140.442
G0 X125.294 Y140.371
G0 X125.071 Y140.271
G0 X124.865 Y140.146
G0 X124.674 Y139.996
G0 X124.506 Y139.829
G0 X124.354 Y139.638
G0 X124.229 Y139.431
G0 X124.129 Y139.207
G0 X124.058 Y138.98
G0 X124.014 Y138.739
G0 X124 Y138.502
G0 X124.014 Y138.26
G0 X124.057 Y138.024
G0 X124.129 Y137.793
G0 X124.227 Y137.572
G0 X124.354 Y137.363
G0 X124.502 Y137.174
G0 X124.673 Y137.003
G0 X124.862 Y136.855
G0 X125.07 Y136.728
G0 X125.291 Y136.629
G0 X125.636 Y136.526
G0 X119.094 Y60.5
G0 X119.06 Y60.101
G0 X119.087 Y60.397
G0 X119.087 Y60.397
G0 X119.097 Y60.147
; TYPE:WALL-OUTER
G1 F1800 E2235.38576
G1 F1080 X119.481 Y60.095 E2235.39784
G1 X119.849 Y59.975 E2235.40991
G1 X120.184 Y59.795 E2235.42177
G1 X120.487 Y59.553 E2235.43386
G1 X120.742 Y59.26 E2235.44597
G1 X120.936 Y58.933 E2235.45782
G1 X121.072 Y58.572 E2235.46985
G1 X121.141 Y58.19 E2235.48196
G1 X121.14 Y57.802 E2235.49406
G1 X121.072 Y57.427 E2235.50594
G1 X120.936 Y57.066 E2235.51797
G1 X120.738 Y56.733 E2235.53005
G1 X120.487 Y56.446 E2235.54194
G1 X120.184 Y56.204 E2235.55403
G1 X119.843 Y56.02 E2235.56611
G1 X119.474 Y55.902 E2235.57819
G1 X119.097 Y55.852 E2235.59005
G1 X118.71 Y55.869 E2235.60213
G1 X118.332 Y55.955 E2235.61422
G1 X117.981 Y56.104 E2235.62611
G1 X117.659 Y56.318 E2235.63816
G1 X117.377 Y56.587 E2235.65031
G1 X117.152 Y56.901 E2235.66236
G1 X116.986 Y57.244 E2235.67424
G1 X116.884 Y57.616 E2235.68627
G1 X116.849 Y58.003 E2235.69838
G1 X116.884 Y58.383 E2235.71028
G1 X116.986 Y58.755 E2235.72231
G1 X117.155 Y59.104 E2235.7344
G1 X117.383 Y59.417 E2235.74648
G1 X117.659 Y59.681 E2235.75839
G1 X117.982 Y59.895 E2235.77047
G1 X118.338 Y60.046 E2235.78252
G1 X118.71 Y60.13 E2235.79442
G1 X119.097 Y60.147 E2235.8065
G0 F7800 X119.111 Y60.448
; TYPE:WALL-INNER
G1 F1080 X119.548 Y60.388 E2235.82025
G1 X119.968 Y60.252 E2235.83402
G1 X120.35 Y60.046 E2235.84755
G1 X120.696 Y59.77 E2235.86135
G1 X120.986 Y59.437 E2235.87512
G1 X121.207 Y59.064 E2235.88864
G1 X121.363 Y58.652 E2235.90237
G1 X121.441 Y58.217 E2235.91615
G1 X121.44 Y57.775 E2235.92994
G1 X121.363 Y57.346 E2235.94353
G1 X121.207 Y56.935 E2235.95723
G1 X120.982 Y56.556 E2235.97098
G1 X120.695 Y56.228 E2235.98457
G1 X120.35 Y55.953 E2235.99832
G1 X119.961 Y55.743 E2236.01211
G1 X119.54 Y55.608 E2236.02589
G1 X119.11 Y55.551 E2236.03942
G1 X118.67 Y55.57 E2236.05315
G1 X118.239 Y55.668 E2236.06693
G1 X117.838 Y55.839 E2236.08053
G1 X117.471 Y56.083 E2236.09427
G1 X117.15 Y56.389 E2236.1081
G1 X116.893 Y56.747 E2236.12184
G1 X116.704 Y57.138 E2236.13538
G1 X116.587 Y57.563 E2236.14913
G1 X116.548 Y58.003 E2236.1629
G1 X116.587 Y58.437 E2236.17649
G1 X116.704 Y58.861 E2236.1902
G1 X116.896 Y59.259 E2236.20398
G1 X117.156 Y59.616 E2236.21775
G1 X117.471 Y59.916 E2236.23132
G1 X117.839 Y60.16 E2236.24508
G1 X118.245 Y60.333 E2236.25884
G1 X118.67 Y60.429 E2236.27243
G1 X119.111 Y60.448 E2236.28619
G0 F7800 X119.125 Y60.749
G1 F1080 X119.615 Y60.682 E2236.30162
G1 X120.086 Y60.529 E2236.31706
G1 X120.516 Y60.297 E2236.33229
G1 X120.904 Y59.988 E2236.34776
G1 X121.23 Y59.613 E2236.36325
G1 X121.479 Y59.194 E2236.37845
G1 X121.653 Y58.733 E2236.39381
G1 X121.741 Y58.243 E2236.40934
G1 X121.74 Y57.748 E2236.42477
G1 X121.653 Y57.266 E2236.44004
G1 X121.478 Y56.805 E2236.45542
G1 X121.226 Y56.379 E2236.47085
G1 X120.903 Y56.01 E2236.48614
G1 X120.516 Y55.702 E2236.50157
G1 X120.079 Y55.466 E2236.51705
G1 X119.607 Y55.314 E2236.53252
G1 X119.123 Y55.25 E2236.54774
G1 X118.629 Y55.272 E2236.56316
G1 X118.146 Y55.382 E2236.5786
G1 X117.695 Y55.574 E2236.59389
G1 X117.283 Y55.848 E2236.60932
G1 X116.923 Y56.192 E2236.62484
G1 X116.634 Y56.593 E2236.64026
G1 X116.422 Y57.033 E2236.65548
G1 X116.291 Y57.509 E2236.67088
G1 X116.247 Y58.004 E2236.68637
G1 X116.291 Y58.49 E2236.70159
G1 X116.422 Y58.967 E2236.71701
G1 X116.638 Y59.414 E2236.73249
G1 X116.93 Y59.814 E2236.74794
G1 X117.283 Y60.151 E2236.76315
G1 X117.696 Y60.425 E2236.77861
G1 X118.153 Y60.62 E2236.7941
G1 X118.63 Y60.727 E2236.80934
G1 X119.125 Y60.749 E2236.8248
G0 F7800 X84.259 Y60.426
G0 X83.859 Y60.422
G0 X81.087 Y60.397
G0 X81.087 Y60.397
G0 X81.097 Y60.147
; TYPE:WALL-OUTER
G1 F1080 X81.481 Y60.095 E2236.83688
G1 X81.849 Y59.975 E2236.84895
G1 X82.184 Y59.795 E2236.86081
G1 X82.487 Y59.553 E2236.8729
G1 X82.742 Y59.26 E2236.88501
G1 X82.936 Y58.933 E2236.89686
G1 X83.072 Y58.572 E2236.90889
G1 X83.141 Y58.19 E2236.921
G1 X83.14 Y57.802 E2236.9331
G1 X83.072 Y57.427 E2236.94498
G1 X82.936 Y57.066 E2236.95701
G1 X82.738 Y56.733 E2236.96909
G1 X82.487 Y56.446 E2236.98098
G1 X82.184 Y56.204 E2236.99307
G1 X81.843 Y56.02 E2237.00515
G1 X81.474 Y55.902 E2237.01723
G1 X81.097 Y55.852 E2237.02909
G1 X80.71 Y55.869 E2237.04117
G1 X80.332 Y55.955 E2237.05326
G1 X79.981 Y56.104 E2237.06515
G1 X79.659 Y56.318 E2237.0772
G1 X79.377 Y56.587 E2237.08935
G1 X79.152 Y56.901 E2237.1014
G1 X78.986 Y57.244 E2237.11328
G1 X78.884 Y57.616 E2237.12531
G1 X78.849 Y58.003 E2237.13742
G1 X78.884 Y58.383 E2237.14932
G1 X78.986 Y58.755 E2237.16135
G1 X79.155 Y59.104 E2237.17344
G1 X79.383 Y59.417 E2237.18552
G1 X79.659 Y59.681 E2237.19743
G1 X79.982 Y59.895 E2237.20951
G1 X80.338 Y60.046 E2237.22156
G1 X80.71 Y60.13 E2237.23346
G1 X81.097 Y60.147 E2237.24554
G0 F7800 X81.111 Y60.448
; TYPE:WALL-INNER
G1 F1080 X81.548 Y60.388 E2237.25929
G1 X81.968 Y60.252 E2237.27305
G1 X82.35 Y60.046 E2237.28659
G1 X82.696 Y59.77 E2237.30039
G1 X82.986 Y59.437 E2237.31416
G1 X83.207 Y59.064 E2237.32768
G1 X83.363 Y58.652 E2237.34141
G1 X83.441 Y58.217 E2237.35519
G1 X83.44 Y57.775 E2237.36898
G1 X83.363 Y57.346 E2237.38257
G1 X83.207 Y56.935 E2237.39627
G1 X82.982 Y56.556 E2237.41002
G1 X82.695 Y56.228 E2237.42361
G1 X82.35 Y55.953 E2237.43736
G1 X81.961 Y55.743 E2237.45115
G1 X81.54 Y55.608 E2237.46493
G1 X81.11 Y55.551 E2237.47846
G1 X80.67 Y55.57 E2237.49219
G1 X80.239 Y55.668 E2237.50597
G1 X79.838 Y55.839 E2237.51957
G1 X79.471 Y56.083 E2237.53331
G1 X79.15 Y56.389 E2237.54714
G1 X78.893 Y56.747 E2237.56088
G1 X78.704 Y57.138 E2237.57442
G1 X78.587 Y57.563 E2237.58817
G1 X78.548 Y58.003 E2237.60194
G1 X78.587 Y58.437 E2237.61553
G1 X78.704 Y58.861 E2237.62924
G1 X78.896 Y59.259 E2237.64302
G1 X79.156 Y59.616 E2237.65679
G1 X79.471 Y59.916 E2237.67036
G1 X79.839 Y60.16 E2237.68412
G1 X80.245 Y60.333 E2237.69788
G1 X80.67 Y60.429 E2237.71147
G1 X81.111 Y60.448 E2237.72523
G0 F7800 X81.125 Y60.749
G1 F1080 X81.615 Y60.682 E2237.74066
G1 X82.086 Y60.529 E2237.7561
G1 X82.516 Y60.297 E2237.77133
G1 X82.904 Y59.988 E2237.7868
G1 X83.23 Y59.613 E2237.80229
G1 X83.479 Y59.194 E2237.81749
G1 X83.653 Y58.733 E2237.83285
G1 X83.741 Y58.243 E2237.84838
G1 X83.74 Y57.748 E2237.86381
G1 X83.653 Y57.266 E2237.87908
G1 X83.478 Y56.805 E2237.89446
G1 X83.226 Y56.379 E2237.90989
G1 X82.903 Y56.01 E2237.92518
G1 X82.516 Y55.702 E2237.94061
G1 X82.079 Y55.466 E2237.95609
G1 X81.607 Y55.314 E2237.97156
G1 X81.123 Y55.25 E2237.98678
G1 X80.629 Y55.272 E2238.0022
G1 X80.146 Y55.382 E2238.01764
G1 X79.695 Y55.574 E2238.03293
G1 X79.283 Y55.848 E2238.04836
G1 X78.923 Y56.192 E2238.06388
G1 X78.634 Y56.593 E2238.0793
G1 X78.422 Y57.033 E2238.09452
G1 X78.291 Y57.509 E2238.10992
G1 X78.247 Y58.004 E2238.12541
G1 X78.291 Y58.49 E2238.14063
G1 X78.422 Y58.967 E2238.15605
G1 X78.638 Y59.414 E2238.17153
G1 X78.93 Y59.814 E2238.18698
G1 X79.283 Y60.151 E2238.20219
G1 X79.696 Y60.425 E2238.21765
G1 X80.153 Y60.62 E2238.23314
G1 X80.63 Y60.727 E2238.24838
G1 X81.125 Y60.749 E2238.26383
G0 F7800 X81.328 Y60.963
; TYPE:BOTTOM-FILL
G1 F1080 X129.01 Y108.645 E2240.36647
G0 F7800 X129.01 Y108.221
G1 F1080 X81.696 Y60.908 E2242.45286
G0 F7800 X82.016 Y60.803
G1 F1080 X129.01 Y107.797 E2244.52516
G0 F7800 X129.01 Y107.372
G1 F1080 X82.314 Y60.676 E2246.58432
G0 F7800 X82.59 Y60.528
G1 F1080 X129.01 Y106.948 E2248.63131
G0 F7800 X129.01 Y106.524
G1 F1080 X82.835 Y60.349 E2250.6675
G0 F7800 X83.071 Y60.161
G1 F1080 X129.01 Y106.099 E2252.69325
G0 F7800 X129.01 Y105.675
G1 F1080 X83.268 Y59.934 E2254.71032
G0 F7800 X83.456 Y59.698
G1 F1080 X129.01 Y105.251 E2256.7191
G0 F7800 X129.01 Y104.827
G1 F1080 X83.615 Y59.432 E2258.72089
G0 F7800 X83.753 Y59.145
G1 F1080 X129.01 Y104.402 E2260.71659
G0 F7800 X129.01 Y103.978
G1 F1080 X83.869 Y58.838 E2262.70716
G0 F7800 X83.94 Y58.484
G1 F1080 X129.01 Y103.554 E2264.69462
G0 F7800 X129.01 Y103.13
G1 F1080 X83.979 Y58.099 E2266.68035
G0 F7800 X83.967 Y57.663
G1 F1080 X129.01 Y102.705 E2268.6666
G0 F7800 X129.01 Y102.281
G1 F1080 X83.857 Y57.129 E2270.65769
G0 F7800 X83.461 Y56.309
G1 F1080 X129.01 Y101.857 E2272.66625
G0 F7800 X129.01 Y101.433
G1 F1080 X73.567 Y45.99 E2275.11113
G0 F7800 X73.143 Y45.99
G1 F1080 X82.672 Y55.519 E2275.53133
G0 F7800 X81.877 Y55.148
G1 F1080 X72.718 Y45.99 E2275.93519
G0 F7800 X72.294 Y45.99
G1 F1080 X81.34 Y55.036 E2276.3341
G0 F7800 X80.9 Y55.019
G1 F1080 X71.87 Y45.99 E2276.73227
G0 F7800 X71.446 Y45.99
G1 F1080 X80.509 Y55.053 E2277.13192
G0 F7800 X80.163 Y55.132
G1 F1080 X71.021 Y45.99 E2277.53506
G0 F7800 X70.989 Y46.381
G1 F1080 X79.852 Y55.245 E2277.92591
G0 F7800 X79.558 Y55.375
G1 F1080 X70.989 Y46.806 E2278.30378
G0 F7800 X70.989 Y47.23
G1 F1080 X79.304 Y55.545 E2278.67045
G0 F7800 X79.061 Y55.727
G1 F1080 X70.989 Y47.654 E2279.02642
G0 F7800 X70.989 Y48.079
G1 F1080 X78.843 Y55.933 E2279.37276
G0 F7800 X78.647 Y56.161
G1 F1080 X70.989 Y48.503 E2279.71046
G0 F7800 X70.989 Y48.927
G1 F1080 X78.47 Y56.408 E2280.04035
G0 F7800 X78.322 Y56.685
G1 F1080 X70.989 Y49.351 E2280.36374
G0 F7800 X70.989 Y49.776
G1 F1080 X78.189 Y56.975 E2280.68121
G0 F7800 X78.097 Y57.308
G1 F1080 X70.989 Y50.2 E2280.99466
G0 F7800 X70.989 Y50.624
G1 F1080 X78.035 Y57.67 E2281.30536
G0 F7800 X78.011 Y58.071
G1 F1080 X70.989 Y51.048 E2281.61504
G0 F7800 X70.989 Y51.473
G1 F1080 X78.054 Y58.538 E2281.92658
G0 F7800 X78.244 Y59.152
G1 F1080 X70.989 Y51.897 E2282.24651
G0 F7800 X70.989 Y52.321
G1 F1080 X129.01 Y110.342 E2284.80507
G0 F7800 X129.01 Y109.918
G1 F1080 X79.839 Y60.747 E2286.97337
G0 F7800 X80.448 Y60.932
G1 F1080 X129.01 Y109.494 E2289.11481
G0 F7800 X129.01 Y109.069
G1 F1080 X80.92 Y60.98 E2291.23542
G0 F7800 X70.989 Y60.806
G1 F1080 X129.01 Y118.827 E2293.79398
G0 F7800 X129.01 Y118.403
G1 F1080 X70.989 Y60.382 E2296.35254
G0 F7800 X70.989 Y59.958
G1 F1080 X129.01 Y117.979 E2298.9111
G0 F7800 X129.01 Y117.555
G1 F1080 X70.989 Y59.534 E2301.46966
G0 F7800 X70.989 Y59.109
G1 F1080 X129.01 Y117.13 E2304.02822
G0 F7800 X129.01 Y116.706
G1 F1080 X70.989 Y58.685 E2306.58677
G0 F7800 X70.989 Y58.261
G1 F1080 X129.01 Y116.282 E2309.14533
G0 F7800 X129.01 Y115.858
G1 F1080 X70.989 Y57.837 E2311.70389
G0 F7800 X70.989 Y57.412
G1 F1080 X129.01 Y115.433 E2314.26245
G0 F7800 X129.01 Y115.009
G1 F1080 X70.989 Y56.988 E2316.82101
G0 F7800 X70.989 Y56.564
G1 F1080 X129.01 Y114.585 E2319.37957
G0 F7800 X129.01 Y114.16
G1 F1080 X70.989 Y56.14 E2321.93811
G0 F7800 X70.989 Y55.715
G1 F1080 X129.01 Y113.736 E2324.49667
G0 F7800 X129.01 Y113.312
G1 F1080 X70.989 Y55.291 E2327.05523
G0 F7800 X70.989 Y54.867
G1 F1080 X129.01 Y112.888 E2329.61379
G0 F7800 X129.01 Y112.463
G1 F1080 X70.989 Y54.442 E2332.17235
G0 F7800 X70.989 Y54.018
G1 F1080 X129.01 Y112.039 E2334.73091
G0 F7800 X129.01 Y111.615
G1 F1080 X70.989 Y53.594 E2337.28946
G0 F7800 X70.989 Y53.17
G1 F1080 X129.01 Y111.191 E2339.84802
G0 F7800 X129.01 Y110.766
G1 F1080 X70.989 Y52.745 E2342.40658
G0 F7800 X73.991 Y45.99
G1 F1080 X129.01 Y101.008 E2344.83274
G0 F7800 X129.01 Y100.584
G1 F1080 X74.415 Y45.99 E2347.2402
G0 F7800 X74.84 Y45.99
G1 F1080 X129.01 Y100.16 E2349.62894
G0 F7800 X129.009 Y99.735
G1 F1080 X75.264 Y45.99 E2351.99894
G0 F7800 X75.688 Y45.99
G1 F1080 X129.009 Y99.311 E2354.35025
G0 F7800 X129.009 Y98.886
G1 F1080 X76.112 Y45.99 E2356.68283
G0 F7800 X76.537 Y45.99
G1 F1080 X129.009 Y98.462 E2358.99669
G0 F7800 X129.009 Y98.038
G1 F1080 X76.961 Y45.99 E2361.29186
G0 F7800 X77.385 Y45.99
G1 F1080 X129.009 Y97.613 E2363.56831
G0 F7800 X129.009 Y97.189
G1 F1080 X77.81 Y45.99 E2365.82604
G0 F7800 X78.234 Y45.99
G1 F1080 X129.009 Y96.765 E2368.06507
G0 F7800 X129.009 Y96.341
G1 F1080 X78.658 Y45.99 E2370.2854
G0 F7800 X79.082 Y45.99
G1 F1080 X129.009 Y95.916 E2372.48702
G0 F7800 X129.009 Y95.492
G1 F1080 X79.507 Y45.99 E2374.66991
G0 F7800 X79.931 Y45.99
G1 F1080 X129.009 Y95.068 E2376.83411
G0 F7800 X129.009 Y94.644
G1 F1080 X80.355 Y45.99 E2378.97962
G0 F7800 X80.779 Y45.99
G1 F1080 X129.009 Y94.219 E2381.1064
G0 F7800 X129.009 Y93.795
G1 F1080 X81.204 Y45.99 E2383.21446
G0 F7800 X81.628 Y45.99
G1 F1080 X129.009 Y93.371 E2385.30383
G0 F7800 X129.009 Y92.947
G1 F1080 X82.052 Y45.99 E2387.3745
G0 F7800 X82.476 Y45.99
G1 F1080 X129.009 Y92.522 E2389.42644
G0 F7800 X129.009 Y92.098
G1 F1080 X82.901 Y45.99 E2391.45967
G0 F7800 X83.325 Y45.99
G1 F1080 X129.009 Y91.674 E2393.47421
G0 F7800 X129.009 Y91.25
G1 F1080 X83.749 Y45.99 E2395.47004
G0 F7800 X84.173 Y45.99
G1 F1080 X129.009 Y90.825 E2397.44716
G0 F7800 X129.009 Y90.401
G1 F1080 X84.598 Y45.99 E2399.40556
G0 F7800 X85.022 Y45.99
G1 F1080 X129.009 Y89.977 E2401.34526
G0 F7800 X129.009 Y89.552
G1 F1080 X85.446 Y45.99 E2403.26624
G0 F7800 X85.871 Y45.99
G1 F1080 X129.009 Y89.128 E2405.1685
G0 F7800 X129.009 Y88.704
G1 F1080 X86.295 Y45.99 E2407.05207
G0 F7800 X86.719 Y45.99
G1 F1080 X129.009 Y88.28 E2408.91693
G0 F7800 X129.009 Y87.855
G1 F1080 X87.143 Y45.99 E2410.76308
G0 F7800 X87.568 Y45.99
G1 F1080 X129.009 Y87.431 E2412.59051
G0 F7800 X129.009 Y87.007
G1 F1080 X87.992 Y45.99 E2414.39924
G0 F7800 X88.416 Y45.99
G1 F1080 X129.009 Y86.583 E2416.18928
G0 F7800 X129.009 Y86.158
G1 F1080 X88.84 Y45.99 E2417.96059
G0 F7800 X89.265 Y45.99
G1 F1080 X129.009 Y85.734 E2419.71319
G0 F7800 X129.009 Y85.31
G1 F1080 X89.689 Y45.99 E2421.44709
G0 F7800 X90.113 Y45.99
G1 F1080 X129.009 Y84.886 E2423.16229
G0 F7800 X129.009 Y84.461
G1 F1080 X90.537 Y45.99 E2424.85877
G0 F7800 X90.962 Y45.99
G1 F1080 X129.009 Y84.037 E2426.53654
G0 F7800 X129.009 Y83.613
G1 F1080 X91.386 Y45.99 E2428.1956
G0 F7800 X91.81 Y45.99
G1 F1080 X129.009 Y83.188 E2429.83595
G0 F7800 X129.009 Y82.764
G1 F1080 X92.235 Y45.99 E2431.45758
G0 F7800 X92.659 Y45.99
G1 F1080 X129.009 Y82.34 E2433.06051
G0 F7800 X129.009 Y81.916
G1 F1080 X93.083 Y45.99 E2434.64474
G0 F7800 X93.507 Y45.99
G1 F1080 X129.009 Y81.491 E2436.21025
G0 F7800 X129.009 Y81.067
G1 F1080 X93.932 Y45.99 E2437.75705
G0 F7800 X94.356 Y45.99
G1 F1080 X129.009 Y80.643 E2439.28515
G0 F7800 X129.009 Y80.219
G1 F1080 X94.78 Y45.99 E2440.79455
G0 F7800 X95.204 Y45.99
G1 F1080 X129.009 Y79.794 E2442.28523
G0 F7800 X129.009 Y79.37
G1 F1080 X95.629 Y45.99 E2443.75719
G0 F7800 X96.053 Y45.99
G1 F1080 X129.009 Y78.946 E2445.21046
G0 F7800 X129.009 Y78.522
G1 F1080 X96.477 Y45.99 E2446.64502
G0 F7800 X96.901 Y45.99
G1 F1080 X129.009 Y78.097 E2448.06087
G0 F7800 X129.009 Y77.673
G1 F1080 X97.326 Y45.99 E2449.458
G0 F7800 X97.75 Y45.99
G1 F1080 X129.009 Y77.249 E2450.83643
G0 F7800 X129.009 Y76.825
G1 F1080 X98.174 Y45.99 E2452.19617
G0 F7800 X98.598 Y45.99
G1 F1080 X129.009 Y76.4 E2453.53718
G0 F7800 X129.009 Y75.976
G1 F1080 X99.023 Y45.99 E2454.85948
G0 F7800 X99.447 Y45.99
G1 F1080 X129.009 Y75.552 E2456.16308
G0 F7800 X129.009 Y75.127
G1 F1080 X99.871 Y45.99 E2457.44796
G0 F7800 X100.295 Y45.989
G1 F1080 X129.009 Y74.703 E2458.71416
G0 F7800 X129.009 Y74.279
G1 F1080 X100.719 Y45.989 E2459.96167
G0 F7800 X101.143 Y45.989
G1 F1080 X129.009 Y73.855 E2461.19048
G0 F7800 X129.009 Y73.43
G1 F1080 X101.568 Y45.989 E2462.40055
G0 F7800 X101.992 Y45.989
G1 F1080 X129.009 Y73.006 E2463.59192
G0 F7800 X129.009 Y72.582
G1 F1080 X102.416 Y45.989 E2464.7646
G0 F7800 X102.84 Y45.989
G1 F1080 X116.543 Y59.692 E2465.36886
G0 F7800 X116.145 Y58.87
G1 F1080 X103.265 Y45.989 E2465.93685
G0 F7800 X103.689 Y45.989
G1 F1080 X116.035 Y58.335 E2466.48128
G0 F7800 X116.015 Y57.89
G1 F1080 X104.113 Y45.989 E2467.0061
G0 F7800 X104.537 Y45.989
G1 F1080 X116.05 Y57.501 E2467.51377
G0 F7800 X116.136 Y57.163
G1 F1080 X104.962 Y45.989 E2468.00651
G0 F7800 X105.386 Y45.989
G1 F1080 X116.244 Y56.847 E2468.48531
G0 F7800 X116.381 Y56.56
G1 F1080 X105.81 Y45.989 E2468.95147
G0 F7800 X106.235 Y45.989
G1 F1080 X116.547 Y56.301 E2469.4062
G0 F7800 X116.724 Y56.055
G1 F1080 X106.659 Y45.989 E2469.85005
G0 F7800 X107.083 Y45.989
G1 F1080 X116.938 Y55.844 E2470.28463
G0 F7800 X117.159 Y55.641
G1 F1080 X107.507 Y45.989 E2470.71026
G0 F7800 X107.932 Y45.989
G1 F1080 X117.414 Y55.471 E2471.12839
G0 F7800 X117.684 Y55.317
G1 F1080 X108.356 Y45.989 E2471.53972
G0 F7800 X108.78 Y45.989
G1 F1080 X117.981 Y55.19 E2471.94546
G0 F7800 X118.313 Y55.097
G1 F1080 X109.204 Y45.989 E2472.34712
G0 F7800 X109.629 Y45.989
G1 F1080 X118.669 Y55.029 E2472.74576
G0 F7800 X119.076 Y55.012
G1 F1080 X110.053 Y45.989 E2473.14365
G0 F7800 X110.477 Y45.989
G1 F1080 X119.551 Y55.063 E2473.54378
G0 F7800 X120.148 Y55.235
G1 F1080 X110.901 Y45.989 E2473.95153
G0 F7800 X111.326 Y45.989
G1 F1080 X129.009 Y63.672 E2474.7313
G0 F7800 X129.009 Y63.248
G1 F1080 X111.75 Y45.989 E2475.49237
G0 F7800 X112.174 Y45.989
G1 F1080 X129.009 Y62.824 E2476.23475
G0 F7800 X129.009 Y62.4
G1 F1080 X112.598 Y45.989 E2476.95842
G0 F7800 X113.023 Y45.989
G1 F1080 X129.009 Y61.975 E2477.66336
G0 F7800 X129.009 Y61.551
G1 F1080 X113.447 Y45.989 E2478.3496
G0 F7800 X113.871 Y45.989
G1 F1080 X129.009 Y61.127 E2479.01714
G0 F7800 X129.009 Y60.702
G1 F1080 X114.296 Y45.989 E2479.66594
G0 F7800 X114.72 Y45.989
G1 F1080 X129.009 Y60.278 E2480.29605
G0 F7800 X129.009 Y59.854
G1 F1080 X115.144 Y45.989 E2480.90745
G0 F7800 X115.568 Y45.989
G1 F1080 X129.009 Y59.43 E2481.50016
G0 F7800 X129.009 Y59.005
G1 F1080 X115.993 Y45.989 E2482.07413
G0 F7800 X116.417 Y45.989
G1 F1080 X129.009 Y58.581 E2482.6294
G0 F7800 X129.009 Y58.157
G1 F1080 X116.841 Y45.989 E2483.16598
G0 F7800 X117.265 Y45.989
G1 F1080 X129.009 Y57.733 E2483.68385
G0 F7800 X129.009 Y57.308
G1 F1080 X117.69 Y45.989 E2484.18299
G0 F7800 X118.114 Y45.989
G1 F1080 X129.009 Y56.884 E2484.66343
G0 F7800 X129.009 Y56.46
G1 F1080 X118.538 Y45.989 E2485.12517
G0 F7800 X118.962 Y45.989
G1 F1080 X129.009 Y56.036 E2485.56821
G0 F7800 X129.009 Y55.611
G1 F1080 X119.387 Y45.989 E2485.99251
G0 F7800 X119.811 Y45.989
G1 F1080 X129.009 Y55.187 E2486.39812
G0 F7800 X129.009 Y54.763
G1 F1080 X120.235 Y45.989 E2486.78503
G0 F7800 X120.659 Y45.989
G1 F1080 X129.009 Y54.339 E2487.15324
G0 F7800 X129.009 Y53.914
G1 F1080 X121.084 Y45.989 E2487.50271
G0 F7800 X121.508 Y45.989
G1 F1080 X129.009 Y53.49 E2487.83348
G0 F7800 X129.009 Y53.066
G1 F1080 X121.932 Y45.989 E2488.14556
G0 F7800 X122.357 Y45.989
G1 F1080 X129.009 Y52.641 E2488.43889
G0 F7800 X129.009 Y52.217
G1 F1080 X122.781 Y45.989 E2488.71353
G0 F7800 X123.205 Y45.989
G1 F1080 X129.009 Y51.793 E2488.96947
G0 F7800 X129.009 Y51.369
G1 F1080 X123.629 Y45.989 E2489.20671
G0 F7800 X124.054 Y45.989
G1 F1080 X129.009 Y50.944 E2489.42521
G0 F7800 X129.009 Y50.52
G1 F1080 X124.478 Y45.989 E2489.62501
G0 F7800 X124.902 Y45.989
G1 F1080 X129.009 Y50.096 E2489.80612
G0 F7800 X129.009 Y49.672
G1 F1080 X125.326 Y45.989 E2489.96853
G0 F7800 X125.751 Y45.989
G1 F1080 X129.009 Y49.247 E2490.1122
G0 F7800 X129.009 Y48.823
G1 F1080 X126.175 Y45.989 E2490.23717
G0 F7800 X126.599 Y45.989
G1 F1080 X129.009 Y48.399 E2490.34344
G0 F7800 X129.009 Y47.975
G1 F1080 X127.023 Y45.989 E2490.43102
G0 F7800 X127.448 Y45.989
G1 F1080 X129.009 Y47.55 E2490.49986
G0 F7800 X129.009 Y47.126
G1 F1080 X127.872 Y45.989 E2490.55
G0 F7800 X128.296 Y45.989
G1 F1080 X129.009 Y46.702 E2490.58144
G0 F7800 X129.009 Y46.278
G1 F1080 X128.721 Y45.989 E2490.59416
G0 F7800 X121.745 Y56.833
G0 X121.745 Y56.833
G1 F1080 X129.009 Y64.097 E2490.91448
G0 F7800 X129.009 Y64.521
G1 F1080 X121.927 Y57.439 E2491.22678
G0 F7800 X121.979 Y57.915
G1 F1080 X129.009 Y64.945 E2491.53678
G0 F7800 X129.009 Y65.369
G1 F1080 X121.968 Y58.329 E2491.84724
G0 F7800 X121.904 Y58.689
G1 F1080 X129.009 Y65.794 E2492.16055
G0 F7800 X129.009 Y66.218
G1 F1080 X121.803 Y59.012 E2492.47832
G0 F7800 X121.683 Y59.317
G1 F1080 X129.009 Y66.642 E2492.80135
G0 F7800 X129.009 Y67.066
G1 F1080 X121.525 Y59.582 E2493.13137
G0 F7800 X121.353 Y59.835
G1 F1080 X129.009 Y67.491 E2493.46898
G0 F7800 X129.009 Y67.915
G1 F1080 X121.157 Y60.063 E2493.81523
G0 F7800 X120.937 Y60.268
G1 F1080 X129.009 Y68.339 E2494.17116
G0 F7800 X129.009 Y68.764
G1 F1080 X120.701 Y60.455 E2494.53754
G0 F7800 X120.433 Y60.612
G1 F1080 X129.009 Y69.188 E2494.91572
G0 F7800 X129.009 Y69.612
G1 F1080 X120.155 Y60.758 E2495.30616
G0 F7800 X119.835 Y60.862
G1 F1080 X129.009 Y70.036 E2495.7107
G0 F7800 X129.009 Y70.461
G1 F1080 X119.49 Y60.941 E2496.13049
G0 F7800 X119.112 Y60.988
G1 F1080 X129.009 Y70.885 E2496.56692
G0 F7800 X129.009 Y71.309
G1 F1080 X118.668 Y60.968 E2497.02292
G0 F7800 X118.138 Y60.862
G1 F1080 X129.009 Y71.733 E2497.5023
G0 F7800 X129.009 Y72.158
