; generated by Slic3r 1.2.9 on 2017-02-09 at 22:23:54

; external perimeters extrusion width = 0.30mm
; perimeters extrusion width = 0.30mm
; infill extrusion width = 0.30mm
; solid infill extrusion width = 0.30mm
; top infill extrusion width = 0.45mm
; support material extrusion width = 0.60mm

M107 ; disable fan
M190 S70 ; set bed temperature
M104 S210 ; set temperature
G28 ; home all axes
G1 X20 F4000;
G1 Z5 F2000 ; lift nozzle


M109 S210 ; wait for temperature to be reached
G21 ; set units to millimeters
G90 ; use absolute coordinates
M82 ; use absolute distances for extrusion
G92 E0 ; reset extrusion distance
G1 Z0.260 F4800.000 ; move to next layer (0)
G1 E-2.00000 F2400.00000 ; retract
G92 E0 ; reset extrusion distance
G1 X61.472 Y39.610 F4800.000 ; move to first skirt point
G1 E2.00000 F2400.00000 ; unretract
G1 X63.308 Y37.451 E2.16670 F900.000 ; skirt
G1 X65.671 Y35.887 E2.33341 ; skirt
G1 X68.377 Y35.043 E2.50011 ; skirt
G1 X70.000 Y34.912 E2.59593 ; skirt
G1 X130.000 Y34.912 E6.12548 ; skirt
G1 X132.806 Y35.310 E6.29219 ; skirt
G1 X135.390 Y36.472 E6.45889 F900.000 ; skirt
G1 X137.549 Y38.308 E6.62559 ; skirt
G1 X139.113 Y40.671 E6.79230 ; skirt
G1 X139.957 Y43.377 E6.95900 ; skirt
G1 X140.088 Y45.000 E7.05482 ; skirt
G1 X140.088 Y155.000 E13.52567 ; skirt
G1 X139.690 Y157.806 E13.69237 ; skirt
G1 X138.528 Y160.390 E13.85908 ; skirt
G1 X136.692 Y162.549 E14.02578 ; skirt
G1 X134.329 Y164.113 E14.19248 ; skirt
G1 X131.623 Y164.957 E14.35919 ; skirt
G1 X130.000 Y165.088 E14.45500 ; skirt
G1 X70.000 Y165.088 E17.98456 ; skirt
G1 X67.194 Y164.690 E18.15126 ; skirt
G1 X64.610 Y163.528 E18.31797 ; skirt
G1 X62.451 Y161.692 E18.48467 ; skirt
G1 X60.887 Y159.329 E18.65138 ; skirt
G1 X60.043 Y156.623 E18.81808 ; skirt
G1 X59.912 Y155.000 E18.91389 ; skirt
G1 X59.912 Y45.000 E25.38475 ; skirt
G1 X60.310 Y42.194 E25.55145 ; skirt
G1 X61.454 Y39.651 E25.71551 ; skirt
G1 X61.981 Y39.846 F4800.000 ; move to first skirt point
G1 X62.014 Y39.773 E25.72022 F900.000 ; skirt
G1 X63.841 Y37.709 E25.88234 ; skirt
G1 X66.181 Y36.253 E26.04446 ; skirt
G1 X70.000 Y35.456 E26.27399 ; skirt
G1 X130.000 Y35.456 E29.80354 ; skirt
G1 X132.727 Y35.854 E29.96566 ; skirt
G1 X135.227 Y37.014 E30.12779 F900.000 ; skirt
G1 X137.291 Y38.841 E30.28991 ; skirt
G1 X138.747 Y41.181 E30.45203 ; skirt
G1 X139.544 Y45.000 E30.68156 ; skirt
G1 X139.544 Y155.000 E37.15241 ; skirt
G1 X139.146 Y157.727 E37.31453 ; skirt
G1 X137.986 Y160.227 E37.47665 ; skirt
G1 X136.159 Y162.291 E37.63878 ; skirt
G1 X133.819 Y163.747 E37.80090 ; skirt
G1 X130.000 Y164.544 E38.03042 ; skirt
G1 X70.000 Y164.544 E41.55998 ; skirt
G1 X67.273 Y164.146 E41.72210 ; skirt
G1 X64.773 Y162.986 E41.88422 ; skirt
G1 X62.709 Y161.159 E42.04634 ; skirt
G1 X61.253 Y158.819 E42.20847 ; skirt
G1 X60.456 Y155.000 E42.43799 ; skirt
G1 X60.456 Y45.000 E48.90884 ; skirt
G1 X60.854 Y42.273 E49.07097 ; skirt
G1 X61.962 Y39.887 E49.22573 ; skirt
G1 E47.22573 F2400.00000 ; retract
G92 E0 ; reset extrusion distance
G1 X126.282 Y136.167 F4800.000 ; move to first perimeter point
G1 E2.00000 F2400.00000 ; unretract
G1 X126.808 Y136.296 E2.03183 F225.000 ; perimeter
G1 X127.115 Y136.434 E2.05164 ; perimeter
G1 X127.535 Y136.724 E2.08167 ; perimeter
G1 X127.773 Y136.962 E2.10146 ; perimeter
G1 X128.081 Y137.407 E2.13333 ; perimeter
G1 X128.273 Y137.914 E2.16518 ; perimeter
G1 X128.333 Y138.245 E2.18498 ; perimeter
G1 X128.333 Y138.781 E2.21653 ; perimeter
G1 X128.205 Y139.306 E2.24832 ; perimeter
G1 X128.067 Y139.614 E2.26816 ; perimeter
G1 X127.773 Y140.038 E2.29853 ; perimeter
G1 X127.535 Y140.276 E2.31832 ; perimeter
G1 X127.115 Y140.566 E2.34835 ; perimeter
G1 X126.808 Y140.704 E2.36816 ; perimeter
G1 X126.282 Y140.833 E2.40001 ; perimeter
G1 X125.715 Y140.833 E2.43333 ; perimeter
G1 X125.195 Y140.705 E2.46486 ; perimeter
G1 X124.888 Y140.567 E2.48465 ; perimeter
G1 X124.442 Y140.260 E2.51652 ; perimeter
G1 X124.083 Y139.855 E2.54837 ; perimeter
G1 X123.909 Y139.566 E2.56818 ; perimeter
G1 X123.728 Y139.089 E2.59820 ; perimeter
G1 X123.667 Y138.758 E2.61800 ; perimeter
G1 X123.667 Y138.242 E2.64838 ; perimeter
G1 X123.728 Y137.911 E2.66817 ; perimeter
G1 X123.918 Y137.410 E2.69971 ; perimeter
G1 X124.225 Y136.964 E2.73152 ; perimeter
G1 X124.463 Y136.726 E2.75135 ; perimeter
G1 X124.909 Y136.418 E2.78320 ; perimeter
G1 X125.415 Y136.226 E2.81508 ; perimeter
G1 X125.746 Y136.167 E2.83486 ; perimeter
G1 X126.237 Y136.167 E2.86374 F225.000 ; perimeter
G1 X126.216 Y136.711 F4800.000 ; move to first perimeter point
G1 X126.629 Y136.812 E2.88877 F225.000 ; perimeter
G1 X126.846 Y136.910 E2.90275 ; perimeter
G1 X127.185 Y137.144 E2.92700 ; perimeter
G1 X127.354 Y137.312 E2.94097 ; perimeter
G1 X127.596 Y137.662 E2.96601 ; perimeter
G1 X127.747 Y138.060 E2.99105 ; perimeter
G1 X127.789 Y138.294 E3.00503 ; perimeter
G1 X127.789 Y138.715 E3.02982 ; perimeter
G1 X127.688 Y139.128 E3.05483 ; perimeter
G1 X127.590 Y139.345 E3.06882 ; perimeter
G1 X127.354 Y139.688 E3.09334 ; perimeter
G1 X127.185 Y139.856 E3.10731 ; perimeter
G1 X126.846 Y140.090 E3.13156 ; perimeter
G1 X126.629 Y140.188 E3.14554 ; perimeter
G1 X126.216 Y140.289 E3.17058 ; perimeter
G1 X125.782 Y140.289 E3.19614 ; perimeter
G1 X125.373 Y140.188 E3.22092 ; perimeter
G1 X125.156 Y140.091 E3.23489 ; perimeter
G1 X124.805 Y139.849 E3.25993 ; perimeter
G1 X124.523 Y139.531 E3.28497 ; perimeter
G1 X124.400 Y139.327 E3.29895 ; perimeter
G1 X124.254 Y138.942 E3.32320 ; perimeter
G1 X124.211 Y138.708 E3.33717 ; perimeter
G1 X124.211 Y138.292 E3.36169 ; perimeter
G1 X124.254 Y138.058 E3.37566 ; perimeter
G1 X124.404 Y137.664 E3.40045 ; perimeter
G1 X124.645 Y137.314 E3.42547 ; perimeter
G1 X124.813 Y137.146 E3.43946 ; perimeter
G1 X125.163 Y136.904 E3.46449 ; perimeter
G1 X125.561 Y136.753 E3.48954 ; perimeter
G1 X125.795 Y136.711 E3.50351 ; perimeter
G1 X126.171 Y136.711 E3.52564 F225.000 ; perimeter
G1 X126.406 Y136.478 F4800.000 ; move inwards before travel
G1 X84.878 Y140.696 F4800.000 ; move to first perimeter point
G1 X84.878 Y141.347 E3.56394 F225.000 ; perimeter
G1 X84.721 Y141.984 E3.60252 ; perimeter
G1 X84.543 Y142.382 E3.62820 ; perimeter
G1 X84.193 Y142.889 E3.66444 ; perimeter
G1 X83.884 Y143.196 E3.69004 ; perimeter
G1 X83.383 Y143.542 E3.72585 ; perimeter
G1 X82.986 Y143.721 E3.75149 ; perimeter
G1 X82.348 Y143.878 E3.79015 ; perimeter
G1 X81.649 Y143.877 E3.83124 ; perimeter
G1 X81.017 Y143.721 E3.86952 ; perimeter
G1 X80.620 Y143.544 E3.89512 ; perimeter
G1 X80.079 Y143.170 E3.93381 ; perimeter
G1 X79.643 Y142.678 E3.97248 ; perimeter
G1 X79.417 Y142.305 E3.99811 ; perimeter
G1 X79.202 Y141.736 E4.03392 ; perimeter
G1 X79.123 Y141.308 E4.05953 ; perimeter
G1 X79.123 Y140.692 E4.09577 ; perimeter
G1 X79.202 Y140.264 E4.12139 ; perimeter
G1 X79.432 Y139.655 E4.15968 ; perimeter
G1 X79.805 Y139.115 E4.19827 ; perimeter
G1 X80.113 Y138.806 E4.22395 ; perimeter
G1 X80.654 Y138.433 E4.26262 ; perimeter
G1 X81.269 Y138.200 E4.30132 ; perimeter
G1 X81.697 Y138.122 E4.32691 ; perimeter
G1 X82.348 Y138.122 E4.36518 F225.000 ; perimeter
G1 X82.986 Y138.279 E4.40382 ; perimeter
G1 X83.383 Y138.458 E4.42946 ; perimeter
G1 X83.884 Y138.804 E4.46527 ; perimeter
G1 X84.193 Y139.111 E4.49087 ; perimeter
G1 X84.566 Y139.652 E4.52956 ; perimeter
G1 X84.800 Y140.267 E4.56824 ; perimeter
G1 X84.870 Y140.651 E4.59121 ; perimeter
G1 X84.333 Y140.745 F4800.000 ; move to first perimeter point
G1 X84.333 Y141.281 E4.62275 F225.000 ; perimeter
G1 X84.205 Y141.806 E4.65455 ; perimeter
G1 X84.067 Y142.114 E4.67438 ; perimeter
G1 X83.773 Y142.538 E4.70476 ; perimeter
G1 X83.535 Y142.776 E4.72455 ; perimeter
G1 X83.115 Y143.066 E4.75458 ; perimeter
G1 X82.808 Y143.204 E4.77439 ; perimeter
G1 X82.282 Y143.333 E4.80623 ; perimeter
G1 X81.715 Y143.333 E4.83956 ; perimeter
G1 X81.195 Y143.205 E4.87109 ; perimeter
G1 X80.888 Y143.067 E4.89088 ; perimeter
G1 X80.442 Y142.760 E4.92275 ; perimeter
G1 X80.083 Y142.355 E4.95460 ; perimeter
G1 X79.909 Y142.066 E4.97440 ; perimeter
G1 X79.728 Y141.589 E5.00443 ; perimeter
G1 X79.667 Y141.258 E5.02423 ; perimeter
G1 X79.667 Y140.742 E5.05460 ; perimeter
G1 X79.728 Y140.411 E5.07440 ; perimeter
G1 X79.918 Y139.910 E5.10594 ; perimeter
G1 X80.225 Y139.464 E5.13774 ; perimeter
G1 X80.463 Y139.226 E5.15758 ; perimeter
G1 X80.909 Y138.918 E5.18943 ; perimeter
G1 X81.415 Y138.726 E5.22130 ; perimeter
G1 X81.746 Y138.667 E5.24108 ; perimeter
G1 X82.282 Y138.667 E5.27261 F225.000 ; perimeter
G1 X82.808 Y138.796 E5.30444 ; perimeter
G1 X83.115 Y138.934 E5.32425 ; perimeter
G1 X83.535 Y139.224 E5.35428 ; perimeter
G1 X83.773 Y139.462 E5.37407 ; perimeter
G1 X84.081 Y139.907 E5.40594 ; perimeter
G1 X84.273 Y140.414 E5.43779 ; perimeter
G1 X84.325 Y140.701 E5.45495 ; perimeter
G1 X83.789 Y140.794 F4800.000 ; move to first perimeter point
G1 X83.789 Y141.215 E5.47973 F225.000 ; perimeter
G1 X83.688 Y141.628 E5.50475 ; perimeter
G1 X83.590 Y141.845 E5.51874 ; perimeter
G1 X83.354 Y142.188 E5.54325 ; perimeter
G1 X83.185 Y142.356 E5.55723 ; perimeter
G1 X82.846 Y142.590 E5.58147 ; perimeter
G1 X82.629 Y142.688 E5.59545 ; perimeter
G1 X82.216 Y142.789 E5.62049 ; perimeter
G1 X81.782 Y142.789 E5.64605 ; perimeter
G1 X81.373 Y142.688 E5.67083 ; perimeter
G1 X81.156 Y142.591 E5.68480 ; perimeter
G1 X80.805 Y142.349 E5.70985 ; perimeter
G1 X80.523 Y142.031 E5.73489 ; perimeter
G1 X80.400 Y141.827 E5.74887 ; perimeter
G1 X80.254 Y141.442 E5.77311 ; perimeter
G1 X80.211 Y141.208 E5.78709 ; perimeter
G1 X80.211 Y140.792 E5.81160 ; perimeter
G1 X80.254 Y140.558 E5.82558 ; perimeter
G1 X80.404 Y140.164 E5.85036 ; perimeter
G1 X80.645 Y139.814 E5.87538 ; perimeter
G1 X80.813 Y139.646 E5.88937 ; perimeter
G1 X81.163 Y139.404 E5.91441 ; perimeter
G1 X81.561 Y139.253 E5.93945 ; perimeter
G1 X81.795 Y139.211 E5.95343 ; perimeter
G1 X82.216 Y139.211 E5.97821 F225.000 ; perimeter
G1 X82.629 Y139.312 E6.00324 ; perimeter
G1 X82.846 Y139.410 E6.01722 ; perimeter
G1 X83.185 Y139.644 E6.04146 ; perimeter
G1 X83.354 Y139.812 E6.05544 ; perimeter
G1 X83.596 Y140.162 E6.08048 ; perimeter
G1 X83.747 Y140.560 E6.10552 ; perimeter
G1 X83.781 Y140.750 E6.11685 ; perimeter
G1 X84.058 Y140.928 F4800.000 ; move inwards before travel
G1 X81.153 Y116.891 F4800.000 ; move to first perimeter point
G1 X80.541 Y116.863 E6.15289 F225.000 ; perimeter
G1 X79.947 Y116.726 E6.18879 ; perimeter
G1 X79.422 Y116.502 E6.22236 ; perimeter
G1 X79.111 Y116.316 E6.24369 ; perimeter
G1 X78.657 Y115.956 E6.27773 ; perimeter
G1 X78.254 Y115.495 E6.31376 ; perimeter
G1 X77.940 Y114.969 E6.34979 ; perimeter
G1 X77.738 Y114.427 E6.38383 ; perimeter
G1 X77.657 Y114.073 E6.40516 ; perimeter
G1 X77.606 Y113.505 E6.43873 ; perimeter
G1 X77.660 Y112.897 E6.47463 ; perimeter
G1 X77.823 Y112.306 E6.51067 ; perimeter
G1 X78.089 Y111.755 E6.54670 ; perimeter
G1 X78.430 Y111.288 E6.58072 ; perimeter
G1 X78.681 Y111.026 E6.60204 ; perimeter
G1 X79.127 Y110.670 E6.63562 ; perimeter
G1 X79.664 Y110.380 E6.67154 ; perimeter
G1 X80.247 Y110.191 E6.70757 ; perimeter
G1 X80.852 Y110.109 E6.74349 F225.000 ; perimeter
G1 X81.422 Y110.135 E6.77707 ; perimeter
G1 X81.779 Y110.200 E6.79839 ; perimeter
G1 X82.329 Y110.377 E6.83241 ; perimeter
G1 X82.869 Y110.667 E6.86844 ; perimeter
G1 X83.348 Y111.049 E6.90448 ; perimeter
G1 X83.728 Y111.486 E6.93853 ; perimeter
G1 X83.928 Y111.788 E6.95988 ; perimeter
G1 X84.175 Y112.302 E6.99343 ; perimeter
G1 X84.339 Y112.890 E7.02932 ; perimeter
G1 X84.394 Y113.500 E7.06535 ; perimeter
G1 X84.339 Y114.109 E7.10129 ; perimeter
G1 X84.179 Y114.689 E7.13669 ; perimeter
G1 X83.915 Y115.239 E7.17261 ; perimeter
G1 X83.555 Y115.735 E7.20864 ; perimeter
G1 X83.113 Y116.156 E7.24456 ; perimeter
G1 X82.636 Y116.470 E7.27814 ; perimeter
G1 X82.310 Y116.628 E7.29946 ; perimeter
G1 X81.760 Y116.808 E7.33348 ; perimeter
G1 X81.198 Y116.885 E7.36687 ; perimeter
G1 X81.129 Y116.345 F4800.000 ; move to first perimeter point
G1 X80.615 Y116.322 E7.39709 F225.000 ; perimeter
G1 X80.116 Y116.207 E7.42723 ; perimeter
G1 X79.670 Y116.016 E7.45580 ; perimeter
G1 X79.421 Y115.867 E7.47284 ; perimeter
G1 X79.035 Y115.560 E7.50185 ; perimeter
G1 X78.696 Y115.174 E7.53208 ; perimeter
G1 X78.433 Y114.733 E7.56230 ; perimeter
G1 X78.261 Y114.270 E7.59131 ; perimeter
G1 X78.196 Y113.988 E7.60836 ; perimeter
G1 X78.153 Y113.504 E7.63692 ; perimeter
G1 X78.198 Y112.994 E7.66706 ; perimeter
G1 X78.334 Y112.499 E7.69729 ; perimeter
G1 X78.558 Y112.036 E7.72751 ; perimeter
G1 X78.848 Y111.638 E7.75651 ; perimeter
G1 X79.049 Y111.428 E7.77355 ; perimeter
G1 X79.428 Y111.126 E7.80212 ; perimeter
G1 X79.879 Y110.882 E7.83227 ; perimeter
G1 X80.368 Y110.723 E7.86250 ; perimeter
G1 X80.876 Y110.655 E7.89265 F225.000 ; perimeter
G1 X81.361 Y110.677 E7.92122 ; perimeter
G1 X81.646 Y110.729 E7.93826 ; perimeter
G1 X82.115 Y110.880 E7.96726 ; perimeter
G1 X82.568 Y111.123 E7.99748 ; perimeter
G1 X82.970 Y111.443 E8.02771 ; perimeter
G1 X83.294 Y111.816 E8.05673 ; perimeter
G1 X83.453 Y112.058 E8.07379 ; perimeter
G1 X83.664 Y112.495 E8.10234 ; perimeter
G1 X83.801 Y112.988 E8.13247 ; perimeter
G1 X83.848 Y113.500 E8.16270 ; perimeter
G1 X83.801 Y114.011 E8.19287 ; perimeter
G1 X83.667 Y114.497 E8.22254 ; perimeter
G1 X83.445 Y114.959 E8.25269 ; perimeter
G1 X83.143 Y115.375 E8.28292 ; perimeter
G1 X82.772 Y115.728 E8.31307 ; perimeter
G1 X82.367 Y115.996 E8.34164 ; perimeter
G1 X82.106 Y116.122 E8.35868 ; perimeter
G1 X81.638 Y116.275 E8.38768 ; perimeter
G1 X81.173 Y116.339 E8.41525 ; perimeter
G1 X81.104 Y115.799 F4800.000 ; move to first perimeter point
G1 X80.689 Y115.780 E8.43967 F225.000 ; perimeter
G1 X80.285 Y115.687 E8.46406 ; perimeter
G1 X79.917 Y115.530 E8.48761 ; perimeter
G1 X79.731 Y115.418 E8.50037 ; perimeter
G1 X79.412 Y115.165 E8.52435 ; perimeter
G1 X79.138 Y114.853 E8.54877 ; perimeter
G1 X78.926 Y114.496 E8.57318 ; perimeter
G1 X78.783 Y114.114 E8.59717 ; perimeter
G1 X78.735 Y113.903 E8.60993 ; perimeter
G1 X78.699 Y113.504 E8.63348 ; perimeter
G1 X78.735 Y113.091 E8.65787 ; perimeter
G1 X78.846 Y112.691 E8.68228 ; perimeter
G1 X79.026 Y112.317 E8.70670 ; perimeter
G1 X79.267 Y111.988 E8.73068 ; perimeter
G1 X79.417 Y111.831 E8.74344 ; perimeter
G1 X79.730 Y111.581 E8.76699 ; perimeter
G1 X80.094 Y111.384 E8.79138 ; perimeter
G1 X80.489 Y111.256 E8.81580 ; perimeter
G1 X80.900 Y111.201 E8.84019 F225.000 ; perimeter
G1 X81.300 Y111.219 E8.86374 ; perimeter
G1 X81.514 Y111.258 E8.87650 ; perimeter
G1 X81.902 Y111.383 E8.90048 ; perimeter
G1 X82.267 Y111.579 E8.92490 ; perimeter
G1 X82.592 Y111.838 E8.94931 ; perimeter
G1 X82.859 Y112.146 E8.97330 ; perimeter
G1 X82.979 Y112.327 E8.98607 ; perimeter
G1 X83.153 Y112.687 E9.00962 ; perimeter
G1 X83.264 Y113.087 E9.03400 ; perimeter
G1 X83.301 Y113.500 E9.05841 ; perimeter
G1 X83.264 Y113.913 E9.08281 ; perimeter
G1 X83.155 Y114.305 E9.10676 ; perimeter
G1 X82.976 Y114.679 E9.13114 ; perimeter
G1 X82.732 Y115.015 E9.15556 ; perimeter
G1 X82.432 Y115.301 E9.17995 ; perimeter
G1 X82.098 Y115.522 E9.20350 ; perimeter
G1 X81.902 Y115.616 E9.21627 ; perimeter
G1 X81.515 Y115.743 E9.24024 ; perimeter
G1 X81.148 Y115.793 E9.26201 ; perimeter
G1 X80.958 Y116.061 F4800.000 ; move inwards before travel
G1 X115.606 Y113.505 F4800.000 ; move to first perimeter point
G1 X115.660 Y112.897 E9.29791 F225.000 ; perimeter
G1 X115.823 Y112.306 E9.33395 ; perimeter
G1 X116.089 Y111.755 E9.36998 ; perimeter
G1 X116.449 Y111.262 E9.40585 ; perimeter
G1 X116.861 Y110.868 E9.43939 ; perimeter
G1 X117.155 Y110.655 E9.46075 ; perimeter
G1 X117.664 Y110.380 E9.49482 ; perimeter
G1 X118.247 Y110.191 E9.53085 ; perimeter
G1 X118.852 Y110.109 E9.56677 F225.000 ; perimeter
G1 X119.422 Y110.135 E9.60035 ; perimeter
G1 X119.779 Y110.200 E9.62167 ; perimeter
G1 X120.329 Y110.377 E9.65569 ; perimeter
G1 X120.869 Y110.667 E9.69172 ; perimeter
G1 X121.348 Y111.049 E9.72776 ; perimeter
G1 X121.748 Y111.509 E9.76366 ; perimeter
G1 X122.041 Y111.999 E9.79723 ; perimeter
G1 X122.184 Y112.332 E9.81856 ; perimeter
G1 X122.339 Y112.890 E9.85259 ; perimeter
