; Generated with MatterSlice 1.0
; filamentDiameter = 1.75
; extrusionWidth = 0.3
; firstLayerExtrusionWidth = 0.3
; layerThickness = 0.2
; firstLayerThickness = 0.25
; automatic settings before start_gcode
G21 ; set units to millimeters
M107 ; fan off
M190 S75 ; wait for bed temperature to be reached
M104 T0 S210 ; start heating extruder 1
T0 ; set the active extruder to 0
; settings from start_gcode
G28 ; home all axes
G1 Z5 F5000 ; lift nozzle
; automatic settings after start_gcode
M109 T0 S210 ; wait for extruder 1 to reach temperature
T0 ; set the active extruder to 0
G90 ; use absolute coordinates
G92 E0 ; reset the expected extruder position
M82 ; use absolute distance for extrusion
; Layer count: 28
; Layer Change GCode
; LAYER:0
G4 P0
M107
G0 F7800 X135.098 Y76.098 Z0.25
; TYPE:SKIRT
G1 F1800 E0
G1 F720 X135.886 Y78.884 E0.09028
G1 X136.451 Y81.728 E0.18069
G1 X136.791 Y84.605 E0.27103
G1 X136.9 Y87.374 E0.35743
G1 X136.9 Y112.627 E1.14486
G1 X136.791 Y115.395 E1.23123
G1 X136.451 Y118.272 E1.32157
G1 X135.886 Y121.116 E1.41198
G1 X135.098 Y123.902 E1.50226
G1 X133.076 Y129.4 E1.68492
G1 X66.924 Y129.4 E3.74763
G1 X64.902 Y123.902 E3.93029
G1 X64.114 Y121.116 E4.02057
G1 X63.549 Y118.272 E4.11098
G1 X63.209 Y115.395 E4.20132
G1 X63.1 Y112.627 E4.28769
G1 X63.1 Y87.364 E5.07543
G1 X63.219 Y84.519 E5.16422
G1 X63.549 Y81.73 E5.25179
G1 X64.114 Y78.885 E5.34223
G1 X64.902 Y76.098 E5.43254
G1 X66.924 Y70.6 E5.6152
G1 X133.076 Y70.6 E7.67791
G1 X135.098 Y76.098 E7.86058
G0 F7800 X134.813 Y76.19
G1 F720 X135.594 Y78.954 E7.95014
G1 X136.154 Y81.775 E8.03981
G1 X136.492 Y84.629 E8.12943
G1 X136.6 Y87.38 E8.21527
G1 X136.6 Y112.621 E9.00232
G1 X136.492 Y115.371 E9.08814
G1 X136.154 Y118.225 E9.17775
G1 X135.594 Y121.046 E9.26743
G1 X134.813 Y123.81 E9.35699
G1 X132.866 Y129.1 E9.53276
G1 X67.134 Y129.1 E11.58237
G1 X65.187 Y123.81 E11.75814
G1 X64.406 Y121.046 E11.8477
G1 X63.846 Y118.225 E11.93738
G1 X63.508 Y115.371 E12.02699
G1 X63.4 Y112.621 E12.11281
G1 X63.4 Y87.371 E12.90014
G1 X63.518 Y84.543 E12.98839
G1 X63.846 Y81.777 E13.07525
G1 X64.406 Y78.955 E13.16496
G1 X65.187 Y76.19 E13.25455
G1 X67.134 Y70.9 E13.43031
G1 X132.866 Y70.9 E15.47993
G1 X134.813 Y76.19 E15.65569
G0 F7800 X128.959 Y78.091
G1 F720 X129.609 Y80.392 E15.73025
G1 X130.075 Y82.737 E15.8048
G1 X130.356 Y85.112 E15.87937
G1 X130.45 Y87.501 E15.95392
G1 X130.347 Y89.967 E16.03088
G1 X130.075 Y92.262 E16.10294
G1 X129.609 Y94.609 E16.17756
G1 X128.959 Y96.91 E16.25211
G1 X128.576 Y97.95 E16.28667
G1 X71.424 Y97.95 E18.06875
G1 X71.041 Y96.91 E18.10331
G1 X70.391 Y94.609 E18.17786
G1 X69.925 Y92.264 E18.25241
G1 X69.644 Y89.889 E18.32698
G1 X69.55 Y87.499 E18.40156
G1 X69.653 Y85.034 E18.47849
G1 X69.925 Y82.739 E18.55056
G1 X70.391 Y80.392 E18.62517
G1 X71.041 Y78.091 E18.69972
G1 X71.424 Y77.05 E18.73431
G1 X128.576 Y77.05 E20.51639
G1 X128.959 Y78.091 E20.55098
G0 F7800 X128.674 Y78.184
G1 F720 X129.317 Y80.462 E20.62478
G1 X129.778 Y82.784 E20.6986
G1 X130.057 Y85.135 E20.77242
G1 X130.15 Y87.5 E20.84622
G1 X130.048 Y89.943 E20.92246
G1 X129.778 Y92.215 E20.99381
G1 X129.317 Y94.539 E21.06768
G1 X128.674 Y96.817 E21.14149
G1 X128.367 Y97.65 E21.16917
G1 X71.633 Y97.65 E22.93822
G1 X71.326 Y96.817 E22.9659
G1 X70.683 Y94.539 E23.03971
G1 X70.222 Y92.217 E23.11352
G1 X69.943 Y89.866 E23.18734
G1 X69.85 Y87.5 E23.26118
G1 X69.952 Y85.058 E23.33739
G1 X70.222 Y82.786 E23.40873
G1 X70.683 Y80.462 E23.48261
G1 X71.326 Y78.184 E23.55641
G1 X71.633 Y77.35 E23.58412
G1 X128.367 Y77.35 E25.35317
G1 X128.674 Y78.184 E25.38088
G0 F7800 X128.576 Y102.05
G1 F720 X128.959 Y103.09 E25.41544
G1 X129.609 Y105.391 E25.48999
G1 X130.075 Y107.736 E25.56454
G1 X130.356 Y110.111 E25.63912
G1 X130.45 Y112.5 E25.71367
G1 X130.356 Y114.888 E25.78818
G1 X130.075 Y117.263 E25.86276
G1 X129.609 Y119.608 E25.93731
G1 X128.959 Y121.909 E26.01186
G1 X128.576 Y122.95 E26.04645
G1 X105.5 Y122.95 E26.76599
G1 X105.5 Y112.762 E27.08367
G1 X105.543 Y112.507 E27.09173
G1 X105.242 Y110.699 E27.14888
G1 X104.374 Y109.094 E27.20578
G1 X103.031 Y107.859 E27.26267
G1 X101.359 Y107.125 E27.31961
G1 X99.543 Y106.974 E27.37643
G1 X97.775 Y107.422 E27.4333
G1 X96.245 Y108.422 E27.49029
G1 X95.126 Y109.859 E27.54708
G1 X94.532 Y111.588 E27.60409
G1 X94.532 Y112.95 E27.64656
G1 X94.5 Y112.95 E27.64756
G1 X94.5 Y122.95 E27.95937
G1 X71.424 Y122.95 E28.67891
G1 X71.041 Y121.909 E28.7135
G1 X70.391 Y119.608 E28.78805
G1 X69.925 Y117.263 E28.8626
G1 X69.644 Y114.888 E28.93718
G1 X69.55 Y112.5 E29.0117
G1 X69.644 Y110.111 E29.08625
G1 X69.925 Y107.736 E29.16082
G1 X70.391 Y105.391 E29.23537
G1 X71.041 Y103.09 E29.30992
G1 X71.424 Y102.05 E29.34448
G1 X128.576 Y102.05 E31.12656
G0 F7800 X128.367 Y102.35
G1 F720 X128.674 Y103.183 E31.15424
G1 X129.317 Y105.461 E31.22805
G1 X129.778 Y107.783 E31.30186
G1 X130.057 Y110.134 E31.37569
G1 X130.15 Y112.5 E31.44952
G1 X130.057 Y114.865 E31.52332
G1 X129.778 Y117.216 E31.59714
G1 X129.317 Y119.538 E31.67096
G1 X128.674 Y121.816 E31.74476
G1 X128.367 Y122.65 E31.77248
G1 X105.8 Y122.65 E32.47615
G1 X105.8 Y112.787 E32.78369
G1 X105.847 Y112.507 E32.79254
G1 X105.53 Y110.6 E32.85282
G1 X104.614 Y108.908 E32.91281
G1 X103.197 Y107.603 E32.97288
G1 X101.435 Y106.83 E33.03288
G1 X99.518 Y106.671 E33.09286
G1 X97.653 Y107.143 E33.15284
G1 X96.038 Y108.198 E33.21299
G1 X94.859 Y109.715 E33.2729
G1 X94.232 Y111.538 E33.33301
G1 X94.232 Y112.65 E33.36769
G1 X94.2 Y112.65 E33.36869
G1 X94.2 Y122.65 E33.6805
G1 X71.633 Y122.65 E34.38417
G1 X71.326 Y121.816 E34.41188
G1 X70.683 Y119.538 E34.48569
G1 X70.222 Y117.216 E34.5595
G1 X69.943 Y114.865 E34.63333
G1 X69.85 Y112.5 E34.70713
G1 X69.943 Y110.134 E34.78096
G1 X70.222 Y107.783 E34.85478
G1 X70.683 Y105.461 E34.9286
G1 X71.326 Y103.183 E35.0024
G1 X71.633 Y102.35 E35.03009
G1 X128.367 Y102.35 E36.79913
G1 F1800 E35.79913
G0 F7800 X71.843 Y97.35
; TYPE:WALL-OUTER
G1 F1800 E36.79913
G1 F720 X71.61 Y96.719 E36.8201
G1 X70.975 Y94.47 E36.89297
G1 X70.519 Y92.174 E36.96596
G1 X70.243 Y89.843 E37.03915
G1 X70.15 Y87.506 E37.11208
G1 X70.251 Y85.088 E37.18755
G1 X70.519 Y82.827 E37.25854
G1 X70.976 Y80.526 E37.33169
G1 X71.61 Y78.282 E37.4044
G1 X71.843 Y77.65 E37.4254
G1 X128.157 Y77.65 E39.18135
G1 X128.39 Y78.282 E39.20235
G1 X129.024 Y80.526 E39.27506
G1 X129.481 Y82.825 E39.34815
G1 X129.757 Y85.153 E39.42125
G1 X129.85 Y87.494 E39.4943
G1 X129.749 Y89.913 E39.5698
G1 X129.481 Y92.172 E39.64073
G1 X129.025 Y94.47 E39.71378
G1 X128.39 Y96.719 E39.78665
G1 X128.157 Y97.35 E39.80763
G1 X71.843 Y97.35 E41.56357
G0 F7800 X72.052 Y97.05
; TYPE:WALL-INNER
G1 F720 X71.897 Y96.631 E41.5775
G1 X71.266 Y94.397 E41.64989
G1 X70.816 Y92.129 E41.72199
G1 X70.542 Y89.822 E41.79443
G1 X70.451 Y87.5 E41.86689
G1 X70.551 Y85.102 E41.94172
G1 X70.816 Y82.874 E42.01169
G1 X71.266 Y80.604 E42.08384
G1 X71.897 Y78.37 E42.15623
G1 X72.052 Y77.95 E42.17019
G1 X127.948 Y77.95 E43.9131
G1 X128.103 Y78.37 E43.92706
G1 X128.734 Y80.604 E43.99945
G1 X129.184 Y82.872 E44.07155
G1 X129.458 Y85.179 E44.14399
G1 X129.549 Y87.499 E44.21638
G1 X129.449 Y89.899 E44.29128
G1 X129.184 Y92.127 E44.36124
G1 X128.734 Y94.397 E44.4334
G1 X128.103 Y96.631 E44.50579
G1 X127.948 Y97.05 E44.51972
G1 X72.052 Y97.05 E46.26263
G0 F7800 X72.261 Y96.75
G1 F720 X72.182 Y96.536 E46.26975
G1 X71.559 Y94.33 E46.34122
G1 X71.111 Y92.075 E46.41291
G1 X70.841 Y89.788 E46.48472
G1 X70.75 Y87.5 E46.55612
G1 X70.849 Y85.137 E46.62986
G1 X71.111 Y82.928 E46.69923
G1 X71.559 Y80.671 E46.77097
G1 X72.184 Y78.46 E46.84262
G1 X72.261 Y78.25 E46.84959
G1 X127.739 Y78.25 E48.57947
G1 X127.816 Y78.46 E48.58645
G1 X128.441 Y80.671 E48.65809
G1 X128.889 Y82.926 E48.72978
G1 X129.159 Y85.213 E48.80159
G1 X129.25 Y87.499 E48.87292
G1 X129.151 Y89.864 E48.94673
G1 X128.889 Y92.073 E49.01609
G1 X128.441 Y94.33 E49.08784
G1 X127.818 Y96.536 E49.15932
G1 X127.739 Y96.75 E49.16643
G1 X72.261 Y96.75 E50.89631
G0 F7800 X74.891 Y90.203
G0 X75.041 Y89.832
G0 X74.936 Y90.096
G0 X74.936 Y90.096
G0 X75 Y89.855
; TYPE:WALL-OUTER
G1 F720 X76.178 Y89.541 E50.93433
G1 X77.041 Y88.678 E50.97238
G1 X77.355 Y87.5 E51.0104
G1 X77.041 Y86.322 E51.04841
G1 X76.178 Y85.461 E51.08642
G1 X75 Y85.145 E51.12445
G1 X73.822 Y85.461 E51.16248
G1 X72.961 Y86.322 E51.20045
G1 X72.645 Y87.5 E51.23848
G1 X72.961 Y88.678 E51.27651
G1 X73.822 Y89.541 E51.31452
G1 X75 Y89.855 E51.35254
G0 F7800 X75 Y90.166
; TYPE:WALL-INNER
G1 F720 X76.333 Y89.81 E51.39556
G1 X77.31 Y88.833 E51.43864
G1 X77.666 Y87.5 E51.48166
G1 X77.31 Y86.167 E51.52469
G1 X76.333 Y85.192 E51.56773
G1 X75 Y84.834 E51.61076
G1 X73.667 Y85.192 E51.6538
G1 X72.692 Y86.167 E51.6968
G1 X72.334 Y87.5 E51.73983
G1 X72.692 Y88.833 E51.78287
G1 X73.667 Y89.81 E51.82591
G1 X75 Y90.166 E51.86893
G0 F7800 X75 Y90.476
G1 F720 X76.488 Y90.079 E51.91695
G1 X77.579 Y88.988 E51.96506
G1 X77.976 Y87.5 E52.01308
G1 X77.579 Y86.012 E52.0611
G1 X76.488 Y84.923 E52.10917
G1 X75 Y84.523 E52.15721
G1 X73.512 Y84.923 E52.20526
G1 X72.423 Y86.012 E52.25328
G1 X72.023 Y87.5 E52.30133
G1 X72.423 Y88.988 E52.34937
G1 X73.512 Y90.079 E52.39744
G1 X75 Y90.476 E52.44546
G0 F7800 X94.325 Y94.675
G0 X100 Y96.006
G0 X99.948 Y95.897
G0 X99.951 Y95.898
G0 X99.951 Y95.898
G0 X100 Y95.653
; TYPE:WALL-OUTER
G1 F720 X103.12 Y95.033 E52.54465
G1 X105.764 Y93.265 E52.64382
G1 X107.532 Y90.621 E52.743
G1 X108.153 Y87.5 E52.84223
G1 X107.532 Y84.38 E52.94142
G1 X105.764 Y81.736 E53.0406
G1 X103.12 Y79.968 E53.13977
G1 X100 Y79.347 E53.23897
G1 X96.88 Y79.968 E53.33816
G1 X94.236 Y81.736 E53.43734
G1 X92.468 Y84.38 E53.53652
G1 X91.847 Y87.5 E53.63571
G1 X92.468 Y90.621 E53.73494
G1 X94.236 Y93.265 E53.83411
G1 X96.88 Y95.033 E53.93329
G1 X100 Y95.653 E54.03248
G0 F7800 X100 Y95.959
; TYPE:WALL-INNER
G1 F720 X103.237 Y95.316 E54.13538
G1 X105.98 Y93.481 E54.23829
G1 X107.815 Y90.738 E54.34119
G1 X108.459 Y87.5 E54.44414
G1 X107.815 Y84.263 E54.54705
G1 X105.98 Y81.52 E54.64995
G1 X103.237 Y79.685 E54.75286
G1 X100 Y79.041 E54.85577
G1 X96.763 Y79.685 E54.95868
G1 X94.02 Y81.52 E55.06159
G1 X92.185 Y84.263 E55.16449
G1 X91.541 Y87.5 E55.2674
G1 X92.185 Y90.738 E55.37035
G1 X94.02 Y93.481 E55.47325
G1 X96.763 Y95.316 E55.57616
G1 X100 Y95.959 E55.67906
G0 F7800 X100 Y96.265
G1 F720 X103.354 Y95.599 E55.78569
G1 X106.197 Y93.698 E55.89233
G1 X108.097 Y90.855 E55.99895
G1 X108.765 Y87.5 E56.10562
G1 X108.097 Y84.146 E56.21225
G1 X106.197 Y81.303 E56.31888
G1 X103.354 Y79.403 E56.4255
G1 X100 Y78.735 E56.53214
G1 X96.646 Y79.403 E56.63877
G1 X93.803 Y81.303 E56.7454
G1 X91.903 Y84.146 E56.85202
G1 X91.235 Y87.5 E56.95866
G1 X91.903 Y90.855 E57.06532
G1 X93.803 Y93.698 E57.17195
G1 X96.646 Y95.599 E57.27859
G1 X100 Y96.265 E57.38521
G0 F7800 X121.249 Y91.007
G0 X121.637 Y90.911
G0 X124.936 Y90.096
G0 X124.936 Y90.096
G0 X125 Y89.855
; TYPE:WALL-OUTER
G1 F720 X126.178 Y89.541 E57.42322
G1 X127.039 Y88.678 E57.46124
G1 X127.355 Y87.5 E57.49927
G1 X127.039 Y86.322 E57.5373
G1 X126.178 Y85.461 E57.57526
G1 X125 Y85.145 E57.61329
G1 X123.822 Y85.461 E57.65132
G1 X122.959 Y86.322 E57.68934
G1 X122.645 Y87.5 E57.72735
G1 X122.959 Y88.678 E57.76536
G1 X123.822 Y89.541 E57.80342
G1 X125 Y89.855 E57.84143
G0 F7800 X125 Y90.166
; TYPE:WALL-INNER
G1 F720 X126.333 Y89.81 E57.88446
G1 X127.308 Y88.833 E57.9275
G1 X127.666 Y87.5 E57.97053
G1 X127.308 Y86.167 E58.01357
G1 X126.333 Y85.192 E58.05657
G1 X125 Y84.834 E58.0996
G1 X123.667 Y85.192 E58.14264
G1 X122.69 Y86.167 E58.18568
G1 X122.334 Y87.5 E58.2287
G1 X122.69 Y88.833 E58.27172
G1 X123.667 Y89.81 E58.31481
G1 X125 Y90.166 E58.35783
G0 F7800 X125 Y90.476
G1 F720 X126.488 Y90.079 E58.40585
G1 X127.577 Y88.988 E58.45391
G1 X127.977 Y87.5 E58.50196
G1 X127.577 Y86.012 E58.55
G1 X126.488 Y84.923 E58.59803
G1 X125 Y84.523 E58.64607
G1 X123.512 Y84.923 E58.69412
G1 X122.421 Y86.012 E58.74218
G1 X122.024 Y87.5 E58.7902
G1 X122.421 Y88.988 E58.83822
G1 X123.512 Y90.079 E58.88633
G1 X125 Y90.476 E58.93435
G0 F7800 X125.07 Y90.704
; TYPE:BOTTOM-FILL
G1 F720 X128.278 Y93.912 E59.07582
G0 F7800 X128.349 Y93.559
G1 F720 X125.405 Y90.615 E59.20564
G0 F7800 X125.74 Y90.526
G1 F720 X128.419 Y93.205 E59.32378
G0 F7800 X128.489 Y92.85
G1 F720 X126.075 Y90.436 E59.43023
G0 F7800 X126.41 Y90.347
G1 F720 X128.559 Y92.497 E59.52501
G0 F7800 X128.629 Y92.143
G1 F720 X126.696 Y90.209 E59.61028
G0 F7800 X126.907 Y89.997
G1 F720 X128.682 Y91.771 E59.68853
G0 F7800 X128.727 Y91.392
G1 F720 X127.12 Y89.784 E59.75941
G0 F7800 X127.332 Y89.572
G1 F720 X128.771 Y91.012 E59.82289
G0 F7800 X128.817 Y90.633
G1 F720 X127.543 Y89.359 E59.87907
G0 F7800 X127.755 Y89.147
G1 F720 X128.861 Y90.253 E59.92784
G0 F7800 X128.906 Y89.874
G1 F720 X127.866 Y88.833 E59.97372
G0 F7800 X127.955 Y88.499
G1 F720 X128.925 Y89.468 E60.01648
G0 F7800 X128.942 Y89.061
G1 F720 X128.046 Y88.165 E60.05599
G0 F7800 X128.136 Y87.831
G1 F720 X128.96 Y88.654 E60.0923
G0 F7800 X128.976 Y88.247
G1 F720 X128.223 Y87.494 E60.12551
G0 F7800 X128.067 Y86.914
G1 F720 X128.993 Y87.84 E60.16634
G0 F7800 X129.005 Y87.427
G1 F720 X127.911 Y86.333 E60.21458
G0 F7800 X128.952 Y86.102
G1 F720 X121.34 Y78.49 E60.55025
G0 F7800 X120.916 Y78.49
G1 F720 X128.97 Y86.544 E60.90541
G0 F7800 X128.987 Y86.985
G1 F720 X120.492 Y78.49 E61.28001
G0 F7800 X120.068 Y78.49
G1 F720 X126.165 Y84.587 E61.54887
G0 F7800 X125.585 Y84.432
G1 F720 X119.643 Y78.49 E61.8109
G0 F7800 X119.219 Y78.49
G1 F720 X125.005 Y84.275 E62.06602
G0 F7800 X124.668 Y84.363
G1 F720 X118.795 Y78.49 E62.325
G0 F7800 X118.371 Y78.49
G1 F720 X124.334 Y84.453 E62.58796
G0 F7800 X123.999 Y84.543
G1 F720 X117.946 Y78.49 E62.85488
G0 F7800 X117.522 Y78.49
G1 F720 X123.665 Y84.632 E63.12574
G0 F7800 X123.351 Y84.743
G1 F720 X117.098 Y78.49 E63.40148
G0 F7800 X116.674 Y78.49
G1 F720 X123.139 Y84.955 E63.68657
G0 F7800 X122.926 Y85.166
G1 F720 X116.249 Y78.49 E63.98098
G0 F7800 X115.825 Y78.49
G1 F720 X122.714 Y85.378 E64.28475
G0 F7800 X122.502 Y85.591
G1 F720 X115.401 Y78.49 E64.59788
G0 F7800 X114.976 Y78.49
G1 F720 X122.289 Y85.802 E64.92034
G0 F7800 X122.151 Y86.088
G1 F720 X114.552 Y78.49 E65.25541
G0 F7800 X114.128 Y78.49
G1 F720 X122.062 Y86.424 E65.60528
G0 F7800 X121.972 Y86.758
G1 F720 X113.704 Y78.49 E65.96987
G0 F7800 X113.279 Y78.49
G1 F720 X121.883 Y87.093 E66.34926
G0 F7800 X121.794 Y87.428
G1 F720 X112.855 Y78.49 E66.74343
G0 F7800 X112.431 Y78.49
G1 F720 X121.896 Y87.955 E67.16081
G0 F7800 X122.05 Y88.534
G1 F720 X112.007 Y78.49 E67.60369
G0 F7800 X111.582 Y78.49
G1 F720 X128.02 Y94.928 E68.32856
G0 F7800 X127.927 Y95.259
G1 F720 X111.158 Y78.49 E69.06803
G0 F7800 X110.734 Y78.49
G1 F720 X127.834 Y95.59 E69.82209
G0 F7800 X127.74 Y95.921
G1 F720 X110.31 Y78.49 E70.59072
G0 F7800 X109.885 Y78.49
G1 F720 X127.647 Y96.252 E71.37398
G0 F7800 X127.481 Y96.51
G1 F720 X109.461 Y78.49 E72.16861
G0 F7800 X109.037 Y78.49
G1 F720 X127.057 Y96.51 E72.96324
G0 F7800 X126.632 Y96.51
G1 F720 X108.613 Y78.49 E73.75785
G0 F7800 X108.188 Y78.49
G1 F720 X126.208 Y96.51 E74.55248
G0 F7800 X125.784 Y96.51
G1 F720 X107.764 Y78.49 E75.34711
G0 F7800 X107.34 Y78.49
G1 F720 X125.36 Y96.51 E76.14174
G0 F7800 X124.935 Y96.51
G1 F720 X106.915 Y78.49 E76.93637
G0 F7800 X106.491 Y78.49
G1 F720 X124.511 Y96.51 E77.731
G0 F7800 X124.087 Y96.51
G1 F720 X106.067 Y78.49 E78.52563
G0 F7800 X105.643 Y78.49
G1 F720 X123.663 Y96.51 E79.32026
G0 F7800 X123.238 Y96.51
G1 F720 X105.218 Y78.49 E80.11489
G0 F7800 X104.794 Y78.49
G1 F720 X122.814 Y96.51 E80.90952
G0 F7800 X122.39 Y96.51
G1 F720 X104.37 Y78.49 E81.70415
G0 F7800 X103.946 Y78.49
G1 F720 X121.966 Y96.51 E82.49878
G0 F7800 X121.541 Y96.51
G1 F720 X106.788 Y81.757 E83.14934
G0 F7800 X105.742 Y80.71
G1 F720 X103.521 Y78.49 E83.24726
G0 F7800 X103.097 Y78.49
G1 F720 X104.463 Y79.855 E83.30748
G0 F7800 X103.337 Y79.154
G1 F720 X102.673 Y78.49 E83.33676
G0 F7800 X102.249 Y78.49
G1 F720 X102.808 Y79.049 E83.36141
G0 F7800 X102.278 Y78.943
G1 F720 X101.824 Y78.49 E83.3814
G0 F7800 X101.748 Y78.838
G1 F720 X101.309 Y78.611 E83.39671
G1 X100.832 Y78.558 E83.40739
G1 X100.553 Y78.491 E83.41633
G0 F7800 X99.398 Y78.609
G1 F720 X99.161 Y78.584 E83.42161
G1 X98.772 Y78.619 E83.42997
G1 X98.383 Y78.655 E83.44146
G1 X97.994 Y78.69 E83.45608
G1 X97.581 Y78.489 E83.4704
G0 F7800 X97.157 Y78.489
G1 F720 X97.629 Y78.961 E83.49121
G0 F7800 X97.275 Y79.032
G1 F720 X96.732 Y78.489 E83.51516
G0 F7800 X96.308 Y78.489
G1 F720 X96.922 Y79.103 E83.54223
G0 F7800 X96.568 Y79.174
G1 F720 X95.884 Y78.489 E83.57242
G0 F7800 X95.46 Y78.489
G1 F720 X96.309 Y79.338 E83.60986
G0 F7800 X96.055 Y79.509
G1 F720 X95.035 Y78.489 E83.65484
G0 F7800 X94.611 Y78.489
G1 F720 X95.8 Y79.678 E83.70727
G0 F7800 X95.546 Y79.848
G1 F720 X94.187 Y78.489 E83.7672
G0 F7800 X93.763 Y78.489
G1 F720 X95.291 Y80.018 E83.8346
G0 F7800 X95.037 Y80.188
G1 F720 X93.338 Y78.489 E83.90952
G0 F7800 X92.914 Y78.489
G1 F720 X94.783 Y80.358 E83.99194
G0 F7800 X94.528 Y80.528
G1 F720 X92.49 Y78.489 E84.08183
G0 F7800 X92.066 Y78.489
G1 F720 X94.275 Y80.698 E84.17924
G0 F7800 X94.02 Y80.868
G1 F720 X91.641 Y78.489 E84.28415
G0 F7800 X91.217 Y78.489
G1 F720 X93.765 Y81.037 E84.39651
G0 F7800 X93.55 Y81.246
G1 F720 X90.793 Y78.489 E84.51808
G0 F7800 X90.368 Y78.489
G1 F720 X93.38 Y81.501 E84.6509
G0 F7800 X93.21 Y81.755
G1 F720 X89.944 Y78.489 E84.79492
G0 F7800 X89.52 Y78.489
G1 F720 X93.041 Y82.01 E84.95019
G0 F7800 X92.87 Y82.264
G1 F720 X89.096 Y78.489 E85.11663
G0 F7800 X88.671 Y78.489
G1 F720 X92.7 Y82.518 E85.2943
G0 F7800 X92.531 Y82.773
G1 F720 X88.247 Y78.489 E85.48321
G0 F7800 X87.823 Y78.489
G1 F720 X92.36 Y83.027 E85.6833
G0 F7800 X92.191 Y83.281
G1 F720 X87.399 Y78.489 E85.89462
G0 F7800 X86.974 Y78.489
G1 F720 X92.021 Y83.536 E86.11718
G0 F7800 X91.851 Y83.79
G1 F720 X86.55 Y78.489 E86.35093
G0 F7800 X86.126 Y78.489
G1 F720 X91.681 Y84.044 E86.59589
G0 F7800 X91.607 Y84.395
G1 F720 X85.701 Y78.488 E86.85635
G0 F7800 X85.277 Y78.488
G1 F720 X91.537 Y84.749 E87.13242
G0 F7800 X91.467 Y85.103
G1 F720 X84.852 Y78.488 E87.42413
G0 F7800 X84.428 Y78.488
G1 F720 X91.396 Y85.456 E87.73139
G0 F7800 X91.325 Y85.81
G1 F720 X84.004 Y78.488 E88.05425
G0 F7800 X83.58 Y78.488
G1 F720 X91.255 Y86.164 E88.39272
G0 F7800 X91.184 Y86.518
G1 F720 X83.155 Y78.488 E88.7468
G0 F7800 X82.731 Y78.488
G1 F720 X91.114 Y86.871 E89.11646
G0 F7800 X91.043 Y87.225
G1 F720 X82.307 Y78.488 E89.50172
G0 F7800 X81.882 Y78.488
G1 F720 X91.012 Y87.618 E89.90432
G0 F7800 X91.118 Y88.148
G1 F720 X81.458 Y78.488 E90.3303
G0 F7800 X81.034 Y78.488
G1 F720 X91.223 Y88.678 E90.77963
G0 F7800 X91.329 Y89.207
G1 F720 X80.61 Y78.488 E91.25231
G0 F7800 X80.185 Y78.488
G1 F720 X91.435 Y89.738 E91.7484
G0 F7800 X91.54 Y90.267
G1 F720 X79.761 Y78.488 E92.26782
G0 F7800 X79.337 Y78.488
G1 F720 X91.645 Y90.797 E92.81059
G0 F7800 X92.287 Y91.863
G1 F720 X78.913 Y78.488 E93.40037
G0 F7800 X78.488 Y78.488
G1 F720 X93.144 Y93.144 E94.04665
G0 F7800 X94.356 Y94.356
G0 X94.356 Y94.356
G1 F720 X96.51 Y96.51 E94.14164
G0 F7800 X96.934 Y96.51
G1 F720 X95.637 Y95.213 E94.19883
G0 F7800 X96.703 Y95.855
G1 F720 X97.358 Y96.51 E94.22772
G0 F7800 X97.782 Y96.51
G1 F720 X97.233 Y95.96 E94.25195
G0 F7800 X97.762 Y96.065
G1 F720 X98.207 Y96.51 E94.27157
G0 F7800 X98.292 Y96.17
G1 F720 X98.726 Y96.393 E94.28653
G1 X99.203 Y96.445 E94.29681
G1 X99.446 Y96.476 E94.30444
G0 F7800 X100.627 Y96.385
G1 F720 X100.866 Y96.412 E94.30994
G1 X101.256 Y96.377 E94.31853
G1 X101.645 Y96.342 E94.33018
G1 X102.034 Y96.307 E94.345
G1 X102.449 Y96.51 E94.35941
G0 F7800 X102.874 Y96.51
G1 F720 X102.397 Y96.033 E94.38044
G0 F7800 X102.751 Y95.963
G1 F720 X103.298 Y96.51 E94.40456
G0 F7800 X103.722 Y96.51
G1 F720 X103.105 Y95.892 E94.43179
G0 F7800 X103.456 Y95.819
G1 F720 X104.146 Y96.51 E94.46224
G0 F7800 X104.571 Y96.51
G1 F720 X103.709 Y95.648 E94.50025
G0 F7800 X103.964 Y95.479
G1 F720 X104.995 Y96.51 E94.54572
G0 F7800 X105.419 Y96.51
G1 F720 X104.219 Y95.309 E94.59865
G0 F7800 X104.472 Y95.139
G1 F720 X105.843 Y96.51 E94.65911
G0 F7800 X106.268 Y96.51
G1 F720 X104.727 Y94.969 E94.72707
G0 F7800 X104.981 Y94.798
G1 F720 X106.692 Y96.51 E94.80254
G0 F7800 X107.116 Y96.51
G1 F720 X105.235 Y94.629 E94.88548
G0 F7800 X105.489 Y94.458
G1 F720 X107.541 Y96.51 E94.97597
G0 F7800 X107.965 Y96.51
G1 F720 X105.744 Y94.289 E95.07391
G0 F7800 X105.998 Y94.118
G1 F720 X108.389 Y96.51 E95.17937
G0 F7800 X108.813 Y96.51
G1 F720 X106.252 Y93.949 E95.2923
G0 F7800 X106.461 Y93.733
G1 F720 X109.238 Y96.51 E95.41476
G0 F7800 X109.662 Y96.51
G1 F720 X106.63 Y93.478 E95.54846
G0 F7800 X106.801 Y93.224
G1 F720 X110.086 Y96.51 E95.69334
G0 F7800 X110.51 Y96.51
G1 F720 X106.971 Y92.97 E95.84943
G0 F7800 X107.14 Y92.715
G1 F720 X110.935 Y96.51 E96.01677
G0 F7800 X111.359 Y96.51
G1 F720 X107.311 Y92.461 E96.1953
G0 F7800 X107.48 Y92.207
G1 F720 X111.783 Y96.51 E96.38505
G0 F7800 X112.207 Y96.51
G1 F720 X107.65 Y91.952 E96.58602
G0 F7800 X107.821 Y91.699
G1 F720 X112.632 Y96.51 E96.79818
G0 F7800 X113.056 Y96.51
G1 F720 X107.99 Y91.444 E97.02157
G0 F7800 X108.161 Y91.19
G1 F720 X113.48 Y96.51 E97.25615
G0 F7800 X113.905 Y96.51
G1 F720 X108.325 Y90.931 E97.50219
G0 F7800 X108.396 Y90.577
G1 F720 X114.329 Y96.51 E97.76381
G0 F7800 X114.753 Y96.51
G1 F720 X108.466 Y90.223 E98.04105
G0 F7800 X108.537 Y89.869
G1 F720 X115.177 Y96.51 E98.33388
G0 F7800 X115.602 Y96.51
G1 F720 X108.607 Y89.515 E98.64234
G0 F7800 X108.678 Y89.161
G1 F720 X116.026 Y96.51 E98.96639
G0 F7800 X116.45 Y96.51
G1 F720 X108.748 Y88.808 E99.30602
G0 F7800 X108.818 Y88.454
G1 F720 X116.874 Y96.51 E99.66127
G0 F7800 X117.299 Y96.51
G1 F720 X108.889 Y88.1 E100.03213
G0 F7800 X108.96 Y87.747
G1 F720 X117.723 Y96.51 E100.41855
G0 F7800 X118.147 Y96.51
G1 F720 X108.977 Y87.339 E100.82294
G0 F7800 X108.871 Y86.81
G1 F720 X118.571 Y96.51 E101.25068
G0 F7800 X118.996 Y96.51
G1 F720 X108.765 Y86.279 E101.70184
G0 F7800 X108.66 Y85.75
G1 F720 X119.42 Y96.51 E102.17633
G0 F7800 X119.844 Y96.51
G1 F720 X108.555 Y85.22 E102.67416
G0 F7800 X108.449 Y84.69
G1 F720 X120.268 Y96.51 E103.19537
G0 F7800 X120.693 Y96.51
G1 F720 X108.344 Y84.161 E103.73992
G0 F7800 X107.643 Y83.036
G1 F720 X121.117 Y96.51 E104.33409
G0 F7800 X123.965 Y90.448
G0 X123.965 Y90.448
G1 F720 X128.114 Y94.597 E104.51705
G0 F7800 X128.207 Y94.266
G1 F720 X124.543 Y90.602 E104.67862
G0 F7800 X124.955 Y90.136
G0 X126.355 Y89.848
G0 X127.347 Y88.854
G0 X127.711 Y87.5
G0 X127.593 Y87.168
G0 X128.935 Y85.66
G0 X128.935 Y85.66
G1 F720 X121.765 Y78.49 E104.99479
G0 F7800 X122.189 Y78.49
G1 F720 X128.916 Y85.217 E105.29144
G0 F7800 X128.86 Y84.736
G1 F720 X122.613 Y78.49 E105.56689
G0 F7800 X123.037 Y78.49
G1 F720 X128.803 Y84.255 E105.82113
G0 F7800 X128.745 Y83.773
G1 F720 X123.462 Y78.49 E106.0541
G0 F7800 X123.886 Y78.49
G1 F720 X128.689 Y83.292 E106.26587
G0 F7800 X128.617 Y82.797
G1 F720 X124.31 Y78.49 E106.4558
G0 F7800 X124.735 Y78.49
G1 F720 X128.513 Y82.268 E106.6224
G0 F7800 X128.407 Y81.738
G1 F720 X125.159 Y78.49 E106.76562
G0 F7800 X125.583 Y78.49
G1 F720 X128.303 Y81.209 E106.88555
G0 F7800 X128.191 Y80.673
G1 F720 X126.007 Y78.49 E106.98183
G0 F7800 X126.432 Y78.49
G1 F720 X128.023 Y80.081 E107.05199
G0 F7800 X127.856 Y79.49
G1 F720 X126.856 Y78.49 E107.09609
G0 F7800 X127.28 Y78.49
G1 F720 X127.688 Y78.898 E107.11408
G0 F7800 X107.988 Y89.875
G0 X107.858 Y90.755
G0 X106.013 Y93.514
G0 X103.254 Y95.359
G0 X100 Y96.006
G0 X97.868 Y95.514
G0 X96.085 Y96.51
G0 X96.085 Y96.51
G1 F720 X78.064 Y78.488 E107.90878
G0 F7800 X77.64 Y78.488
G1 F720 X95.661 Y96.51 E108.70347
G0 F7800 X95.237 Y96.51
G1 F720 X77.216 Y78.488 E109.49817
G0 F7800 X76.791 Y78.488
G1 F720 X94.813 Y96.51 E110.29289
G0 F7800 X94.388 Y96.51
G1 F720 X76.367 Y78.488 E111.08758
G0 F7800 X75.943 Y78.488
G1 F720 X93.964 Y96.51 E111.88228
G0 F7800 X93.54 Y96.51
G1 F720 X75.519 Y78.488 E112.67698
G0 F7800 X75.094 Y78.488
G1 F720 X93.116 Y96.51 E113.4717
G0 F7800 X92.691 Y96.51
G1 F720 X74.67 Y78.488 E114.26639
G0 F7800 X74.246 Y78.488
G1 F720 X92.267 Y96.51 E115.06109
G0 F7800 X91.843 Y96.51
G1 F720 X73.821 Y78.488 E115.85581
G0 F7800 X73.397 Y78.488
G1 F720 X91.419 Y96.51 E116.65052
G0 F7800 X90.994 Y96.51
G1 F720 X72.973 Y78.488 E117.44522
G0 F7800 X72.549 Y78.488
G1 F720 X90.57 Y96.51 E118.23992
G0 F7800 X90.146 Y96.51
G1 F720 X72.359 Y78.723 E119.02427
G0 F7800 X72.266 Y79.054
G1 F720 X89.721 Y96.51 E119.79401
G0 F7800 X89.297 Y96.51
G1 F720 X72.172 Y79.385 E120.54917
G0 F7800 X72.079 Y79.716
G1 F720 X88.873 Y96.51 E121.28974
G0 F7800 X88.449 Y96.51
G1 F720 X71.985 Y80.046 E122.01576
G0 F7800 X71.892 Y80.377
G1 F720 X76.078 Y84.563 E122.20035
G0 F7800 X75.497 Y84.407
G1 F720 X71.798 Y80.708 E122.36346
G0 F7800 X71.726 Y81.06
G1 F720 X74.951 Y84.285 E122.50567
G0 F7800 X74.618 Y84.376
G1 F720 X71.656 Y81.414 E122.63629
G0 F7800 X71.586 Y81.768
G1 F720 X74.283 Y84.466 E122.75524
G0 F7800 X73.949 Y84.556
G1 F720 X71.515 Y82.121 E122.8626
G0 F7800 X71.445 Y82.476
G1 F720 X73.615 Y84.646 E122.95829
G0 F7800 X73.319 Y84.775
G1 F720 X71.374 Y82.829 E123.04408
G0 F7800 X71.32 Y83.2
G1 F720 X73.107 Y84.987 E123.12288
G0 F7800 X72.895 Y85.199
G1 F720 X71.275 Y83.579 E123.19432
G0 F7800 X71.23 Y83.958
G1 F720 X72.683 Y85.411 E123.25839
G0 F7800 X72.471 Y85.623
G1 F720 X71.185 Y84.338 E123.31508
G0 F7800 X71.14 Y84.717
G1 F720 X72.259 Y85.835 E123.3644
G0 F7800 X72.139 Y86.14
G1 F720 X71.095 Y85.096 E123.41044
G0 F7800 X71.074 Y85.499
G1 F720 X72.049 Y86.474 E123.45343
G0 F7800 X71.96 Y86.809
G1 F720 X71.057 Y85.906 E123.49325
G0 F7800 X71.04 Y86.313
G1 F720 X71.869 Y87.143 E123.52983
G0 F7800 X71.779 Y87.477
G1 F720 X71.023 Y86.72 E123.56319
G0 F7800 X71.006 Y87.128
G1 F720 X71.92 Y88.042 E123.6035
G0 F7800 X72.076 Y88.623
G1 F720 X70.992 Y87.538 E123.65132
G0 F7800 X71.009 Y87.98
G1 F720 X79.538 Y96.509 E124.02742
G0 F7800 X79.114 Y96.509
G1 F720 X71.027 Y88.422 E124.38404
G0 F7800 X71.045 Y88.864
G1 F720 X78.69 Y96.509 E124.72116
G0 F7800 X78.266 Y96.509
G1 F720 X71.062 Y89.306 E125.03881
G0 F7800 X71.08 Y89.748
G1 F720 X77.841 Y96.509 E125.33695
G0 F7800 X77.417 Y96.509
G1 F720 X71.134 Y90.226 E125.61402
G0 F7800 X71.191 Y90.707
G1 F720 X76.993 Y96.509 E125.86987
G0 F7800 X76.569 Y96.509
G1 F720 X71.248 Y91.188 E126.10451
G0 F7800 X71.304 Y91.669
G1 F720 X76.144 Y96.509 E126.31794
G0 F7800 X75.72 Y96.509
G1 F720 X71.372 Y92.161 E126.50967
G0 F7800 X71.477 Y92.691
G1 F720 X75.296 Y96.509 E126.67806
G0 F7800 X74.872 Y96.509
G1 F720 X71.582 Y93.22 E126.82311
G0 F7800 X71.687 Y93.749
G1 F720 X74.447 Y96.509 E126.94482
G0 F7800 X74.023 Y96.509
G1 F720 X71.795 Y94.281 E127.04307
G0 F7800 X71.962 Y94.872
G1 F720 X73.599 Y96.509 E127.11526
G0 F7800 X73.174 Y96.509
G1 F720 X72.129 Y95.464 E127.16134
G0 F7800 X72.297 Y96.056
G1 F720 X72.75 Y96.509 E127.18132
G0 F7800 X74.456 Y90.578
G0 X74.456 Y90.578
G1 F720 X80.387 Y96.509 E127.44286
G0 F7800 X80.811 Y96.509
G1 F720 X75.019 Y90.717 E127.69827
G0 F7800 X75.354 Y90.628
G1 F720 X81.235 Y96.509 E127.9576
G0 F7800 X81.66 Y96.509
G1 F720 X75.69 Y90.539 E128.22086
G0 F7800 X76.025 Y90.45
G1 F720 X82.084 Y96.509 E128.48805
G0 F7800 X82.508 Y96.509
G1 F720 X76.36 Y90.361 E128.75915
G0 F7800 X76.665 Y90.241
G1 F720 X82.933 Y96.509 E129.03556
G0 F7800 X83.357 Y96.509
G1 F720 X76.877 Y90.029 E129.3213
G0 F7800 X77.089 Y89.817
G1 F720 X83.781 Y96.509 E129.6164
G0 F7800 X84.205 Y96.509
G1 F720 X77.301 Y89.605 E129.92085
G0 F7800 X77.513 Y89.393
G1 F720 X84.63 Y96.509 E130.23467
G0 F7800 X85.054 Y96.509
G1 F720 X77.725 Y89.181 E130.55783
G0 F7800 X77.854 Y88.885
G1 F720 X85.478 Y96.509 E130.89403
G0 F7800 X85.902 Y96.509
G1 F720 X77.943 Y88.55 E131.245
G0 F7800 X78.033 Y88.215
G1 F720 X86.327 Y96.51 E131.61076
G0 F7800 X86.752 Y96.51
G1 F720 X78.122 Y87.88 E131.99132
G0 F7800 X78.211 Y87.545
G1 F720 X87.176 Y96.51 E132.38665
G0 F7800 X87.6 Y96.51
G1 F720 X78.09 Y87 E132.80601
G0 F7800 X77.936 Y86.421
G1 F720 X88.024 Y96.51 E133.25089
G0 F7800 X79.963 Y96.509
G0 X79.963 Y96.509
G1 F720 X73.877 Y90.424 E133.51924
G1 F1800 E132.51924
G0 F7800 X106.151 Y112.507
; TYPE:WALL-OUTER
G1 F1800 E133.51924
G1 F720 X105.818 Y110.502 E133.58262
G1 X104.854 Y108.721 E133.64576
G1 X103.364 Y107.35 E133.7089
G1 X101.509 Y106.536 E133.77206
G1 X99.492 Y106.368 E133.83517
G1 X97.529 Y106.866 E133.89832
G1 X95.834 Y107.973 E133.96145
G1 X94.59 Y109.572 E134.02462
G1 X93.932 Y111.487 E134.08776
G1 X93.932 Y112.35 E134.11467
G1 X93.9 Y112.35 E134.11567
G1 X93.9 Y122.35 E134.42748
G1 X71.843 Y122.35 E135.11525
G1 X71.61 Y121.718 E135.13625
G1 X70.975 Y119.469 E135.20912
G1 X70.519 Y117.173 E135.28211
G1 X70.243 Y114.842 E135.3553
G1 X70.15 Y112.506 E135.4282
G1 X70.243 Y110.152 E135.50166
G1 X70.519 Y107.824 E135.57476
G1 X70.976 Y105.525 E135.64784
G1 X71.61 Y103.281 E135.72055
G1 X71.843 Y102.65 E135.74153
G1 X128.157 Y102.65 E137.49748
G1 X128.39 Y103.281 E137.51845
G1 X129.024 Y105.525 E137.59116
G1 X129.481 Y107.824 E137.66425
G1 X129.757 Y110.152 E137.73735
G1 X129.85 Y112.494 E137.81043
G1 X129.757 Y114.842 E137.8837
G1 X129.481 Y117.173 E137.95689
G1 X129.025 Y119.469 E138.02988
G1 X128.39 Y121.718 E138.10275
G1 X128.157 Y122.35 E138.12376
G1 X106.1 Y122.35 E138.81152
G1 X106.1 Y112.812 E139.10893
G1 X106.151 Y112.507 E139.11857
G0 F7800 X106.455 Y112.507
; TYPE:WALL-INNER
G1 F720 X106.106 Y110.403 E139.18508
G1 X105.094 Y108.534 E139.25135
G1 X103.531 Y107.095 E139.3176
G1 X101.584 Y106.241 E139.38389
G1 X99.467 Y106.065 E139.45013
G1 X97.407 Y106.587 E139.51639
G1 X95.628 Y107.749 E139.58265
G1 X94.323 Y109.427 E139.64893
G1 X93.632 Y111.437 E139.71521
G1 X93.632 Y112.05 E139.73432
G1 X93.6 Y112.05 E139.73532
G1 X93.6 Y122.05 E140.04713
G1 X72.052 Y122.05 E140.71903
G1 X71.897 Y121.63 E140.73299
G1 X71.266 Y119.396 E140.80537
G1 X70.816 Y117.128 E140.87747
G1 X70.542 Y114.821 E140.94991
G1 X70.451 Y112.5 E141.02234
G1 X70.542 Y110.178 E141.0948
G1 X70.816 Y107.871 E141.16724
G1 X71.266 Y105.603 E141.23934
G1 X71.897 Y103.369 E141.31172
G1 X72.052 Y102.95 E141.32565
G1 X127.948 Y102.95 E143.06857
G1 X128.103 Y103.369 E143.0825
G1 X128.734 Y105.603 E143.15488
G1 X129.184 Y107.871 E143.22698
G1 X129.458 Y110.178 E143.29942
G1 X129.549 Y112.5 E143.37188
G1 X129.458 Y114.821 E143.44431
G1 X129.184 Y117.128 E143.51675
G1 X128.734 Y119.396 E143.58884
G1 X128.103 Y121.63 E143.66123
G1 X127.948 Y122.05 E143.67519
G1 X106.4 Y122.05 E144.34708
G1 X106.4 Y112.837 E144.63436
G1 X106.455 Y112.507 E144.64479
G0 F7800 X106.759 Y112.508
G1 F720 X106.393 Y110.304 E144.71446
G1 X105.334 Y108.347 E144.78384
G1 X103.697 Y106.84 E144.85322
G1 X101.659 Y105.946 E144.92261
G1 X99.442 Y105.762 E144.99198
G1 X97.285 Y106.309 E145.06137
G1 X95.422 Y107.526 E145.13075
G1 X94.055 Y109.282 E145.20014
G1 X93.332 Y111.387 E145.26954
G1 X93.332 Y111.75 E145.28086
G1 X93.3 Y111.75 E145.28186
G1 X93.3 Y121.75 E145.59367
G1 X72.261 Y121.75 E146.2497
G1 X72.184 Y121.54 E146.25667
G1 X71.559 Y119.329 E146.32832
G1 X71.111 Y117.074 E146.40001
G1 X70.841 Y114.787 E146.47181
G1 X70.75 Y112.5 E146.54318
G1 X70.841 Y110.212 E146.61458
G1 X71.111 Y107.925 E146.68639
G1 X71.559 Y105.67 E146.75807
G1 X72.182 Y103.464 E146.82955
G1 X72.261 Y103.25 E146.83666
G1 X127.739 Y103.25 E148.56654
G1 X127.818 Y103.464 E148.57366
G1 X128.441 Y105.67 E148.64513
G1 X128.889 Y107.925 E148.71682
G1 X129.159 Y110.212 E148.78863
G1 X129.25 Y112.5 E148.86003
G1 X129.159 Y114.787 E148.9314
G1 X128.889 Y117.074 E149.0032
G1 X128.441 Y119.329 E149.07489
G1 X127.816 Y121.54 E149.14654
G1 X127.739 Y121.75 E149.15351
G1 X106.7 Y121.75 E149.80954
G1 X106.7 Y112.863 E150.08664
G1 X106.759 Y112.508 E150.09787
G0 F7800 X124.573 Y115.044
G0 X124.969 Y115.1
G0 X124.936 Y115.096
G0 X124.936 Y115.096
G0 X125 Y114.855
; TYPE:WALL-OUTER
G1 F720 X126.178 Y114.539 E150.1359
G1 X127.039 Y113.678 E150.17386
G1 X127.355 Y112.5 E150.21189
G1 X127.039 Y111.322 E150.24992
G1 X126.178 Y110.459 E150.28794
G1 X125 Y110.145 E150.32595
G1 X123.822 Y110.459 E150.36396
G1 X122.959 Y111.322 E150.40202
G1 X122.645 Y112.5 E150.44003
G1 X122.959 Y113.678 E150.47805
G1 X123.822 Y114.539 E150.51606
G1 X125 Y114.855 E150.55409
G0 F7800 X125 Y115.166
; TYPE:WALL-INNER
G1 F720 X126.333 Y114.808 E150.59713
G1 X127.308 Y113.833 E150.64012
G1 X127.666 Y112.5 E150.68316
G1 X127.308 Y111.167 E150.7262
G1 X126.333 Y110.19 E150.76924
G1 X125 Y109.834 E150.81226
G1 X123.667 Y110.19 E150.85528
G1 X122.69 Y111.167 E150.89836
G1 X122.334 Y112.5 E150.94138
G1 X122.69 Y113.833 E150.98441
G1 X123.667 Y114.808 E151.02744
G1 X125 Y115.166 E151.07048
G0 F7800 X125 Y115.477
G1 F720 X126.488 Y115.077 E151.11853
G1 X127.577 Y113.988 E151.16655
G1 X127.977 Y112.5 E151.21459
G1 X127.577 Y111.012 E151.26264
G1 X126.488 Y109.921 E151.31071
G1 X125 Y109.524 E151.35873
G1 X123.512 Y109.921 E151.40675
G1 X122.421 Y111.012 E151.45486
G1 X122.024 Y112.5 E151.50288
G1 X122.421 Y113.988 E151.5509
G1 X123.512 Y115.077 E151.59896
G1 X125 Y115.477 E151.64701
G1 F1800 E150.64701
G0 F7800 X106.45 Y115.335
G0 X106.449 Y112.841
G0 X106.503 Y112.507
G0 X106.151 Y110.388
G0 X105.131 Y108.505
G0 X103.556 Y107.055
G0 X101.596 Y106.195
G0 X99.464 Y106.018
G0 X97.388 Y106.543
G0 X95.596 Y107.714
G0 X94.282 Y109.404
G0 X93.585 Y111.43
G0 X93.641 Y112.059
G0 X93.609 Y112.059
G0 X93.549 Y115.237
G0 X75.529 Y115.1
G0 X75.129 Y115.097
G0 X74.936 Y115.096
G0 X74.936 Y115.096
G0 X75 Y114.855
; TYPE:WALL-OUTER
G1 F1800 E151.64701
G1 F720 X76.178 Y114.539 E151.68504
G1 X77.041 Y113.678 E151.72305
G1 X77.355 Y112.5 E151.76107
G1 X77.041 Y111.322 E151.79908
G1 X76.178 Y110.459 E151.83714
G1 X75 Y110.145 E151.87515
G1 X73.822 Y110.459 E151.91316
G1 X72.961 Y111.322 E151.95118
G1 X72.645 Y112.5 E151.98921
G1 X72.961 Y113.678 E152.02724
G1 X73.822 Y114.539 E152.0652
G1 X75 Y114.855 E152.10323
G0 F7800 X75 Y115.166
; TYPE:WALL-INNER
G1 F720 X76.333 Y114.808 E152.14627
G1 X77.31 Y113.833 E152.18931
G1 X77.666 Y112.5 E152.23233
G1 X77.31 Y111.167 E152.27535
G1 X76.333 Y110.19 E152.31844
G1 X75 Y109.834 E152.36146
G1 X73.667 Y110.19 E152.40448
G1 X72.692 Y111.167 E152.44752
G1 X72.334 Y112.5 E152.49056
G1 X72.692 Y113.833 E152.53359
G1 X73.667 Y114.808 E152.57659
G1 X75 Y115.166 E152.61963
G0 F7800 X75 Y115.477
G1 F720 X76.488 Y115.077 E152.66767
G1 X77.579 Y113.988 E152.71574
G1 X77.976 Y112.5 E152.76376
G1 X77.579 Y111.012 E152.81178
G1 X76.488 Y109.921 E152.85989
G1 X75 Y109.524 E152.90791
G1 X73.512 Y109.921 E152.95593
G1 X72.423 Y111.012 E153.004
G1 X72.023 Y112.5 E153.05204
G1 X72.423 Y113.988 E153.10009
G1 X73.512 Y115.077 E153.14811
G1 X75 Y115.477 E153.19615
G0 F7800 X74.994 Y115.723
; TYPE:BOTTOM-FILL
G1 F720 X80.779 Y121.509 E153.45128
G0 F7800 X80.355 Y121.509
G1 F720 X74.413 Y115.567 E153.7133
G0 F7800 X73.833 Y115.411
G1 F720 X79.931 Y121.509 E153.98221
G0 F7800 X79.507 Y121.509
G1 F720 X71.01 Y113.012 E154.3569
G0 F7800 X70.992 Y112.57
G1 F720 X72.087 Y113.665 E154.40519
G0 F7800 X71.931 Y113.085
G1 F720 X71.003 Y112.157 E154.44611
G0 F7800 X71.019 Y111.749
G1 F720 X71.775 Y112.504 E154.47942
G0 F7800 X71.863 Y112.168
G1 F720 X71.035 Y111.341 E154.51591
G0 F7800 X71.052 Y110.933
G1 F720 X71.953 Y111.833 E154.55562
G0 F7800 X72.042 Y111.499
G1 F720 X71.068 Y110.525 E154.59857
G0 F7800 X71.092 Y110.124
G1 F720 X72.132 Y111.164 E154.64444
G0 F7800 X72.242 Y110.851
G1 F720 X71.137 Y109.745 E154.69319
G0 F7800 X71.182 Y109.366
G1 F720 X72.455 Y110.638 E154.7493
G0 F7800 X72.667 Y110.426
G1 F720 X71.227 Y108.987 E154.81278
G0 F7800 X71.272 Y108.607
G1 F720 X72.878 Y110.213 E154.8836
G0 F7800 X73.09 Y110.001
G1 F720 X71.317 Y108.228 E154.96178
G0 F7800 X71.369 Y107.856
G1 F720 X73.302 Y109.789 E155.04702
G0 F7800 X73.589 Y109.651
G1 F720 X71.439 Y107.502 E155.14181
G0 F7800 X71.509 Y107.147
G1 F720 X73.923 Y109.561 E155.24826
G0 F7800 X74.258 Y109.472
G1 F720 X71.58 Y106.794 E155.36635
G0 F7800 X71.65 Y106.44
G1 F720 X74.593 Y109.383 E155.49613
G0 F7800 X74.928 Y109.293
G1 F720 X71.721 Y106.086 E155.63755
G0 F7800 X71.791 Y105.732
G1 F720 X75.455 Y109.396 E155.79912
G0 F7800 X76.033 Y109.55
G1 F720 X71.885 Y105.402 E155.98203
G0 F7800 X71.978 Y105.071
G1 F720 X88.416 Y121.509 E156.7069
G0 F7800 X87.992 Y121.509
G1 F720 X77.948 Y111.465 E157.14981
G0 F7800 X78.102 Y112.043
G1 F720 X87.568 Y121.509 E157.56724
G0 F7800 X87.143 Y121.509
G1 F720 X78.205 Y112.57 E157.9614
G0 F7800 X78.116 Y112.905
G1 F720 X86.719 Y121.509 E158.34079
G0 F7800 X86.295 Y121.509
G1 F720 X78.026 Y113.24 E158.70543
G0 F7800 X77.937 Y113.575
G1 F720 X85.871 Y121.509 E159.0553
G0 F7800 X85.446 Y121.509
G1 F720 X77.847 Y113.909 E159.39041
G0 F7800 X77.709 Y114.196
G1 F720 X85.022 Y121.509 E159.71289
G0 F7800 X84.598 Y121.509
G1 F720 X77.497 Y114.408 E160.02603
G0 F7800 X77.285 Y114.62
G1 F720 X84.173 Y121.509 E160.32979
G0 F7800 X83.749 Y121.509
G1 F720 X77.072 Y114.832 E160.62423
G0 F7800 X76.86 Y115.044
G1 F720 X83.325 Y121.509 E160.90931
G0 F7800 X82.901 Y121.509
G1 F720 X76.648 Y115.256 E161.18505
G0 F7800 X76.334 Y115.366
G1 F720 X82.476 Y121.509 E161.45592
G0 F7800 X82.052 Y121.509
G1 F720 X75.999 Y115.456 E161.72284
G0 F7800 X75.665 Y115.546
G1 F720 X81.628 Y121.509 E161.98579
G0 F7800 X81.204 Y121.509
G1 F720 X75.33 Y115.636 E162.2448
G0 F7800 X71.252 Y116.224
G0 X71.252 Y116.224
G1 F720 X76.537 Y121.509 E162.47785
G0 F7800 X76.961 Y121.509
G1 F720 X71.195 Y115.743 E162.73211
G0 F7800 X71.139 Y115.262
G1 F720 X77.385 Y121.509 E163.00757
G0 F7800 X77.81 Y121.509
G1 F720 X71.082 Y114.781 E163.30425
G0 F7800 X71.063 Y114.338
G1 F720 X78.234 Y121.509 E163.62047
G0 F7800 X78.658 Y121.509
G1 F720 X71.045 Y113.896 E163.95618
G0 F7800 X71.028 Y113.454
G1 F720 X79.082 Y121.509 E164.31136
G0 F7800 X76.112 Y121.509
G0 X76.112 Y121.509
G1 F720 X71.308 Y116.705 E164.52321
G0 F7800 X71.38 Y117.2
G1 F720 X75.688 Y121.509 E164.7132
G0 F7800 X75.264 Y121.509
G1 F720 X71.485 Y117.73 E164.87984
G0 F7800 X71.591 Y118.26
G1 F720 X74.84 Y121.509 E165.02311
G0 F7800 X74.415 Y121.509
G1 F720 X71.696 Y118.789 E165.14304
G0 F7800 X71.808 Y119.325
G1 F720 X73.991 Y121.509 E165.23932
G0 F7800 X73.567 Y121.509
G1 F720 X71.975 Y119.917 E165.30952
G0 F7800 X72.143 Y120.509
G1 F720 X73.143 Y121.509 E165.35362
G0 F7800 X72.718 Y121.509
G1 F720 X72.31 Y121.101 E165.37161
G0 F7800 X72.071 Y104.74
G0 X72.071 Y104.74
G1 F720 X88.84 Y121.509 E166.11108
G0 F7800 X89.265 Y121.509
G1 F720 X72.165 Y104.409 E166.86514
G0 F7800 X72.258 Y104.078
G1 F720 X89.689 Y121.509 E167.6338
G0 F7800 X90.113 Y121.509
G1 F720 X72.351 Y103.747 E168.41705
G0 F7800 X72.518 Y103.489
G1 F720 X90.537 Y121.509 E169.21166
G0 F7800 X90.962 Y121.509
G1 F720 X72.942 Y103.489 E170.00629
G0 F7800 X73.366 Y103.489
G1 F720 X91.386 Y121.509 E170.80092
G0 F7800 X91.81 Y121.509
G1 F720 X73.79 Y103.489 E171.59555
G0 F7800 X74.215 Y103.489
G1 F720 X92.235 Y121.509 E172.39018
G0 F7800 X92.659 Y121.509
G1 F720 X74.639 Y103.489 E173.18481
G0 F7800 X75.063 Y103.489
G1 F720 X93.059 Y121.485 E173.97838
G0 F7800 X93.059 Y121.06
G1 F720 X75.487 Y103.489 E174.75323
G0 F7800 X75.912 Y103.489
G1 F720 X93.059 Y120.636 E175.50937
G0 F7800 X93.059 Y120.212
G1 F720 X76.336 Y103.489 E176.2468
G0 F7800 X76.76 Y103.489
G1 F720 X93.059 Y119.788 E176.96554
G0 F7800 X93.059 Y119.363
G1 F720 X77.184 Y103.489 E177.66556
G0 F7800 X77.609 Y103.489
G1 F720 X93.059 Y118.939 E178.34686
G0 F7800 X93.059 Y118.515
G1 F720 X78.033 Y103.489 E179.00946
G0 F7800 X78.457 Y103.489
G1 F720 X93.059 Y118.091 E179.65337
G0 F7800 X93.059 Y117.666
G1 F720 X78.882 Y103.489 E180.27854
G0 F7800 X79.306 Y103.489
G1 F720 X93.059 Y117.242 E180.885
G0 F7800 X93.059 Y116.818
G1 F720 X79.73 Y103.489 E181.47277
G0 F7800 X80.154 Y103.489
G1 F720 X93.059 Y116.394 E182.04185
G0 F7800 X93.059 Y115.969
G1 F720 X80.579 Y103.489 E182.59218
G0 F7800 X81.003 Y103.489
G1 F720 X93.059 Y115.545 E183.12381
G0 F7800 X93.059 Y115.121
G1 F720 X81.427 Y103.489 E183.63675
G0 F7800 X81.851 Y103.489
G1 F720 X93.059 Y114.696 E184.13097
G0 F7800 X93.059 Y114.272
G1 F720 X82.276 Y103.489 E184.60647
G0 F7800 X82.7 Y103.489
G1 F720 X93.059 Y113.848 E185.06327
G0 F7800 X93.059 Y113.424
G1 F720 X83.124 Y103.489 E185.50138
G0 F7800 X83.548 Y103.489
G1 F720 X93.059 Y112.999 E185.92076
G0 F7800 X93.059 Y112.575
G1 F720 X83.973 Y103.489 E186.32143
G0 F7800 X84.397 Y103.489
G1 F720 X93.059 Y112.151 E186.7034
G0 F7800 X93.059 Y111.727
G1 F720 X84.821 Y103.489 E187.06667
G0 F7800 X85.245 Y103.489
G1 F720 X93.094 Y111.338 E187.41279
G0 F7800 X93.203 Y111.022
G1 F720 X85.67 Y103.489 E187.74497
G0 F7800 X86.094 Y103.489
G1 F720 X93.311 Y110.706 E188.06322
G0 F7800 X93.42 Y110.391
G1 F720 X86.518 Y103.489 E188.36758
G0 F7800 X86.943 Y103.489
G1 F720 X93.529 Y110.075 E188.658
G0 F7800 X93.637 Y109.759
G1 F720 X87.367 Y103.489 E188.93449
G0 F7800 X87.791 Y103.489
G1 F720 X93.746 Y109.443 E189.19707
G0 F7800 X93.863 Y109.136
G1 F720 X88.215 Y103.489 E189.44611
G0 F7800 X88.64 Y103.489
G1 F720 X94.048 Y108.897 E189.68459
G0 F7800 X94.234 Y108.659
G1 F720 X89.064 Y103.489 E189.91257
G0 F7800 X89.488 Y103.489
G1 F720 X94.42 Y108.421 E190.13005
G0 F7800 X94.605 Y108.182
G1 F720 X89.912 Y103.489 E190.337
G0 F7800 X90.337 Y103.489
G1 F720 X94.791 Y107.944 E190.53343
G0 F7800 X94.977 Y107.705
G1 F720 X90.761 Y103.489 E190.71935
G0 F7800 X91.185 Y103.489
G1 F720 X95.163 Y107.466 E190.89474
G0 F7800 X95.383 Y107.263
G1 F720 X91.609 Y103.489 E191.06117
G0 F7800 X92.034 Y103.489
G1 F720 X95.64 Y107.095 E191.22018
G0 F7800 X95.897 Y106.927
G1 F720 X92.458 Y103.489 E191.37181
G0 F7800 X92.882 Y103.489
G1 F720 X96.153 Y106.76 E191.51605
G0 F7800 X96.41 Y106.592
G1 F720 X93.306 Y103.489 E191.6529
G0 F7800 X93.731 Y103.489
G1 F720 X96.667 Y106.425 E191.78237
G0 F7800 X96.923 Y106.256
G1 F720 X94.155 Y103.489 E191.90441
G0 F7800 X94.579 Y103.489
G1 F720 X97.179 Y106.089 E192.01907
G0 F7800 X97.516 Y106.001
G1 F720 X95.004 Y103.489 E192.12984
G0 F7800 X95.428 Y103.489
G1 F720 X97.855 Y105.916 E192.23686
G0 F7800 X98.193 Y105.83
G1 F720 X95.852 Y103.489 E192.34009
G0 F7800 X96.276 Y103.489
G1 F720 X98.531 Y105.744 E192.43953
G0 F7800 X98.87 Y105.658
G1 F720 X96.701 Y103.489 E192.53518
G0 F7800 X97.125 Y103.489
G1 F720 X99.209 Y105.573 E192.62708
G0 F7800 X99.593 Y105.533
G1 F720 X97.549 Y103.489 E192.71721
G0 F7800 X97.973 Y103.489
G1 F720 X100.056 Y105.571 E192.80904
G0 F7800 X100.518 Y105.609
G1 F720 X98.398 Y103.489 E192.90253
G0 F7800 X98.822 Y103.489
G1 F720 X100.981 Y105.648 E192.99773
G0 F7800 X101.444 Y105.687
G1 F720 X99.246 Y103.489 E193.09466
G0 F7800 X99.67 Y103.489
G1 F720 X102.024 Y105.843 E193.19846
G0 F7800 X102.78 Y106.174
G1 F720 X100.095 Y103.49 E193.31684
G0 F7800 X100.52 Y103.49
G1 F720 X103.537 Y106.507 E193.44988
G0 F7800 X103.49 Y103.49
G0 X103.49 Y103.49
G1 F720 X121.509 Y121.509 E194.24447
G0 F7800 X121.085 Y121.509
G1 F720 X103.065 Y103.49 E195.03908
G0 F7800 X102.641 Y103.49
G1 F720 X120.661 Y121.509 E195.83369
G0 F7800 X120.237 Y121.509
G1 F720 X102.217 Y103.49 E196.6283
G0 F7800 X101.792 Y103.49
G1 F720 X119.812 Y121.509 E197.4229
G0 F7800 X119.388 Y121.509
G1 F720 X101.368 Y103.49 E198.21751
G0 F7800 X100.944 Y103.49
G1 F720 X118.964 Y121.509 E199.01212
G0 F7800 X118.54 Y121.509
G1 F720 X105.877 Y108.847 E199.5705
G0 F7800 X106.379 Y109.774
G1 F720 X118.115 Y121.509 E200.088
G0 F7800 X117.691 Y121.509
G1 F720 X106.667 Y110.486 E200.57411
G0 F7800 X106.751 Y110.994
G1 F720 X117.267 Y121.509 E201.03781
G0 F7800 X116.842 Y121.509
G1 F720 X106.836 Y111.502 E201.47907
G0 F7800 X106.92 Y112.011
G1 F720 X116.418 Y121.509 E201.8979
G0 F7800 X115.993 Y121.509
G1 F720 X107 Y112.516 E202.29447
G0 F7800 X106.94 Y112.88
G1 F720 X115.569 Y121.509 E202.67498
G0 F7800 X115.145 Y121.509
G1 F720 X106.94 Y113.303 E203.03682
G0 F7800 X106.94 Y113.728
G1 F720 X114.721 Y121.509 E203.37994
G0 F7800 X114.296 Y121.509
G1 F720 X106.94 Y114.152 E203.70434
G0 F7800 X106.94 Y114.576
G1 F720 X113.872 Y121.509 E204.01004
G0 F7800 X113.448 Y121.509
G1 F720 X106.94 Y115.001 E204.29703
G0 F7800 X106.94 Y115.425
G1 F720 X113.023 Y121.509 E204.56529
G0 F7800 X112.599 Y121.509
G1 F720 X106.94 Y115.849 E204.81486
G0 F7800 X106.94 Y116.273
G1 F720 X112.175 Y121.509 E205.04573
G0 F7800 X111.751 Y121.509
G1 F720 X106.94 Y116.698 E205.25788
G0 F7800 X106.94 Y117.122
G1 F720 X111.326 Y121.509 E205.45131
G0 F7800 X110.902 Y121.509
G1 F720 X106.94 Y117.546 E205.62605
G0 F7800 X106.94 Y117.97
G1 F720 X110.478 Y121.509 E205.78209
G0 F7800 X110.054 Y121.509
G1 F720 X106.94 Y118.395 E205.91941
G0 F7800 X106.94 Y118.819
G1 F720 X109.629 Y121.509 E206.038
G0 F7800 X109.205 Y121.509
G1 F720 X106.94 Y119.243 E206.13791
G0 F7800 X106.94 Y119.667
G1 F720 X108.781 Y121.509 E206.21911
G0 F7800 X108.357 Y121.509
G1 F720 X106.94 Y120.092 E206.2816
G0 F7800 X106.94 Y120.516
G1 F720 X107.932 Y121.509 E206.32536
G0 F7800 X107.508 Y121.509
G1 F720 X106.94 Y120.94 E206.35043
G0 F7800 X106.94 Y121.364
G1 F720 X107.084 Y121.509 E206.3568
G0 F7800 X121.934 Y121.509
G0 X121.934 Y121.509
G1 F720 X103.914 Y103.49 E207.15141
G0 F7800 X104.338 Y103.49
G1 F720 X122.358 Y121.509 E207.94602
G0 F7800 X122.782 Y121.509
G1 F720 X104.762 Y103.49 E208.74063
G0 F7800 X105.187 Y103.49
G1 F720 X123.206 Y121.509 E209.53522
G0 F7800 X123.631 Y121.509
G1 F720 X105.611 Y103.49 E210.32982
G0 F7800 X106.035 Y103.49
G1 F720 X124.055 Y121.509 E211.12443
G0 F7800 X124.479 Y121.509
G1 F720 X106.459 Y103.49 E211.91904
G0 F7800 X106.884 Y103.49
G1 F720 X124.904 Y121.509 E212.71365
G0 F7800 X125.328 Y121.509
G1 F720 X107.308 Y103.49 E213.50826
G0 F7800 X107.732 Y103.49
G1 F720 X125.752 Y121.509 E214.30286
G0 F7800 X126.176 Y121.509
G1 F720 X108.156 Y103.49 E215.09747
G0 F7800 X108.581 Y103.49
G1 F720 X126.601 Y121.509 E215.89208
G0 F7800 X127.025 Y121.509
G1 F720 X109.005 Y103.49 E216.68669
G0 F7800 X109.429 Y103.49
G1 F720 X127.449 Y121.509 E217.4813
G0 F7800 X127.639 Y121.275
G1 F720 X109.853 Y103.49 E218.26559
G0 F7800 X110.278 Y103.49
G1 F720 X127.732 Y120.944 E219.03526
G0 F7800 X127.826 Y120.614
G1 F720 X110.702 Y103.49 E219.79038
G0 F7800 X111.126 Y103.49
G1 F720 X127.919 Y120.283 E220.5309
G0 F7800 X128.013 Y119.952
G1 F720 X111.551 Y103.49 E221.25683
G0 F7800 X111.975 Y103.49
G1 F720 X122.062 Y113.576 E221.70161
G0 F7800 X121.908 Y112.999
G1 F720 X112.399 Y103.49 E222.12093
G0 F7800 X112.823 Y103.49
G1 F720 X121.787 Y112.454 E222.51622
G0 F7800 X121.876 Y112.118
G1 F720 X113.248 Y103.49 E222.89669
G0 F7800 X113.672 Y103.49
G1 F720 X121.966 Y111.783 E223.26241
G0 F7800 X122.055 Y111.449
G1 F720 X114.096 Y103.49 E223.61338
G0 F7800 X114.52 Y103.49
G1 F720 X122.144 Y111.114 E223.94957
G0 F7800 X122.273 Y110.818
G1 F720 X114.945 Y103.49 E224.27272
G0 F7800 X115.369 Y103.49
G1 F720 X122.485 Y110.606 E224.58651
G0 F7800 X122.697 Y110.394
G1 F720 X115.793 Y103.49 E224.89096
G0 F7800 X116.217 Y103.49
G1 F720 X122.91 Y110.182 E225.18608
G0 F7800 X123.122 Y109.969
G1 F720 X116.642 Y103.49 E225.47181
G0 F7800 X117.066 Y103.49
G1 F720 X123.334 Y109.757 E225.74818
G0 F7800 X123.639 Y109.638
G1 F720 X117.49 Y103.49 E226.01932
G0 F7800 X117.915 Y103.49
G1 F720 X123.974 Y109.549 E226.2865
G0 F7800 X124.309 Y109.46
G1 F720 X118.339 Y103.49 E226.54976
G0 F7800 X118.763 Y103.49
G1 F720 X124.644 Y109.371 E226.8091
G0 F7800 X124.979 Y109.281
G1 F720 X119.187 Y103.49 E227.06448
G0 F7800 X119.612 Y103.49
G1 F720 X125.543 Y109.421 E227.32602
G0 F7800 X126.12 Y109.574
G1 F720 X120.036 Y103.49 E227.59431
G0 F7800 X120.46 Y103.49
G1 F720 X128.99 Y112.019 E227.97044
G0 F7800 X129.008 Y112.461
G1 F720 X127.922 Y111.376 E228.0183
G0 F7800 X128.078 Y111.956
G1 F720 X128.994 Y112.872 E228.0587
G0 F7800 X128.978 Y113.28
G1 F720 X128.218 Y112.521 E228.09219
G0 F7800 X128.129 Y112.855
G1 F720 X128.961 Y113.687 E228.12888
G0 F7800 X128.945 Y114.095
G1 F720 X128.039 Y113.19 E228.16881
G0 F7800 X127.949 Y113.524
G1 F720 X128.928 Y114.503 E228.21198
G0 F7800 X128.902 Y114.902
G1 F720 X127.859 Y113.859 E228.25797
G0 F7800 X127.74 Y114.163
G1 F720 X128.858 Y115.281 E228.30727
G0 F7800 X128.812 Y115.66
G1 F720 X127.528 Y114.375 E228.36392
G0 F7800 X127.315 Y114.588
G1 F720 X128.768 Y116.04 E228.42797
G0 F7800 X128.723 Y116.42
G1 F720 X127.103 Y114.8 E228.4994
G0 F7800 X126.891 Y115.012
G1 F720 X128.678 Y116.799 E228.57821
G0 F7800 X128.624 Y117.169
G1 F720 X126.679 Y115.224 E228.66398
G0 F7800 X126.384 Y115.353
G1 F720 X128.554 Y117.523 E228.75967
G0 F7800 X128.484 Y117.877
G1 F720 X126.049 Y115.442 E228.86704
G0 F7800 X125.715 Y115.532
G1 F720 X128.413 Y118.231 E228.98604
G0 F7800 X128.343 Y118.585
G1 F720 X125.381 Y115.623 E229.11665
G0 F7800 X125.046 Y115.713
G1 F720 X128.273 Y118.939 E229.25893
G0 F7800 X128.2 Y119.291
G1 F720 X124.501 Y115.592 E229.42205
G0 F7800 X123.92 Y115.435
G1 F720 X128.107 Y119.621 E229.60666
G0 F7800 X128.972 Y111.577
G0 X128.972 Y111.577
G1 F720 X120.884 Y103.49 E229.9633
G0 F7800 X121.309 Y103.49
G1 F720 X128.955 Y111.135 E230.30044
G0 F7800 X128.936 Y110.693
G1 F720 X121.733 Y103.49 E230.61807
G0 F7800 X122.157 Y103.49
G1 F720 X128.919 Y110.251 E230.91624
G0 F7800 X128.864 Y109.772
G1 F720 X122.581 Y103.49 E231.19328
G0 F7800 X123.006 Y103.49
G1 F720 X128.807 Y109.291 E231.44908
G0 F7800 X128.75 Y108.81
G1 F720 X123.43 Y103.49 E231.68368
G0 F7800 X123.854 Y103.49
G1 F720 X128.694 Y108.329 E231.89709
G0 F7800 X128.626 Y107.837
G1 F720 X124.278 Y103.49 E232.0888
G0 F7800 X124.703 Y103.49
G1 F720 X128.521 Y107.308 E232.25716
G0 F7800 X128.416 Y106.778
G1 F720 X125.127 Y103.49 E232.40218
G0 F7800 X125.551 Y103.49
G1 F720 X128.311 Y106.249 E232.52386
G0 F7800 X128.204 Y105.718
G1 F720 X125.976 Y103.49 E232.62211
G0 F7800 X126.4 Y103.49
G1 F720 X128.037 Y105.126 E232.69428
G0 F7800 X127.869 Y104.535
G1 F720 X126.824 Y103.49 E232.74036
G0 F7800 X127.248 Y103.49
G1 F720 X127.702 Y103.943 E232.76036
; Layer Change GCode
; LAYER:1
G4 P0
M106 S89
G1 F1800 E231.76036
G0 F7800 X71.843 Y97.35 Z0.45
G0 X72.261 Y96.75
; TYPE:WALL-INNER
G1 F1800 E232.76036
G1 X72.182 Y96.536 E232.76605
G1 X71.559 Y94.33 E232.82323
G1 X71.111 Y92.075 E232.88058
G1 X70.841 Y89.788 E232.93802
G1 X70.75 Y87.5 E232.99514
G1 X70.841 Y85.213 E233.05224
G1 X71.11 Y82.932 E233.10953
G1 X71.559 Y80.671 E233.16703
G1 X72.184 Y78.46 E233.22435
G1 X72.261 Y78.25 E233.22993
G1 X127.739 Y78.25 E234.61383
G1 X127.816 Y78.46 E234.61941
G1 X128.441 Y80.671 E234.67673
G1 X128.889 Y82.926 E234.73408
G1 X129.159 Y85.213 E234.79152
G1 X129.25 Y87.5 E234.84862
G1 X129.159 Y89.788 E234.90574
G1 X128.89 Y92.068 E234.96301
G1 X128.441 Y94.33 E235.02053
G1 X127.818 Y96.536 E235.07771
G1 X127.739 Y96.75 E235.0834
G1 X72.261 Y96.75 E236.46731
G0 F7800 X72.052 Y97.05
G1 F1800 X71.897 Y96.631 E236.47845
G1 X71.266 Y94.397 E236.53636
G1 X70.816 Y92.129 E236.59404
G1 X70.542 Y89.822 E236.65199
G1 X70.451 Y87.5 E236.70996
G1 X70.542 Y85.179 E236.7679
G1 X70.815 Y82.878 E236.8257
G1 X71.266 Y80.604 E236.88353
G1 X71.897 Y78.37 E236.94144
G1 X72.052 Y77.95 E236.95261
G1 X127.948 Y77.95 E238.34694
G1 X128.103 Y78.37 E238.35811
G1 X128.734 Y80.604 E238.41601
G1 X129.184 Y82.872 E238.47369
G1 X129.458 Y85.179 E238.53165
G1 X129.549 Y87.5 E238.58959
G1 X129.458 Y89.822 E238.64755
G1 X129.185 Y92.122 E238.70533
G1 X128.734 Y94.397 E238.76319
G1 X128.103 Y96.631 E238.82109
G1 X127.948 Y97.05 E238.83224
G1 X72.052 Y97.05 E240.22657
G0 F7800 X71.843 Y97.35
; TYPE:WALL-OUTER
G1 F1260 X71.61 Y96.719 E240.24335
G1 X70.975 Y94.47 E240.30164
G1 X70.518 Y92.169 E240.36016
G1 X70.243 Y89.843 E240.41859
G1 X70.15 Y87.506 E240.47693
G1 X70.243 Y85.153 E240.53567
G1 X70.518 Y82.831 E240.594
G1 X70.976 Y80.526 E240.65262
G1 X71.61 Y78.282 E240.71079
G1 X71.843 Y77.65 E240.72759
G1 X128.157 Y77.65 E242.13235
G1 X128.39 Y78.282 E242.14916
G1 X129.024 Y80.526 E242.20732
G1 X129.481 Y82.825 E242.26579
G1 X129.757 Y85.153 E242.32427
G1 X129.85 Y87.494 E242.38272
G1 X129.757 Y89.843 E242.44136
G1 X129.482 Y92.167 E242.49973
G1 X129.025 Y94.47 E242.5583
G1 X128.39 Y96.719 E242.6166
G1 X128.157 Y97.35 E242.63338
G1 X71.843 Y97.35 E244.03814
G0 F7800 X72.037 Y97.157
G0 X73.512 Y90.079
G0 X73.512 Y90.079
; TYPE:WALL-INNER
G1 F1800 X75 Y90.476 E244.07655
G1 X76.488 Y90.079 E244.11497
G1 X77.579 Y88.988 E244.15346
G1 X77.976 Y87.5 E244.19187
G1 X77.579 Y86.012 E244.23029
G1 X76.488 Y84.923 E244.26874
G1 X75 Y84.523 E244.30718
G1 X73.512 Y84.923 E244.34562
G1 X72.423 Y86.012 E244.38403
G1 X72.023 Y87.5 E244.42247
G1 X72.423 Y88.988 E244.4609
G1 X73.512 Y90.079 E244.49936
G0 F7800 X73.667 Y89.81
G1 F1800 X75 Y90.166 E244.53377
G1 X76.333 Y89.81 E244.56819
G1 X77.31 Y88.833 E244.60266
G1 X77.666 Y87.5 E244.63708
G1 X77.31 Y86.167 E244.67149
G1 X76.333 Y85.192 E244.70592
G1 X75 Y84.834 E244.74035
G1 X73.667 Y85.192 E244.77478
G1 X72.692 Y86.167 E244.80918
G1 X72.334 Y87.5 E244.84361
G1 X72.692 Y88.833 E244.87804
G1 X73.667 Y89.81 E244.91247
G0 F7800 X75 Y89.855
; TYPE:WALL-OUTER
G1 F1260 X76.178 Y89.541 E244.94288
G1 X77.041 Y88.678 E244.97333
G1 X77.355 Y87.5 E245.00374
G1 X77.041 Y86.322 E245.03415
G1 X76.178 Y85.461 E245.06456
G1 X75 Y85.145 E245.09498
G1 X73.822 Y85.461 E245.12541
G1 X72.961 Y86.322 E245.15578
G1 X72.645 Y87.5 E245.18621
G1 X72.961 Y88.678 E245.21663
G1 X73.822 Y89.541 E245.24704
G1 X75 Y89.855 E245.27745
G0 F7800 X74.936 Y90.096
G0 X74.977 Y90.089
G0 X75.372 Y90.026
G0 X91.235 Y87.5
G0 X91.235 Y87.5
; TYPE:WALL-INNER
G1 F1800 X91.903 Y90.855 E245.36278
G1 X93.803 Y93.698 E245.44808
G1 X96.646 Y95.599 E245.5334
G1 X100 Y96.265 E245.61869
G1 X103.354 Y95.599 E245.70399
G1 X106.197 Y93.698 E245.78931
G1 X108.097 Y90.855 E245.87461
G1 X108.765 Y87.5 E245.95994
G1 X108.097 Y84.146 E246.04525
G1 X106.197 Y81.303 E246.13055
G1 X103.354 Y79.403 E246.21585
G1 X100 Y78.735 E246.30115
G1 X96.646 Y79.403 E246.38646
G1 X93.803 Y81.303 E246.47176
G1 X91.903 Y84.146 E246.55706
G1 X91.235 Y87.5 E246.64237
G0 F7800 X91.541 Y87.5
G1 F1800 X92.185 Y90.738 E246.72472
G1 X94.02 Y93.481 E246.80705
G1 X96.763 Y95.316 E246.88937
G1 X100 Y95.959 E246.9717
G1 X103.237 Y95.316 E247.05402
G1 X105.98 Y93.481 E247.13634
G1 X107.815 Y90.738 E247.21867
G1 X108.459 Y87.5 E247.30102
G1 X107.815 Y84.263 E247.38335
G1 X105.98 Y81.52 E247.46568
G1 X103.237 Y79.685 E247.548
G1 X100 Y79.041 E247.63033
G1 X96.763 Y79.685 E247.71266
G1 X94.02 Y81.52 E247.79498
G1 X92.185 Y84.263 E247.87731
G1 X91.541 Y87.5 E247.95964
G0 F7800 X91.589 Y87.548
G0 X92.142 Y90.755
G0 X93.987 Y93.514
G0 X96.746 Y95.359
G0 X100 Y96.006
G0 X100.023 Y95.97
G0 X99.951 Y95.898
G0 X99.951 Y95.898
G0 X100 Y95.653
; TYPE:WALL-OUTER
G1 F1260 X103.12 Y95.033 E248.03899
G1 X105.764 Y93.265 E248.11833
G1 X107.532 Y90.621 E248.19767
G1 X108.153 Y87.5 E248.27705
G1 X107.532 Y84.38 E248.35641
G1 X105.764 Y81.736 E248.43575
G1 X103.12 Y79.968 E248.51509
G1 X100 Y79.347 E248.59444
G1 X96.88 Y79.968 E248.6738
G1 X94.236 Y81.736 E248.75314
G1 X92.468 Y84.38 E248.83248
G1 X91.847 Y87.5 E248.91184
G1 X92.468 Y90.621 E248.99122
G1 X94.236 Y93.265 E249.07056
G1 X96.88 Y95.033 E249.1499
G1 X100 Y95.653 E249.22925
G1 F1800 E248.22925
G0 F7800 X99.951 Y95.898
G0 X99.958 Y95.894
G0 X100 Y96.006
G0 X103.254 Y95.359
G0 X104.114 Y94.616
G0 X122.421 Y88.988
G0 X122.421 Y88.988
; TYPE:WALL-INNER
G1 F1800 E249.22925
G1 X123.512 Y90.079 E249.26774
G1 X125 Y90.476 E249.30616
G1 X126.488 Y90.079 E249.34457
G1 X127.577 Y88.988 E249.38303
G1 X127.977 Y87.5 E249.42146
G1 X127.577 Y86.012 E249.4599
G1 X126.488 Y84.923 E249.49832
G1 X125 Y84.523 E249.53675
G1 X123.512 Y84.923 E249.57519
G1 X122.421 Y86.012 E249.61364
G1 X122.024 Y87.5 E249.65206
G1 X122.421 Y88.988 E249.69047
G0 F7800 X122.69 Y88.833
G1 F1800 X123.667 Y89.81 E249.72494
G1 X125 Y90.166 E249.75936
G1 X126.333 Y89.81 E249.79378
G1 X127.308 Y88.833 E249.82821
G1 X127.666 Y87.5 E249.86264
G1 X127.308 Y86.167 E249.89707
G1 X126.333 Y85.192 E249.93146
G1 X125 Y84.834 E249.96589
G1 X123.667 Y85.192 E250.00032
G1 X122.69 Y86.167 E250.03475
G1 X122.334 Y87.5 E250.06917
G1 X122.69 Y88.833 E250.10359
G0 F7800 X123.001 Y89.007
G0 X123.646 Y89.848
G0 X124.764 Y89.998
G0 X124.936 Y90.096
G0 X124.936 Y90.096
G0 X125 Y89.855
; TYPE:WALL-OUTER
G1 F1260 X126.178 Y89.541 E250.134
G1 X127.039 Y88.678 E250.16441
G1 X127.355 Y87.5 E250.19483
G1 X127.039 Y86.322 E250.22526
G1 X126.178 Y85.461 E250.25563
G1 X125 Y85.145 E250.28606
G1 X123.822 Y85.461 E250.31648
G1 X122.959 Y86.322 E250.34689
G1 X122.645 Y87.5 E250.3773
G1 X122.959 Y88.678 E250.40771
G1 X123.822 Y89.541 E250.43816
G1 X125 Y89.855 E250.46857
G0 F7800 X124.843 Y90.682
; TYPE:FILL
G1 F3600 X119.015 Y96.51 E250.67417
G0 F7800 X118.591 Y96.51
G1 F3600 X124.508 Y90.593 E250.8829
G0 F7800 X124.173 Y90.504
G1 F3600 X118.167 Y96.51 E251.09478
G0 F7800 X117.743 Y96.51
G1 F3600 X123.838 Y90.414 E251.30982
G0 F7800 X123.503 Y90.325
G1 F3600 X117.318 Y96.51 E251.52801
G0 F7800 X116.894 Y96.51
G1 F3600 X123.248 Y90.156 E251.75216
G0 F7800 X123.036 Y89.943
G1 F3600 X116.47 Y96.51 E251.98382
G0 F7800 X116.046 Y96.51
G1 F3600 X122.824 Y89.731 E252.22295
G0 F7800 X122.612 Y89.519
G1 F3600 X115.621 Y96.51 E252.46957
G0 F7800 X115.197 Y96.51
G1 F3600 X122.4 Y89.307 E252.72368
G0 F7800 X122.197 Y89.085
G1 F3600 X114.773 Y96.51 E252.9856
G0 F7800 X114.349 Y96.51
G1 F3600 X122.108 Y88.75 E253.25933
G0 F7800 X122.019 Y88.415
G1 F3600 X113.924 Y96.51 E253.54491
G0 F7800 X113.5 Y96.51
G1 F3600 X121.929 Y88.08 E253.84228
G0 F7800 X121.84 Y87.745
G1 F3600 X113.076 Y96.51 E254.15147
G0 F7800 X112.652 Y96.51
G1 F3600 X121.816 Y87.346 E254.47476
G0 F7800 X121.97 Y86.767
G1 F3600 X112.227 Y96.51 E254.81847
G0 F7800 X111.803 Y96.51
G1 F3600 X122.124 Y86.189 E255.18257
G0 F7800 X123.686 Y84.627
G0 X123.686 Y84.627
G1 F3600 X128.069 Y80.243 E255.33721
G0 F7800 X127.976 Y79.912
G1 F3600 X111.379 Y96.51 E255.92273
G0 F7800 X110.954 Y96.51
G1 F3600 X127.882 Y79.582 E256.51991
G0 F7800 X127.789 Y79.251
G1 F3600 X110.53 Y96.51 E257.12877
G0 F7800 X110.106 Y96.51
G1 F3600 X127.695 Y78.92 E257.74929
G0 F7800 X127.601 Y78.59
G1 F3600 X109.682 Y96.51 E258.38144
G0 F7800 X109.257 Y96.51
G1 F3600 X127.277 Y78.49 E259.01715
G0 F7800 X126.853 Y78.49
G1 F3600 X108.833 Y96.51 E259.65285
G0 F7800 X108.409 Y96.51
G1 F3600 X126.429 Y78.49 E260.28856
G0 F7800 X126.005 Y78.49
G1 F3600 X107.985 Y96.51 E260.92426
G0 F7800 X107.56 Y96.51
G1 F3600 X125.58 Y78.49 E261.55997
G0 F7800 X125.156 Y78.49
G1 F3600 X107.136 Y96.51 E262.19567
G0 F7800 X106.712 Y96.51
G1 F3600 X124.732 Y78.49 E262.83137
G0 F7800 X124.307 Y78.49
G1 F3600 X106.288 Y96.51 E263.46706
G0 F7800 X105.863 Y96.51
G1 F3600 X123.883 Y78.49 E264.10276
G0 F7800 X123.459 Y78.49
G1 F3600 X105.439 Y96.51 E264.73847
G0 F7800 X105.015 Y96.51
G1 F3600 X123.035 Y78.49 E265.37417
G0 F7800 X122.61 Y78.49
G1 F3600 X104.59 Y96.51 E266.00988
G0 F7800 X104.166 Y96.51
G1 F3600 X122.186 Y78.49 E266.64558
G0 F7800 X121.762 Y78.49
G1 F3600 X103.742 Y96.51 E267.28129
G0 F7800 X103.318 Y96.51
G1 F3600 X105.126 Y94.702 E267.34507
G0 F7800 X103.844 Y95.559
G0 X103.844 Y95.559
G1 F3600 X102.893 Y96.51 E267.37862
G0 F7800 X102.469 Y96.51
G1 F3600 X103.082 Y95.897 E267.40024
G0 F7800 X102.553 Y96.002
G1 F3600 X102.045 Y96.51 E267.41816
G0 F7800 X102.023 Y96.107
G1 F3600 X101.621 Y96.51 E267.43236
G0 F7800 X101.493 Y96.213
G1 F3600 X101.196 Y96.51 E267.44284
G0 F7800 X100.964 Y96.318
G1 F3600 X100.772 Y96.51 E267.44961
G0 F7800 X99.228 Y96.357
G0 X99.228 Y96.357
G1 F3600 X98.974 Y96.398 E267.455
G1 X98.585 Y96.363 E267.4629
G1 X98.196 Y96.328 E267.47326
G1 X97.802 Y96.51 E267.48408
G0 F7800 X97.378 Y96.51
G1 F3600 X97.812 Y96.076 E267.49939
G0 F7800 X97.459 Y96.005
G1 F3600 X96.954 Y96.51 E267.51721
G0 F7800 X96.529 Y96.51
G1 F3600 X97.104 Y95.935 E267.53749
G0 F7800 X96.751 Y95.864
G1 F3600 X96.105 Y96.51 E267.56028
G0 F7800 X95.681 Y96.51
G1 F3600 X96.44 Y95.75 E267.58707
G0 F7800 X96.187 Y95.58
G1 F3600 X95.257 Y96.51 E267.61988
G0 F7800 X94.832 Y96.51
G1 F3600 X95.932 Y95.41 E267.65869
G0 F7800 X95.677 Y95.24
G1 F3600 X94.408 Y96.51 E267.70347
G0 F7800 X93.984 Y96.51
G1 F3600 X95.424 Y95.07 E267.75427
G0 F7800 X95.169 Y94.9
G1 F3600 X93.56 Y96.51 E267.81105
G0 F7800 X93.135 Y96.51
G1 F3600 X94.915 Y94.73 E267.87385
G0 F7800 X94.661 Y94.56
G1 F3600 X92.711 Y96.51 E267.94264
G0 F7800 X92.287 Y96.51
G1 F3600 X94.407 Y94.39 E268.01743
G0 F7800 X94.152 Y94.22
G1 F3600 X91.863 Y96.51 E268.0982
G0 F7800 X91.438 Y96.51
G1 F3600 X93.898 Y94.05 E268.18498
G0 F7800 X93.644 Y93.88
G1 F3600 X91.014 Y96.51 E268.27776
G0 F7800 X90.59 Y96.51
G1 F3600 X93.469 Y93.63 E268.37934
G0 F7800 X93.299 Y93.376
G1 F3600 X90.166 Y96.51 E268.48988
G0 F7800 X89.741 Y96.51
G1 F3600 X93.129 Y93.122 E268.60941
G0 F7800 X92.959 Y92.867
G1 F3600 X89.317 Y96.51 E268.7379
G0 F7800 X88.893 Y96.51
G1 F3600 X92.789 Y92.614 E268.87535
G0 F7800 X92.619 Y92.359
G1 F3600 X88.468 Y96.51 E269.02178
G0 F7800 X88.044 Y96.51
G1 F3600 X92.449 Y92.105 E269.17718
G0 F7800 X92.279 Y91.851
G1 F3600 X87.62 Y96.51 E269.34154
G0 F7800 X87.196 Y96.51
G1 F3600 X92.109 Y91.597 E269.51486
G0 F7800 X91.939 Y91.342
G1 F3600 X86.771 Y96.51 E269.69718
G0 F7800 X86.347 Y96.51
G1 F3600 X91.769 Y91.088 E269.88845
G0 F7800 X91.644 Y90.788
G1 F3600 X85.924 Y96.509 E270.09026
G0 F7800 X85.499 Y96.509
G1 F3600 X91.573 Y90.435 E270.30453
G0 F7800 X91.503 Y90.081
G1 F3600 X85.075 Y96.509 E270.5313
G0 F7800 X84.651 Y96.509
G1 F3600 X91.433 Y89.727 E270.77055
G0 F7800 X91.362 Y89.374
G1 F3600 X84.227 Y96.509 E271.02226
G0 F7800 X83.802 Y96.509
G1 F3600 X91.291 Y89.02 E271.28645
G0 F7800 X91.221 Y88.666
G1 F3600 X83.378 Y96.509 E271.56314
G0 F7800 X82.954 Y96.509
G1 F3600 X91.151 Y88.312 E271.85231
G0 F7800 X91.08 Y87.959
G1 F3600 X82.529 Y96.509 E272.15395
G0 F7800 X82.105 Y96.509
G1 F3600 X91.01 Y87.604 E272.4681
G0 F7800 X91.063 Y87.127
G1 F3600 X81.681 Y96.509 E272.79907
G0 F7800 X81.257 Y96.509
G1 F3600 X91.168 Y86.597 E273.14873
G0 F7800 X91.274 Y86.067
G1 F3600 X80.832 Y96.509 E273.5171
G0 F7800 X80.408 Y96.509
G1 F3600 X91.38 Y85.538 E273.90415
G0 F7800 X91.486 Y85.007
G1 F3600 X79.984 Y96.509 E274.30991
G0 F7800 X79.56 Y96.509
G1 F3600 X91.591 Y84.478 E274.73434
G0 F7800 X91.843 Y83.801
G1 F3600 X79.135 Y96.509 E275.18265
G0 F7800 X78.711 Y96.509
G1 F3600 X92.698 Y82.522 E275.67608
G0 F7800 X93.551 Y81.245
G0 X93.551 Y81.245
G1 F3600 X78.287 Y96.509 E276.21455
G0 F7800 X77.863 Y96.509
G1 F3600 X95.882 Y78.489 E276.85024
G0 F7800 X95.458 Y78.489
G1 F3600 X77.438 Y96.509 E277.48594
G0 F7800 X77.014 Y96.509
G1 F3600 X95.034 Y78.489 E278.12165
G0 F7800 X94.61 Y78.489
G1 F3600 X76.59 Y96.509 E278.75735
G0 F7800 X76.166 Y96.509
G1 F3600 X94.185 Y78.489 E279.39304
G0 F7800 X93.761 Y78.489
G1 F3600 X75.741 Y96.509 E280.02874
G0 F7800 X75.317 Y96.509
G1 F3600 X93.337 Y78.489 E280.66445
G0 F7800 X92.913 Y78.489
G1 F3600 X74.893 Y96.509 E281.30015
G0 F7800 X74.468 Y96.509
G1 F3600 X92.488 Y78.489 E281.93586
G0 F7800 X92.064 Y78.489
G1 F3600 X74.044 Y96.509 E282.57156
G0 F7800 X73.62 Y96.509
G1 F3600 X91.64 Y78.489 E283.20726
G0 F7800 X91.216 Y78.489
G1 F3600 X73.196 Y96.509 E283.84297
G0 F7800 X72.771 Y96.509
G1 F3600 X90.791 Y78.489 E284.47867
G0 F7800 X90.367 Y78.489
G1 F3600 X72.408 Y96.448 E285.11223
G0 F7800 X72.314 Y96.118
G1 F3600 X89.943 Y78.489 E285.73414
G0 F7800 X89.519 Y78.489
G1 F3600 X72.221 Y95.787 E286.34437
G0 F7800 X72.127 Y95.456
G1 F3600 X89.094 Y78.489 E286.94293
G0 F7800 X88.67 Y78.489
G1 F3600 X72.034 Y95.125 E287.52981
G0 F7800 X71.94 Y94.795
G1 F3600 X76.38 Y90.355 E287.68644
G0 F7800 X75.801 Y90.509
G1 F3600 X71.846 Y94.464 E287.82596
G0 F7800 X71.762 Y94.124
G1 F3600 X75.223 Y90.663 E287.94806
G0 F7800 X74.794 Y90.668
G1 F3600 X71.692 Y93.77 E288.05749
G0 F7800 X71.622 Y93.416
G1 F3600 X74.459 Y90.578 E288.15759
G0 F7800 X74.124 Y90.489
G1 F3600 X71.551 Y93.063 E288.24838
G0 F7800 X71.481 Y92.708
G1 F3600 X73.789 Y90.4 E288.3298
G0 F7800 X73.454 Y90.311
G1 F3600 X71.41 Y92.355 E288.40191
G0 F7800 X71.343 Y91.998
G1 F3600 X73.217 Y90.124 E288.46802
G0 F7800 X73.005 Y89.911
G1 F3600 X71.298 Y91.618 E288.52824
G0 F7800 X71.253 Y91.239
G1 F3600 X72.793 Y89.699 E288.58256
G0 F7800 X72.581 Y89.487
G1 F3600 X71.209 Y90.859 E288.63096
G0 F7800 X71.164 Y90.479
G1 F3600 X72.37 Y89.274 E288.67349
G0 F7800 X72.187 Y89.033
G1 F3600 X71.12 Y90.1 E288.71113
G0 F7800 X71.079 Y89.717
G1 F3600 X72.097 Y88.698 E288.74706
G0 F7800 X72.006 Y88.365
G1 F3600 X71.062 Y89.309 E288.78037
G0 F7800 X71.046 Y88.901
G1 F3600 X71.917 Y88.03 E288.81109
G0 F7800 X71.827 Y87.696
G1 F3600 X71.029 Y88.493 E288.83923
G0 F7800 X71.013 Y88.085
G1 F3600 X71.838 Y87.26 E288.86833
G0 F7800 X71.994 Y86.679
G1 F3600 X70.997 Y87.677 E288.90352
G0 F7800 X70.999 Y87.25
G1 F3600 X72.151 Y86.099 E288.94414
G0 F7800 X71.052 Y85.924
G1 F3600 X78.488 Y78.488 E289.20647
G0 F7800 X78.064 Y78.488
G1 F3600 X71.07 Y85.482 E289.4532
G0 F7800 X71.104 Y85.024
G1 F3600 X77.64 Y78.488 E289.68377
G0 F7800 X77.216 Y78.488
G1 F3600 X71.161 Y84.543 E289.89738
G0 F7800 X71.218 Y84.062
G1 F3600 X76.791 Y78.488 E290.094
G0 F7800 X76.367 Y78.488
G1 F3600 X71.274 Y83.581 E290.27367
G0 F7800 X71.331 Y83.1
G1 F3600 X75.943 Y78.488 E290.43637
G0 F7800 X75.519 Y78.488
G1 F3600 X71.423 Y82.584 E290.58087
G0 F7800 X71.528 Y82.054
G1 F3600 X75.094 Y78.488 E290.70667
G0 F7800 X74.67 Y78.488
G1 F3600 X71.634 Y81.525 E290.81379
G0 F7800 X71.739 Y80.995
G1 F3600 X74.246 Y78.488 E290.90223
G0 F7800 X73.821 Y78.488
G1 F3600 X71.875 Y80.434 E290.97088
G0 F7800 X72.043 Y79.842
G1 F3600 X73.397 Y78.488 E291.01865
G0 F7800 X72.973 Y78.488
G1 F3600 X72.21 Y79.251 E291.04556
G0 F7800 X72.377 Y78.66
G1 F3600 X72.549 Y78.488 E291.05163
G0 F7800 X74.181 Y84.493
G0 X74.181 Y84.493
G1 F3600 X80.185 Y78.488 E291.26346
G0 F7800 X79.761 Y78.488
G1 F3600 X73.599 Y84.65 E291.48084
G0 F7800 X74.761 Y84.337
G1 F3600 X80.61 Y78.488 E291.68718
G0 F7800 X81.034 Y78.488
G1 F3600 X75.197 Y84.326 E291.89311
G0 F7800 X75.531 Y84.416
G1 F3600 X81.458 Y78.488 E292.10222
G0 F7800 X81.882 Y78.488
G1 F3600 X75.865 Y84.506 E292.3145
G0 F7800 X76.199 Y84.596
G1 F3600 X82.307 Y78.488 E292.52998
G0 F7800 X82.731 Y78.488
G1 F3600 X76.533 Y84.686 E292.74863
G0 F7800 X76.774 Y84.869
G1 F3600 X83.155 Y78.488 E292.97374
G0 F7800 X83.58 Y78.488
G1 F3600 X76.987 Y85.081 E293.20632
G0 F7800 X77.199 Y85.293
G1 F3600 X84.004 Y78.488 E293.44639
G0 F7800 X84.428 Y78.488
G1 F3600 X77.411 Y85.505 E293.69393
G0 F7800 X77.624 Y85.716
G1 F3600 X84.852 Y78.488 E293.94892
G0 F7800 X85.277 Y78.488
G1 F3600 X77.812 Y85.953 E294.21227
G0 F7800 X77.901 Y86.288
G1 F3600 X85.701 Y78.488 E294.48743
G0 F7800 X86.124 Y78.489
G1 F3600 X77.99 Y86.624 E294.7744
G0 F7800 X78.079 Y86.959
G1 F3600 X86.549 Y78.489 E295.0732
G0 F7800 X86.973 Y78.489
G1 F3600 X78.169 Y87.293 E295.38379
G0 F7800 X78.164 Y87.722
G1 F3600 X87.397 Y78.489 E295.70951
G0 F7800 X87.821 Y78.489
G1 F3600 X78.01 Y88.301 E296.05563
G0 F7800 X77.856 Y88.879
G1 F3600 X88.246 Y78.489 E296.42217
G0 F7800 X93.743 Y81.052
G0 X93.743 Y81.052
G1 F3600 X96.307 Y78.489 E296.5126
G0 F7800 X96.731 Y78.489
G1 F3600 X95.021 Y80.199 E296.57293
G0 F7800 X96.3 Y79.345
G0 X96.3 Y79.345
G1 F3600 X97.155 Y78.489 E296.60311
G0 F7800 X97.58 Y78.489
G1 F3600 X96.976 Y79.092 E296.6244
G0 F7800 X97.507 Y78.986
G1 F3600 X98.004 Y78.489 E296.64193
G0 F7800 X98.036 Y78.881
G1 F3600 X98.428 Y78.489 E296.65576
G0 F7800 X98.567 Y78.775
G1 F3600 X98.852 Y78.489 E296.66583
G0 F7800 X99.097 Y78.669
G1 F3600 X99.277 Y78.489 E296.67218
G0 F7800 X100.812 Y78.651
G0 X100.812 Y78.651
G1 F3600 X101.069 Y78.606 E296.67784
G1 X101.458 Y78.641 E296.68603
G1 X101.847 Y78.676 E296.69668
G1 X102.246 Y78.49 E296.70766
G0 F7800 X102.67 Y78.49
G1 F3600 X102.227 Y78.933 E296.72329
G0 F7800 X102.58 Y79.004
G1 F3600 X103.094 Y78.49 E296.74142
G0 F7800 X103.519 Y78.49
G1 F3600 X102.934 Y79.074 E296.76204
G0 F7800 X103.288 Y79.145
G1 F3600 X103.943 Y78.49 E296.78515
G0 F7800 X104.367 Y78.49
G1 F3600 X103.587 Y79.27 E296.81266
G0 F7800 X103.841 Y79.44
G1 F3600 X104.791 Y78.49 E296.84618
G0 F7800 X105.216 Y78.49
G1 F3600 X104.096 Y79.61 E296.88569
G0 F7800 X104.35 Y79.78
G1 F3600 X105.64 Y78.49 E296.9312
G0 F7800 X106.064 Y78.49
G1 F3600 X104.604 Y79.95 E296.9827
G0 F7800 X104.858 Y80.12
G1 F3600 X106.488 Y78.49 E297.04021
G0 F7800 X106.913 Y78.49
G1 F3600 X105.112 Y80.29 E297.10372
G0 F7800 X105.367 Y80.46
G1 F3600 X107.337 Y78.49 E297.17322
G0 F7800 X107.761 Y78.49
G1 F3600 X105.621 Y80.629 E297.2487
G0 F7800 X105.875 Y80.8
G1 F3600 X108.185 Y78.49 E297.33019
G0 F7800 X108.61 Y78.49
G1 F3600 X106.13 Y80.97 E297.41768
G0 F7800 X106.379 Y81.145
G1 F3600 X109.034 Y78.49 E297.51134
G0 F7800 X109.458 Y78.49
G1 F3600 X106.549 Y81.399 E297.61396
G0 F7800 X106.719 Y81.653
G1 F3600 X109.882 Y78.49 E297.72555
G0 F7800 X110.307 Y78.49
G1 F3600 X106.889 Y81.907 E297.84611
G0 F7800 X107.059 Y82.162
G1 F3600 X110.731 Y78.49 E297.97565
G0 F7800 X111.155 Y78.49
G1 F3600 X107.229 Y82.416 E298.11415
G0 F7800 X107.399 Y82.67
G1 F3600 X111.58 Y78.49 E298.26163
G0 F7800 X112.004 Y78.49
G1 F3600 X107.569 Y82.925 E298.41808
G0 F7800 X107.739 Y83.179
G1 F3600 X112.428 Y78.49 E298.5835
G0 F7800 X112.852 Y78.49
G1 F3600 X107.909 Y83.433 E298.75788
G0 F7800 X108.079 Y83.688
G1 F3600 X113.277 Y78.49 E298.94125
G0 F7800 X113.701 Y78.49
G1 F3600 X108.249 Y83.942 E299.13358
G0 F7800 X108.362 Y84.253
G1 F3600 X114.125 Y78.49 E299.33689
G0 F7800 X114.549 Y78.49
G1 F3600 X108.432 Y84.607 E299.55268
G0 F7800 X108.503 Y84.961
G1 F3600 X114.974 Y78.49 E299.78097
G0 F7800 X115.398 Y78.49
G1 F3600 X108.574 Y85.314 E300.0217
G0 F7800 X108.644 Y85.668
G1 F3600 X115.822 Y78.49 E300.27492
G0 F7800 X116.246 Y78.49
G1 F3600 X108.714 Y86.022 E300.54064
G0 F7800 X108.785 Y86.375
G1 F3600 X116.671 Y78.49 E300.81882
G0 F7800 X117.095 Y78.49
G1 F3600 X108.855 Y86.73 E301.10951
G0 F7800 X108.926 Y87.083
G1 F3600 X117.519 Y78.49 E301.41265
G0 F7800 X117.943 Y78.49
G1 F3600 X108.996 Y87.437 E301.72828
G0 F7800 X108.922 Y87.936
G1 F3600 X118.368 Y78.49 E302.06151
G0 F7800 X118.792 Y78.49
G1 F3600 X108.816 Y88.466 E302.41344
G0 F7800 X108.711 Y88.995
G1 F3600 X119.216 Y78.49 E302.78403
G0 F7800 X119.641 Y78.49
G1 F3600 X108.605 Y89.525 E303.17334
G0 F7800 X108.5 Y90.054
G1 F3600 X120.065 Y78.49 E303.58131
G0 F7800 X120.489 Y78.49
G1 F3600 X108.394 Y90.585 E304.00799
G0 F7800 X108.054 Y91.349
G1 F3600 X120.913 Y78.49 E304.46163
G0 F7800 X121.338 Y78.49
G1 F3600 X107.198 Y92.629 E304.96044
G0 F7800 X119.44 Y96.51
G0 X119.44 Y96.51
G1 F3600 X125.309 Y90.641 E305.16748
G0 F7800 X125.887 Y90.487
G1 F3600 X119.864 Y96.51 E305.37996
G0 F7800 X120.288 Y96.51
G1 F3600 X126.466 Y90.332 E305.59791
G0 F7800 X127.83 Y88.968
G0 X127.83 Y88.968
G1 F3600 X128.997 Y87.801 E305.63908
G0 F7800 X129.004 Y87.37
G1 F3600 X127.986 Y88.388 E305.67499
G0 F7800 X128.142 Y87.807
G1 F3600 X128.987 Y86.962 E305.7048
G0 F7800 X128.971 Y86.554
G1 F3600 X128.182 Y87.343 E305.73263
G0 F7800 X128.093 Y87.008
G1 F3600 X128.955 Y86.146 E305.76304
G0 F7800 X128.938 Y85.738
G1 F3600 X128.003 Y86.674 E305.79604
G0 F7800 X127.913 Y86.339
G1 F3600 X128.922 Y85.33 E305.83164
G0 F7800 X128.884 Y84.944
G1 F3600 X127.822 Y86.006 E305.8691
G0 F7800 X127.654 Y85.75
G1 F3600 X128.839 Y84.565 E305.91091
G0 F7800 X128.795 Y84.185
G1 F3600 X127.442 Y85.538 E305.95864
G0 F7800 X127.23 Y85.325
G1 F3600 X128.75 Y83.806 E306.01224
G0 F7800 X128.705 Y83.426
G1 F3600 X127.018 Y85.113 E306.07176
G0 F7800 X126.806 Y84.901
G1 F3600 X128.66 Y83.046 E306.13718
G0 F7800 X128.596 Y82.686
G1 F3600 X126.583 Y84.7 E306.20821
G0 F7800 X126.248 Y84.61
G1 F3600 X128.525 Y82.333 E306.28854
G0 F7800 X128.455 Y81.979
G1 F3600 X125.914 Y84.52 E306.37818
G0 F7800 X125.58 Y84.43
G1 F3600 X128.385 Y81.624 E306.47715
G0 F7800 X128.315 Y81.271
G1 F3600 X125.245 Y84.34 E306.58543
G0 F7800 X124.846 Y84.315
G1 F3600 X128.245 Y80.917 E306.70533
G0 F7800 X128.163 Y80.574
G1 F3600 X124.266 Y84.471 E306.8428
G0 F7800 X124.713 Y84.829
G0 X126.355 Y85.153
G0 X127.347 Y86.145
G0 X127.519 Y87.075
G0 X128.979 Y88.243
G0 X128.979 Y88.243
G1 F3600 X120.713 Y96.51 E307.13443
G0 F7800 X121.137 Y96.51
G1 F3600 X128.962 Y88.685 E307.41047
G0 F7800 X128.944 Y89.127
G1 F3600 X121.561 Y96.51 E307.67093
G0 F7800 X121.985 Y96.51
G1 F3600 X128.926 Y89.569 E307.91579
G0 F7800 X128.887 Y90.033
G1 F3600 X122.41 Y96.51 E308.14429
G0 F7800 X122.834 Y96.51
G1 F3600 X128.83 Y90.513 E308.35583
G0 F7800 X128.774 Y90.994
G1 F3600 X123.258 Y96.51 E308.55042
G0 F7800 X123.682 Y96.51
G1 F3600 X128.717 Y91.475 E308.72804
G0 F7800 X128.66 Y91.956
G1 F3600 X124.107 Y96.51 E308.88868
G0 F7800 X124.531 Y96.51
G1 F3600 X128.563 Y92.478 E309.03092
G0 F7800 X128.458 Y93.007
G1 F3600 X124.955 Y96.51 E309.1545
G0 F7800 X125.379 Y96.51
G1 F3600 X128.353 Y93.536 E309.25941
G0 F7800 X128.247 Y94.066
G1 F3600 X125.804 Y96.51 E309.34561
G0 F7800 X126.228 Y96.51
G1 F3600 X128.103 Y94.634 E309.41178
G0 F7800 X127.937 Y95.225
G1 F3600 X126.652 Y96.51 E309.45711
G0 F7800 X127.076 Y96.51
G1 F3600 X127.77 Y95.816 E309.48159
G0 F7800 X127.603 Y96.407
G1 F3600 X127.501 Y96.51 E309.48521
G1 F1800 E308.48521
G0 F7800 X108.155 Y89.27
G0 X108.506 Y87.5
G0 X107.858 Y84.246
G0 X106.013 Y81.487
G0 X103.254 Y79.642
G0 X100 Y78.994
G0 X96.746 Y79.642
G0 X93.987 Y81.487
G0 X92.66 Y83.472
G0 X79.337 Y78.488
G0 X79.337 Y78.488
G1 F1800 E309.48521
G1 F3600 X71.017 Y86.808 E309.77872
G0 F7800 X71.035 Y86.366
G1 F3600 X78.913 Y78.488 E310.05664
G1 F1800 E309.05664
G0 F7800 X106.152 Y112.5
G0 X106.76 Y112.5
; TYPE:WALL-INNER
G1 F1800 E310.05664
G1 X106.393 Y110.304 E310.11218
G1 X105.334 Y108.347 E310.16768
G1 X103.697 Y106.84 E310.22319
G1 X101.659 Y105.946 E310.2787
G1 X99.442 Y105.762 E310.33419
G1 X97.285 Y106.309 E310.3897
G1 X95.422 Y107.526 E310.44521
G1 X94.055 Y109.282 E310.50073
G1 X93.332 Y111.387 E310.55625
G1 X93.332 Y111.75 E310.5653
G1 X93.3 Y111.75 E310.5661
G1 X93.3 Y121.75 E310.81555
G1 X72.261 Y121.75 E311.34037
G1 X72.184 Y121.54 E311.34595
G1 X71.559 Y119.329 E311.40327
G1 X71.111 Y117.074 E311.46062
G1 X70.841 Y114.787 E311.51806
G1 X70.75 Y112.5 E311.57516
G1 X70.841 Y110.212 E311.63228
G1 X71.111 Y107.925 E311.68972
G1 X71.559 Y105.67 E311.74707
G1 X72.182 Y103.464 E311.80425
G1 X72.261 Y103.25 E311.80994
G1 X127.739 Y103.25 E313.19385
G1 X127.818 Y103.464 E313.19954
G1 X128.441 Y105.67 E313.25672
G1 X128.889 Y107.925 E313.31407
G1 X129.159 Y110.212 E313.37152
G1 X129.25 Y112.5 E313.42863
G1 X129.159 Y114.787 E313.48573
G1 X128.889 Y117.074 E313.54318
G1 X128.441 Y119.329 E313.60053
G1 X127.816 Y121.54 E313.65784
G1 X127.739 Y121.75 E313.66342
G1 X106.7 Y121.75 E314.18824
G1 X106.7 Y112.863 E314.40993
G1 X106.76 Y112.5 E314.41911
G0 F7800 X106.456 Y112.5
G1 F1800 X106.105 Y110.403 E314.47214
G1 X105.094 Y108.534 E314.52515
G1 X103.531 Y107.095 E314.57815
G1 X101.584 Y106.241 E314.63118
G1 X99.467 Y106.065 E314.68417
G1 X97.407 Y106.587 E314.73718
G1 X95.628 Y107.749 E314.79019
G1 X94.323 Y109.427 E314.84321
G1 X93.632 Y111.437 E314.89623
G1 X93.632 Y112.05 E314.91153
G1 X93.6 Y112.05 E314.91232
G1 X93.6 Y122.05 E315.16177
G1 X72.052 Y122.05 E315.69929
G1 X71.897 Y121.63 E315.71046
G1 X71.266 Y119.396 E315.76837
G1 X70.816 Y117.128 E315.82605
G1 X70.542 Y114.821 E315.884
G1 X70.451 Y112.5 E315.94194
G1 X70.542 Y110.178 E315.99991
G1 X70.816 Y107.871 E316.05786
G1 X71.266 Y105.603 E316.11554
G1 X71.897 Y103.369 E316.17345
G1 X72.052 Y102.95 E316.18459
G1 X127.948 Y102.95 E317.57892
G1 X128.103 Y103.369 E317.59007
G1 X128.734 Y105.603 E317.64797
G1 X129.184 Y107.871 E317.70565
G1 X129.458 Y110.178 E317.7636
G1 X129.549 Y112.5 E317.82157
G1 X129.458 Y114.821 E317.87951
G1 X129.184 Y117.128 E317.93747
G1 X128.734 Y119.396 E317.99515
G1 X128.103 Y121.63 E318.05305
G1 X127.948 Y122.05 E318.06422
G1 X106.4 Y122.05 E318.60174
G1 X106.4 Y112.837 E318.83156
G1 X106.456 Y112.5 E318.84008
G0 F7800 X106.152 Y112.5
; TYPE:WALL-OUTER
G1 F1260 X105.818 Y110.502 E318.89061
G1 X104.854 Y108.721 E318.94113
G1 X103.364 Y107.35 E318.99164
G1 X101.509 Y106.536 E319.04217
G1 X99.492 Y106.368 E319.09266
G1 X97.529 Y106.866 E319.14318
G1 X95.834 Y107.973 E319.19368
G1 X94.59 Y109.572 E319.24421
G1 X93.932 Y111.487 E319.29472
G1 X93.932 Y112.35 E319.31625
G1 X93.9 Y112.35 E319.31705
G1 X93.9 Y122.35 E319.5665
G1 X71.843 Y122.35 E320.11672
G1 X71.61 Y121.718 E320.13352
G1 X70.975 Y119.469 E320.19181
G1 X70.519 Y117.173 E320.25021
G1 X70.243 Y114.842 E320.30876
G1 X70.15 Y112.506 E320.36708
G1 X70.243 Y110.152 E320.42584
G1 X70.519 Y107.824 E320.48432
G1 X70.976 Y105.525 E320.54279
G1 X71.61 Y103.281 E320.60096
G1 X71.843 Y102.65 E320.61774
G1 X128.157 Y102.65 E322.0225
G1 X128.39 Y103.281 E322.03928
G1 X129.024 Y105.525 E322.09745
G1 X129.481 Y107.824 E322.15592
G1 X129.757 Y110.152 E322.2144
G1 X129.85 Y112.494 E322.27286
G1 X129.757 Y114.842 E322.33148
G1 X129.481 Y117.173 E322.39003
G1 X129.025 Y119.469 E322.44843
G1 X128.39 Y121.718 E322.50672
G1 X128.157 Y122.35 E322.52352
G1 X106.1 Y122.35 E323.07374
G1 X106.1 Y112.812 E323.31166
G1 X106.152 Y112.5 E323.31955
G0 F7800 X106.397 Y112.541
G0 X122.024 Y112.5
G0 X122.024 Y112.5
; TYPE:WALL-INNER
G1 F1800 X122.421 Y113.988 E323.35797
G1 X123.512 Y115.077 E323.39642
G1 X125 Y115.477 E323.43486
G1 X126.488 Y115.077 E323.4733
G1 X127.577 Y113.988 E323.51171
G1 X127.977 Y112.5 E323.55015
G1 X127.577 Y111.012 E323.58858
G1 X126.488 Y109.921 E323.62704
G1 X125 Y109.524 E323.66545
G1 X123.512 Y109.921 E323.70387
G1 X122.421 Y111.012 E323.74236
G1 X122.024 Y112.5 E323.78078
G0 F7800 X122.334 Y112.5
G1 F1800 X122.69 Y113.833 E323.81519
G1 X123.667 Y114.808 E323.84962
G1 X125 Y115.166 E323.88405
G1 X126.333 Y114.808 E323.91848
G1 X127.308 Y113.833 E323.95288
G1 X127.666 Y112.5 E323.98731
G1 X127.308 Y111.167 E324.02174
G1 X126.333 Y110.19 E324.05617
G1 X125 Y109.834 E324.09059
G1 X123.667 Y110.19 E324.12501
G1 X122.69 Y111.167 E324.15947
G1 X122.334 Y112.5 E324.19389
G0 F7800 X122.402 Y112.568
G0 X122.652 Y113.855
G0 X123.646 Y114.847
G0 X124.937 Y115.097
G0 X124.936 Y115.096
G0 X124.936 Y115.096
G0 X125 Y114.855
; TYPE:WALL-OUTER
G1 F1260 X126.178 Y114.539 E324.22431
G1 X127.039 Y113.678 E324.25469
G1 X127.355 Y112.5 E324.28511
G1 X127.039 Y111.322 E324.31554
G1 X126.178 Y110.459 E324.34595
G1 X125 Y110.145 E324.37636
G1 X123.822 Y110.459 E324.40677
G1 X122.959 Y111.322 E324.43721
G1 X122.645 Y112.5 E324.46762
G1 X122.959 Y113.678 E324.49804
G1 X123.822 Y114.539 E324.52844
G1 X125 Y114.855 E324.55887
G1 F1800 E323.55887
G0 F7800 X124.936 Y115.096
G0 X124.927 Y115.095
G0 X124.528 Y115.072
G0 X106.449 Y114.073
G0 X106.449 Y112.84
G0 X106.504 Y112.5
G0 X106.151 Y110.388
G0 X105.131 Y108.505
G0 X103.556 Y107.055
G0 X101.596 Y106.195
G0 X99.464 Y106.018
G0 X97.388 Y106.543
G0 X95.596 Y107.714
G0 X94.282 Y109.404
G0 X93.585 Y111.43
G0 X93.641 Y112.059
G0 X93.609 Y112.059
G0 X93.549 Y113.36
G0 X77.976 Y112.5
G0 X77.976 Y112.5
; TYPE:WALL-INNER
G1 F1800 E324.55887
G1 X77.579 Y111.012 E324.59729
G1 X76.488 Y109.921 E324.63577
G1 X75 Y109.524 E324.67419
G1 X73.512 Y109.921 E324.71261
G1 X72.423 Y111.012 E324.75106
G1 X72.023 Y112.5 E324.7895
G1 X72.423 Y113.988 E324.82793
G1 X73.512 Y115.077 E324.86635
G1 X75 Y115.477 E324.90479
G1 X76.488 Y115.077 E324.94322
G1 X77.579 Y113.988 E324.98167
G1 X77.976 Y112.5 E325.02009
G0 F7800 X77.666 Y112.5
G1 F1800 X77.31 Y111.167 E325.05451
G1 X76.333 Y110.19 E325.08897
G1 X75 Y109.834 E325.12339
G1 X73.667 Y110.19 E325.15781
G1 X72.692 Y111.167 E325.19224
G1 X72.334 Y112.5 E325.22667
G1 X72.692 Y113.833 E325.2611
G1 X73.667 Y114.808 E325.2955
G1 X75 Y115.166 E325.32993
G1 X76.333 Y114.808 E325.36436
G1 X77.31 Y113.833 E325.39879
G1 X77.666 Y112.5 E325.4332
G0 F7800 X77.602 Y112.559
G0 X77.348 Y113.855
G0 X76.354 Y114.847
G0 X74.889 Y115.139
G0 X74.936 Y115.096
G0 X74.936 Y115.096
G0 X75 Y114.855
; TYPE:WALL-OUTER
G1 F1260 X76.178 Y114.539 E325.46363
G1 X77.041 Y113.678 E325.49404
G1 X77.355 Y112.5 E325.52445
G1 X77.041 Y111.322 E325.55486
G1 X76.178 Y110.459 E325.58531
G1 X75 Y110.145 E325.61572
G1 X73.822 Y110.459 E325.64613
G1 X72.961 Y111.322 E325.67654
G1 X72.645 Y112.5 E325.70696
G1 X72.961 Y113.678 E325.73739
G1 X73.822 Y114.539 E325.76776
G1 X75 Y114.855 E325.79818
G0 F7800 X75.265 Y115.653
; TYPE:FILL
G1 F3600 X71.767 Y119.151 E325.92159
G0 F7800 X71.854 Y119.489
G1 F3600 X75.844 Y115.498 E326.06236
G0 F7800 X76.425 Y115.341
G1 F3600 X71.948 Y119.819 E326.22032
G0 F7800 X72.041 Y120.15
G1 F3600 X88.702 Y103.489 E326.80808
G0 F7800 X89.126 Y103.489
G1 F3600 X72.134 Y120.481 E327.40752
G0 F7800 X72.228 Y120.811
G1 F3600 X89.55 Y103.489 E328.0186
G0 F7800 X89.975 Y103.489
G1 F3600 X72.322 Y121.142 E328.64136
G0 F7800 X72.415 Y121.473
G1 F3600 X90.399 Y103.489 E329.27579
G0 F7800 X90.823 Y103.489
G1 F3600 X72.803 Y121.509 E329.91149
G0 F7800 X73.227 Y121.509
G1 F3600 X91.247 Y103.489 E330.5472
G0 F7800 X91.672 Y103.489
G1 F3600 X73.652 Y121.509 E331.1829
G0 F7800 X74.076 Y121.509
G1 F3600 X92.096 Y103.489 E331.81861
G0 F7800 X92.52 Y103.489
G1 F3600 X74.5 Y121.509 E332.45431
G0 F7800 X74.925 Y121.509
G1 F3600 X92.944 Y103.489 E333.09
G0 F7800 X93.369 Y103.489
G1 F3600 X75.349 Y121.509 E333.7257
G0 F7800 X75.773 Y121.509
G1 F3600 X93.793 Y103.489 E334.36141
G0 F7800 X94.217 Y103.489
G1 F3600 X76.197 Y121.509 E334.99711
G0 F7800 X76.622 Y121.509
G1 F3600 X94.642 Y103.489 E335.63281
G0 F7800 X95.066 Y103.489
G1 F3600 X77.046 Y121.509 E336.26852
G0 F7800 X77.47 Y121.509
G1 F3600 X95.49 Y103.489 E336.90422
G0 F7800 X95.914 Y103.489
G1 F3600 X77.894 Y121.509 E337.53993
G0 F7800 X78.319 Y121.509
G1 F3600 X96.339 Y103.489 E338.17563
G0 F7800 X96.763 Y103.489
G1 F3600 X78.743 Y121.509 E338.81133
G0 F7800 X79.167 Y121.509
G1 F3600 X97.187 Y103.489 E339.44704
G0 F7800 X97.611 Y103.489
G1 F3600 X79.591 Y121.509 E340.08274
G0 F7800 X80.016 Y121.509
G1 F3600 X98.036 Y103.489 E340.71845
G0 F7800 X98.46 Y103.489
G1 F3600 X80.44 Y121.509 E341.35415
G0 F7800 X80.864 Y121.509
G1 F3600 X98.884 Y103.489 E341.98986
G0 F7800 X99.308 Y103.489
G1 F3600 X95.82 Y106.978 E342.11292
G0 F7800 X97.044 Y106.178
G1 F3600 X99.733 Y103.489 E342.20778
G0 F7800 X100.156 Y103.49
G1 F3600 X97.688 Y105.957 E342.29483
G0 F7800 X98.256 Y105.814
G1 F3600 X100.58 Y103.49 E342.37682
G0 F7800 X101.005 Y103.49
G1 F3600 X98.824 Y105.67 E342.45374
G0 F7800 X99.393 Y105.526
G1 F3600 X101.429 Y103.49 E342.52556
G0 F7800 X101.853 Y103.49
G1 F3600 X99.793 Y105.55 E342.59824
G0 F7800 X100.185 Y105.582
G1 F3600 X102.278 Y103.49 E342.67206
G0 F7800 X102.702 Y103.49
G1 F3600 X100.577 Y105.614 E342.747
G0 F7800 X100.969 Y105.647
G1 F3600 X103.126 Y103.49 E342.8231
G0 F7800 X103.55 Y103.49
G1 F3600 X101.36 Y105.679 E342.90034
G0 F7800 X101.744 Y105.72
G1 F3600 X103.975 Y103.49 E342.97902
G0 F7800 X104.399 Y103.49
G1 F3600 X102.039 Y105.849 E343.06226
G0 F7800 X102.334 Y105.979
G1 F3600 X104.823 Y103.49 E343.15007
G0 F7800 X105.247 Y103.49
G1 F3600 X102.629 Y106.108 E343.24243
G0 F7800 X102.924 Y106.237
G1 F3600 X105.672 Y103.49 E343.33935
G0 F7800 X106.096 Y103.49
G1 F3600 X103.219 Y106.367 E343.44084
G0 F7800 X103.514 Y106.496
G1 F3600 X106.52 Y103.49 E343.54689
G0 F7800 X106.944 Y103.49
G1 F3600 X103.808 Y106.626 E343.65752
G0 F7800 X104.035 Y106.824
G1 F3600 X107.369 Y103.49 E343.77514
G0 F7800 X107.793 Y103.49
G1 F3600 X104.255 Y107.027 E343.89993
G0 F7800 X104.476 Y107.231
G1 F3600 X108.217 Y103.49 E344.0319
G0 F7800 X108.642 Y103.49
G1 F3600 X104.697 Y107.434 E344.17106
G0 F7800 X104.918 Y107.637
G1 F3600 X109.066 Y103.49 E344.31737
G0 F7800 X109.49 Y103.49
G1 F3600 X105.139 Y107.841 E344.47087
G0 F7800 X105.36 Y108.044
G1 F3600 X109.914 Y103.49 E344.63152
G0 F7800 X110.339 Y103.49
G1 F3600 X105.562 Y108.266 E344.80002
G0 F7800 X105.711 Y108.541
G1 F3600 X110.763 Y103.49 E344.97823
G0 F7800 X111.187 Y103.49
G1 F3600 X105.86 Y108.816 E345.16614
G0 F7800 X106.01 Y109.091
G1 F3600 X111.611 Y103.49 E345.36373
G0 F7800 X112.036 Y103.49
G1 F3600 X106.159 Y109.366 E345.57104
G0 F7800 X106.308 Y109.641
G1 F3600 X112.46 Y103.49 E345.78805
G0 F7800 X112.884 Y103.49
G1 F3600 X106.457 Y109.916 E346.01476
G0 F7800 X106.606 Y110.191
G1 F3600 X113.308 Y103.49 E346.25117
G0 F7800 X113.733 Y103.49
G1 F3600 X106.677 Y110.545 E346.50007
G0 F7800 X106.738 Y110.908
G1 F3600 X114.157 Y103.49 E346.76178
G0 F7800 X114.581 Y103.49
G1 F3600 X106.799 Y111.272 E347.03631
G0 F7800 X106.86 Y111.635
G1 F3600 X115.005 Y103.49 E347.32365
G0 F7800 X115.43 Y103.49
G1 F3600 X106.92 Y112 E347.62386
G0 F7800 X106.981 Y112.363
G1 F3600 X115.854 Y103.49 E347.93688
G0 F7800 X116.278 Y103.49
G1 F3600 X106.95 Y112.818 E348.26595
G0 F7800 X106.94 Y113.253
G1 F3600 X116.703 Y103.49 E348.61037
G0 F7800 X117.127 Y103.49
G1 F3600 X106.94 Y113.677 E348.96974
G0 F7800 X106.94 Y114.101
G1 F3600 X117.551 Y103.49 E349.34407
G0 F7800 X117.975 Y103.49
G1 F3600 X106.94 Y114.525 E349.73336
G0 F7800 X106.94 Y114.95
G1 F3600 X118.4 Y103.49 E350.13765
G0 F7800 X118.824 Y103.49
G1 F3600 X106.94 Y115.374 E350.55689
G0 F7800 X106.94 Y115.798
G1 F3600 X119.248 Y103.49 E350.99108
G0 F7800 X119.672 Y103.49
G1 F3600 X106.94 Y116.222 E351.44024
G0 F7800 X106.94 Y116.647
G1 F3600 X120.097 Y103.49 E351.90439
G0 F7800 X120.521 Y103.49
G1 F3600 X106.94 Y117.071 E352.38349
G0 F7800 X106.94 Y117.495
G1 F3600 X120.945 Y103.49 E352.87756
G0 F7800 X121.369 Y103.49
G1 F3600 X106.94 Y117.919 E353.38658
G0 F7800 X106.94 Y118.344
G1 F3600 X121.794 Y103.49 E353.9106
G0 F7800 X122.218 Y103.49
G1 F3600 X106.94 Y118.768 E354.44957
G0 F7800 X106.94 Y119.192
G1 F3600 X122.642 Y103.49 E355.0035
G0 F7800 X123.066 Y103.49
G1 F3600 X106.94 Y119.617 E355.5724
G0 F7800 X106.94 Y120.041
G1 F3600 X123.491 Y103.49 E356.15629
G0 F7800 X123.915 Y103.49
G1 F3600 X106.94 Y120.465 E356.75513
G0 F7800 X106.94 Y120.889
G1 F3600 X124.339 Y103.49 E357.36892
G0 F7800 X124.764 Y103.49
G1 F3600 X106.94 Y121.314 E357.99771
G0 F7800 X107.169 Y121.509
G1 F3600 X125.188 Y103.49 E358.63338
G0 F7800 X125.612 Y103.49
G1 F3600 X107.593 Y121.509 E359.26905
G0 F7800 X108.017 Y121.509
G1 F3600 X126.036 Y103.49 E359.90472
G0 F7800 X126.461 Y103.49
G1 F3600 X108.441 Y121.509 E360.5404
G0 F7800 X108.866 Y121.509
G1 F3600 X126.885 Y103.49 E361.17607
G0 F7800 X127.309 Y103.49
G1 F3600 X109.29 Y121.509 E361.81174
G0 F7800 X109.714 Y121.509
G1 F3600 X127.609 Y103.614 E362.44304
G0 F7800 X127.702 Y103.945
G1 F3600 X110.138 Y121.509 E363.06265
G0 F7800 X110.563 Y121.509
G1 F3600 X127.796 Y104.276 E363.6706
G0 F7800 X127.89 Y104.606
G1 F3600 X110.987 Y121.509 E364.26689
G0 F7800 X111.411 Y121.509
G1 F3600 X127.983 Y104.937 E364.85152
G0 F7800 X128.076 Y105.268
G1 F3600 X123.73 Y109.614 E365.00483
G0 F7800 X124.309 Y109.46
G1 F3600 X128.17 Y105.599 E365.14104
G0 F7800 X128.25 Y105.942
G1 F3600 X124.887 Y109.305 E365.25968
G0 F7800 X125.269 Y109.348
G1 F3600 X128.32 Y106.297 E365.36731
G0 F7800 X128.39 Y106.651
G1 F3600 X125.604 Y109.437 E365.4656
G0 F7800 X125.939 Y109.526
G1 F3600 X128.461 Y107.005 E365.55455
G0 F7800 X128.531 Y107.359
G1 F3600 X126.275 Y109.615 E365.63413
G0 F7800 X126.61 Y109.704
G1 F3600 X128.601 Y107.713 E365.70437
G0 F7800 X128.664 Y108.074
G1 F3600 X126.823 Y109.916 E365.76934
G0 F7800 X127.034 Y110.129
G1 F3600 X128.708 Y108.454 E365.82841
G0 F7800 X128.753 Y108.834
G1 F3600 X127.246 Y110.341 E365.88157
G0 F7800 X127.458 Y110.553
G1 F3600 X128.798 Y109.213 E365.92884
G0 F7800 X128.843 Y109.593
G1 F3600 X127.67 Y110.766 E365.97022
G0 F7800 X127.83 Y111.03
G1 F3600 X128.887 Y109.972 E366.00753
G0 F7800 X128.923 Y110.36
G1 F3600 X127.919 Y111.365 E366.04297
G0 F7800 X128.009 Y111.699
G1 F3600 X128.94 Y110.768 E366.07581
G0 F7800 X128.956 Y111.176
G1 F3600 X128.099 Y112.033 E366.10604
G0 F7800 X128.189 Y112.368
G1 F3600 X128.972 Y111.584 E366.13368
G0 F7800 X128.989 Y111.992
G1 F3600 X128.129 Y112.852 E366.16402
G0 F7800 X127.974 Y113.431
G1 F3600 X129.005 Y112.4 E366.20039
G0 F7800 X128.996 Y112.834
G1 F3600 X127.818 Y114.012 E366.24195
G0 F7800 X128.943 Y114.16
G1 F3600 X121.593 Y121.509 E366.50122
G0 F7800 X122.017 Y121.509
G1 F3600 X128.925 Y114.602 E366.74491
G0 F7800 X128.882 Y115.068
G1 F3600 X122.441 Y121.509 E366.97213
G0 F7800 X122.866 Y121.509
G1 F3600 X128.826 Y115.549 E367.18238
G0 F7800 X128.769 Y116.03
G1 F3600 X123.29 Y121.509 E367.37567
G0 F7800 X123.714 Y121.509
G1 F3600 X128.712 Y116.512 E367.55197
G0 F7800 X128.655 Y116.992
G1 F3600 X124.138 Y121.509 E367.71132
G0 F7800 X124.563 Y121.509
G1 F3600 X128.555 Y117.517 E367.85215
G0 F7800 X128.45 Y118.047
G1 F3600 X124.987 Y121.509 E367.9743
G0 F7800 X125.411 Y121.509
G1 F3600 X128.344 Y118.576 E368.07777
G0 F7800 X128.24 Y119.105
G1 F3600 X125.836 Y121.509 E368.16258
G0 F7800 X126.26 Y121.509
G1 F3600 X128.09 Y119.679 E368.22713
G0 F7800 X127.923 Y120.271
G1 F3600 X126.684 Y121.509 E368.27082
G0 F7800 X127.108 Y121.509
G1 F3600 X127.755 Y120.862 E368.29365
G0 F7800 X127.588 Y121.454
G1 F3600 X127.533 Y121.509 E368.29559
G0 F7800 X125.931 Y115.474
G0 X125.931 Y115.474
G1 F3600 X119.896 Y121.509 E368.50849
G0 F7800 X119.472 Y121.509
G1 F3600 X125.35 Y115.631 E368.71585
G0 F7800 X124.867 Y115.69
G1 F3600 X119.047 Y121.509 E368.92115
G0 F7800 X118.623 Y121.509
G1 F3600 X124.532 Y115.6 E369.12961
G0 F7800 X124.199 Y115.51
G1 F3600 X118.199 Y121.509 E369.34126
G0 F7800 X117.774 Y121.509
G1 F3600 X123.864 Y115.42 E369.55608
G0 F7800 X123.53 Y115.33
G1 F3600 X117.35 Y121.509 E369.77408
G0 F7800 X116.927 Y121.509
G1 F3600 X123.265 Y115.17 E369.99769
G0 F7800 X123.052 Y114.959
G1 F3600 X116.502 Y121.509 E370.22875
G0 F7800 X116.078 Y121.509
G1 F3600 X122.84 Y114.747 E370.4673
G0 F7800 X122.628 Y114.535
G1 F3600 X115.654 Y121.509 E370.71333
G0 F7800 X115.23 Y121.509
G1 F3600 X122.415 Y114.323 E370.96682
G0 F7800 X122.204 Y114.11
G1 F3600 X114.805 Y121.509 E371.22784
G0 F7800 X114.381 Y121.509
G1 F3600 X122.115 Y113.775 E371.50067
G0 F7800 X122.026 Y113.44
G1 F3600 X113.957 Y121.509 E371.78533
G0 F7800 X113.533 Y121.509
G1 F3600 X121.937 Y113.105 E372.0818
G0 F7800 X121.847 Y112.77
G1 F3600 X113.108 Y121.509 E372.3901
G0 F7800 X112.684 Y121.509
G1 F3600 X121.805 Y112.388 E372.71186
G0 F7800 X121.959 Y111.809
G1 F3600 X112.26 Y121.509 E373.05404
G0 F7800 X111.836 Y121.509
G1 F3600 X122.113 Y111.232 E373.41659
G0 F7800 X122.538 Y111.627
G0 X122.289 Y112.5
G0 X122.652 Y113.855
G0 X123.646 Y114.847
G0 X125 Y115.211
G0 X126.061 Y114.9
G0 X126.512 Y115.318
G0 X126.512 Y115.318
G1 F3600 X120.32 Y121.509 E373.63501
G0 F7800 X120.744 Y121.509
G1 F3600 X128.978 Y113.276 E373.92547
G0 F7800 X128.96 Y113.718
G1 F3600 X121.169 Y121.509 E374.20032
G1 F1800 E373.20032
G0 F7800 X106.449 Y121.343
G0 X106.449 Y112.84
G0 X106.504 Y112.5
G0 X106.151 Y110.388
G0 X105.131 Y108.505
G0 X103.556 Y107.055
G0 X101.596 Y106.195
G0 X99.464 Y106.018
G0 X97.388 Y106.543
G0 X95.596 Y107.714
G0 X94.282 Y109.404
G0 X93.585 Y111.43
G0 X93.641 Y112.059
G0 X93.609 Y112.059
G0 X93.548 Y121.198
G0 X93.059 Y121.193
G0 X93.059 Y121.193
G1 F1800 E374.20032
G1 F3600 X92.744 Y121.509 E374.21145
G0 F7800 X92.319 Y121.509
G1 F3600 X93.059 Y120.769 E374.23755
G0 F7800 X93.059 Y120.345
G1 F3600 X91.895 Y121.509 E374.27862
G0 F7800 X91.471 Y121.509
G1 F3600 X93.059 Y119.921 E374.33464
G0 F7800 X93.059 Y119.496
G1 F3600 X91.047 Y121.509 E374.40563
G0 F7800 X90.622 Y121.509
G1 F3600 X93.059 Y119.072 E374.49161
G0 F7800 X93.059 Y118.648
G1 F3600 X90.198 Y121.509 E374.59254
G0 F7800 X89.774 Y121.509
G1 F3600 X93.059 Y118.224 E374.70842
G0 F7800 X93.059 Y117.799
G1 F3600 X89.35 Y121.509 E374.83929
G0 F7800 X88.925 Y121.509
G1 F3600 X93.059 Y117.375 E374.98512
G0 F7800 X93.059 Y116.951
G1 F3600 X88.501 Y121.509 E375.14592
G0 F7800 X88.077 Y121.509
G1 F3600 X93.059 Y116.526 E375.32169
G0 F7800 X93.059 Y116.102
G1 F3600 X87.652 Y121.509 E375.51244
G0 F7800 X87.228 Y121.509
G1 F3600 X93.059 Y115.678 E375.71814
G0 F7800 X93.059 Y115.254
G1 F3600 X86.804 Y121.509 E375.9388
G0 F7800 X86.38 Y121.509
G1 F3600 X93.059 Y114.829 E376.17444
G0 F7800 X93.059 Y114.405
G1 F3600 X85.955 Y121.509 E376.42505
G0 F7800 X85.531 Y121.509
G1 F3600 X93.059 Y113.981 E376.69062
G0 F7800 X93.059 Y113.557
G1 F3600 X85.107 Y121.509 E376.97115
G0 F7800 X84.683 Y121.509
G1 F3600 X93.059 Y113.132 E377.26666
G0 F7800 X93.059 Y112.708
G1 F3600 X84.258 Y121.509 E377.57714
G0 F7800 X83.834 Y121.509
G1 F3600 X93.059 Y112.284 E377.90257
G0 F7800 X93.059 Y111.86
G1 F3600 X83.41 Y121.509 E378.24297
G0 F7800 X82.986 Y121.509
G1 F3600 X93.092 Y111.403 E378.59948
G0 F7800 X93.284 Y110.786
G1 F3600 X82.561 Y121.509 E378.97777
G0 F7800 X82.137 Y121.509
G1 F3600 X93.507 Y110.139 E379.37887
G0 F7800 X93.729 Y109.493
G1 F3600 X81.713 Y121.509 E379.80277
G0 F7800 X81.288 Y121.509
G1 F3600 X94.571 Y108.226 E380.27136
G0 F7800 X88.278 Y103.489
G0 X88.278 Y103.489
G1 F3600 X77.843 Y113.923 E380.63947
G0 F7800 X77.998 Y113.344
G1 F3600 X87.853 Y103.489 E380.98713
G0 F7800 X87.429 Y103.489
G1 F3600 X78.152 Y112.765 E381.31438
G0 F7800 X78.176 Y112.318
G1 F3600 X87.005 Y103.489 E381.62585
G0 F7800 X86.58 Y103.489
G1 F3600 X78.086 Y111.983 E381.9255
G0 F7800 X77.997 Y111.648
G1 F3600 X86.156 Y103.489 E382.21333
G0 F7800 X85.732 Y103.489
G1 F3600 X77.907 Y111.314 E382.48938
G0 F7800 X77.818 Y110.978
G1 F3600 X85.308 Y103.489 E382.75359
G0 F7800 X84.883 Y103.489
G1 F3600 X77.64 Y110.732 E383.00911
G0 F7800 X77.428 Y110.52
G1 F3600 X84.459 Y103.489 E383.25714
G0 F7800 X84.035 Y103.489
G1 F3600 X77.216 Y110.308 E383.4977
G0 F7800 X77.003 Y110.096
G1 F3600 X83.611 Y103.489 E383.7308
G0 F7800 X83.186 Y103.489
G1 F3600 X76.791 Y109.884 E383.9564
G0 F7800 X76.56 Y109.691
G1 F3600 X82.762 Y103.489 E384.17519
G0 F7800 X82.338 Y103.489
G1 F3600 X76.225 Y109.602 E384.39085
G0 F7800 X75.89 Y109.512
G1 F3600 X81.914 Y103.489 E384.60334
G0 F7800 X81.489 Y103.489
G1 F3600 X75.555 Y109.423 E384.81268
G0 F7800 X75.221 Y109.333
G1 F3600 X81.065 Y103.489 E385.01884
G0 F7800 X80.641 Y103.489
G1 F3600 X74.803 Y109.327 E385.22479
G0 F7800 X74.224 Y109.482
G1 F3600 X80.217 Y103.489 E385.43621
G0 F7800 X79.792 Y103.489
G1 F3600 X73.645 Y109.636 E385.65307
G0 F7800 X72.138 Y111.143
G0 X72.138 Y111.143
G1 F3600 X70.998 Y112.283 E385.69328
G0 F7800 X70.998 Y112.707
G1 F3600 X71.982 Y111.723 E385.728
G0 F7800 X71.826 Y112.304
G1 F3600 X71.014 Y113.115 E385.75662
G0 F7800 X71.03 Y113.523
G1 F3600 X71.833 Y112.721 E385.78493
G0 F7800 X71.923 Y113.055
G1 F3600 X71.047 Y113.931 E385.81584
G0 F7800 X71.064 Y114.339
G1 F3600 X72.013 Y113.39 E385.84932
G0 F7800 X72.103 Y113.723
G1 F3600 X71.08 Y114.747 E385.88542
G0 F7800 X71.123 Y115.128
G1 F3600 X72.193 Y114.058 E385.92317
G0 F7800 X72.385 Y114.29
G1 F3600 X71.168 Y115.508 E385.96612
G0 F7800 X71.212 Y115.887
G1 F3600 X72.597 Y114.502 E386.01498
G0 F7800 X72.81 Y114.714
G1 F3600 X71.257 Y116.267 E386.06977
G0 F7800 X71.301 Y116.647
G1 F3600 X73.022 Y114.926 E386.13048
G0 F7800 X73.234 Y115.138
G1 F3600 X71.347 Y117.026 E386.19707
G0 F7800 X71.416 Y117.381
G1 F3600 X73.48 Y115.317 E386.26988
G0 F7800 X73.814 Y115.406
G1 F3600 X71.486 Y117.735 E386.35202
G0 F7800 X71.557 Y118.088
G1 F3600 X74.149 Y115.496 E386.44346
G0 F7800 X74.483 Y115.586
G1 F3600 X71.627 Y118.443 E386.54423
G0 F7800 X71.697 Y118.796
G1 F3600 X74.818 Y115.676 E386.65432
G0 F7800 X73.994 Y114.844
G0 X73.645 Y114.847
G0 X72.653 Y113.855
G0 X72.652 Y113.49
G0 X71.016 Y111.841
G0 X71.016 Y111.841
G1 F3600 X79.368 Y103.489 E386.94896
G0 F7800 X78.944 Y103.489
G1 F3600 X71.033 Y111.399 E387.22802
G0 F7800 X71.051 Y110.957
G1 F3600 X78.519 Y103.489 E387.49147
G0 F7800 X78.095 Y103.489
G1 F3600 X71.069 Y110.515 E387.73934
G0 F7800 X71.1 Y110.06
G1 F3600 X77.671 Y103.489 E387.97115
G0 F7800 X77.247 Y103.489
G1 F3600 X71.156 Y109.579 E388.186
G0 F7800 X71.214 Y109.098
G1 F3600 X76.822 Y103.489 E388.38386
G0 F7800 X76.398 Y103.489
G1 F3600 X71.271 Y108.616 E388.56473
G0 F7800 X71.327 Y108.135
G1 F3600 X75.974 Y103.489 E388.72865
G0 F7800 X75.55 Y103.489
G1 F3600 X71.415 Y107.623 E388.8745
G0 F7800 X71.521 Y107.094
G1 F3600 X75.125 Y103.489 E389.00166
G0 F7800 X74.701 Y103.489
G1 F3600 X71.625 Y106.565 E389.11017
G0 F7800 X71.731 Y106.035
G1 F3600 X74.277 Y103.489 E389.19999
G0 F7800 X73.853 Y103.489
G1 F3600 X71.863 Y105.479 E389.27019
G0 F7800 X72.03 Y104.887
G1 F3600 X73.428 Y103.489 E389.31951
G0 F7800 X73.004 Y103.489
G1 F3600 X72.197 Y104.296 E389.34798
G0 F7800 X72.363 Y103.705
G1 F3600 X72.58 Y103.489 E389.35562
; Layer Change GCode
; LAYER:2
G1 F1800 E388.35562
G0 F7800 X71.843 Y97.35 Z0.65
G0 X72.261 Y96.75
; TYPE:WALL-INNER
G1 F1800 E389.35562
G1 X72.182 Y96.536 E389.36131
G1 X71.559 Y94.33 E389.41849
G1 X71.11 Y92.065 E389.47609
G1 X70.841 Y89.788 E389.53329
G1 X70.75 Y87.5 E389.5904
G1 X70.841 Y85.213 E389.6475
G1 X71.111 Y82.926 E389.70495
G1 X71.559 Y80.671 E389.7623
G1 X72.184 Y78.46 E389.81961
G1 X72.261 Y78.25 E389.82519
G1 X127.739 Y78.25 E391.20909
G1 X127.816 Y78.46 E391.21467
G1 X128.441 Y80.671 E391.27199
G1 X128.89 Y82.936 E391.32959
G1 X129.159 Y85.213 E391.38678
G1 X129.25 Y87.5 E391.44388
G1 X129.159 Y89.788 E391.501
G1 X128.889 Y92.075 E391.55844
G1 X128.441 Y94.33 E391.61579
G1 X127.818 Y96.536 E391.67298
G1 X127.739 Y96.75 E391.67867
G1 X72.261 Y96.75 E393.06257
G0 F7800 X72.052 Y97.05
G1 F1800 X71.897 Y96.631 E393.07371
G1 X71.266 Y94.397 E393.13162
G1 X70.815 Y92.119 E393.18955
G1 X70.542 Y89.821 E393.24728
G1 X70.451 Y87.5 E393.30522
G1 X70.542 Y85.179 E393.36316
G1 X70.816 Y82.87 E393.42116
G1 X71.266 Y80.604 E393.47879
G1 X71.897 Y78.37 E393.5367
G1 X72.052 Y77.95 E393.54787
G1 X127.948 Y77.95 E394.9422
G1 X128.103 Y78.37 E394.95337
G1 X128.734 Y80.604 E395.01127
G1 X129.185 Y82.882 E395.0692
G1 X129.458 Y85.18 E395.12693
G1 X129.549 Y87.5 E395.18485
G1 X129.458 Y89.822 E395.24281
G1 X129.184 Y92.129 E395.30077
G1 X128.734 Y94.397 E395.35844
G1 X128.103 Y96.631 E395.41635
G1 X127.948 Y97.05 E395.4275
G1 X72.052 Y97.05 E396.82183
G0 F7800 X71.843 Y97.35
; TYPE:WALL-OUTER
G1 F1260 X71.61 Y96.719 E396.83861
G1 X70.975 Y94.47 E396.8969
G1 X70.518 Y92.164 E396.95554
G1 X70.243 Y89.843 E397.01385
G1 X70.15 Y87.506 E397.07219
G1 X70.243 Y85.153 E397.13093
G1 X70.519 Y82.825 E397.18941
G1 X70.976 Y80.526 E397.24788
G1 X71.61 Y78.282 E397.30605
G1 X71.843 Y77.65 E397.32285
G1 X128.157 Y77.65 E398.72761
G1 X128.39 Y78.282 E398.74441
G1 X129.024 Y80.526 E398.80258
G1 X129.482 Y82.835 E398.8613
G1 X129.757 Y85.153 E398.91953
G1 X129.85 Y87.494 E398.97797
G1 X129.757 Y89.843 E399.03661
G1 X129.481 Y92.174 E399.09517
G1 X129.025 Y94.47 E399.15356
G1 X128.39 Y96.719 E399.21185
G1 X128.157 Y97.35 E399.22863
G1 X71.843 Y97.35 E400.63339
G0 F7800 X72.037 Y97.157
G0 X73.512 Y90.079
G0 X73.512 Y90.079
; TYPE:WALL-INNER
G1 F1800 X75 Y90.476 E400.67181
G1 X76.488 Y90.079 E400.71023
G1 X77.579 Y88.988 E400.74871
G1 X77.976 Y87.5 E400.78713
G1 X77.579 Y86.012 E400.82555
G1 X76.488 Y84.923 E400.864
G1 X75 Y84.523 E400.90244
G1 X73.512 Y84.923 E400.94087
G1 X72.423 Y86.012 E400.97929
G1 X72.023 Y87.5 E401.01773
G1 X72.423 Y88.988 E401.05616
G1 X73.512 Y90.079 E401.09461
G0 F7800 X73.667 Y89.81
G1 F1800 X75 Y90.166 E401.12903
G1 X76.333 Y89.81 E401.16345
G1 X77.31 Y88.833 E401.19791
G1 X77.666 Y87.5 E401.23233
G1 X77.31 Y86.167 E401.26675
G1 X76.333 Y85.192 E401.30118
G1 X75 Y84.834 E401.33561
G1 X73.667 Y85.192 E401.37004
G1 X72.692 Y86.167 E401.40444
G1 X72.334 Y87.5 E401.43887
G1 X72.692 Y88.833 E401.4733
G1 X73.667 Y89.81 E401.50773
G0 F7800 X75 Y89.855
; TYPE:WALL-OUTER
G1 F1260 X76.178 Y89.541 E401.53814
G1 X77.041 Y88.678 E401.56858
G1 X77.355 Y87.5 E401.599
G1 X77.041 Y86.322 E401.62941
G1 X76.178 Y85.461 E401.65982
G1 X75 Y85.145 E401.69024
G1 X73.822 Y85.461 E401.72066
G1 X72.961 Y86.322 E401.75104
G1 X72.645 Y87.5 E401.78146
G1 X72.961 Y88.678 E401.81189
G1 X73.822 Y89.541 E401.8423
G1 X75 Y89.855 E401.87271
G0 F7800 X74.936 Y90.096
G0 X74.977 Y90.089
G0 X75.372 Y90.026
G0 X91.235 Y87.5
G0 X91.235 Y87.5
; TYPE:WALL-INNER
G1 F1800 X91.903 Y90.855 E401.95804
G1 X93.803 Y93.698 E402.04334
G1 X96.646 Y95.599 E402.12865
G1 X100 Y96.265 E402.21395
G1 X103.354 Y95.599 E402.29925
G1 X106.197 Y93.698 E402.38456
G1 X108.097 Y90.855 E402.46986
G1 X108.765 Y87.5 E402.5552
G1 X108.097 Y84.146 E402.6405
G1 X106.197 Y81.303 E402.7258
G1 X103.354 Y79.403 E402.8111
G1 X100 Y78.735 E402.89641
G1 X96.646 Y79.403 E402.98172
G1 X93.803 Y81.303 E403.06702
G1 X91.903 Y84.146 E403.15232
G1 X91.235 Y87.5 E403.23763
G0 F7800 X91.541 Y87.5
G1 F1800 X92.185 Y90.738 E403.31998
G1 X94.02 Y93.481 E403.4023
G1 X96.763 Y95.316 E403.48463
G1 X100 Y95.959 E403.56695
G1 X103.237 Y95.316 E403.64928
G1 X105.98 Y93.481 E403.7316
G1 X107.815 Y90.738 E403.81392
G1 X108.459 Y87.5 E403.89628
G1 X107.815 Y84.263 E403.97861
G1 X105.98 Y81.52 E404.06093
G1 X103.237 Y79.685 E404.14326
G1 X100 Y79.041 E404.22559
G1 X96.763 Y79.685 E404.30792
G1 X94.02 Y81.52 E404.39024
G1 X92.185 Y84.263 E404.47256
G1 X91.541 Y87.5 E404.55489
G0 F7800 X91.589 Y87.548
G0 X92.142 Y90.755
G0 X93.987 Y93.514
G0 X96.746 Y95.359
G0 X100 Y96.006
G0 X100.023 Y95.97
G0 X99.951 Y95.898
