; Generated with MatterSlice 1.0
; filamentDiameter = 1.75
; extrusionWidth = 0.3
; firstLayerExtrusionWidth = 0.3
; layerThickness = 0.2
; firstLayerThickness = 0.25
; automatic settings before start_gcode
G21 ; set units to millimeters
M107 ; fan off
M190 S75 ; wait for bed temperature to be reached
M104 T0 S210 ; start heating extruder 1
T0 ; set the active extruder to 0
; settings from start_gcode
G28 ; home all axes
G1 Z5 F5000 ; lift nozzle
; automatic settings after start_gcode
M109 T0 S210 ; wait for extruder 1 to reach temperature
T0 ; set the active extruder to 0
G90 ; use absolute coordinates
G92 E0 ; reset the expected extruder position
M82 ; use absolute distance for extrusion
; Layer count: 240
; Layer Change GCode
; LAYER:0
G4 P0
M107
G0 F7800 X134.25 Y115.043 Z0.25
; TYPE:SKIRT
G1 F1800 E0
G1 F720 X112.918 Y120.568 E0.68711
G1 X73.523 Y118.558 E1.9171
G1 X71.162 Y117.935 E1.99324
G1 X68.792 Y116.297 E2.08307
G1 X67.328 Y114.298 E2.16033
G1 X66.535 Y112.355 E2.22577
G1 X66.319 Y110.63 E2.27997
G1 X66.319 Y89.123 E2.95059
G1 X66.822 Y86.59 E3.03112
G1 X68.324 Y84.228 E3.1184
G1 X70.193 Y82.638 E3.19491
G1 X72.091 Y81.76 E3.26012
G1 X73.734 Y81.432 E3.31236
G1 X134.25 Y78.31 E5.20184
G1 X134.25 Y115.043 E6.34723
G0 F7800 X133.95 Y114.811
G1 F720 X112.888 Y120.266 E7.02564
G1 X73.569 Y118.26 E8.25325
G1 X71.289 Y117.658 E8.32678
G1 X69.004 Y116.079 E8.41339
G1 X67.592 Y114.151 E8.48791
G1 X66.827 Y112.278 E8.55099
G1 X66.619 Y110.611 E8.60337
G1 X66.619 Y89.152 E9.2725
G1 X67.105 Y86.704 E9.35032
G1 X68.553 Y84.428 E9.43443
G1 X70.356 Y82.893 E9.50827
G1 X72.184 Y82.047 E9.57107
G1 X73.771 Y81.73 E9.62154
G1 X133.95 Y78.626 E11.50049
G1 X133.95 Y114.811 E12.62879
G0 F7800 X127.8 Y114.9
G1 F720 X112.259 Y114.076 E13.11406
G1 X74.521 Y112.151 E14.29232
G1 X73.9 Y111.987 E14.31234
G1 X73.353 Y111.609 E14.33308
G1 X73 Y111.127 E14.3517
G1 X72.829 Y110.708 E14.36582
G1 X72.769 Y110.228 E14.3809
G1 X72.769 Y89.757 E15.01921
G1 X72.913 Y89.032 E15.04226
G1 X73.245 Y88.51 E15.06155
G1 X73.702 Y88.121 E15.08026
G1 X74.104 Y87.935 E15.09408
G1 X74.535 Y87.849 E15.10778
G1 X127.8 Y85.101 E16.77087
G1 X127.8 Y89.951 E16.92209
G1 X74.8 Y89.951 E18.57471
G1 X74.8 Y110.051 E19.20145
G1 X127.8 Y110.051 E20.85407
G1 X127.8 Y114.9 E21.00527
G0 F7800 X127.5 Y114.584
G1 F720 X112.275 Y113.777 E21.48067
G1 X74.568 Y111.853 E22.65795
G1 X74.027 Y111.71 E22.6754
G1 X73.565 Y111.391 E22.69291
G1 X73.264 Y110.98 E22.70879
G1 X73.122 Y110.631 E22.72054
G1 X73.069 Y110.209 E22.7338
G1 X73.069 Y89.786 E23.37062
G1 X73.196 Y89.145 E23.391
G1 X73.474 Y88.709 E23.40712
G1 X73.865 Y88.376 E23.42313
G1 X74.198 Y88.222 E23.43457
G1 X74.572 Y88.148 E23.44646
G1 X127.5 Y85.417 E25.09903
G1 X127.5 Y89.651 E25.23105
G1 X74.5 Y89.651 E26.88366
G1 X74.5 Y110.351 E27.52912
G1 X127.5 Y110.351 E29.18173
G1 X127.5 Y114.584 E29.31372
G1 F1800 E28.31372
G0 F7800 X127.046 Y114.01
G0 X73.95 Y110.651
G0 X73.95 Y110.651
G0 X74.2 Y110.651
; TYPE:WALL-OUTER
G1 F1800 E29.31372
G1 F720 X127.2 Y110.651 E30.96633
G1 X127.2 Y114.268 E31.07911
G1 X112.291 Y113.477 E31.54465
G1 X74.613 Y111.555 E32.72103
G1 X74.154 Y111.433 E32.73584
G1 X73.778 Y111.175 E32.75006
G1 X73.528 Y110.832 E32.76329
G1 X73.415 Y110.555 E32.77262
G1 X73.369 Y110.189 E32.78412
G1 X73.369 Y89.815 E33.41941
G1 X73.479 Y89.261 E33.43703
G1 X73.705 Y88.906 E33.45015
G1 X74.028 Y88.632 E33.46336
G1 X74.292 Y88.509 E33.47244
G1 X74.607 Y88.447 E33.48245
G1 X127.2 Y85.733 E35.12455
G1 X127.2 Y89.351 E35.23737
G1 X74.2 Y89.351 E36.88998
G1 X74.2 Y110.651 E37.55414
G0 F7800 X73.9 Y110.833
; TYPE:WALL-INNER
G1 F720 X73.792 Y110.686 E37.55983
G1 X73.708 Y110.479 E37.5668
G1 X73.669 Y110.168 E37.57657
G1 X73.669 Y89.844 E38.2103
G1 X73.762 Y89.374 E38.22524
G1 X73.9 Y89.158 E38.23323
G1 X73.9 Y110.833 E38.90909
G0 F7800 X73.989 Y110.955
G1 F720 X126.9 Y110.951 E40.55892
G1 X126.9 Y113.952 E40.6525
G1 X112.307 Y113.178 E41.10817
G1 X74.662 Y111.257 E42.28352
G1 X74.282 Y111.157 E42.29577
G1 X73.989 Y110.955 E42.30687
G1 F1800 E41.30687
G0 F7800 X73.988 Y111
G0 X73.909 Y110.942
G0 X73.909 Y89.06
G0 X73.997 Y89
G0 X73.998 Y89.051
G0 X73.998 Y89.051
G1 F1800 E42.30687
G1 F720 X74.192 Y88.886 E42.31481
G1 X74.385 Y88.797 E42.32144
G1 X74.648 Y88.744 E42.3298
G1 X126.9 Y86.048 E43.96126
G1 X126.9 Y89.051 E44.0549
G1 X73.998 Y89.051 E45.70445
G0 F7800 X80.348 Y88.751
G0 X80.348 Y88.751
G1 F720 X126.6 Y86.365 E47.14857
G1 X126.6 Y88.751 E47.22297
G1 X80.348 Y88.751 E48.66517
G1 F1800 E47.66517
G0 F7800 X80.348 Y89.001
G0 X73.909 Y89.06
G0 X73.909 Y110.942
G0 X80.43 Y111
G0 X80.431 Y111.251
G0 X80.431 Y111.251
G1 F1800 E48.66517
G1 F720 X126.6 Y111.251 E50.10479
G1 X126.6 Y113.635 E50.17912
G1 X112.322 Y112.878 E50.62496
G1 X80.431 Y111.251 E51.62065
G0 F7800 X92.398 Y111.49
G0 X92.398 Y111.49
; TYPE:BOTTOM-FILL
G1 F720 X92.678 Y111.558 E51.62664
G1 X93.113 Y111.569 E51.63361
G1 X93.55 Y111.581 E51.64165
G1 X93.985 Y111.592 E51.65065
G1 X94.421 Y111.603 E51.66062
G1 X94.856 Y111.615 E51.67162
G1 X95.292 Y111.626 E51.68363
G1 X95.728 Y111.638 E51.69664
G1 X96.163 Y111.649 E51.7107
G1 X96.599 Y111.66 E51.72571
G1 X97.035 Y111.672 E51.7418
G1 X97.47 Y111.683 E51.75885
G1 X97.899 Y111.9 E51.77384
G0 F7800 X97.913 Y111.49
G1 F720 X98.347 Y111.923 E51.79296
G0 F7800 X98.338 Y111.49
G1 F720 X98.794 Y111.946 E51.81307
G0 F7800 X99.241 Y111.968
G1 F720 X98.762 Y111.49 E51.83417
G0 F7800 X99.186 Y111.49
G1 F720 X99.687 Y111.991 E51.85626
G0 F7800 X100.135 Y112.014
G1 F720 X99.61 Y111.49 E51.87939
G0 F7800 X100.035 Y111.49
G1 F720 X100.582 Y112.037 E51.90351
G0 F7800 X101.029 Y112.06
G1 F720 X100.459 Y111.49 E51.92865
G0 F7800 X100.884 Y111.49
G1 F720 X101.476 Y112.082 E51.95475
G0 F7800 X101.923 Y112.106
G1 F720 X101.308 Y111.49 E51.98189
G0 F7800 X101.732 Y111.49
G1 F720 X102.37 Y112.128 E52.01003
G0 F7800 X102.817 Y112.151
G1 F720 X102.157 Y111.49 E52.03915
G0 F7800 X102.581 Y111.49
G1 F720 X103.264 Y112.174 E52.0693
G0 F7800 X103.712 Y112.197
G1 F720 X103.005 Y111.49 E52.10047
G0 F7800 X103.429 Y111.49
G1 F720 X104.158 Y112.219 E52.13262
G0 F7800 X104.605 Y112.242
G1 F720 X103.854 Y111.49 E52.16576
G0 F7800 X104.278 Y111.49
G1 F720 X105.053 Y112.265 E52.19993
G0 F7800 X105.5 Y112.288
G1 F720 X104.702 Y111.49 E52.23512
G0 F7800 X105.126 Y111.49
G1 F720 X105.947 Y112.311 E52.27133
G0 F7800 X106.394 Y112.333
G1 F720 X105.551 Y111.49 E52.3085
G0 F7800 X105.975 Y111.49
G1 F720 X106.841 Y112.357 E52.34671
G0 F7800 X107.288 Y112.379
G1 F720 X106.399 Y111.49 E52.38591
G0 F7800 X106.824 Y111.49
G1 F720 X107.735 Y112.402 E52.42611
G0 F7800 X108.182 Y112.425
G1 F720 X107.248 Y111.49 E52.46732
G0 F7800 X107.672 Y111.49
G1 F720 X108.629 Y112.448 E52.50954
G0 F7800 X109.076 Y112.47
G1 F720 X108.096 Y111.49 E52.55275
G0 F7800 X108.521 Y111.49
G1 F720 X109.523 Y112.493 E52.59696
G0 F7800 X109.97 Y112.516
G1 F720 X108.945 Y111.49 E52.64218
G0 F7800 X109.369 Y111.49
G1 F720 X110.418 Y112.539 E52.68844
G0 F7800 X110.865 Y112.562
G1 F720 X109.793 Y111.49 E52.73571
G0 F7800 X110.218 Y111.49
G1 F720 X111.312 Y112.584 E52.78396
G0 F7800 X111.758 Y112.607
G1 F720 X110.642 Y111.49 E52.83319
G0 F7800 X111.066 Y111.49
G1 F720 X112.206 Y112.63 E52.88346
G0 F7800 X112.654 Y112.654
G1 F720 X111.49 Y111.49 E52.93479
G0 F7800 X111.915 Y111.49
G1 F720 X113.102 Y112.678 E52.98715
G0 F7800 X113.55 Y112.701
G1 F720 X112.339 Y111.49 E53.04056
G0 F7800 X112.763 Y111.49
G1 F720 X113.998 Y112.725 E53.09502
G0 F7800 X114.445 Y112.748
G1 F720 X113.187 Y111.49 E53.15049
G0 F7800 X113.612 Y111.49
G1 F720 X114.894 Y112.772 E53.20702
G0 F7800 X115.342 Y112.796
G1 F720 X114.036 Y111.49 E53.26461
G0 F7800 X114.46 Y111.49
G1 F720 X115.79 Y112.82 E53.32326
G0 F7800 X116.238 Y112.844
G1 F720 X114.885 Y111.49 E53.38295
G0 F7800 X115.309 Y111.49
G1 F720 X116.686 Y112.867 E53.44367
G0 F7800 X117.134 Y112.891
G1 F720 X115.733 Y111.49 E53.50545
G0 F7800 X116.157 Y111.49
G1 F720 X117.582 Y112.915 E53.56829
G0 F7800 X118.03 Y112.939
G1 F720 X116.582 Y111.49 E53.63216
G0 F7800 X117.006 Y111.49
G1 F720 X118.478 Y112.963 E53.6971
G0 F7800 X118.926 Y112.986
G1 F720 X117.43 Y111.49 E53.76307
G0 F7800 X117.855 Y111.491
G1 F720 X119.374 Y113.01 E53.83005
G0 F7800 X119.822 Y113.034
G1 F720 X118.279 Y111.491 E53.89809
G0 F7800 X118.704 Y111.491
G1 F720 X120.27 Y113.057 E53.96715
G0 F7800 X120.718 Y113.081
G1 F720 X119.128 Y111.491 E54.03726
G0 F7800 X119.552 Y111.491
G1 F720 X121.166 Y113.105 E54.10843
G0 F7800 X121.614 Y113.129
G1 F720 X119.976 Y111.491 E54.18067
G0 F7800 X120.401 Y111.491
G1 F720 X122.062 Y113.153 E54.25393
G0 F7800 X122.51 Y113.176
G1 F720 X120.825 Y111.491 E54.32824
G0 F7800 X121.249 Y111.491
G1 F720 X122.958 Y113.2 E54.4036
G0 F7800 X123.407 Y113.224
G1 F720 X121.673 Y111.491 E54.48004
G0 F7800 X122.098 Y111.491
G1 F720 X123.854 Y113.248 E54.5575
G0 F7800 X124.303 Y113.272
G1 F720 X122.522 Y111.491 E54.63603
G0 F7800 X122.946 Y111.491
G1 F720 X124.75 Y113.295 E54.71559
G0 F7800 X125.198 Y113.319
G1 F720 X123.371 Y111.491 E54.79617
G0 F7800 X123.795 Y111.491
G1 F720 X125.647 Y113.343 E54.87784
G0 F7800 X126.094 Y113.366
G1 F720 X124.219 Y111.491 E54.96052
G0 F7800 X124.643 Y111.491
G1 F720 X126.359 Y113.207 E55.03619
G0 F7800 X126.359 Y112.782
G1 F720 X125.068 Y111.491 E55.09312
G0 F7800 X125.492 Y111.491
G1 F720 X126.359 Y112.358 E55.13136
G0 F7800 X126.359 Y111.934
G1 F720 X125.916 Y111.491 E55.15089
G0 F7800 X126.34 Y111.491
G1 F720 X126.359 Y111.51 E55.15173
G1 F1800 E54.15173
G0 F7800 X126.356 Y110.999
G0 X73.909 Y110.942
G0 X73.909 Y89.06
G0 X126.271 Y89
G0 X126.27 Y88.51
G0 X126.27 Y88.51
G1 F1800 E55.15173
G1 F720 X124.474 Y86.715 E55.2309
G0 F7800 X124.071 Y86.736
G1 F720 X125.845 Y88.51 E55.30913
G0 F7800 X125.421 Y88.51
G1 F720 X123.668 Y86.757 E55.38644
G0 F7800 X123.264 Y86.778
G1 F720 X124.997 Y88.51 E55.46283
G0 F7800 X124.573 Y88.51
G1 F720 X122.861 Y86.798 E55.53833
G0 F7800 X122.458 Y86.819
G1 F720 X124.148 Y88.51 E55.61287
G0 F7800 X123.724 Y88.51
G1 F720 X122.054 Y86.84 E55.68652
G0 F7800 X121.65 Y86.86
G1 F720 X123.3 Y88.51 E55.75928
G0 F7800 X122.876 Y88.51
G1 F720 X121.247 Y86.882 E55.83109
G0 F7800 X120.843 Y86.902
G1 F720 X122.451 Y88.51 E55.902
G0 F7800 X122.027 Y88.51
G1 F720 X120.44 Y86.923 E55.97198
G0 F7800 X120.037 Y86.944
G1 F720 X121.603 Y88.51 E56.04104
G0 F7800 X121.179 Y88.51
G1 F720 X119.633 Y86.965 E56.10919
G0 F7800 X119.23 Y86.986
G1 F720 X120.754 Y88.51 E56.17639
G0 F7800 X120.33 Y88.51
G1 F720 X118.826 Y87.006 E56.24271
G0 F7800 X118.423 Y87.027
G1 F720 X119.906 Y88.51 E56.30811
G0 F7800 X119.481 Y88.51
G1 F720 X118.019 Y87.048 E56.37258
G0 F7800 X117.616 Y87.069
G1 F720 X119.057 Y88.51 E56.43612
G0 F7800 X118.633 Y88.51
G1 F720 X117.212 Y87.09 E56.49876
G0 F7800 X116.809 Y87.111
G1 F720 X118.209 Y88.51 E56.56048
G0 F7800 X117.784 Y88.51
G1 F720 X116.406 Y87.131 E56.62127
G0 F7800 X116.002 Y87.152
G1 F720 X117.36 Y88.51 E56.68115
G0 F7800 X116.936 Y88.51
G1 F720 X115.599 Y87.173 E56.74011
G0 F7800 X115.195 Y87.194
G1 F720 X116.512 Y88.51 E56.79816
G0 F7800 X116.087 Y88.51
G1 F720 X114.792 Y87.215 E56.85527
G0 F7800 X114.388 Y87.235
G1 F720 X115.663 Y88.51 E56.91149
G0 F7800 X115.239 Y88.51
G1 F720 X113.985 Y87.256 E56.96679
G0 F7800 X113.581 Y87.277
G1 F720 X114.815 Y88.51 E57.02118
G0 F7800 X114.39 Y88.51
G1 F720 X113.178 Y87.297 E57.07465
G0 F7800 X112.775 Y87.319
G1 F720 X113.966 Y88.51 E57.12717
G0 F7800 X113.542 Y88.51
G1 F720 X112.371 Y87.339 E57.17881
G0 F7800 X111.968 Y87.36
G1 F720 X113.117 Y88.51 E57.2295
G0 F7800 X112.693 Y88.51
G1 F720 X111.564 Y87.381 E57.27928
G0 F7800 X111.161 Y87.402
G1 F720 X112.269 Y88.51 E57.32814
G0 F7800 X111.845 Y88.51
G1 F720 X110.757 Y87.423 E57.3761
G0 F7800 X110.353 Y87.443
G1 F720 X111.42 Y88.51 E57.42315
G0 F7800 X110.996 Y88.51
G1 F720 X109.95 Y87.464 E57.46928
G0 F7800 X109.547 Y87.485
G1 F720 X110.572 Y88.51 E57.51447
G0 F7800 X110.148 Y88.51
G1 F720 X109.144 Y87.506 E57.55875
G0 F7800 X108.74 Y87.527
G1 F720 X109.723 Y88.51 E57.6021
G0 F7800 X109.299 Y88.51
G1 F720 X108.337 Y87.548 E57.64452
G0 F7800 X107.933 Y87.568
G1 F720 X108.876 Y88.511 E57.6861
G0 F7800 X108.451 Y88.511
G1 F720 X107.529 Y87.589 E57.72676
G0 F7800 X107.126 Y87.61
G1 F720 X108.027 Y88.511 E57.76649
G0 F7800 X107.603 Y88.511
G1 F720 X106.722 Y87.631 E57.80532
G0 F7800 X106.319 Y87.652
G1 F720 X107.179 Y88.511 E57.84322
G0 F7800 X106.754 Y88.511
G1 F720 X105.916 Y87.672 E57.88019
G0 F7800 X105.512 Y87.693
G1 F720 X106.33 Y88.511 E57.91627
G0 F7800 X105.906 Y88.511
G1 F720 X105.109 Y87.714 E57.95141
G0 F7800 X104.705 Y87.734
G1 F720 X105.481 Y88.511 E57.98565
G0 F7800 X105.057 Y88.511
G1 F720 X104.302 Y87.756 E58.01895
G0 F7800 X103.898 Y87.776
G1 F720 X104.633 Y88.511 E58.05136
G0 F7800 X104.209 Y88.511
G1 F720 X103.495 Y87.797 E58.08284
G0 F7800 X103.091 Y87.818
G1 F720 X103.784 Y88.511 E58.1134
G0 F7800 X103.36 Y88.511
G1 F720 X102.688 Y87.838 E58.14306
G0 F7800 X102.285 Y87.86
G1 F720 X102.936 Y88.511 E58.17176
G0 F7800 X102.512 Y88.511
G1 F720 X101.881 Y87.88 E58.19959
G0 F7800 X101.478 Y87.901
G1 F720 X102.087 Y88.511 E58.22647
G0 F7800 X101.663 Y88.511
G1 F720 X101.074 Y87.922 E58.25244
G0 F7800 X100.671 Y87.943
G1 F720 X101.239 Y88.511 E58.27749
G0 F7800 X100.815 Y88.511
G1 F720 X100.267 Y87.964 E58.30163
G0 F7800 X99.863 Y87.984
G1 F720 X100.39 Y88.511 E58.32487
G0 F7800 X99.966 Y88.511
G1 F720 X99.46 Y88.005 E58.34718
G0 F7800 X99.057 Y88.026
G1 F720 X99.542 Y88.511 E58.36857
G0 F7800 X99.117 Y88.511
G1 F720 X98.654 Y88.047 E58.38901
G0 F7800 X98.25 Y88.068
G1 F720 X98.693 Y88.511 E58.40854
G0 F7800 X98.269 Y88.511
G1 F720 X97.847 Y88.089 E58.42715
G0 F7800 X97.443 Y88.109
G1 F720 X97.845 Y88.511 E58.44488
G0 F7800 X97.42 Y88.511
G1 F720 X97.017 Y88.32 E58.46166
G1 X96.604 Y88.331 E58.47751
G1 X96.19 Y88.341 E58.49244
G1 X95.776 Y88.352 E58.50647
G1 X95.362 Y88.362 E58.51956
G1 X94.949 Y88.372 E58.53175
G1 X94.535 Y88.383 E58.54303
G1 X94.12 Y88.393 E58.55339
G1 X93.707 Y88.404 E58.56279
G1 X93.293 Y88.414 E58.57131
G1 X92.879 Y88.424 E58.57889
G1 X92.465 Y88.435 E58.58556
G1 X92.198 Y88.38 E58.59406
G0 F7800 X124.878 Y86.694
G0 X124.878 Y86.694
G1 F720 X126.359 Y88.175 E58.65937
G0 F7800 X126.359 Y87.751
G1 F720 X125.282 Y86.674 E58.70686
G0 F7800 X125.685 Y86.653
G1 F720 X126.359 Y87.326 E58.73656
G0 F7800 X126.359 Y86.902
G1 F720 X126.089 Y86.632 E58.74847
; Layer Change GCode
; LAYER:1
G4 P0
M106 S89
G1 F1800 E57.74847
G0 F7800 X125.316 Y89.707 Z0.45
G0 X123.142 Y89.703
G0 X122.205 Y89.74
G0 X121.15 Y89.866
G0 X120.312 Y90.056
G0 X119.43 Y90.368
G0 X118.736 Y90.735
G0 X118.124 Y91.206
G0 X117.636 Y91.762
G0 X117.287 Y92.439
G0 X117.101 Y93.457
G0 X117.101 Y106.555
G0 X117.287 Y107.562
G0 X117.636 Y108.239
G0 X118.091 Y108.764
G0 X118.736 Y109.266
G0 X119.43 Y109.632
G0 X120.253 Y109.926
G0 X120.24 Y109.923
G0 X120.266 Y109.825
G0 X120.266 Y109.825
G0 X120.352 Y109.591
G0 X120.352 Y109.591
G0 X120.182 Y110.168
; TYPE:WALL-INNER
G1 F1800 E58.74847
G1 X121.102 Y110.381 E58.77202
G1 X122.09 Y110.505 E58.79686
G1 X123.136 Y110.548 E58.82298
G1 X126.6 Y110.548 E58.90939
G1 X126.6 Y113.958 E58.99445
G1 X106.038 Y112.852 E59.50811
G1 X74.686 Y111.202 E60.29127
G1 X74.294 Y111.107 E60.30134
G1 X73.992 Y110.913 E60.31029
G1 X73.826 Y110.715 E60.31673
G1 X73.713 Y110.463 E60.32362
G1 X73.668 Y110.15 E60.33151
G1 X73.668 Y89.883 E60.83707
G1 X73.779 Y89.382 E60.84988
G1 X73.944 Y89.138 E60.85722
G1 X74.208 Y88.931 E60.86559
G1 X74.401 Y88.85 E60.87081
G1 X74.669 Y88.8 E60.87761
G1 X94.753 Y87.723 E61.37933
G1 X126.6 Y86.043 E62.17486
G1 X126.6 Y89.453 E62.25992
G1 X123.137 Y89.453 E62.34631
G1 X122.185 Y89.49 E62.37007
G1 X121.106 Y89.619 E62.39718
G1 X120.242 Y89.815 E62.41928
G1 X119.329 Y90.138 E62.44344
G1 X118.601 Y90.522 E62.46397
G1 X117.951 Y91.022 E62.48443
G1 X117.427 Y91.618 E62.50422
G1 X117.045 Y92.357 E62.52498
G1 X116.85 Y93.434 E62.55228
G1 X116.85 Y106.578 E62.88016
G1 X117.045 Y107.645 E62.90721
G1 X117.426 Y108.381 E62.92789
G1 X117.916 Y108.947 E62.94656
G1 X118.599 Y109.478 E62.96814
G1 X119.328 Y109.862 E62.9887
G1 X120.182 Y110.168 E63.01133
G0 F7800 X120.267 Y109.879
G1 F1800 X121.155 Y110.086 E63.03407
G1 X122.115 Y110.206 E63.05821
G1 X123.142 Y110.248 E63.08385
G1 X126.9 Y110.248 E63.17759
G1 X126.9 Y114.275 E63.27804
G1 X106.022 Y113.152 E63.7996
G1 X74.643 Y111.5 E64.58344
G1 X74.176 Y111.387 E64.59542
G1 X73.792 Y111.141 E64.6068
G1 X73.568 Y110.874 E64.61549
G1 X73.422 Y110.549 E64.62438
G1 X73.368 Y110.171 E64.6339
G1 X73.368 Y89.85 E65.14081
G1 X73.499 Y89.261 E65.15587
G1 X73.72 Y88.932 E65.16575
G1 X74.055 Y88.67 E65.17636
G1 X74.315 Y88.561 E65.18339
G1 X74.638 Y88.501 E65.19159
G1 X94.737 Y87.423 E65.69368
G1 X126.9 Y85.726 E66.49711
G1 X126.9 Y89.753 E66.59756
G1 X123.142 Y89.753 E66.6913
G1 X122.209 Y89.789 E66.71459
G1 X121.157 Y89.915 E66.74102
G1 X120.326 Y90.104 E66.76228
G1 X119.45 Y90.414 E66.78546
G1 X118.763 Y90.776 E66.80483
G1 X118.157 Y91.242 E66.8239
G1 X117.677 Y91.788 E66.84204
G1 X117.332 Y92.454 E66.86075
G1 X117.15 Y93.461 E66.88628
G1 X117.15 Y106.551 E67.21281
G1 X117.332 Y107.547 E67.23806
G1 X117.676 Y108.211 E67.25672
G1 X118.124 Y108.728 E67.27378
G1 X118.762 Y109.225 E67.29396
G1 X119.449 Y109.587 E67.31333
G1 X120.267 Y109.879 E67.33499
G0 F7800 X120.352 Y109.591
; TYPE:WALL-OUTER
G1 F1260 X121.208 Y109.79 E67.35692
G1 X122.14 Y109.907 E67.38035
G1 X123.148 Y109.948 E67.40551
G1 X127.2 Y109.948 E67.50659
G1 X127.2 Y114.591 E67.62241
G1 X106.006 Y113.451 E68.15186
G1 X74.599 Y111.798 E68.9364
G1 X74.054 Y111.666 E68.95038
G1 X73.592 Y111.369 E68.96409
G1 X73.313 Y111.037 E68.9749
G1 X73.131 Y110.631 E68.986
G1 X73.068 Y110.193 E68.99704
G1 X73.068 Y89.816 E69.50535
G1 X73.218 Y89.141 E69.5226
G1 X73.498 Y88.726 E69.53508
G1 X73.902 Y88.408 E69.54791
G1 X74.228 Y88.272 E69.55672
G1 X74.598 Y88.203 E69.56611
G1 X94.721 Y87.124 E70.0688
G1 X127.2 Y85.41 E70.88012
G1 X127.2 Y90.053 E70.99594
G1 X123.148 Y90.053 E71.09702
G1 X122.232 Y90.088 E71.11988
G1 X121.208 Y90.211 E71.14561
G1 X120.409 Y90.393 E71.16605
G1 X119.571 Y90.689 E71.18822
G1 X118.926 Y91.029 E71.20641
G1 X118.363 Y91.462 E71.22413
G1 X117.926 Y91.959 E71.24064
G1 X117.619 Y92.552 E71.25729
G1 X117.45 Y93.488 E71.28102
G1 X117.45 Y106.524 E71.6062
G1 X117.619 Y107.449 E71.62966
G1 X117.926 Y108.042 E71.64632
G1 X118.331 Y108.509 E71.66174
G1 X118.925 Y108.972 E71.68052
G1 X119.57 Y109.312 E71.69871
G1 X120.352 Y109.591 E71.71942
G0 F7800 X120.268 Y110.433
G4 P0
M106 S255
; TYPE:BRIDGE
G1 F1200 X120.268 Y111.31 E71.7413
G0 F7800 X120.568 Y111.31
G1 F1200 X120.568 Y110.503 E71.76143
G0 F7800 X120.868 Y110.572
G1 F1200 X120.868 Y111.31 E71.77984
G0 F7800 X121.168 Y111.31
G1 F1200 X121.168 Y110.63 E71.7968
G0 F7800 X121.468 Y110.668
G1 F1200 X121.468 Y111.31 E71.81282
G0 F7800 X121.768 Y111.31
G1 F1200 X121.768 Y110.705 E71.82791
G0 F7800 X122.068 Y110.743
G1 F1200 X122.068 Y111.31 E71.84205
G0 F7800 X122.368 Y111.31
G1 F1200 X122.368 Y110.755 E71.8559
G0 F7800 X122.668 Y110.768
G1 F1200 X122.668 Y111.31 E71.86942
G0 F7800 X122.968 Y111.31
G1 F1200 X122.968 Y110.78 E71.88264
G0 F7800 X123.268 Y110.787
G1 F1200 X123.268 Y111.31 E71.89569
G0 F7800 X123.568 Y111.31
G1 F1200 X123.568 Y110.787 E71.90873
G0 F7800 X123.868 Y110.787
G1 F1200 X123.868 Y111.31 E71.92178
G0 F7800 X124.168 Y111.31
G1 F1200 X124.168 Y110.787 E71.93482
G0 F7800 X124.468 Y110.787
G1 F1200 X124.468 Y111.31 E71.94787
G0 F7800 X124.768 Y111.31
G1 F1200 X124.768 Y110.787 E71.96092
G0 F7800 X125.068 Y110.787
G1 F1200 X125.068 Y111.31 E71.97396
G0 F7800 X125.368 Y111.31
G1 F1200 X125.368 Y110.787 E71.98701
G0 F7800 X125.668 Y110.787
G1 F1200 X125.668 Y111.31 E72.00006
G0 F7800 X125.968 Y111.31
G1 F1200 X125.968 Y110.787 E72.0131
G0 F7800 X126.268 Y110.787
G1 F1200 X126.268 Y111.31 E72.02615
G0 F7800 X119.968 Y111.31
G0 X119.968 Y111.31
G1 F1200 X119.968 Y110.346 E72.0502
G0 F7800 X119.669 Y110.239
G1 F1200 X119.668 Y111.31 E72.07691
G0 F7800 X119.368 Y111.31
G1 F1200 X119.369 Y110.132 E72.1063
G0 F7800 X119.069 Y109.997
G1 F1200 X119.068 Y111.31 E72.13905
G0 F7800 X118.768 Y111.31
G1 F1200 X118.769 Y109.838 E72.17577
G0 F7800 X118.469 Y109.68
G1 F1200 X118.468 Y111.31 E72.21643
G0 F7800 X118.168 Y111.31
G1 F1200 X118.169 Y109.448 E72.26288
G0 F7800 X117.869 Y109.215
G1 F1200 X117.868 Y111.31 E72.31514
G0 F7800 X117.568 Y111.311
G1 F1200 X117.569 Y108.914 E72.37493
G0 F7800 X117.269 Y108.567
G1 F1200 X117.268 Y111.31 E72.44336
G0 F7800 X116.968 Y111.31
G1 F1200 X116.969 Y108.022 E72.52538
G0 F7800 X116.669 Y106.931
G1 F1200 X116.668 Y111.31 E72.63461
G0 F7800 X116.368 Y111.31
G1 F1200 X116.375 Y88.69 E73.19887
G0 F7800 X116.675 Y88.69
G1 F1200 X116.673 Y93.055 E73.30775
G0 F7800 X116.974 Y91.968
G1 F1200 X116.975 Y88.69 E73.38952
G0 F7800 X117.275 Y88.69
G1 F1200 X117.274 Y91.426 E73.45777
G0 F7800 X117.574 Y91.086
G1 F1200 X117.575 Y88.691 E73.51752
G0 F7800 X117.875 Y88.69
G1 F1200 X117.874 Y90.778 E73.5696
G0 F7800 X118.174 Y90.547
G1 F1200 X118.175 Y88.69 E73.61593
G0 F7800 X118.475 Y88.69
G1 F1200 X118.474 Y90.316 E73.65649
G0 F7800 X118.774 Y90.157
G1 F1200 X118.775 Y88.69 E73.69308
G0 F7800 X119.075 Y88.69
G1 F1200 X119.074 Y89.999 E73.72573
G0 F7800 X119.374 Y89.866
G1 F1200 X119.375 Y88.69 E73.75507
G0 F7800 X119.675 Y88.69
G1 F1200 X119.674 Y89.76 E73.78176
G0 F7800 X119.974 Y89.654
G1 F1200 X119.975 Y88.69 E73.80581
G0 F7800 X120.275 Y88.69
G1 F1200 X120.274 Y89.561 E73.82753
G0 F7800 X120.574 Y89.492
G1 F1200 X120.575 Y88.69 E73.84754
G0 F7800 X120.875 Y88.69
G1 F1200 X120.874 Y89.424 E73.86585
G0 F7800 X121.174 Y89.369
G1 F1200 X121.175 Y88.69 E73.88279
G0 F7800 X121.475 Y88.69
G1 F1200 X121.474 Y89.333 E73.89883
G0 F7800 X121.774 Y89.297
G1 F1200 X121.775 Y88.69 E73.91397
G0 F7800 X122.075 Y88.69
G1 F1200 X122.074 Y89.261 E73.92821
G0 F7800 X122.374 Y89.242
G1 F1200 X122.375 Y88.69 E73.94198
G0 F7800 X122.675 Y88.69
G1 F1200 X122.674 Y89.23 E73.95545
G0 F7800 X122.974 Y89.218
G1 F1200 X122.975 Y88.69 E73.96862
G0 F7800 X123.275 Y88.69
G1 F1200 X123.274 Y89.212 E73.98165
G0 F7800 X123.574 Y89.212
G1 F1200 X123.575 Y88.69 E73.99467
G0 F7800 X123.875 Y88.69
G1 F1200 X123.874 Y89.212 E74.00769
G0 F7800 X124.174 Y89.212
G1 F1200 X124.175 Y88.69 E74.02071
G0 F7800 X124.475 Y88.69
G1 F1200 X124.474 Y89.212 E74.03373
G0 F7800 X124.774 Y89.212
G1 F1200 X124.775 Y88.69 E74.04675
G0 F7800 X125.075 Y88.69
G1 F1200 X125.074 Y89.212 E74.05977
G0 F7800 X125.374 Y89.212
G1 F1200 X125.375 Y88.69 E74.0728
G0 F7800 X125.675 Y88.69
G1 F1200 X125.674 Y89.212 E74.08582
G0 F7800 X125.974 Y89.212
G1 F1200 X125.975 Y88.69 E74.09884
G0 F7800 X126.275 Y88.69
G1 F1200 X126.274 Y89.212 E74.11186
G0 F7800 X116.075 Y88.69
G0 X116.075 Y88.69
G1 F1200 X116.068 Y111.31 E74.67612
G0 F7800 X115.768 Y111.31
G1 F1200 X115.775 Y88.69 E75.24038
G0 F7800 X115.475 Y88.69
G1 F1200 X115.468 Y111.31 E75.80463
G0 F7800 X115.168 Y111.31
G1 F1200 X115.175 Y88.69 E76.36889
G0 F7800 X114.875 Y88.69
G1 F1200 X114.868 Y111.31 E76.93315
G0 F7800 X114.568 Y111.31
G1 F1200 X114.575 Y88.69 E77.49741
G0 F7800 X114.275 Y88.69
G1 F1200 X114.268 Y111.31 E78.06167
G0 F7800 X113.968 Y111.311
G1 F1200 X113.975 Y88.691 E78.62593
G0 F7800 X113.675 Y88.69
G1 F1200 X113.668 Y111.31 E79.19018
G0 F7800 X113.368 Y111.31
G1 F1200 X113.375 Y88.69 E79.75444
G0 F7800 X113.075 Y88.69
G1 F1200 X113.068 Y111.31 E80.3187
G0 F7800 X112.768 Y111.31
G1 F1200 X112.775 Y88.69 E80.88296
G0 F7800 X112.475 Y88.69
G1 F1200 X112.468 Y111.31 E81.44722
G0 F7800 X112.168 Y111.31
G1 F1200 X112.175 Y88.69 E82.01147
G0 F7800 X111.875 Y88.69
G1 F1200 X111.868 Y111.31 E82.57573
G0 F7800 X111.568 Y111.31
G1 F1200 X111.575 Y88.69 E83.13999
G0 F7800 X111.275 Y88.69
G1 F1200 X111.268 Y111.31 E83.70425
G0 F7800 X110.968 Y111.31
G1 F1200 X110.975 Y88.69 E84.26851
G0 F7800 X110.675 Y88.691
G1 F1200 X110.668 Y111.311 E84.83277
G0 F7800 X110.368 Y111.311
G1 F1200 X110.375 Y88.691 E85.39702
G0 F7800 X110.075 Y88.69
G1 F1200 X110.068 Y111.31 E85.96128
G0 F7800 X109.768 Y111.31
G1 F1200 X109.775 Y88.69 E86.52554
G0 F7800 X109.475 Y88.69
G1 F1200 X109.468 Y111.31 E87.0898
G0 F7800 X109.168 Y111.31
G1 F1200 X109.175 Y88.69 E87.65406
G0 F7800 X108.875 Y88.69
G1 F1200 X108.868 Y111.31 E88.21831
G0 F7800 X108.568 Y111.31
G1 F1200 X108.575 Y88.69 E88.78257
G0 F7800 X108.275 Y88.69
G1 F1200 X108.268 Y111.31 E89.34683
G0 F7800 X107.968 Y111.31
G1 F1200 X107.975 Y88.69 E89.91109
G0 F7800 X107.675 Y88.69
G1 F1200 X107.668 Y111.31 E90.47535
G0 F7800 X107.368 Y111.31
G1 F1200 X107.375 Y88.69 E91.03961
G0 F7800 X107.075 Y88.691
G1 F1200 X107.068 Y111.311 E91.60386
G0 F7800 X106.768 Y111.311
G1 F1200 X106.775 Y88.691 E92.16812
G0 F7800 X106.475 Y88.69
G1 F1200 X106.468 Y111.31 E92.73238
G0 F7800 X106.168 Y111.31
G1 F1200 X106.175 Y88.69 E93.29664
G0 F7800 X105.875 Y88.69
G1 F1200 X105.868 Y111.31 E93.8609
G0 F7800 X105.568 Y111.31
G1 F1200 X105.575 Y88.69 E94.42516
G0 F7800 X105.275 Y88.69
G1 F1200 X105.268 Y111.31 E94.98941
G0 F7800 X104.968 Y111.31
G1 F1200 X104.975 Y88.69 E95.55367
G0 F7800 X104.675 Y88.69
G1 F1200 X104.668 Y111.31 E96.11793
G0 F7800 X104.368 Y111.31
G1 F1200 X104.375 Y88.69 E96.68219
G0 F7800 X104.075 Y88.69
G1 F1200 X104.068 Y111.31 E97.24645
G0 F7800 X103.768 Y111.311
G1 F1200 X103.775 Y88.69 E97.81073
G0 F7800 X103.475 Y88.691
G1 F1200 X103.468 Y111.311 E98.37499
G0 F7800 X103.168 Y111.31
G1 F1200 X103.175 Y88.69 E98.93925
G0 F7800 X102.875 Y88.69
G1 F1200 X102.868 Y111.31 E99.5035
G0 F7800 X102.568 Y111.31
G1 F1200 X102.575 Y88.69 E100.06776
G0 F7800 X102.275 Y88.69
G1 F1200 X102.268 Y111.31 E100.63202
G0 F7800 X101.968 Y111.31
G1 F1200 X101.975 Y88.69 E101.19628
G0 F7800 X101.675 Y88.69
G1 F1200 X101.668 Y111.31 E101.76054
G0 F7800 X101.368 Y111.31
G1 F1200 X101.375 Y88.69 E102.3248
G0 F7800 X101.075 Y88.69
G1 F1200 X101.068 Y111.31 E102.88905
G0 F7800 X100.768 Y111.31
G1 F1200 X100.775 Y88.69 E103.45331
G0 F7800 X100.475 Y88.69
G1 F1200 X100.468 Y111.31 E104.01757
G0 F7800 X100.168 Y111.311
G1 F1200 X100.175 Y88.691 E104.58183
G0 F7800 X99.875 Y88.691
G1 F1200 X99.868 Y111.311 E105.14609
G0 F7800 X99.568 Y111.31
G1 F1200 X99.575 Y88.69 E105.71034
G0 F7800 X99.275 Y88.69
G1 F1200 X99.268 Y111.31 E106.2746
G0 F7800 X98.968 Y111.31
G1 F1200 X98.975 Y88.69 E106.83886
G0 F7800 X98.675 Y88.69
G1 F1200 X98.668 Y111.31 E107.40312
G0 F7800 X98.368 Y111.31
G1 F1200 X98.375 Y88.69 E107.96738
G0 F7800 X98.075 Y88.69
G1 F1200 X98.068 Y111.31 E108.53164
G0 F7800 X97.768 Y111.31
G1 F1200 X97.775 Y88.69 E109.09589
G0 F7800 X97.475 Y88.69
G1 F1200 X97.468 Y111.31 E109.66015
G0 F7800 X97.168 Y111.31
G1 F1200 X97.175 Y88.69 E110.22441
G0 F7800 X96.875 Y88.69
G1 F1200 X96.868 Y111.311 E110.78869
G0 F7800 X96.568 Y111.311
G1 F1200 X96.575 Y88.691 E111.35295
G0 F7800 X96.275 Y88.691
G1 F1200 X96.268 Y111.311 E111.91721
G0 F7800 X95.968 Y111.31
G1 F1200 X95.975 Y88.69 E112.48147
G0 F7800 X95.675 Y88.69
G1 F1200 X95.668 Y111.31 E113.04573
G0 F7800 X95.368 Y111.31
G1 F1200 X95.375 Y88.69 E113.60998
G0 F7800 X95.075 Y88.69
G1 F1200 X95.068 Y111.31 E114.17424
G0 F7800 X94.768 Y111.31
G1 F1200 X94.775 Y88.69 E114.7385
G0 F7800 X94.475 Y88.69
G1 F1200 X94.468 Y111.31 E115.30276
G0 F7800 X94.168 Y111.31
G1 F1200 X94.175 Y88.69 E115.86702
G0 F7800 X93.875 Y88.69
G1 F1200 X93.868 Y111.31 E116.43128
G0 F7800 X93.568 Y111.31
G1 F1200 X93.575 Y88.69 E116.99553
G0 F7800 X93.275 Y88.691
G1 F1200 X93.268 Y111.311 E117.55979
G0 F7800 X92.968 Y111.311
G1 F1200 X92.975 Y88.691 E118.12405
G0 F7800 X92.675 Y88.691
G1 F1200 X92.668 Y111.311 E118.68831
G0 F7800 X92.368 Y111.31
G1 F1200 X92.375 Y88.69 E119.25257
G0 F7800 X92.075 Y88.69
G1 F1200 X92.068 Y111.31 E119.81682
G0 F7800 X91.768 Y111.31
G1 F1200 X91.775 Y88.69 E120.38108
G0 F7800 X91.475 Y88.69
G1 F1200 X91.468 Y111.31 E120.94534
G0 F7800 X91.168 Y111.31
G1 F1200 X91.175 Y88.69 E121.5096
G0 F7800 X90.875 Y88.69
G1 F1200 X90.868 Y111.31 E122.07386
G0 F7800 X90.568 Y111.31
G1 F1200 X90.575 Y88.69 E122.63812
G0 F7800 X90.275 Y88.69
G1 F1200 X90.268 Y111.31 E123.20237
G0 F7800 X89.968 Y111.311
G1 F1200 X89.975 Y88.69 E123.76666
G0 F7800 X89.675 Y88.691
G1 F1200 X89.668 Y111.311 E124.33092
G0 F7800 X89.368 Y111.311
G1 F1200 X89.375 Y88.691 E124.89517
G0 F7800 X89.075 Y88.691
G1 F1200 X89.068 Y111.311 E125.45943
G0 F7800 X88.768 Y111.31
G1 F1200 X88.775 Y88.69 E126.02369
G0 F7800 X88.475 Y88.69
G1 F1200 X88.468 Y111.31 E126.58795
G0 F7800 X88.168 Y111.31
G1 F1200 X88.175 Y88.69 E127.15221
G0 F7800 X87.875 Y88.69
G1 F1200 X87.868 Y111.31 E127.71646
G0 F7800 X87.568 Y111.31
G1 F1200 X87.575 Y88.69 E128.28072
G0 F7800 X87.275 Y88.69
G1 F1200 X87.268 Y111.31 E128.84498
G0 F7800 X86.968 Y111.31
G1 F1200 X86.975 Y88.69 E129.40924
G0 F7800 X86.675 Y88.69
G1 F1200 X86.668 Y111.31 E129.9735
G0 F7800 X86.368 Y111.311
G1 F1200 X86.375 Y88.691 E130.53776
G0 F7800 X86.075 Y88.691
G1 F1200 X86.068 Y111.311 E131.10201
G0 F7800 X85.768 Y111.311
G1 F1200 X85.775 Y88.691 E131.66627
G0 F7800 X85.475 Y88.691
G1 F1200 X85.468 Y111.311 E132.23053
G0 F7800 X85.168 Y111.31
G1 F1200 X85.175 Y88.69 E132.79479
G0 F7800 X84.875 Y88.69
G1 F1200 X84.868 Y111.31 E133.35905
G0 F7800 X84.568 Y111.31
G1 F1200 X84.575 Y88.69 E133.92331
G0 F7800 X84.275 Y88.69
G1 F1200 X84.268 Y111.31 E134.48756
G0 F7800 X83.968 Y111.31
G1 F1200 X83.975 Y88.69 E135.05182
G0 F7800 X83.675 Y88.69
G1 F1200 X83.668 Y111.31 E135.61608
G0 F7800 X83.368 Y111.31
G1 F1200 X83.375 Y88.69 E136.18034
G0 F7800 X83.075 Y88.69
G1 F1200 X83.068 Y111.311 E136.74462
G0 F7800 X82.768 Y111.311
G1 F1200 X82.775 Y88.691 E137.30888
G0 F7800 X82.475 Y88.691
G1 F1200 X82.468 Y111.311 E137.87314
G0 F7800 X82.168 Y111.311
G1 F1200 X82.175 Y88.691 E138.4374
G0 F7800 X81.875 Y88.691
G1 F1200 X81.868 Y111.311 E139.00165
G0 F7800 X81.568 Y111.31
G1 F1200 X81.575 Y88.69 E139.56591
G0 F7800 X81.275 Y88.69
G1 F1200 X81.268 Y111.306 E140.13007
G0 F7800 X80.968 Y111.291
G1 F1200 X80.975 Y88.702 E140.69356
G0 F7800 X80.675 Y88.718
G1 F1200 X80.668 Y111.275 E141.25624
G0 F7800 X80.368 Y111.259
G1 F1200 X80.375 Y88.734 E141.81813
G0 F7800 X80.075 Y88.75
G1 F1200 X80.068 Y111.244 E142.37925
G0 F7800 X79.768 Y111.228
G1 F1200 X79.775 Y88.766 E142.93956
G0 F7800 X79.475 Y88.782
G1 F1200 X79.468 Y111.212 E143.49908
G0 F7800 X79.168 Y111.197
G1 F1200 X79.175 Y88.799 E144.0578
G0 F7800 X78.875 Y88.815
G1 F1200 X78.868 Y111.181 E144.61572
G0 F7800 X78.568 Y111.165
G1 F1200 X78.575 Y88.831 E145.17285
G0 F7800 X78.275 Y88.846
G1 F1200 X78.268 Y111.148 E145.72917
G0 F7800 X77.968 Y111.133
G1 F1200 X77.975 Y88.862 E146.28473
G0 F7800 X77.675 Y88.878
G1 F1200 X77.668 Y111.117 E146.83948
G0 F7800 X77.368 Y111.101
G1 F1200 X77.375 Y88.895 E147.39341
G0 F7800 X77.075 Y88.911
G1 F1200 X77.068 Y111.086 E147.94657
G0 F7800 X76.768 Y111.07
G1 F1200 X76.775 Y88.927 E148.49893
G0 F7800 X76.475 Y88.943
G1 F1200 X76.468 Y111.054 E149.05049
G0 F7800 X76.168 Y111.039
G1 F1200 X76.175 Y88.959 E149.60128
G0 F7800 X75.875 Y88.975
G1 F1200 X75.868 Y111.023 E150.15127
G0 F7800 X75.568 Y111.007
G1 F1200 X75.574 Y88.992 E150.70043
G0 F7800 X75.274 Y89.008
G1 F1200 X75.268 Y110.992 E151.24883
G0 F7800 X74.968 Y110.976
G1 F1200 X74.974 Y89.024 E151.79642
G0 F7800 X74.674 Y89.042
G1 F1200 X74.668 Y110.949 E152.34289
G0 F7800 X74.368 Y110.869
G1 F1200 X74.374 Y89.121 E152.8854
G0 F7800 X74.074 Y89.373
G1 F1200 X74.068 Y110.63 E153.41566
G0 F7800 X81.307 Y111.308
G0 X81.307 Y111.308
G4 P0
M106 S89
; TYPE:FILL
G1 F3600 X81.567 Y111.259 E153.41979
G1 X81.981 Y111.27 E153.42468
G1 X82.394 Y111.281 E153.43032
G1 X82.808 Y111.291 E153.43672
G1 X83.222 Y111.302 E153.44385
G1 X83.635 Y111.312 E153.45172
G1 X84.049 Y111.323 E153.46036
G1 X84.463 Y111.334 E153.46973
G1 X84.876 Y111.344 E153.47986
G1 X85.29 Y111.355 E153.49071
G1 X85.704 Y111.365 E153.50235
G1 X86.117 Y111.376 E153.51475
G1 X86.531 Y111.387 E153.52787
G1 X86.944 Y111.398 E153.54171
G1 X87.365 Y111.19 E153.55343
G0 F7800 X87.789 Y111.19
G1 F3600 X87.352 Y111.627 E153.56884
G0 F7800 X87.755 Y111.648
G1 F3600 X88.213 Y111.19 E153.585
G0 F7800 X88.637 Y111.19
G1 F3600 X88.158 Y111.669 E153.6019
G0 F7800 X88.561 Y111.691
G1 F3600 X89.062 Y111.19 E153.61957
G0 F7800 X89.486 Y111.19
G1 F3600 X88.964 Y111.712 E153.63799
G0 F7800 X89.367 Y111.733
G1 F3600 X89.91 Y111.19 E153.65714
G0 F7800 X90.335 Y111.19
G1 F3600 X89.77 Y111.754 E153.67706
G0 F7800 X90.173 Y111.775
G1 F3600 X90.759 Y111.19 E153.69771
G0 F7800 X91.183 Y111.19
G1 F3600 X90.576 Y111.797 E153.71913
G0 F7800 X90.979 Y111.818
G1 F3600 X91.607 Y111.19 E153.74128
G0 F7800 X92.032 Y111.19
G1 F3600 X91.382 Y111.839 E153.76419
G0 F7800 X91.785 Y111.86
G1 F3600 X92.456 Y111.19 E153.78785
G0 F7800 X92.88 Y111.19
G1 F3600 X92.189 Y111.881 E153.81222
G0 F7800 X92.592 Y111.903
G1 F3600 X93.304 Y111.19 E153.83736
G0 F7800 X93.729 Y111.19
G1 F3600 X92.995 Y111.924 E153.86325
G0 F7800 X93.398 Y111.945
G1 F3600 X94.153 Y111.19 E153.88989
G0 F7800 X94.577 Y111.19
G1 F3600 X93.801 Y111.966 E153.91726
G0 F7800 X94.204 Y111.988
G1 F3600 X95.001 Y111.19 E153.9454
G0 F7800 X95.426 Y111.19
G1 F3600 X94.607 Y112.009 E153.97429
G0 F7800 X95.01 Y112.03
G1 F3600 X95.85 Y111.19 E154.00392
G0 F7800 X96.274 Y111.19
G1 F3600 X95.413 Y112.051 E154.0343
G0 F7800 X95.816 Y112.072
G1 F3600 X96.698 Y111.19 E154.06541
G0 F7800 X97.123 Y111.19
G1 F3600 X96.219 Y112.094 E154.0973
G0 F7800 X96.622 Y112.115
G1 F3600 X97.547 Y111.19 E154.12994
G0 F7800 X97.971 Y111.19
G1 F3600 X97.025 Y112.136 E154.16331
G0 F7800 X97.428 Y112.157
G1 F3600 X98.396 Y111.19 E154.19744
G0 F7800 X98.82 Y111.19
G1 F3600 X97.831 Y112.178 E154.23231
G0 F7800 X98.234 Y112.2
G1 F3600 X99.244 Y111.19 E154.26794
G0 F7800 X99.668 Y111.19
G1 F3600 X98.637 Y112.221 E154.30431
G0 F7800 X99.04 Y112.242
G1 F3600 X100.093 Y111.19 E154.34144
G0 F7800 X100.517 Y111.19
G1 F3600 X99.443 Y112.263 E154.37931
G0 F7800 X99.846 Y112.285
G1 F3600 X100.941 Y111.19 E154.41794
G0 F7800 X101.365 Y111.19
G1 F3600 X100.249 Y112.306 E154.45731
G0 F7800 X100.652 Y112.328
G1 F3600 X101.79 Y111.19 E154.49746
G0 F7800 X102.214 Y111.19
G1 F3600 X101.055 Y112.349 E154.53835
G0 F7800 X101.458 Y112.37
G1 F3600 X102.638 Y111.19 E154.57997
G0 F7800 X103.062 Y111.19
G1 F3600 X101.861 Y112.391 E154.62234
G0 F7800 X102.264 Y112.413
G1 F3600 X103.487 Y111.19 E154.66549
G0 F7800 X103.911 Y111.19
G1 F3600 X102.667 Y112.434 E154.70937
G0 F7800 X103.07 Y112.455
G1 F3600 X104.335 Y111.19 E154.754
G0 F7800 X104.759 Y111.19
G1 F3600 X103.473 Y112.476 E154.79937
G0 F7800 X103.876 Y112.497
G1 F3600 X105.184 Y111.19 E154.84549
G0 F7800 X105.608 Y111.19
G1 F3600 X104.279 Y112.519 E154.89237
G0 F7800 X104.682 Y112.54
G1 F3600 X106.032 Y111.19 E154.94
G0 F7800 X106.457 Y111.19
G1 F3600 X105.085 Y112.561 E154.98838
G0 F7800 X105.489 Y112.582
G1 F3600 X106.881 Y111.19 E155.03749
G0 F7800 X107.305 Y111.19
G1 F3600 X105.892 Y112.603 E155.08734
G0 F7800 X106.295 Y112.625
G1 F3600 X107.729 Y111.19 E155.13794
G0 F7800 X108.154 Y111.19
G1 F3600 X106.698 Y112.646 E155.18931
G0 F7800 X107.101 Y112.667
G1 F3600 X108.578 Y111.19 E155.24141
G0 F7800 X109.002 Y111.19
G1 F3600 X107.504 Y112.688 E155.29426
G0 F7800 X107.907 Y112.709
G1 F3600 X109.426 Y111.19 E155.34785
G0 F7800 X109.851 Y111.19
G1 F3600 X108.31 Y112.731 E155.40221
G0 F7800 X108.713 Y112.752
G1 F3600 X110.275 Y111.19 E155.45731
G0 F7800 X110.699 Y111.19
G1 F3600 X109.116 Y112.773 E155.51316
G0 F7800 X109.519 Y112.794
G1 F3600 X111.123 Y111.19 E155.56974
G0 F7800 X111.548 Y111.19
G1 F3600 X109.922 Y112.816 E155.6271
G0 F7800 X110.325 Y112.837
G1 F3600 X111.972 Y111.19 E155.68521
G0 F7800 X112.396 Y111.19
G1 F3600 X110.728 Y112.858 E155.74405
G0 F7800 X111.131 Y112.879
G1 F3600 X112.821 Y111.19 E155.80365
G0 F7800 X113.245 Y111.19
G1 F3600 X111.534 Y112.9 E155.86399
G0 F7800 X111.937 Y112.922
G1 F3600 X113.669 Y111.19 E155.92509
G0 F7800 X114.093 Y111.19
G1 F3600 X112.34 Y112.943 E155.98694
G0 F7800 X112.743 Y112.964
G1 F3600 X114.518 Y111.19 E156.04954
G0 F7800 X114.942 Y111.19
G1 F3600 X113.146 Y112.986 E156.11289
G0 F7800 X113.549 Y113.007
G1 F3600 X115.366 Y111.19 E156.17699
G0 F7800 X115.79 Y111.19
G1 F3600 X113.952 Y113.028 E156.24183
G0 F7800 X114.355 Y113.05
G1 F3600 X116.215 Y111.19 E156.30745
G0 F7800 X116.639 Y111.19
G1 F3600 X114.758 Y113.071 E156.37381
G0 F7800 X115.161 Y113.092
G1 F3600 X117.063 Y111.19 E156.44091
G0 F7800 X117.487 Y111.19
G1 F3600 X115.564 Y113.113 E156.50875
G0 F7800 X115.967 Y113.134
G1 F3600 X117.912 Y111.19 E156.57734
G0 F7800 X118.336 Y111.19
G1 F3600 X116.37 Y113.156 E156.6467
G0 F7800 X116.773 Y113.177
G1 F3600 X118.76 Y111.19 E156.7168
G0 F7800 X119.184 Y111.19
G1 F3600 X117.176 Y113.198 E156.78763
G0 F7800 X117.579 Y113.219
G1 F3600 X119.609 Y111.19 E156.85923
G0 F7800 X120.033 Y111.19
G1 F3600 X117.982 Y113.241 E156.93158
G0 F7800 X118.385 Y113.262
G1 F3600 X120.457 Y111.19 E157.00468
G0 F7800 X120.882 Y111.19
G1 F3600 X118.788 Y113.283 E157.07853
G0 F7800 X119.192 Y113.304
G1 F3600 X121.306 Y111.19 E157.15311
G0 F7800 X121.73 Y111.19
G1 F3600 X119.595 Y113.325 E157.22843
G0 F7800 X119.998 Y113.347
G1 F3600 X122.154 Y111.19 E157.30451
G0 F7800 X122.579 Y111.19
G1 F3600 X120.401 Y113.368 E157.38134
G0 F7800 X120.804 Y113.389
G1 F3600 X123.003 Y111.19 E157.45892
G0 F7800 X123.427 Y111.19
G1 F3600 X121.207 Y113.41 E157.53723
G0 F7800 X121.61 Y113.431
G1 F3600 X123.851 Y111.19 E157.61629
G0 F7800 X124.276 Y111.19
G1 F3600 X122.013 Y113.453 E157.69612
G0 F7800 X122.416 Y113.474
G1 F3600 X124.7 Y111.19 E157.7767
G0 F7800 X125.124 Y111.19
G1 F3600 X122.819 Y113.495 E157.85801
G0 F7800 X123.222 Y113.516
G1 F3600 X125.548 Y111.19 E157.94007
G0 F7800 X125.973 Y111.19
G1 F3600 X123.625 Y113.538 E158.0229
G0 F7800 X124.028 Y113.559
G1 F3600 X126.359 Y111.228 E158.10513
G0 F7800 X126.359 Y111.652
G1 F3600 X124.431 Y113.58 E158.17315
G0 F7800 X124.834 Y113.601
G1 F3600 X126.359 Y112.077 E158.22693
G0 F7800 X126.359 Y112.501
G1 F3600 X125.237 Y113.622 E158.26649
G0 F7800 X125.64 Y113.644
G1 F3600 X126.359 Y112.925 E158.29186
G0 F7800 X126.359 Y113.349
G1 F3600 X126.043 Y113.665 E158.30301
G1 F1800 E157.30301
G0 F7800 X126.018 Y110.296
G0 X126.909 Y110.239
G0 X126.913 Y114.287
G0 X106.024 Y113.102
G0 X74.65 Y111.451
G0 X74.19 Y111.342
G0 X73.826 Y111.107
G0 X73.61 Y110.849
G0 X73.469 Y110.535
G0 X73.417 Y110.165
G0 X73.416 Y89.856
G0 X73.541 Y89.281
G0 X73.758 Y88.963
G0 X74.077 Y88.713
G0 X74.333 Y88.606
G0 X74.632 Y88.551
G0 X94.739 Y87.473
G0 X126.913 Y85.714
G0 X126.909 Y89.762
G0 X125.872 Y89.702
G0 X125.867 Y88.81
G0 X125.867 Y88.81
G1 F1800 E158.30301
G1 F3600 X126.359 Y88.318 E158.32036
G0 F7800 X126.359 Y87.894
G1 F3600 X125.442 Y88.81 E158.35269
G0 F7800 X125.018 Y88.81
G1 F3600 X126.359 Y87.469 E158.4
G0 F7800 X126.359 Y87.045
G1 F3600 X124.594 Y88.81 E158.46227
G0 F7800 X124.17 Y88.81
G1 F3600 X126.359 Y86.621 E158.53949
G0 F7800 X126.232 Y86.323
G1 F3600 X123.745 Y88.81 E158.62722
G0 F7800 X123.321 Y88.81
G1 F3600 X125.785 Y86.346 E158.71415
G0 F7800 X125.337 Y86.37
G1 F3600 X122.897 Y88.81 E158.80023
G0 F7800 X122.473 Y88.81
G1 F3600 X124.89 Y86.392 E158.88551
G0 F7800 X124.443 Y86.416
G1 F3600 X122.048 Y88.81 E158.96998
G0 F7800 X121.624 Y88.81
G1 F3600 X123.996 Y86.438 E159.05366
G0 F7800 X123.548 Y86.462
G1 F3600 X121.2 Y88.81 E159.13649
G0 F7800 X120.775 Y88.81
G1 F3600 X123.1 Y86.485 E159.21851
G0 F7800 X122.654 Y86.508
G1 F3600 X120.351 Y88.81 E159.29974
G0 F7800 X119.927 Y88.81
G1 F3600 X122.206 Y86.531 E159.38014
G0 F7800 X121.758 Y86.554
G1 F3600 X119.503 Y88.81 E159.45971
G0 F7800 X119.078 Y88.81
G1 F3600 X121.311 Y86.577 E159.53848
G0 F7800 X120.864 Y86.6
G1 F3600 X118.654 Y88.81 E159.61645
G0 F7800 X118.23 Y88.81
G1 F3600 X120.416 Y86.624 E159.69356
G0 F7800 X119.969 Y86.646
G1 F3600 X117.806 Y88.81 E159.76989
G0 F7800 X117.381 Y88.81
G1 F3600 X119.522 Y86.67 E159.8454
G0 F7800 X119.074 Y86.693
G1 F3600 X116.957 Y88.81 E159.92008
G0 F7800 X116.533 Y88.81
G1 F3600 X118.627 Y86.716 E159.99395
G0 F7800 X118.18 Y86.739
G1 F3600 X116.109 Y88.81 E160.06701
G0 F7800 X115.684 Y88.81
G1 F3600 X117.732 Y86.762 E160.13926
G0 F7800 X117.285 Y86.785
G1 F3600 X115.26 Y88.81 E160.2107
G0 F7800 X114.836 Y88.81
G1 F3600 X116.838 Y86.808 E160.28133
G0 F7800 X116.391 Y86.831
G1 F3600 X114.411 Y88.81 E160.35116
G0 F7800 X113.987 Y88.81
G1 F3600 X115.943 Y86.854 E160.42016
G0 F7800 X115.495 Y86.877
G1 F3600 X113.563 Y88.81 E160.48834
G0 F7800 X113.139 Y88.81
G1 F3600 X115.049 Y86.9 E160.55572
G0 F7800 X114.601 Y86.923
G1 F3600 X112.714 Y88.81 E160.62228
G0 F7800 X112.29 Y88.81
G1 F3600 X114.153 Y86.947 E160.68801
G0 F7800 X113.707 Y86.969
G1 F3600 X111.866 Y88.81 E160.75295
G0 F7800 X111.442 Y88.81
G1 F3600 X113.259 Y86.993 E160.81705
G0 F7800 X112.811 Y87.016
G1 F3600 X111.017 Y88.81 E160.88034
G0 F7800 X110.593 Y88.81
G1 F3600 X112.364 Y87.039 E160.94282
G0 F7800 X111.917 Y87.062
G1 F3600 X110.169 Y88.81 E161.00448
G0 F7800 X109.745 Y88.81
G1 F3600 X111.469 Y87.085 E161.06532
G0 F7800 X111.022 Y87.108
G1 F3600 X109.32 Y88.81 E161.12536
G0 F7800 X108.896 Y88.81
G1 F3600 X110.575 Y87.131 E161.18459
G0 F7800 X110.127 Y87.155
G1 F3600 X108.472 Y88.81 E161.24298
G0 F7800 X108.048 Y88.81
G1 F3600 X109.68 Y87.177 E161.30057
G0 F7800 X109.233 Y87.201
G1 F3600 X107.623 Y88.81 E161.35735
G0 F7800 X107.199 Y88.81
G1 F3600 X108.786 Y87.223 E161.41333
G0 F7800 X108.337 Y87.247
G1 F3600 X106.775 Y88.81 E161.46846
G0 F7800 X106.35 Y88.81
G1 F3600 X107.889 Y87.271 E161.52275
G0 F7800 X107.442 Y87.295
G1 F3600 X105.926 Y88.81 E161.57621
G0 F7800 X105.502 Y88.81
G1 F3600 X106.993 Y87.319 E161.62881
G0 F7800 X106.545 Y87.343
G1 F3600 X105.078 Y88.81 E161.68056
G0 F7800 X104.653 Y88.81
G1 F3600 X106.097 Y87.366 E161.7315
G0 F7800 X105.649 Y87.39
G1 F3600 X104.229 Y88.81 E161.7816
G0 F7800 X103.805 Y88.81
G1 F3600 X105.201 Y87.414 E161.83085
G0 F7800 X104.753 Y87.437
G1 F3600 X103.381 Y88.81 E161.87926
G0 F7800 X102.956 Y88.81
G1 F3600 X104.305 Y87.462 E161.92684
G0 F7800 X103.857 Y87.486
G1 F3600 X102.532 Y88.81 E161.97356
G0 F7800 X102.108 Y88.81
G1 F3600 X103.409 Y87.509 E162.01946
G0 F7800 X102.961 Y87.533
G1 F3600 X101.684 Y88.81 E162.06451
G0 F7800 X101.259 Y88.81
G1 F3600 X102.512 Y87.557 E162.10871
G0 F7800 X102.065 Y87.58
G1 F3600 X100.835 Y88.81 E162.1521
G0 F7800 X100.411 Y88.81
G1 F3600 X101.616 Y87.604 E162.19463
G0 F7800 X101.168 Y87.628
G1 F3600 X99.987 Y88.81 E162.23631
G0 F7800 X99.562 Y88.81
G1 F3600 X100.72 Y87.652 E162.27716
G0 F7800 X100.272 Y87.676
G1 F3600 X99.138 Y88.81 E162.31717
G0 F7800 X98.714 Y88.81
G1 F3600 X99.824 Y87.7 E162.35632
G0 F7800 X99.376 Y87.723
G1 F3600 X98.289 Y88.81 E162.39467
G0 F7800 X97.865 Y88.81
G1 F3600 X98.928 Y87.747 E162.43217
G0 F7800 X98.48 Y87.771
G1 F3600 X97.441 Y88.81 E162.46883
G0 F7800 X97.017 Y88.81
G1 F3600 X98.032 Y87.795 E162.50463
G0 F7800 X97.584 Y87.819
G1 F3600 X96.592 Y88.81 E162.53961
G0 F7800 X96.168 Y88.81
G1 F3600 X97.136 Y87.842 E162.57376
G0 F7800 X96.688 Y87.866
G1 F3600 X95.744 Y88.81 E162.60706
G0 F7800 X95.32 Y88.81
G1 F3600 X96.24 Y87.89 E162.63952
G0 F7800 X95.792 Y87.913
G1 F3600 X94.895 Y88.81 E162.67116
G0 F7800 X94.471 Y88.81
G1 F3600 X95.344 Y87.937 E162.70196
G0 F7800 X94.895 Y87.961
G1 F3600 X94.047 Y88.81 E162.73189
G0 F7800 X93.623 Y88.81
G1 F3600 X94.448 Y87.985 E162.761
G0 F7800 X93.999 Y88.009
G1 F3600 X93.198 Y88.81 E162.78925
G0 F7800 X92.774 Y88.81
G1 F3600 X93.551 Y88.033 E162.81666
G0 F7800 X93.104 Y88.056
G1 F3600 X92.35 Y88.81 E162.84326
G0 F7800 X91.926 Y88.81
G1 F3600 X92.655 Y88.08 E162.869
G0 F7800 X92.207 Y88.104
G1 F3600 X91.501 Y88.81 E162.8939
G0 F7800 X91.077 Y88.81
G1 F3600 X91.759 Y88.128 E162.91796
G0 F7800 X91.311 Y88.152
G1 F3600 X90.653 Y88.81 E162.94118
G0 F7800 X90.228 Y88.81
G1 F3600 X90.863 Y88.176 E162.96356
G0 F7800 X90.415 Y88.199
G1 F3600 X89.804 Y88.81 E162.98511
G0 F7800 X89.38 Y88.81
G1 F3600 X89.967 Y88.223 E163.00582
G0 F7800 X89.519 Y88.247
G1 F3600 X88.956 Y88.81 E163.02568
G0 F7800 X88.531 Y88.81
G1 F3600 X89.071 Y88.27 E163.04473
G0 F7800 X88.623 Y88.295
G1 F3600 X88.107 Y88.81 E163.06292
G0 F7800 X87.683 Y88.81
G1 F3600 X88.174 Y88.319 E163.08024
G0 F7800 X87.727 Y88.342
G1 F3600 X87.259 Y88.81 E163.09675
G0 F7800 X86.834 Y88.81
G1 F3600 X87.278 Y88.366 E163.11241
G0 F7800 X86.83 Y88.39
G1 F3600 X86.41 Y88.81 E163.12723
G0 F7800 X86.382 Y88.413
G1 F3600 X85.986 Y88.81 E163.14122
G0 F7800 X85.934 Y88.437
G1 F3600 X85.562 Y88.81 E163.15436
G0 F7800 X85.486 Y88.461
G1 F3600 X85.137 Y88.81 E163.16667
G0 F7800 X85.038 Y88.485
G1 F3600 X84.713 Y88.81 E163.17814
G0 F7800 X84.59 Y88.509
G1 F3600 X84.289 Y88.81 E163.18876
G0 F7800 X84.142 Y88.533
G1 F3600 X83.779 Y88.683 E163.19855
G1 X83.343 Y88.695 E163.20751
G1 X82.906 Y88.707 E163.21562
G1 X82.471 Y88.719 E163.22285
G1 X82.034 Y88.731 E163.22929
G1 X81.598 Y88.743 E163.23487
G1 X81.319 Y88.81 E163.24203
G0 F7800 X126.291 Y88.81
G0 X126.291 Y88.81
G1 F3600 X126.359 Y88.742 E163.24443
G0 F7800 X126.32 Y86.439
G0 X126.32 Y86.439
; TYPE:BOTTOM-FILL
G1 F3600 X126.051 Y86.383 E163.24911
G1 X125.648 Y86.404 E163.25378
G1 X125.245 Y86.425 E163.25841
G1 X124.842 Y86.446 E163.263
G1 X124.439 Y86.467 E163.2676
G1 X124.035 Y86.488 E163.27221
G1 X123.632 Y86.509 E163.27677
G1 X123.229 Y86.53 E163.28134
G1 X122.826 Y86.551 E163.28587
G1 X122.422 Y86.572 E163.29041
G1 X122.019 Y86.593 E163.29494
G1 X121.615 Y86.614 E163.29948
G1 X121.212 Y86.635 E163.30398
G1 X120.809 Y86.656 E163.30844
G1 X120.406 Y86.677 E163.3129
G1 X120.003 Y86.698 E163.31736
G1 X119.599 Y86.719 E163.3218
G1 X119.196 Y86.74 E163.32623
G1 X118.793 Y86.761 E163.33066
G1 X118.389 Y86.782 E163.33504
G1 X117.986 Y86.803 E163.33943
G1 X117.583 Y86.824 E163.34379
G1 X117.18 Y86.845 E163.34816
G1 X116.777 Y86.866 E163.35252
G1 X116.374 Y86.887 E163.35681
G1 X115.97 Y86.908 E163.36112
G1 X115.567 Y86.929 E163.36541
G1 X115.164 Y86.95 E163.36971
G1 X114.76 Y86.971 E163.37395
G1 X114.357 Y86.992 E163.37821
G1 X113.954 Y87.013 E163.38244
G1 X113.551 Y87.034 E163.38663
G1 X113.148 Y87.056 E163.39083
G1 X112.745 Y87.077 E163.39502
G1 X112.341 Y87.097 E163.39919
G1 X111.938 Y87.118 E163.40332
G1 X111.535 Y87.14 E163.40741
G1 X111.131 Y87.161 E163.41152
G1 X110.728 Y87.182 E163.41561
G1 X110.325 Y87.202 E163.4197
G1 X109.922 Y87.224 E163.4238
G1 X109.519 Y87.245 E163.42789
G1 X109.115 Y87.266 E163.43193
G1 X108.712 Y87.287 E163.43595
G1 X108.508 Y87.295 E163.44105
G0 F7800 X108.373 Y112.615
G0 X108.373 Y112.615
G1 F3600 X108.66 Y112.691 E163.44556
G1 X109.108 Y112.714 E163.45008
G1 X109.556 Y112.739 E163.45463
G1 X110.005 Y112.762 E163.45919
G1 X110.453 Y112.786 E163.46378
G1 X110.901 Y112.81 E163.46837
G1 X111.349 Y112.834 E163.47296
G1 X111.797 Y112.858 E163.47762
G1 X112.245 Y112.882 E163.48228
G1 X112.693 Y112.906 E163.48695
G1 X113.142 Y112.929 E163.49166
G1 X113.59 Y112.953 E163.49639
G1 X114.037 Y112.977 E163.50112
G1 X114.485 Y113.001 E163.50586
G1 X114.934 Y113.024 E163.51064
G1 X115.382 Y113.048 E163.51546
G1 X115.83 Y113.072 E163.52027
G1 X116.278 Y113.096 E163.52508
G1 X116.726 Y113.12 E163.52993
G1 X117.174 Y113.143 E163.53478
G1 X117.622 Y113.167 E163.53967
G1 X118.071 Y113.192 E163.54456
G1 X118.519 Y113.215 E163.54945
G1 X118.966 Y113.239 E163.55436
G1 X119.415 Y113.263 E163.55934
G1 X119.863 Y113.287 E163.5643
G1 X120.311 Y113.31 E163.56926
G1 X120.759 Y113.334 E163.57426
G1 X121.207 Y113.358 E163.57929
G1 X121.655 Y113.382 E163.58433
G1 X122.103 Y113.406 E163.58937
G1 X122.551 Y113.429 E163.59444
G1 X122.999 Y113.453 E163.59955
G1 X123.447 Y113.477 E163.60466
G1 X123.896 Y113.501 E163.60975
G1 X124.343 Y113.524 E163.61488
G1 X124.792 Y113.549 E163.62008
G1 X125.24 Y113.573 E163.62526
G1 X125.688 Y113.596 E163.63049
G1 X126.136 Y113.62 E163.63571
G1 X126.359 Y113.631 E163.64128
; Layer Change GCode
; LAYER:2
G0 F7800 X119.786 Y109.415 Z0.65
G0 X119.786 Y109.415
G0 X119.902 Y109.196
G0 X119.902 Y109.196
G0 X119.66 Y109.746
; TYPE:WALL-INNER
G1 F1800 X120.48 Y110.039 E163.663
G1 X121.433 Y110.266 E163.68744
G1 X122.371 Y110.383 E163.71102
G1 X123.467 Y110.433 E163.73839
G1 X126.6 Y110.433 E163.81654
G1 X126.6 Y114.115 E163.90839
G1 X74.669 Y111.348 E165.20565
G1 X74.213 Y111.252 E165.21727
G1 X73.867 Y111.041 E165.22738
G1 X73.688 Y110.818 E165.23452
G1 X73.56 Y110.521 E165.24258
G1 X73.511 Y110.147 E165.25199
G1 X73.511 Y89.879 E165.75758
G1 X73.632 Y89.302 E165.77229
G1 X73.818 Y89.016 E165.7808
G1 X74.095 Y88.803 E165.78951
G1 X74.348 Y88.7 E165.79633
G1 X74.646 Y88.654 E165.80385
G1 X126.6 Y85.886 E167.10168
G1 X126.6 Y89.568 E167.19353
G1 X123.47 Y89.568 E167.27161
G1 X122.592 Y89.602 E167.29353
G1 X121.44 Y89.734 E167.32245
G1 X120.62 Y89.921 E167.34343
G1 X119.663 Y90.253 E167.3687
G1 X118.934 Y90.638 E167.38927
G1 X118.308 Y91.118 E167.40894
G1 X117.727 Y91.771 E167.43075
G1 X117.663 Y91.948 E167.43544
G1 X117.371 Y92.499 E167.451
G1 X117.183 Y93.549 E167.47761
G1 X117.183 Y106.452 E167.79947
G1 X117.361 Y107.444 E167.82461
G1 X117.43 Y107.644 E167.82989
G1 X117.76 Y108.266 E167.84746
G1 X118.229 Y108.808 E167.86534
G1 X118.929 Y109.36 E167.88757
G1 X119.66 Y109.746 E167.90819
G0 F7800 X119.781 Y109.471
G1 F1800 X120.566 Y109.751 E167.92898
G1 X121.487 Y109.97 E167.9526
G1 X122.397 Y110.084 E167.97548
G1 X123.474 Y110.133 E168.00237
G1 X126.9 Y110.133 E168.08783
G1 X126.9 Y114.432 E168.19507
G1 X74.629 Y111.647 E169.50083
G1 X74.102 Y111.535 E169.51427
G1 X73.666 Y111.269 E169.52701
G1 X73.428 Y110.974 E169.53646
G1 X73.268 Y110.602 E169.54656
G1 X73.211 Y110.171 E169.55741
G1 X73.211 Y89.845 E170.06444
G1 X73.35 Y89.185 E170.08127
G1 X73.593 Y88.81 E170.09241
G1 X73.944 Y88.541 E170.10345
G1 X74.265 Y88.41 E170.11209
G1 X74.623 Y88.354 E170.12113
G1 X126.9 Y85.569 E171.42704
G1 X126.9 Y89.868 E171.53428
G1 X123.475 Y89.868 E171.61971
G1 X122.615 Y89.901 E171.64118
G1 X121.491 Y90.03 E171.6694
G1 X120.703 Y90.21 E171.68957
G1 X119.783 Y90.529 E171.71386
G1 X119.096 Y90.892 E171.73324
G1 X118.513 Y91.339 E171.75157
G1 X117.989 Y91.927 E171.77121
G1 X117.938 Y92.07 E171.775
G1 X117.658 Y92.598 E171.78991
G1 X117.483 Y93.576 E171.81469
G1 X117.483 Y106.425 E172.13521
G1 X117.652 Y107.368 E172.15911
G1 X117.706 Y107.524 E172.16323
G1 X118.009 Y108.095 E172.17935
G1 X118.438 Y108.59 E172.19569
G1 X119.093 Y109.108 E172.21652
G1 X119.781 Y109.471 E172.23593
G0 F7800 X119.902 Y109.196
; TYPE:WALL-OUTER
G1 F1260 X120.651 Y109.463 E172.25576
G1 X121.54 Y109.675 E172.27856
G1 X122.422 Y109.785 E172.30073
G1 X123.481 Y109.833 E172.32718
G1 X127.2 Y109.833 E172.41995
G1 X127.2 Y114.748 E172.54255
G1 X74.59 Y111.945 E173.85678
G1 X73.987 Y111.817 E173.87215
G1 X73.467 Y111.499 E173.88736
G1 X73.169 Y111.129 E173.89921
G1 X72.976 Y110.683 E173.91133
G1 X72.911 Y110.188 E173.92379
G1 X72.911 Y89.818 E174.43192
G1 X73.068 Y89.069 E174.45101
G1 X73.372 Y88.601 E174.46493
G1 X73.793 Y88.278 E174.47816
G1 X74.186 Y88.118 E174.48875
G1 X74.581 Y88.057 E174.49872
G1 X127.2 Y85.253 E175.81317
G1 X127.2 Y90.168 E175.93577
G1 X123.481 Y90.168 E176.02854
G1 X122.638 Y90.2 E176.04959
G1 X121.542 Y90.326 E176.07711
G1 X120.786 Y90.499 E176.09645
G1 X119.903 Y90.805 E176.11977
G1 X119.259 Y91.145 E176.13793
G1 X118.718 Y91.56 E176.15494
G1 X118.252 Y92.084 E176.17243
G1 X118.213 Y92.193 E176.17532
G1 X117.945 Y92.697 E176.18956
G1 X117.783 Y93.603 E176.21252
G1 X117.783 Y106.398 E176.53169
G1 X117.943 Y107.292 E176.55435
G1 X117.982 Y107.404 E176.5573
G1 X118.258 Y107.924 E176.57199
G1 X118.646 Y108.372 E176.58677
G1 X119.258 Y108.855 E176.60622
G1 X119.902 Y109.196 E176.6244
G0 F7800 X119.815 Y110.057
; TYPE:FILL
G1 F3600 X123.464 Y113.706 E176.75313
G0 F7800 X123.912 Y113.73
G1 F3600 X120.464 Y110.281 E176.87478
G0 F7800 X121.022 Y110.415
G1 F3600 X124.36 Y113.753 E176.99254
G0 F7800 X124.808 Y113.777
G1 F3600 X121.553 Y110.522 E177.10737
G0 F7800 X122.038 Y110.583
G1 F3600 X125.256 Y113.801 E177.22089
G0 F7800 X125.705 Y113.825
G1 F3600 X122.508 Y110.628 E177.33368
G0 F7800 X122.953 Y110.65
G1 F3600 X126.152 Y113.849 E177.44653
G0 F7800 X126.359 Y113.631
G1 F3600 X123.398 Y110.67 E177.55099
G0 F7800 X123.825 Y110.673
G1 F3600 X126.359 Y113.207 E177.64038
G0 F7800 X126.359 Y112.782
G1 F3600 X124.249 Y110.673 E177.7148
G0 F7800 X124.674 Y110.673
G1 F3600 X126.359 Y112.358 E177.77424
G0 F7800 X126.359 Y111.934
G1 F3600 X125.097 Y110.672 E177.81876
G0 F7800 X125.522 Y110.672
G1 F3600 X126.359 Y111.51 E177.84831
G0 F7800 X126.359 Y111.085
G1 F3600 X125.946 Y110.672 E177.86288
G0 F7800 X123.016 Y113.682
G0 X123.016 Y113.682
G1 F3600 X119.006 Y109.672 E178.00434
G0 F7800 X117.253 Y107.92
G0 X117.253 Y107.92
G1 F3600 X97.035 Y87.701 E178.7176
G0 F7800 X96.633 Y87.723
G1 F3600 X122.567 Y113.658 E179.63251
G0 F7800 X122.12 Y113.634
G1 F3600 X96.23 Y87.744 E180.54585
G0 F7800 X95.827 Y87.766
G1 F3600 X121.671 Y113.61 E181.45757
G0 F7800 X121.223 Y113.586
G1 F3600 X95.424 Y87.788 E182.36768
G0 F7800 X95.021 Y87.809
G1 F3600 X120.775 Y113.562 E183.2762
G0 F7800 X120.327 Y113.539
G1 F3600 X94.618 Y87.83 E184.18316
G0 F7800 X94.216 Y87.852
G1 F3600 X119.879 Y113.515 E185.08849
G0 F7800 X119.431 Y113.491
G1 F3600 X93.813 Y87.873 E185.99223
G0 F7800 X93.41 Y87.894
G1 F3600 X118.982 Y113.467 E186.89437
G0 F7800 X118.535 Y113.443
G1 F3600 X93.007 Y87.916 E187.79492
G0 F7800 X92.604 Y87.937
G1 F3600 X118.086 Y113.419 E188.69387
G0 F7800 X117.638 Y113.395
G1 F3600 X92.201 Y87.959 E189.59121
G0 F7800 X91.799 Y87.981
G1 F3600 X117.19 Y113.371 E190.48693
G0 F7800 X116.741 Y113.347
G1 F3600 X91.396 Y88.002 E191.38104
G0 F7800 X90.993 Y88.023
G1 F3600 X116.294 Y113.324 E192.27361
G0 F7800 X115.846 Y113.3
G1 F3600 X90.59 Y88.045 E193.16456
G0 F7800 X90.187 Y88.066
G1 F3600 X115.397 Y113.276 E194.05391
G0 F7800 X114.949 Y113.252
G1 F3600 X89.784 Y88.087 E194.94168
G0 F7800 X89.382 Y88.109
G1 F3600 X114.501 Y113.229 E195.82783
G0 F7800 X114.053 Y113.204
G1 F3600 X88.979 Y88.13 E196.71239
G0 F7800 X88.576 Y88.152
G1 F3600 X113.605 Y113.18 E197.59533
G0 F7800 X113.156 Y113.156
G1 F3600 X88.174 Y88.174 E198.47664
G0 F7800 X87.771 Y88.195
G1 F3600 X112.709 Y113.133 E199.3564
G0 F7800 X112.26 Y113.109
G1 F3600 X87.367 Y88.216 E200.23457
G0 F7800 X86.965 Y88.238
G1 F3600 X111.812 Y113.085 E201.11111
G0 F7800 X111.364 Y113.061
G1 F3600 X86.562 Y88.259 E201.98607
G0 F7800 X86.159 Y88.28
G1 F3600 X110.916 Y113.038 E202.85946
G0 F7800 X110.468 Y113.014
G1 F3600 X85.757 Y88.302 E203.73122
G0 F7800 X85.354 Y88.324
G1 F3600 X110.02 Y112.99 E204.60138
G0 F7800 X109.571 Y112.965
G1 F3600 X84.951 Y88.345 E205.46992
G0 F7800 X84.548 Y88.367
G1 F3600 X109.124 Y112.942 E206.33688
G0 F7800 X108.675 Y112.918
G1 F3600 X84.145 Y88.388 E207.20225
G0 F7800 X83.742 Y88.409
G1 F3600 X108.227 Y112.894 E208.06602
G0 F7800 X107.779 Y112.87
G1 F3600 X83.34 Y88.431 E208.92817
G0 F7800 X82.937 Y88.452
G1 F3600 X107.331 Y112.846 E209.78874
G0 F7800 X106.883 Y112.823
G1 F3600 X82.534 Y88.473 E210.64773
G0 F7800 X82.131 Y88.495
G1 F3600 X106.435 Y112.799 E211.50512
G0 F7800 X105.986 Y112.775
G1 F3600 X81.728 Y88.517 E212.36089
G0 F7800 X81.325 Y88.538
G1 F3600 X105.538 Y112.751 E213.21507
G0 F7800 X105.09 Y112.727
G1 F3600 X80.923 Y88.56 E214.06762
G0 F7800 X80.52 Y88.581
G1 F3600 X104.642 Y112.703 E214.91859
G0 F7800 X104.194 Y112.679
G1 F3600 X80.117 Y88.602 E215.76797
G0 F7800 X79.714 Y88.624
G1 F3600 X103.745 Y112.655 E216.61573
G0 F7800 X103.298 Y112.632
G1 F3600 X79.311 Y88.645 E217.46194
G0 F7800 X78.908 Y88.666
G1 F3600 X102.85 Y112.608 E218.30656
G0 F7800 X102.401 Y112.584
G1 F3600 X78.506 Y88.688 E219.14953
G0 F7800 X78.103 Y88.71
G1 F3600 X101.953 Y112.56 E219.99091
G0 F7800 X101.505 Y112.536
G1 F3600 X77.7 Y88.731 E220.83069
G0 F7800 X77.298 Y88.753
G1 F3600 X101.057 Y112.512 E221.66886
G0 F7800 X100.609 Y112.488
G1 F3600 X76.895 Y88.774 E222.50543
G0 F7800 X76.491 Y88.795
G1 F3600 X100.16 Y112.464 E223.34042
G0 F7800 X99.712 Y112.44
G1 F3600 X76.089 Y88.817 E224.17378
G0 F7800 X75.686 Y88.838
G1 F3600 X99.265 Y112.417 E225.0056
G0 F7800 X98.816 Y112.393
G1 F3600 X75.283 Y88.859 E225.8358
G0 F7800 X74.881 Y88.881
G1 F3600 X98.368 Y112.369 E226.66439
G0 F7800 X97.92 Y112.345
G1 F3600 X74.494 Y88.919 E227.4908
G0 F7800 X74.185 Y89.034
G1 F3600 X97.472 Y112.321 E228.31232
G0 F7800 X97.024 Y112.297
G1 F3600 X73.961 Y89.234 E229.12593
G0 F7800 X73.83 Y89.528
G1 F3600 X96.575 Y112.273 E229.92832
G0 F7800 X96.127 Y112.249
G1 F3600 X73.756 Y89.878 E230.71751
G0 F7800 X73.75 Y90.296
G1 F3600 X95.68 Y112.226 E231.49115
G0 F7800 X95.231 Y112.202
G1 F3600 X73.75 Y90.721 E232.24895
G0 F7800 X73.75 Y91.145
G1 F3600 X94.783 Y112.178 E232.99095
G0 F7800 X94.335 Y112.154
G1 F3600 X73.75 Y91.569 E233.71714
G0 F7800 X73.75 Y91.993
G1 F3600 X93.887 Y112.13 E234.42753
G0 F7800 X93.439 Y112.106
G1 F3600 X73.75 Y92.418 E235.12209
G0 F7800 X73.75 Y92.842
G1 F3600 X92.99 Y112.082 E235.80084
G0 F7800 X92.542 Y112.058
G1 F3600 X73.75 Y93.266 E236.46378
G0 F7800 X73.75 Y93.69
G1 F3600 X92.095 Y112.035 E237.11095
G0 F7800 X91.646 Y112.011
G1 F3600 X73.75 Y94.115 E237.74227
G0 F7800 X73.75 Y94.539
G1 F3600 X91.198 Y111.987 E238.3578
G0 F7800 X90.75 Y111.963
G1 F3600 X73.75 Y94.963 E238.95752
G0 F7800 X73.75 Y95.387
G1 F3600 X90.301 Y111.939 E239.54142
G0 F7800 X89.854 Y111.915
G1 F3600 X73.75 Y95.812 E240.10951
G0 F7800 X73.75 Y96.236
G1 F3600 X89.405 Y111.891 E240.66179
G0 F7800 X88.957 Y111.867
G1 F3600 X73.75 Y96.66 E241.19825
G0 F7800 X73.75 Y97.085
G1 F3600 X88.509 Y111.843 E241.7189
G0 F7800 X88.061 Y111.82
G1 F3600 X73.75 Y97.509 E242.22376
G0 F7800 X73.75 Y97.933
G1 F3600 X87.613 Y111.796 E242.71281
G0 F7800 X87.165 Y111.772
G1 F3600 X73.75 Y98.357 E243.18607
G0 F7800 X73.75 Y98.782
G1 F3600 X86.716 Y111.748 E243.64348
G0 F7800 X86.269 Y111.724
G1 F3600 X73.75 Y99.206 E244.0851
G0 F7800 X73.75 Y99.63
G1 F3600 X85.82 Y111.7 E244.5109
G0 F7800 X85.372 Y111.676
G1 F3600 X73.751 Y100.055 E244.92086
G0 F7800 X73.751 Y100.479
G1 F3600 X84.924 Y111.652 E245.31502
G0 F7800 X84.476 Y111.629
G1 F3600 X73.751 Y100.904 E245.69337
G0 F7800 X73.751 Y101.328
G1 F3600 X84.028 Y111.605 E246.05592
G0 F7800 X83.58 Y111.581
G1 F3600 X73.751 Y101.752 E246.40267
G0 F7800 X73.751 Y102.176
G1 F3600 X83.131 Y111.557 E246.73359
G0 F7800 X82.684 Y111.534
G1 F3600 X73.751 Y102.601 E247.04873
G0 F7800 X73.751 Y103.025
G1 F3600 X82.235 Y111.51 E247.34804
G0 F7800 X81.787 Y111.485
G1 F3600 X73.751 Y103.449 E247.63153
G0 F7800 X73.751 Y103.873
G1 F3600 X81.339 Y111.461 E247.89922
G0 F7800 X80.89 Y111.437
G1 F3600 X73.751 Y104.298 E248.15107
G0 F7800 X73.751 Y104.722
G1 F3600 X80.443 Y111.414 E248.38714
G0 F7800 X79.994 Y111.39
G1 F3600 X73.751 Y105.146 E248.6074
G0 F7800 X73.751 Y105.571
G1 F3600 X79.546 Y111.366 E248.81184
G0 F7800 X79.098 Y111.342
G1 F3600 X73.751 Y105.995 E249.00047
G0 F7800 X73.751 Y106.419
G1 F3600 X78.65 Y111.319 E249.17331
G0 F7800 X78.202 Y111.295
G1 F3600 X73.751 Y106.843 E249.33035
G0 F7800 X73.751 Y107.268
G1 F3600 X77.754 Y111.271 E249.47156
G0 F7800 X77.305 Y111.246
G1 F3600 X73.751 Y107.692 E249.59694
G0 F7800 X73.751 Y108.116
G1 F3600 X76.858 Y111.223 E249.70655
G0 F7800 X76.409 Y111.199
G1 F3600 X73.751 Y108.54 E249.80033
G0 F7800 X73.751 Y108.965
G1 F3600 X75.961 Y111.175 E249.8783
G0 F7800 X75.513 Y111.151
G1 F3600 X73.751 Y109.389 E249.94046
G0 F7800 X73.751 Y109.813
G1 F3600 X75.065 Y111.128 E249.98683
G0 F7800 X74.601 Y111.087
G1 F3600 X73.766 Y110.253 E250.01627
G0 F7800 X97.438 Y87.68
G0 X97.438 Y87.68
G1 F3600 X117.038 Y107.28 E250.70771
G0 F7800 X116.944 Y106.761
G1 F3600 X97.841 Y87.659 E251.3816
G0 F7800 X98.244 Y87.637
G1 F3600 X116.909 Y106.302 E252.04006
G0 F7800 X116.909 Y105.878
G1 F3600 X98.647 Y87.616 E252.6843
G0 F7800 X99.05 Y87.594
G1 F3600 X116.909 Y105.454 E253.31435
G0 F7800 X116.909 Y105.03
G1 F3600 X99.452 Y87.573 E253.93019
G0 F7800 X99.855 Y87.551
G1 F3600 X116.909 Y104.605 E254.53181
G0 F7800 X116.909 Y104.181
G1 F3600 X100.258 Y87.53 E255.11922
G0 F7800 X100.66 Y87.508
G1 F3600 X116.909 Y103.757 E255.69245
G0 F7800 X116.909 Y103.333
G1 F3600 X101.063 Y87.487 E256.25146
G0 F7800 X101.466 Y87.466
G1 F3600 X116.909 Y102.908 E256.79624
G0 F7800 X116.909 Y102.484
G1 F3600 X101.869 Y87.444 E257.32681
G0 F7800 X102.272 Y87.423
G1 F3600 X116.909 Y102.06 E257.84317
G0 F7800 X116.909 Y101.635
G1 F3600 X102.675 Y87.401 E258.34532
G0 F7800 X103.077 Y87.38
G1 F3600 X116.909 Y101.211 E258.83326
G0 F7800 X116.909 Y100.787
G1 F3600 X103.48 Y87.358 E259.307
G0 F7800 X103.883 Y87.337
G1 F3600 X116.909 Y100.363 E259.76653
G0 F7800 X116.909 Y99.938
G1 F3600 X104.286 Y87.315 E260.21184
G0 F7800 X104.689 Y87.294
G1 F3600 X116.909 Y99.514 E260.64294
G0 F7800 X116.909 Y99.09
G1 F3600 X105.092 Y87.273 E261.05981
G0 F7800 X105.494 Y87.251
G1 F3600 X116.909 Y98.666 E261.46251
G0 F7800 X116.909 Y98.241
G1 F3600 X105.897 Y87.23 E261.85097
G0 F7800 X106.3 Y87.208
G1 F3600 X116.909 Y97.817 E262.22523
G0 F7800 X116.909 Y97.393
G1 F3600 X106.703 Y87.186 E262.58529
G0 F7800 X107.106 Y87.165
G1 F3600 X116.909 Y96.969 E262.93114
G0 F7800 X116.909 Y96.544
G1 F3600 X107.509 Y87.144 E263.26275
G0 F7800 X107.911 Y87.122
G1 F3600 X116.909 Y96.12 E263.58017
G0 F7800 X116.909 Y95.696
G1 F3600 X108.314 Y87.101 E263.88339
G0 F7800 X108.717 Y87.08
G1 F3600 X116.909 Y95.272 E264.17238
G0 F7800 X116.909 Y94.847
G1 F3600 X109.12 Y87.058 E264.44716
G0 F7800 X109.523 Y87.037
G1 F3600 X116.909 Y94.423 E264.70772
G0 F7800 X116.909 Y93.999
G1 F3600 X109.926 Y87.015 E264.95408
G0 F7800 X110.328 Y86.993
G1 F3600 X116.909 Y93.574 E265.18624
G0 F7800 X116.953 Y93.194
G1 F3600 X110.731 Y86.972 E265.40574
G0 F7800 X111.134 Y86.951
G1 F3600 X117.018 Y92.835 E265.61332
G0 F7800 X117.083 Y92.476
G1 F3600 X111.536 Y86.929 E265.809
G0 F7800 X111.939 Y86.908
G1 F3600 X117.205 Y92.174 E265.99477
G0 F7800 X117.35 Y91.894
G1 F3600 X112.343 Y86.887 E266.17141
G0 F7800 X112.745 Y86.865
G1 F3600 X117.502 Y91.621 E266.33921
G0 F7800 X117.7 Y91.396
G1 F3600 X113.148 Y86.844 E266.49979
G0 F7800 X113.551 Y86.822
G1 F3600 X117.899 Y91.17 E266.65318
G0 F7800 X118.119 Y90.966
G1 F3600 X113.953 Y86.8 E266.80015
G0 F7800 X114.356 Y86.779
G1 F3600 X118.358 Y90.781 E266.94133
G0 F7800 X118.597 Y90.595
G1 F3600 X114.759 Y86.758 E267.07671
G0 F7800 X115.162 Y86.736
G1 F3600 X118.842 Y90.416 E267.20653
G0 F7800 X119.119 Y90.269
G1 F3600 X115.565 Y86.715 E267.3319
G0 F7800 X115.968 Y86.694
G1 F3600 X119.396 Y90.122 E267.45284
G0 F7800 X119.688 Y89.989
G1 F3600 X116.37 Y86.672 E267.56987
G0 F7800 X116.773 Y86.65
G1 F3600 X120.003 Y89.88 E267.68382
G0 F7800 X120.318 Y89.771
G1 F3600 X117.176 Y86.629 E267.79466
G0 F7800 X117.579 Y86.607
G1 F3600 X120.64 Y89.669 E267.90266
G0 F7800 X120.986 Y89.591
G1 F3600 X117.982 Y86.586 E268.00865
G0 F7800 X118.385 Y86.565
G1 F3600 X121.332 Y89.512 E268.11262
G0 F7800 X121.706 Y89.462
G1 F3600 X118.787 Y86.543 E268.21559
G0 F7800 X119.19 Y86.522
G1 F3600 X122.086 Y89.418 E268.31776
G0 F7800 X122.467 Y89.374
G1 F3600 X119.593 Y86.501 E268.41913
G0 F7800 X119.996 Y86.479
G1 F3600 X122.868 Y89.351 E268.52045
G0 F7800 X123.276 Y89.335
G1 F3600 X120.399 Y86.457 E268.62196
G0 F7800 X120.802 Y86.436
G1 F3600 X123.693 Y89.328 E268.72396
G0 F7800 X124.117 Y89.328
G1 F3600 X121.204 Y86.414 E268.82674
G0 F7800 X121.607 Y86.393
G1 F3600 X124.542 Y89.328 E268.93028
G0 F7800 X124.966 Y89.328
G1 F3600 X122.01 Y86.372 E269.03457
G0 F7800 X122.412 Y86.35
G1 F3600 X125.39 Y89.328 E269.13962
G0 F7800 X125.814 Y89.328
G1 F3600 X122.815 Y86.329 E269.24542
G0 F7800 X123.219 Y86.308
G1 F3600 X126.239 Y89.328 E269.35196
G0 F7800 X126.359 Y89.024
G1 F3600 X123.621 Y86.286 E269.44855
G0 F7800 X124.024 Y86.264
G1 F3600 X126.359 Y88.599 E269.53092
G0 F7800 X126.359 Y88.175
G1 F3600 X124.426 Y86.242 E269.59911
G0 F7800 X124.829 Y86.221
G1 F3600 X126.359 Y87.751 E269.65309
G0 F7800 X126.359 Y87.326
G1 F3600 X125.232 Y86.2 E269.69283
G0 F7800 X125.635 Y86.178
G1 F3600 X126.359 Y86.902 E269.71837
G0 F7800 X126.359 Y86.478
G1 F3600 X126.038 Y86.157 E269.7297
G0 F7800 X118.12 Y90.967
G0 X118.12 Y90.967
; TYPE:BOTTOM-FILL
G1 F3600 X118.035 Y90.882 E269.73269
G0 F7800 X117.814 Y91.085
G1 F3600 X117.92 Y91.192 E269.73645
G0 F7800 X117.721 Y91.416
G1 F3600 X117.615 Y91.311 E269.74017
G0 F7800 X117.417 Y91.537
G1 F3600 X117.521 Y91.641 E269.74384
G0 F7800 X117.261 Y91.805
G1 F3600 X117.395 Y91.939 E269.74857
G0 F7800 X117.117 Y92.085
G1 F3600 X117.248 Y92.217 E269.75321
G0 F7800 X116.98 Y92.373
G1 F3600 X117.123 Y92.516 E269.75825
G0 F7800 X116.915 Y92.732
G1 F3600 X117.058 Y92.875 E269.7633
G0 F7800 X116.85 Y93.092
G1 F3600 X116.994 Y93.235 E269.76836
G0 F7800 X116.789 Y93.454
G1 F3600 X116.942 Y93.607 E269.77376
G0 F7800 X116.789 Y93.879
G1 F3600 X116.942 Y94.031 E269.77914
G0 F7800 X116.789 Y94.303
G1 F3600 X116.942 Y94.456 E269.78453
G0 F7800 X116.789 Y94.727
G1 F3600 X116.942 Y94.88 E269.78993
G0 F7800 X116.789 Y95.151
G1 F3600 X116.942 Y95.304 E269.79533
G0 F7800 X116.789 Y95.576
G1 F3600 X116.942 Y95.728 E269.80071
G0 F7800 X116.789 Y96
G1 F3600 X116.942 Y96.153 E269.80611
G0 F7800 X116.789 Y96.424
G1 F3600 X116.942 Y96.577 E269.8115
G0 F7800 X116.789 Y96.848
G1 F3600 X116.942 Y97.001 E269.8169
G0 F7800 X116.789 Y97.273
G1 F3600 X116.942 Y97.425 E269.82228
G0 F7800 X116.789 Y97.697
G1 F3600 X116.942 Y97.85 E269.82768
G0 F7800 X116.789 Y98.121
G1 F3600 X116.942 Y98.274 E269.83308
G0 F7800 X116.789 Y98.545
G1 F3600 X116.942 Y98.698 E269.83847
G0 F7800 X116.789 Y98.97
G1 F3600 X116.942 Y99.122 E269.84385
G0 F7800 X116.789 Y99.394
G1 F3600 X116.942 Y99.547 E269.84925
G0 F7800 X116.789 Y99.818
G1 F3600 X116.942 Y99.971 E269.85465
G0 F7800 X116.789 Y100.242
G1 F3600 X116.942 Y100.395 E269.86005
G0 F7800 X116.789 Y100.667
G1 F3600 X116.942 Y100.819 E269.86543
G0 F7800 X116.789 Y101.091
G1 F3600 X116.942 Y101.244 E269.87082
G0 F7800 X116.789 Y101.515
G1 F3600 X116.942 Y101.668 E269.87622
G0 F7800 X116.789 Y101.94
G1 F3600 X116.942 Y102.092 E269.8816
G0 F7800 X116.789 Y102.364
G1 F3600 X116.942 Y102.517 E269.887
G0 F7800 X116.789 Y102.788
G1 F3600 X116.942 Y102.941 E269.8924
G0 F7800 X116.789 Y103.212
G1 F3600 X116.942 Y103.365 E269.89779
G0 F7800 X116.789 Y103.637
G1 F3600 X116.942 Y103.789 E269.90317
G0 F7800 X116.789 Y104.061
G1 F3600 X116.942 Y104.214 E269.90857
G0 F7800 X116.789 Y104.485
G1 F3600 X116.942 Y104.638 E269.91397
G0 F7800 X116.789 Y104.909
G1 F3600 X116.942 Y105.062 E269.91937
G0 F7800 X116.789 Y105.334
G1 F3600 X116.942 Y105.486 E269.92475
G0 F7800 X116.789 Y105.758
G1 F3600 X116.942 Y105.911 E269.93014
G0 F7800 X116.789 Y106.182
G1 F3600 X116.942 Y106.335 E269.93554
G0 F7800 X116.794 Y106.612
G1 F3600 X117.004 Y106.822 E269.94295
G0 F7800 X116.889 Y107.131
G1 F3600 X117.097 Y107.339 E269.95029
G0 F7800 X116.984 Y107.65
G1 F3600 X117.36 Y108.026 E269.96355
G0 F7800 X117.701 Y108.791
G1 F3600 X117.981 Y109.071 E269.97343
; Layer Change GCode
; LAYER:3
G0 F7800 X120.001 Y109.286 Z0.85
G0 X120.399 Y109.329
G0 X120.119 Y109.3
G0 X120.119 Y109.3
G0 X120.234 Y109.08
G0 X120.234 Y109.08
G0 X119.992 Y109.63
; TYPE:WALL-INNER
G1 F1800 X120.778 Y109.912 E269.99426
G1 X121.765 Y110.15 E270.01959
G1 X122.653 Y110.261 E270.04191
G1 X123.8 Y110.317 E270.07056
G1 X126.6 Y110.317 E270.1404
G1 X126.6 Y114.175 E270.23664
G1 X74.67 Y111.414 E271.53387
G1 X74.206 Y111.306 E271.54575
G1 X73.84 Y111.076 E271.55654
G1 X73.628 Y110.828 E271.56467
G1 X73.488 Y110.526 E271.57298
G1 X73.431 Y110.143 E271.58264
G1 X73.431 Y89.886 E272.08795
G1 X73.568 Y89.29 E272.10321
G1 X73.776 Y88.988 E272.11235
G1 X74.097 Y88.742 E272.12244
G1 X74.337 Y88.643 E272.12892
G1 X74.654 Y88.587 E272.13695
G1 X126.6 Y85.826 E273.43457
G1 X126.6 Y89.684 E273.53081
G1 X123.8 Y89.684 E273.60066
G1 X122.653 Y89.74 E273.62931
G1 X121.765 Y89.851 E273.65163
G1 X120.778 Y90.089 E273.67696
G1 X119.992 Y90.371 E273.69779
G1 X119.266 Y90.754 E273.71826
G1 X118.687 Y91.199 E273.73648
G1 X118.52 Y91.359 E273.74225
G1 X118.057 Y91.894 E273.7599
G1 X117.974 Y92.123 E273.76597
G1 X117.697 Y92.646 E273.78074
G1 X117.517 Y93.666 E273.80657
G1 X117.517 Y106.335 E274.1226
G1 X117.687 Y107.297 E274.14697
G1 X117.774 Y107.551 E274.15367
G1 X118.093 Y108.148 E274.17055
G1 X118.52 Y108.642 E274.18684
G1 X118.687 Y108.802 E274.19261
G1 X119.266 Y109.247 E274.21083
G1 X119.992 Y109.63 E274.2313
G0 F7800 X120.113 Y109.355
G1 F1800 X120.864 Y109.624 E274.2512
G1 X121.819 Y109.854 E274.27571
G1 X122.679 Y109.962 E274.29733
G1 X123.807 Y110.017 E274.3255
G1 X126.9 Y110.017 E274.40265
G1 X126.9 Y114.492 E274.51428
G1 X74.631 Y111.713 E275.81998
G1 X74.089 Y111.586 E275.83387
G1 X73.641 Y111.304 E275.84707
G1 X73.374 Y110.993 E275.8573
G1 X73.197 Y110.61 E275.86782
G1 X73.131 Y110.166 E275.87902
G1 X73.131 Y89.854 E276.3857
G1 X73.289 Y89.167 E276.40329
G1 X73.556 Y88.78 E276.41502
G1 X73.946 Y88.481 E276.42728
G1 X74.257 Y88.352 E276.43567
G1 X74.619 Y88.288 E276.44484
G1 X126.9 Y85.509 E277.75084
G1 X126.9 Y89.984 E277.86247
G1 X123.807 Y89.984 E277.93962
G1 X122.679 Y90.039 E277.9678
G1 X121.819 Y90.147 E277.98942
G1 X120.864 Y90.377 E278.01392
G1 X120.113 Y90.646 E278.03382
G1 X119.428 Y91.008 E278.05315
G1 X118.883 Y91.426 E278.07028
G1 X118.738 Y91.566 E278.07531
G1 X118.32 Y92.049 E278.09124
G1 X118.251 Y92.24 E278.09631
G1 X117.984 Y92.745 E278.11056
G1 X117.817 Y93.693 E278.13457
G1 X117.817 Y106.308 E278.44925
G1 X117.978 Y107.221 E278.47238
G1 X118.05 Y107.43 E278.47789
G1 X118.342 Y107.977 E278.49336
G1 X118.738 Y108.435 E278.50846
G1 X118.883 Y108.575 E278.51349
G1 X119.428 Y108.993 E278.53062
G1 X120.113 Y109.355 E278.54995
G0 F7800 X120.234 Y109.08
; TYPE:WALL-OUTER
G1 F1260 X120.95 Y109.336 E278.56892
G1 X121.873 Y109.559 E278.59261
G1 X122.705 Y109.663 E278.61352
G1 X123.814 Y109.717 E278.64122
G1 X127.2 Y109.717 E278.72568
G1 X127.2 Y114.808 E278.85268
G1 X74.586 Y112.011 E280.16699
G1 X73.971 Y111.867 E280.18275
G1 X73.443 Y111.535 E280.19831
G1 X73.118 Y111.155 E280.21078
G1 X72.907 Y110.698 E280.22334
G1 X72.831 Y110.191 E280.23613
G1 X72.831 Y89.818 E280.74433
G1 X73.008 Y89.046 E280.76409
G1 X73.336 Y88.569 E280.77853
G1 X73.794 Y88.219 E280.79291
G1 X74.171 Y88.063 E280.80309
G1 X74.584 Y87.99 E280.81355
G1 X127.2 Y85.193 E282.12791
G1 X127.2 Y90.284 E282.25491
G1 X123.814 Y90.284 E282.33937
G1 X122.705 Y90.338 E282.36707
G1 X121.873 Y90.442 E282.38799
G1 X120.95 Y90.665 E282.41167
G1 X120.234 Y90.921 E282.43064
G1 X119.591 Y91.261 E282.44878
G1 X119.079 Y91.654 E282.46489
G1 X118.956 Y91.773 E282.46915
G1 X118.583 Y92.203 E282.48335
G1 X118.525 Y92.364 E282.48762
G1 X118.271 Y92.844 E282.50117
G1 X118.117 Y93.719 E282.52333
G1 X118.117 Y106.282 E282.83672
G1 X118.269 Y107.146 E282.8586
G1 X118.326 Y107.31 E282.86293
G1 X118.591 Y107.806 E282.87696
G1 X118.956 Y108.228 E282.89088
G1 X119.079 Y108.347 E282.89515
G1 X119.591 Y108.74 E282.91125
G1 X120.234 Y109.08 E282.92939
G0 F7800 X119.752 Y109.774
; TYPE:FILL
G1 F3600 X116.148 Y113.378 E283.05653
G0 F7800 X116.55 Y113.4
G1 F3600 X120.045 Y109.905 E283.17983
G0 F7800 X120.358 Y110.017
G1 F3600 X116.954 Y113.421 E283.29991
G0 F7800 X117.357 Y113.442
G1 F3600 X120.669 Y110.129 E283.41677
G0 F7800 X121.008 Y110.215
G1 F3600 X117.76 Y113.463 E283.53135
G0 F7800 X118.162 Y113.485
G1 F3600 X121.35 Y110.298 E283.6438
G0 F7800 X121.692 Y110.38
G1 F3600 X118.565 Y113.506 E283.7541
G0 F7800 X118.968 Y113.528
G1 F3600 X122.067 Y110.429 E283.86342
G0 F7800 X122.444 Y110.476
G1 F3600 X119.37 Y113.55 E283.97187
G0 F7800 X119.773 Y113.571
G1 F3600 X122.835 Y110.509 E284.07989
G0 F7800 X123.24 Y110.529
G1 F3600 X120.177 Y113.592 E284.18794
G0 F7800 X120.58 Y113.613
G1 F3600 X123.644 Y110.549 E284.29603
G0 F7800 X124.061 Y110.556
G1 F3600 X120.982 Y113.635 E284.40465
G0 F7800 X121.385 Y113.656
G1 F3600 X124.485 Y110.556 E284.51401
G0 F7800 X124.909 Y110.556
G1 F3600 X121.788 Y113.678 E284.62413
G0 F7800 X122.19 Y113.699
G1 F3600 X125.333 Y110.556 E284.73501
G0 F7800 X125.758 Y110.556
G1 F3600 X122.593 Y113.721 E284.84666
G0 F7800 X122.996 Y113.742
G1 F3600 X126.182 Y110.556 E284.95906
G0 F7800 X126.359 Y110.804
G1 F3600 X123.4 Y113.763 E285.06345
G0 F7800 X123.802 Y113.785
G1 F3600 X126.359 Y111.228 E285.15365
G0 F7800 X126.359 Y111.652
G1 F3600 X124.205 Y113.806 E285.22964
G0 F7800 X124.608 Y113.827
G1 F3600 X126.359 Y112.077 E285.29139
G0 F7800 X126.359 Y112.501
G1 F3600 X125.01 Y113.849 E285.33896
G0 F7800 X125.413 Y113.871
G1 F3600 X126.359 Y112.925 E285.37234
G0 F7800 X126.359 Y113.349
G1 F3600 X125.816 Y113.892 E285.39149
G0 F7800 X126.219 Y113.913
G1 F3600 X126.359 Y113.774 E285.39641
G0 F7800 X119.474 Y109.628
G0 X119.474 Y109.628
G1 F3600 X115.745 Y113.356 E285.52795
G0 F7800 X115.342 Y113.335
G1 F3600 X119.196 Y109.482 E285.66389
G0 F7800 X118.948 Y109.305
G1 F3600 X114.94 Y113.313 E285.80528
G0 F7800 X114.537 Y113.292
G1 F3600 X118.709 Y109.12 E285.95246
G0 F7800 X118.471 Y108.934
G1 F3600 X114.134 Y113.271 E286.10546
G0 F7800 X113.731 Y113.25
G1 F3600 X118.244 Y108.736 E286.26469
G0 F7800 X118.047 Y108.509
G1 F3600 X113.328 Y113.228 E286.43116
G0 F7800 X112.925 Y113.207
G1 F3600 X117.851 Y108.281 E286.60494
G0 F7800 X117.693 Y108.014
G1 F3600 X112.522 Y113.185 E286.78736
G0 F7800 X112.12 Y113.163
G1 F3600 X117.546 Y107.737 E286.97878
G0 F7800 X117.422 Y107.437
G1 F3600 X111.717 Y113.142 E287.18004
G0 F7800 X111.314 Y113.121
G1 F3600 X117.355 Y107.08 E287.39315
G0 F7800 X117.29 Y106.72
G1 F3600 X110.911 Y113.1 E287.6182
G0 F7800 X110.508 Y113.078
G1 F3600 X117.241 Y106.345 E287.85573
G0 F7800 X117.241 Y105.921
G1 F3600 X110.105 Y113.057 E288.10747
G0 F7800 X109.702 Y113.035
G1 F3600 X117.241 Y105.496 E288.37343
G0 F7800 X117.241 Y105.072
G1 F3600 X109.3 Y113.014 E288.65359
G0 F7800 X108.897 Y112.992
G1 F3600 X117.241 Y104.648 E288.94794
G0 F7800 X117.241 Y104.224
G1 F3600 X108.494 Y112.971 E289.25652
G0 F7800 X108.091 Y112.95
G1 F3600 X117.241 Y103.799 E289.57933
G0 F7800 X117.241 Y103.375
G1 F3600 X107.688 Y112.928 E289.91633
G0 F7800 X107.285 Y112.907
G1 F3600 X117.241 Y102.951 E290.26756
G0 F7800 X117.241 Y102.526
G1 F3600 X106.882 Y112.886 E290.63302
G0 F7800 X106.48 Y112.864
G1 F3600 X117.241 Y102.102 E291.01266
G0 F7800 X117.241 Y101.678
G1 F3600 X106.077 Y112.842 E291.4065
G0 F7800 X105.674 Y112.821
G1 F3600 X117.241 Y101.254 E291.81456
G0 F7800 X117.241 Y100.829
G1 F3600 X105.271 Y112.799 E292.23683
G0 F7800 X104.868 Y112.778
G1 F3600 X117.241 Y100.405 E292.67332
G0 F7800 X117.241 Y99.981
G1 F3600 X104.465 Y112.757 E293.12403
G0 F7800 X104.062 Y112.736
G1 F3600 X117.241 Y99.557 E293.58895
G0 F7800 X117.241 Y99.132
G1 F3600 X103.66 Y112.714 E294.06808
G0 F7800 X103.257 Y112.693
G1 F3600 X117.241 Y98.708 E294.56142
G0 F7800 X117.241 Y98.284
G1 F3600 X102.854 Y112.671 E295.06896
G0 F7800 X102.451 Y112.649
G1 F3600 X117.241 Y97.86 E295.5907
G0 F7800 X117.241 Y97.435
G1 F3600 X102.048 Y112.628 E296.12667
G0 F7800 X101.645 Y112.607
G1 F3600 X117.241 Y97.011 E296.67686
G0 F7800 X117.241 Y96.587
G1 F3600 X101.242 Y112.586 E297.24127
G0 F7800 X100.84 Y112.564
G1 F3600 X117.241 Y96.162 E297.81988
G0 F7800 X117.241 Y95.738
G1 F3600 X100.437 Y112.543 E298.4127
G0 F7800 X100.034 Y112.521
G1 F3600 X117.241 Y95.314 E299.01973
G0 F7800 X117.241 Y94.89
G1 F3600 X99.632 Y112.499 E299.64093
G0 F7800 X99.229 Y112.478
G1 F3600 X117.241 Y94.465 E300.27637
G0 F7800 X117.241 Y94.041
G1 F3600 X98.825 Y112.457 E300.92605
G0 F7800 X98.422 Y112.436
G1 F3600 X117.241 Y93.617 E301.58994
G0 F7800 X117.32 Y93.114
G1 F3600 X98.02 Y112.414 E302.2708
G0 F7800 X97.617 Y112.393
G1 F3600 X117.412 Y92.597 E302.96914
G0 F7800 X117.774 Y91.812
G1 F3600 X97.214 Y112.371 E303.69443
G0 F7800 X96.812 Y112.35
G1 F3600 X122.898 Y86.263 E304.6147
G0 F7800 X123.346 Y86.239
G1 F3600 X118.685 Y90.9 E304.77913
G0 F7800 X119.82 Y90.19
G1 F3600 X123.794 Y86.216 E304.91932
G0 F7800 X124.242 Y86.192
G1 F3600 X120.504 Y89.93 E305.05119
G0 F7800 X121.094 Y89.764
G1 F3600 X124.691 Y86.168 E305.17807
G0 F7800 X125.138 Y86.144
G1 F3600 X121.653 Y89.63 E305.30103
G0 F7800 X122.146 Y89.561
G1 F3600 X125.587 Y86.12 E305.42242
G0 F7800 X126.035 Y86.096
G1 F3600 X122.629 Y89.502 E305.54257
G0 F7800 X123.076 Y89.479
G1 F3600 X126.359 Y86.197 E305.65837
G0 F7800 X126.359 Y86.621
G1 F3600 X123.523 Y89.457 E305.75842
G0 F7800 X123.96 Y89.444
G1 F3600 X126.359 Y87.045 E305.84305
G0 F7800 X126.359 Y87.469
G1 F3600 X124.385 Y89.444 E305.91271
G0 F7800 X124.809 Y89.444
G1 F3600 X126.359 Y87.894 E305.96739
G0 F7800 X126.359 Y88.318
G1 F3600 X125.233 Y89.444 E306.00711
G0 F7800 X125.657 Y89.444
G1 F3600 X126.359 Y88.742 E306.03188
G0 F7800 X126.359 Y89.166
G1 F3600 X126.082 Y89.444 E306.04167
G0 F7800 X122.45 Y86.287
G0 X122.45 Y86.287
G1 F3600 X96.409 Y112.328 E306.96033
G0 F7800 X96.006 Y112.307
G1 F3600 X122.002 Y86.31 E307.87743
G0 F7800 X121.554 Y86.334
G1 F3600 X95.602 Y112.286 E308.79296
G0 F7800 X95.2 Y112.264
G1 F3600 X121.106 Y86.358 E309.70686
G0 F7800 X120.658 Y86.382
G1 F3600 X94.797 Y112.243 E310.61918
G0 F7800 X94.394 Y112.222
G1 F3600 X120.21 Y86.406 E311.52991
G0 F7800 X119.762 Y86.429
G1 F3600 X93.992 Y112.2 E312.43903
G0 F7800 X93.589 Y112.178
G1 F3600 X119.314 Y86.453 E313.34655
G0 F7800 X118.866 Y86.477
G1 F3600 X93.186 Y112.157 E314.25248
G0 F7800 X92.783 Y112.136
G1 F3600 X118.418 Y86.501 E315.15682
G0 F7800 X117.97 Y86.525
G1 F3600 X92.38 Y112.114 E316.05956
G0 F7800 X91.977 Y112.093
G1 F3600 X117.521 Y86.549 E316.9607
G0 F7800 X117.074 Y86.572
G1 F3600 X91.574 Y112.072 E317.86028
G0 F7800 X91.172 Y112.05
G1 F3600 X116.625 Y86.596 E318.75822
G0 F7800 X116.177 Y86.62
G1 F3600 X90.769 Y112.029 E319.65457
G0 F7800 X90.366 Y112.007
G1 F3600 X115.73 Y86.643 E320.54936
G0 F7800 X115.281 Y86.667
G1 F3600 X89.963 Y111.986 E321.44253
G0 F7800 X89.56 Y111.964
G1 F3600 X114.833 Y86.691 E322.33411
G0 F7800 X114.385 Y86.715
G1 F3600 X89.157 Y111.943 E323.22409
G0 F7800 X88.754 Y111.922
G1 F3600 X113.937 Y86.739 E324.11249
G0 F7800 X113.489 Y86.763
G1 F3600 X88.352 Y111.9 E324.99927
G0 F7800 X87.949 Y111.879
G1 F3600 X113.041 Y86.786 E325.88447
G0 F7800 X112.593 Y86.81
G1 F3600 X87.546 Y111.857 E326.76807
G0 F7800 X87.143 Y111.836
G1 F3600 X112.145 Y86.834 E327.65009
G0 F7800 X111.697 Y86.858
G1 F3600 X86.74 Y111.814 E328.53049
G0 F7800 X86.337 Y111.793
G1 F3600 X111.249 Y86.882 E329.40931
G0 F7800 X110.8 Y86.906
G1 F3600 X85.934 Y111.772 E330.28653
G0 F7800 X85.532 Y111.75
G1 F3600 X110.353 Y86.929 E331.16216
G0 F7800 X109.904 Y86.953
G1 F3600 X85.129 Y111.729 E332.03618
G0 F7800 X84.726 Y111.708
G1 F3600 X109.456 Y86.977 E332.90862
G0 F7800 X109.008 Y87.001
G1 F3600 X84.323 Y111.686 E333.77945
G0 F7800 X83.92 Y111.664
G1 F3600 X108.56 Y87.025 E334.64867
G0 F7800 X108.113 Y87.048
G1 F3600 X83.517 Y111.643 E335.51634
G0 F7800 X83.114 Y111.622
G1 F3600 X107.664 Y87.072 E336.38241
G0 F7800 X107.216 Y87.096
G1 F3600 X82.712 Y111.6 E337.24686
G0 F7800 X82.309 Y111.579
G1 F3600 X106.768 Y87.119 E338.10973
G0 F7800 X106.32 Y87.143
G1 F3600 X81.906 Y111.558 E338.97102
G0 F7800 X81.503 Y111.536
G1 F3600 X105.872 Y87.167 E339.8307
G0 F7800 X105.424 Y87.191
G1 F3600 X81.1 Y111.514 E340.68878
G0 F7800 X80.697 Y111.493
G1 F3600 X104.976 Y87.215 E341.54527
G0 F7800 X104.528 Y87.239
G1 F3600 X80.294 Y111.472 E342.40017
G0 F7800 X79.892 Y111.45
G1 F3600 X104.08 Y87.262 E343.25347
G0 F7800 X103.632 Y87.286
G1 F3600 X79.489 Y111.429 E344.10518
G0 F7800 X79.086 Y111.408
G1 F3600 X103.183 Y87.31 E344.95528
G0 F7800 X102.736 Y87.334
G1 F3600 X78.684 Y111.386 E345.80378
G0 F7800 X78.28 Y111.365
G1 F3600 X102.287 Y87.358 E346.65069
G0 F7800 X101.839 Y87.382
G1 F3600 X77.877 Y111.343 E347.496
G0 F7800 X77.474 Y111.322
G1 F3600 X101.392 Y87.405 E348.33975
G0 F7800 X100.943 Y87.429
G1 F3600 X77.072 Y111.3 E349.18187
G0 F7800 X76.669 Y111.279
G1 F3600 X100.495 Y87.453 E350.02239
G0 F7800 X100.047 Y87.476
G1 F3600 X76.266 Y111.258 E350.86135
G0 F7800 X75.864 Y111.236
G1 F3600 X99.599 Y87.5 E351.69868
G0 F7800 X99.151 Y87.524
G1 F3600 X75.461 Y111.215 E352.53443
G0 F7800 X75.057 Y111.193
G1 F3600 X98.703 Y87.548 E353.36859
G0 F7800 X98.255 Y87.572
G1 F3600 X74.661 Y111.165 E354.20091
G0 F7800 X74.317 Y111.085
G1 F3600 X97.807 Y87.595 E355.02959
G0 F7800 X97.359 Y87.619
G1 F3600 X74.053 Y110.925 E355.85177
G0 F7800 X73.843 Y110.711
G1 F3600 X96.911 Y87.643 E356.66555
G0 F7800 X96.463 Y87.667
G1 F3600 X73.715 Y110.415 E357.46805
G0 F7800 X73.67 Y110.035
G1 F3600 X96.015 Y87.691 E358.25631
G0 F7800 X95.566 Y87.715
G1 F3600 X73.67 Y109.611 E359.02875
G0 F7800 X73.67 Y109.187
G1 F3600 X95.119 Y87.738 E359.78543
G0 F7800 X94.67 Y87.762
G1 F3600 X73.67 Y108.762 E360.52626
G0 F7800 X73.67 Y108.338
G1 F3600 X94.222 Y87.786 E361.25128
G0 F7800 X93.775 Y87.809
G1 F3600 X73.67 Y107.914 E361.96054
G0 F7800 X73.67 Y107.49
G1 F3600 X93.326 Y87.833 E362.65398
G0 F7800 X92.878 Y87.858
G1 F3600 X73.67 Y107.065 E363.33158
G0 F7800 X73.67 Y106.641
G1 F3600 X92.43 Y87.881 E363.99338
G0 F7800 X91.982 Y87.905
G1 F3600 X73.67 Y106.217 E364.63939
G0 F7800 X73.67 Y105.793
G1 F3600 X91.534 Y87.929 E365.26959
G0 F7800 X91.086 Y87.952
G1 F3600 X73.67 Y105.368 E365.88399
G0 F7800 X73.67 Y104.944
G1 F3600 X90.638 Y87.976 E366.48258
G0 F7800 X90.19 Y88
G1 F3600 X73.67 Y104.52 E367.06537
G0 F7800 X73.67 Y104.096
G1 F3600 X89.742 Y88.024 E367.63235
G0 F7800 X89.294 Y88.048
G1 F3600 X73.67 Y103.671 E368.18351
G0 F7800 X73.67 Y103.247
G1 F3600 X88.845 Y88.072 E368.71885
G0 F7800 X88.398 Y88.095
G1 F3600 X73.67 Y102.823 E369.23842
G0 F7800 X73.67 Y102.398
G1 F3600 X87.949 Y88.119 E369.74215
G0 F7800 X87.501 Y88.143
G1 F3600 X73.67 Y101.974 E370.23008
G0 F7800 X73.67 Y101.55
G1 F3600 X87.054 Y88.167 E370.70222
G0 F7800 X86.605 Y88.191
G1 F3600 X73.67 Y101.126 E371.15853
G0 F7800 X73.67 Y100.701
G1 F3600 X86.158 Y88.214 E371.59906
G0 F7800 X85.709 Y88.238
G1 F3600 X73.67 Y100.277 E372.02377
G0 F7800 X73.67 Y99.853
G1 F3600 X85.261 Y88.262 E372.43268
G0 F7800 X84.813 Y88.285
G1 F3600 X73.67 Y99.429 E372.82579
G0 F7800 X73.67 Y99.004
G1 F3600 X84.365 Y88.309 E373.20309
G0 F7800 X83.917 Y88.333
G1 F3600 X73.67 Y98.58 E373.56458
G0 F7800 X73.67 Y98.156
G1 F3600 X83.469 Y88.357 E373.91026
G0 F7800 X83.021 Y88.381
G1 F3600 X73.67 Y97.732 E374.24015
G0 F7800 X73.67 Y97.307
G1 F3600 X82.573 Y88.405 E374.55421
G0 F7800 X82.125 Y88.428
G1 F3600 X73.67 Y96.883 E374.85248
G0 F7800 X73.67 Y96.459
G1 F3600 X81.677 Y88.452 E375.13495
G0 F7800 X81.228 Y88.476
G1 F3600 X73.67 Y96.035 E375.40159
G0 F7800 X73.67 Y95.61
G1 F3600 X80.781 Y88.5 E375.65244
G0 F7800 X80.332 Y88.524
G1 F3600 X73.67 Y95.186 E375.88746
G0 F7800 X73.67 Y94.762
G1 F3600 X79.884 Y88.548 E376.10667
G0 F7800 X79.437 Y88.571
G1 F3600 X73.67 Y94.337 E376.3101
G0 F7800 X73.67 Y93.913
G1 F3600 X78.988 Y88.595 E376.49771
G0 F7800 X78.54 Y88.619
G1 F3600 X73.67 Y93.489 E376.66951
G0 F7800 X73.67 Y93.065
G1 F3600 X78.092 Y88.642 E376.82553
G0 F7800 X77.644 Y88.666
G1 F3600 X73.67 Y92.64 E376.96572
G0 F7800 X73.67 Y92.216
G1 F3600 X77.196 Y88.69 E377.09011
G0 F7800 X76.748 Y88.714
G1 F3600 X73.67 Y91.792 E377.19869
G0 F7800 X73.67 Y91.368
G1 F3600 X76.3 Y88.738 E377.29147
G0 F7800 X75.852 Y88.761
G1 F3600 X73.67 Y90.943 E377.36845
G0 F7800 X73.67 Y90.519
G1 F3600 X75.404 Y88.785 E377.42962
G0 F7800 X74.956 Y88.809
G1 F3600 X73.67 Y90.095 E377.47499
G0 F7800 X73.742 Y89.599
G1 F3600 X74.483 Y88.858 E377.50113
G0 F7800 X117.149 Y93.391
G0 X117.149 Y93.391
; TYPE:BOTTOM-FILL
G1 F3600 X117.295 Y93.536 E377.50626
G0 F7800 X117.122 Y93.787
G1 F3600 X117.276 Y93.941 E377.51169
G0 F7800 X117.122 Y94.212
G1 F3600 X117.276 Y94.366 E377.51713
G0 F7800 X117.122 Y94.636
G1 F3600 X117.276 Y94.79 E377.52256
G0 F7800 X117.122 Y95.06
G1 F3600 X117.276 Y95.214 E377.52799
G0 F7800 X117.122 Y95.484
G1 F3600 X117.276 Y95.639 E377.53344
G0 F7800 X117.122 Y95.909
G1 F3600 X117.276 Y96.063 E377.53888
G0 F7800 X117.122 Y96.333
G1 F3600 X117.276 Y96.487 E377.54431
G0 F7800 X117.122 Y96.757
G1 F3600 X117.276 Y96.911 E377.54974
G0 F7800 X117.122 Y97.181
G1 F3600 X117.276 Y97.336 E377.55519
G0 F7800 X117.122 Y97.606
G1 F3600 X117.276 Y97.76 E377.56062
G0 F7800 X117.122 Y98.03
G1 F3600 X117.276 Y98.184 E377.56606
G0 F7800 X117.122 Y98.454
G1 F3600 X117.276 Y98.608 E377.57149
G0 F7800 X117.122 Y98.878
G1 F3600 X117.276 Y99.033 E377.57694
G0 F7800 X117.122 Y99.303
G1 F3600 X117.276 Y99.457 E377.58237
G0 F7800 X117.122 Y99.727
G1 F3600 X117.276 Y99.881 E377.58781
G0 F7800 X117.122 Y100.151
G1 F3600 X117.276 Y100.305 E377.59324
G0 F7800 X117.122 Y100.576
G1 F3600 X117.276 Y100.73 E377.59867
G0 F7800 X117.122 Y101
G1 F3600 X117.276 Y101.154 E377.6041
G0 F7800 X117.122 Y101.424
G1 F3600 X117.276 Y101.578 E377.60954
G0 F7800 X117.122 Y101.848
G1 F3600 X117.276 Y102.002 E377.61497
G0 F7800 X117.122 Y102.273
G1 F3600 X117.276 Y102.427 E377.6204
G0 F7800 X117.122 Y102.697
G1 F3600 X117.276 Y102.851 E377.62584
G0 F7800 X117.122 Y103.121
G1 F3600 X117.276 Y103.275 E377.63127
G0 F7800 X117.122 Y103.545
G1 F3600 X117.276 Y103.7 E377.63672
G0 F7800 X117.122 Y103.97
G1 F3600 X117.276 Y104.124 E377.64215
G0 F7800 X117.122 Y104.394
G1 F3600 X117.276 Y104.548 E377.64758
G0 F7800 X117.122 Y104.818
G1 F3600 X117.276 Y104.972 E377.65302
G0 F7800 X117.122 Y105.242
G1 F3600 X117.276 Y105.397 E377.65847
G0 F7800 X117.122 Y105.667
G1 F3600 X117.276 Y105.821 E377.6639
G0 F7800 X117.122 Y106.091
G1 F3600 X117.276 Y106.245 E377.66933
G0 F7800 X117.135 Y106.528
G1 F3600 X117.342 Y106.736 E377.67665
G0 F7800 X117.227 Y107.045
G1 F3600 X117.434 Y107.251 E377.68394
G0 F7800 X117.346 Y107.588
G1 F3600 X117.721 Y107.963 E377.69717
G0 F7800 X117.358 Y93.175
G0 X117.358 Y93.175
G1 F3600 X117.214 Y93.031 E377.70225
G0 F7800 X117.422 Y92.814
G1 F3600 X117.278 Y92.671 E377.70731
G0 F7800 X117.511 Y92.48
G1 F3600 X117.381 Y92.35 E377.7119
G0 F7800 X117.528 Y92.073
G1 F3600 X117.659 Y92.203 E377.7165
G0 F7800 X117.793 Y91.913
G1 F3600 X117.659 Y91.779 E377.72123
G0 F7800 X117.848 Y91.544
G1 F3600 X117.951 Y91.647 E377.72486
G0 F7800 X118.148 Y91.419
G1 F3600 X118.047 Y91.319 E377.72841
G0 F7800 X118.248 Y91.095
G1 F3600 X118.344 Y91.192 E377.73181
; Layer Change GCode
; LAYER:4
G0 F7800 X118.562 Y92.472 Z1.05
G0 X118.265 Y92.877
G0 X118.101 Y93.804
G0 X118.101 Y106.197
G0 X118.257 Y107.086
G0 X118.349 Y107.354
G0 X118.633 Y107.888
G0 X119.018 Y108.332
G0 X119.207 Y108.514
G0 X119.734 Y108.918
G0 X120.426 Y109.284
G0 X121.139 Y109.54
G0 X121.453 Y109.63
G0 X121.504 Y109.626
G0 X121.489 Y109.536
G0 X121.489 Y109.536
G0 X121.54 Y109.291
G0 X121.54 Y109.291
G0 X121.39 Y109.873
; TYPE:WALL-INNER
G1 F1800 X122.102 Y110.035 E377.75002
G1 X122.934 Y110.139 E377.77094
G1 X124.131 Y110.202 E377.80084
G1 X126.6 Y110.202 E377.86243
G1 X126.6 Y114.231 E377.96293
G1 X74.679 Y111.476 E379.25993
G1 X74.197 Y111.357 E379.27232
G1 X73.824 Y111.111 E379.28346
G1 X73.615 Y110.857 E379.29167
G1 X73.473 Y110.538 E379.30038
G1 X73.419 Y110.147 E379.31022
G1 X73.419 Y89.881 E379.81576
G1 X73.551 Y89.272 E379.8313
G1 X73.761 Y88.955 E379.84079
G1 X74.089 Y88.694 E379.85125
G1 X74.334 Y88.587 E379.85792
G1 X74.66 Y88.526 E379.86619
G1 X126.6 Y85.77 E381.16366
G1 X126.6 Y89.799 E381.26416
G1 X124.131 Y89.799 E381.32575
G1 X122.934 Y89.862 E381.35565
G1 X122.102 Y89.966 E381.37657
G1 X121.39 Y90.128 E381.39478
G1 X121.062 Y90.223 E381.4033
G1 X120.324 Y90.487 E381.42285
G1 X119.597 Y90.871 E381.44336
G1 X119.044 Y91.296 E381.46076
G1 X118.836 Y91.495 E381.46794
G1 X118.387 Y92.012 E381.48502
G1 X118.287 Y92.293 E381.49246
G1 X118.023 Y92.793 E381.50657
G1 X117.85 Y93.782 E381.53161
G1 X117.85 Y106.219 E381.84186
G1 X118.013 Y107.151 E381.86546
G1 X118.118 Y107.455 E381.87348
G1 X118.423 Y108.031 E381.88974
G1 X118.836 Y108.506 E381.90544
G1 X119.044 Y108.705 E381.91262
G1 X119.597 Y109.13 E381.93002
G1 X120.324 Y109.514 E381.95053
G1 X121.062 Y109.778 E381.97008
G1 X121.39 Y109.873 E381.9786
G0 F7800 X121.465 Y109.582
G1 F1800 X122.154 Y109.739 E381.99623
G1 X122.96 Y109.84 E382.01649
G1 X124.139 Y109.902 E382.04594
G1 X126.9 Y109.902 E382.11481
G1 X126.9 Y114.548 E382.23071
G1 X74.638 Y111.774 E383.53622
G1 X74.076 Y111.636 E383.55066
G1 X73.621 Y111.336 E383.56426
G1 X73.355 Y111.013 E383.57469
G1 X73.183 Y110.625 E383.58528
G1 X73.119 Y110.167 E383.59682
G1 X73.119 Y89.85 E384.10363
G1 X73.27 Y89.152 E384.12144
G1 X73.536 Y88.752 E384.13342
G1 X73.935 Y88.433 E384.14617
G1 X74.243 Y88.298 E384.15455
G1 X74.629 Y88.227 E384.16435
G1 X126.9 Y85.453 E385.47009
G1 X126.9 Y90.099 E385.58598
G1 X124.139 Y90.099 E385.65485
G1 X122.96 Y90.161 E385.6843
G1 X122.154 Y90.262 E385.70457
G1 X121.465 Y90.419 E385.7222
G1 X121.154 Y90.508 E385.73026
G1 X120.445 Y90.762 E385.74905
G1 X119.76 Y91.124 E385.76838
G1 X119.24 Y91.524 E385.78474
G1 X119.053 Y91.702 E385.79118
G1 X118.651 Y92.166 E385.8065
G1 X118.562 Y92.414 E385.81307
G1 X118.31 Y92.891 E385.82653
G1 X118.15 Y93.808 E385.84975
G1 X118.15 Y106.193 E386.15869
G1 X118.304 Y107.075 E386.18103
G1 X118.394 Y107.335 E386.18789
G1 X118.672 Y107.86 E386.20271
G1 X119.053 Y108.299 E386.21721
G1 X119.24 Y108.477 E386.22365
G1 X119.76 Y108.877 E386.24002
G1 X120.445 Y109.239 E386.25934
G1 X121.154 Y109.493 E386.27813
G1 X121.465 Y109.582 E386.2862
G0 F7800 X121.54 Y109.291
; TYPE:WALL-OUTER
G1 F1260 X122.206 Y109.443 E386.30324
G1 X122.987 Y109.541 E386.32287
G1 X124.147 Y109.602 E386.35185
G1 X127.2 Y109.602 E386.42801
G1 X127.2 Y114.864 E386.55927
G1 X74.592 Y112.072 E387.87343
G1 X73.952 Y111.914 E387.88987
G1 X73.42 Y111.563 E387.90577
G1 X73.098 Y111.172 E387.91841
G1 X72.891 Y110.707 E387.9311
G1 X72.819 Y110.186 E387.94422
G1 X72.819 Y89.819 E388.45228
G1 X72.989 Y89.033 E388.47234
G1 X73.313 Y88.546 E388.48693
G1 X73.778 Y88.174 E388.50179
G1 X74.155 Y88.009 E388.51205
G1 X74.588 Y87.929 E388.52303
G1 X127.2 Y85.137 E389.83729
G1 X127.2 Y90.399 E389.96855
G1 X124.147 Y90.399 E390.04471
G1 X122.987 Y90.46 E390.07369
G1 X122.206 Y90.558 E390.09332
G1 X121.54 Y90.71 E390.11036
G1 X121.246 Y90.794 E390.11799
G1 X120.566 Y91.037 E390.136
G1 X119.923 Y91.377 E390.15415
G1 X119.435 Y91.752 E390.1695
G1 X119.27 Y91.909 E390.17518
G1 X118.914 Y92.32 E390.18875
G1 X118.838 Y92.534 E390.19441
G1 X118.597 Y92.99 E390.20728
G1 X118.45 Y93.834 E390.22865
G1 X118.45 Y106.167 E390.53629
G1 X118.595 Y107 E390.55739
G1 X118.67 Y107.215 E390.56307
G1 X118.921 Y107.689 E390.57645
G1 X119.27 Y108.092 E390.58974
G1 X119.435 Y108.249 E390.59543
G1 X119.923 Y108.624 E390.61078
G1 X120.566 Y108.964 E390.62892
G1 X121.246 Y109.207 E390.64694
G1 X121.54 Y109.291 E390.65456
G0 F7800 X121.057 Y110.026
; TYPE:FILL
G1 F3600 X124.931 Y113.9 E390.79123
G0 F7800 X125.379 Y113.924
G1 F3600 X121.628 Y110.173 E390.92356
G0 F7800 X122.163 Y110.283
G1 F3600 X125.827 Y113.948 E391.05283
G0 F7800 X126.275 Y113.972
G1 F3600 X122.648 Y110.344 E391.1808
G0 F7800 X123.116 Y110.388
G1 F3600 X126.359 Y113.631 E391.29521
G0 F7800 X126.359 Y113.207
G1 F3600 X123.564 Y110.411 E391.39382
G0 F7800 X124.012 Y110.435
G1 F3600 X126.359 Y112.782 E391.47662
G0 F7800 X126.359 Y112.358
G1 F3600 X124.442 Y110.441 E391.54425
G0 F7800 X124.866 Y110.441
G1 F3600 X126.359 Y111.934 E391.59692
G0 F7800 X126.359 Y111.51
G1 F3600 X125.291 Y110.442 E391.6346
G0 F7800 X125.715 Y110.442
G1 F3600 X126.359 Y111.085 E391.6573
G0 F7800 X126.359 Y110.661
G1 F3600 X126.14 Y110.442 E391.66502
G0 F7800 X124.483 Y113.876
G0 X124.483 Y113.876
G1 F3600 X120.405 Y109.798 E391.80888
G0 F7800 X119.568 Y109.385
G1 F3600 X124.035 Y113.853 E391.96649
G0 F7800 X123.587 Y113.829
G1 F3600 X97.321 Y87.563 E392.89309
G0 F7800 X96.919 Y87.585
G1 F3600 X123.139 Y113.805 E393.81807
G0 F7800 X122.691 Y113.781
G1 F3600 X96.516 Y87.606 E394.74147
G0 F7800 X96.113 Y87.628
G1 F3600 X122.243 Y113.757 E395.66326
G0 F7800 X121.795 Y113.734
G1 F3600 X95.71 Y87.649 E396.58347
G0 F7800 X95.308 Y87.671
G1 F3600 X121.347 Y113.71 E397.50207
G0 F7800 X120.898 Y113.686
G1 F3600 X94.905 Y87.692 E398.41906
G0 F7800 X94.501 Y87.713
G1 F3600 X120.451 Y113.663 E399.33452
G0 F7800 X120.003 Y113.639
G1 F3600 X94.098 Y87.734 E400.24839
G0 F7800 X93.695 Y87.756
G1 F3600 X119.555 Y113.615 E401.16065
G0 F7800 X119.107 Y113.591
G1 F3600 X93.293 Y87.778 E402.07129
G0 F7800 X92.89 Y87.799
G1 F3600 X118.658 Y113.567 E402.98033
G0 F7800 X118.211 Y113.544
G1 F3600 X92.487 Y87.82 E403.88781
G0 F7800 X92.084 Y87.841
G1 F3600 X117.762 Y113.52 E404.79369
G0 F7800 X117.314 Y113.496
G1 F3600 X91.681 Y87.862 E405.69798
G0 F7800 X91.279 Y87.884
G1 F3600 X116.867 Y113.472 E406.60067
G0 F7800 X116.418 Y113.448
G1 F3600 X90.875 Y87.906 E407.50175
G0 F7800 X90.472 Y87.927
G1 F3600 X115.971 Y113.425 E408.40127
G0 F7800 X115.522 Y113.401
G1 F3600 X90.069 Y87.948 E409.2992
G0 F7800 X89.667 Y87.97
G1 F3600 X115.074 Y113.377 E410.1955
G0 F7800 X114.626 Y113.354
G1 F3600 X89.264 Y87.991 E411.09023
G0 F7800 X88.861 Y88.012
G1 F3600 X114.178 Y113.33 E411.98337
G0 F7800 X113.731 Y113.306
G1 F3600 X88.458 Y88.034 E412.87493
G0 F7800 X88.055 Y88.055
G1 F3600 X113.282 Y113.282 E413.76488
G0 F7800 X112.834 Y113.258
G1 F3600 X87.652 Y88.077 E414.65322
G0 F7800 X87.249 Y88.098
G1 F3600 X112.386 Y113.235 E415.54
G0 F7800 X111.938 Y113.211
G1 F3600 X86.846 Y88.119 E416.42519
G0 F7800 X86.443 Y88.14
G1 F3600 X111.49 Y113.187 E417.30879
G0 F7800 X111.042 Y113.163
G1 F3600 X86.04 Y88.162 E418.19078
G0 F7800 X85.638 Y88.183
G1 F3600 X110.594 Y113.139 E419.07117
G0 F7800 X110.146 Y113.116
G1 F3600 X85.235 Y88.205 E419.94998
G0 F7800 X84.832 Y88.226
G1 F3600 X109.698 Y113.092 E420.82719
G0 F7800 X109.25 Y113.068
G1 F3600 X84.429 Y88.247 E421.70282
G0 F7800 X84.026 Y88.269
G1 F3600 X108.802 Y113.045 E422.57686
G0 F7800 X108.354 Y113.021
G1 F3600 X83.623 Y88.29 E423.44931
G0 F7800 X83.22 Y88.311
G1 F3600 X107.906 Y112.997 E424.32018
G0 F7800 X107.458 Y112.973
G1 F3600 X82.817 Y88.333 E425.18944
G0 F7800 X82.414 Y88.354
G1 F3600 X107.01 Y112.949 E426.05711
G0 F7800 X106.562 Y112.926
G1 F3600 X82.012 Y88.376 E426.92318
G0 F7800 X81.609 Y88.397
G1 F3600 X106.114 Y112.902 E427.78766
G0 F7800 X105.665 Y112.878
G1 F3600 X81.206 Y88.418 E428.65053
G0 F7800 X80.803 Y88.439
G1 F3600 X105.218 Y112.854 E429.51184
G0 F7800 X104.769 Y112.83
G1 F3600 X80.4 Y88.461 E430.37152
G0 F7800 X79.997 Y88.483
G1 F3600 X104.322 Y112.807 E431.22963
G0 F7800 X103.873 Y112.783
G1 F3600 X79.594 Y88.504 E432.08614
G0 F7800 X79.191 Y88.525
G1 F3600 X103.425 Y112.759 E432.94106
G0 F7800 X102.978 Y112.736
G1 F3600 X78.788 Y88.546 E433.79443
G0 F7800 X78.386 Y88.568
G1 F3600 X102.529 Y112.712 E434.64616
G0 F7800 X102.082 Y112.688
G1 F3600 X77.983 Y88.589 E435.49631
G0 F7800 X77.58 Y88.611
G1 F3600 X101.633 Y112.664 E436.34485
G0 F7800 X101.185 Y112.64
G1 F3600 X77.177 Y88.632 E437.19179
G0 F7800 X76.774 Y88.653
G1 F3600 X100.737 Y112.617 E438.03717
G0 F7800 X100.289 Y112.593
G1 F3600 X76.371 Y88.675 E438.88094
G0 F7800 X75.968 Y88.696
G1 F3600 X99.841 Y112.569 E439.72313
G0 F7800 X99.393 Y112.545
G1 F3600 X75.565 Y88.717 E440.56373
G0 F7800 X75.162 Y88.739
G1 F3600 X98.945 Y112.521 E441.40272
G0 F7800 X98.497 Y112.498
G1 F3600 X74.759 Y88.76 E442.24014
G0 F7800 X74.396 Y88.821
G1 F3600 X98.049 Y112.474 E443.07456
G0 F7800 X97.601 Y112.45
G1 F3600 X74.123 Y88.973 E443.90279
G0 F7800 X73.902 Y89.176
G1 F3600 X97.153 Y112.427 E444.72304
G0 F7800 X96.705 Y112.403
G1 F3600 X73.756 Y89.454 E445.53262
G0 F7800 X73.681 Y89.803
G1 F3600 X96.257 Y112.379 E446.32905
G0 F7800 X95.809 Y112.355
G1 F3600 X73.658 Y90.204 E447.11049
G0 F7800 X73.658 Y90.629
G1 F3600 X95.361 Y112.331 E447.8761
G0 F7800 X94.913 Y112.308
G1 F3600 X73.658 Y91.053 E448.62593
G0 F7800 X73.658 Y91.477
G1 F3600 X94.465 Y112.284 E449.35996
G0 F7800 X94.016 Y112.26
G1 F3600 X73.658 Y91.901 E450.07816
G0 F7800 X73.658 Y92.326
G1 F3600 X93.569 Y112.236 E450.78055
G0 F7800 X93.121 Y112.212
G1 F3600 X73.658 Y92.75 E451.46715
G0 F7800 X73.658 Y93.174
G1 F3600 X92.673 Y112.189 E452.13795
G0 F7800 X92.225 Y112.165
G1 F3600 X73.658 Y93.599 E452.79293
G0 F7800 X73.658 Y94.023
G1 F3600 X91.776 Y112.141 E453.4321
G0 F7800 X91.329 Y112.118
G1 F3600 X73.658 Y94.447 E454.05549
G0 F7800 X73.658 Y94.871
G1 F3600 X90.88 Y112.094 E454.66306
G0 F7800 X90.433 Y112.07
G1 F3600 X73.658 Y95.296 E455.25482
G0 F7800 X73.658 Y95.72
G1 F3600 X89.984 Y112.046 E455.83077
G0 F7800 X89.536 Y112.022
G1 F3600 X73.658 Y96.144 E456.39091
G0 F7800 X73.658 Y96.568
G1 F3600 X89.089 Y111.999 E456.93528
G0 F7800 X88.64 Y111.975
G1 F3600 X73.658 Y96.993 E457.46381
G0 F7800 X73.658 Y97.417
G1 F3600 X88.192 Y111.951 E457.97653
G0 F7800 X87.744 Y111.927
G1 F3600 X73.658 Y97.841 E458.47346
G0 F7800 X73.658 Y98.265
G1 F3600 X87.296 Y111.903 E458.95457
G0 F7800 X86.848 Y111.88
G1 F3600 X73.658 Y98.69 E459.41989
G0 F7800 X73.658 Y99.114
G1 F3600 X86.4 Y111.856 E459.86939
G0 F7800 X85.952 Y111.832
G1 F3600 X73.658 Y99.538 E460.3031
G0 F7800 X73.658 Y99.962
G1 F3600 X85.504 Y111.809 E460.72102
G0 F7800 X85.056 Y111.785
G1 F3600 X73.658 Y100.387 E461.12311
G0 F7800 X73.658 Y100.811
G1 F3600 X84.608 Y111.761 E461.5094
G0 F7800 X84.16 Y111.737
G1 F3600 X73.658 Y101.235 E461.87989
G0 F7800 X73.658 Y101.66
G1 F3600 X83.712 Y111.713 E462.23455
G0 F7800 X83.264 Y111.69
G1 F3600 X73.658 Y102.084 E462.57343
G0 F7800 X73.658 Y102.508
G1 F3600 X82.816 Y111.666 E462.8965
G0 F7800 X82.368 Y111.642
G1 F3600 X73.658 Y102.932 E463.20377
G0 F7800 X73.658 Y103.357
G1 F3600 X81.92 Y111.618 E463.49522
G0 F7800 X81.472 Y111.594
G1 F3600 X73.658 Y103.781 E463.77086
G0 F7800 X73.658 Y104.205
G1 F3600 X81.024 Y111.571 E464.03072
G0 F7800 X80.576 Y111.547
G1 F3600 X73.658 Y104.629 E464.27477
G0 F7800 X73.658 Y105.054
G1 F3600 X80.127 Y111.523 E464.50298
G0 F7800 X79.68 Y111.5
G1 F3600 X73.658 Y105.478 E464.71542
G0 F7800 X73.658 Y105.902
G1 F3600 X79.232 Y111.476 E464.91206
G0 F7800 X78.784 Y111.452
G1 F3600 X73.658 Y106.326 E465.09289
G0 F7800 X73.658 Y106.751
G1 F3600 X78.336 Y111.428 E465.2579
G0 F7800 X77.887 Y111.404
G1 F3600 X73.658 Y107.175 E465.40709
G0 F7800 X73.658 Y107.599
G1 F3600 X77.44 Y111.381 E465.54051
G0 F7800 X76.991 Y111.357
G1 F3600 X73.658 Y108.023 E465.65811
G0 F7800 X73.658 Y108.448
G1 F3600 X76.543 Y111.333 E465.75989
G0 F7800 X76.096 Y111.309
G1 F3600 X73.658 Y108.872 E465.84588
G0 F7800 X73.658 Y109.296
G1 F3600 X75.647 Y111.285 E465.91604
G0 F7800 X75.2 Y111.262
G1 F3600 X73.658 Y109.721 E465.97043
G0 F7800 X73.66 Y110.147
G1 F3600 X74.751 Y111.238 E466.00891
G0 F7800 X74.085 Y110.996
G1 F3600 X73.838 Y110.749 E466.01763
G0 F7800 X97.724 Y87.542
G0 X97.724 Y87.542
G1 F3600 X117.965 Y107.783 E466.73168
G0 F7800 X117.712 Y107.106
G1 F3600 X98.128 Y87.521 E467.42258
G0 F7800 X98.531 Y87.5
G1 F3600 X117.622 Y106.591 E468.09607
G0 F7800 X117.576 Y106.121
G1 F3600 X98.934 Y87.479 E468.75371
G0 F7800 X99.336 Y87.457
G1 F3600 X117.576 Y105.696 E469.39716
G0 F7800 X117.576 Y105.272
G1 F3600 X99.739 Y87.435 E470.02641
G0 F7800 X100.142 Y87.414
G1 F3600 X117.576 Y104.848 E470.64144
G0 F7800 X117.576 Y104.424
G1 F3600 X100.545 Y87.393 E471.24225
G0 F7800 X100.948 Y87.372
G1 F3600 X117.576 Y103.999 E471.82883
G0 F7800 X117.576 Y103.575
G1 F3600 X101.351 Y87.35 E472.40122
G0 F7800 X101.754 Y87.329
G1 F3600 X117.576 Y103.151 E472.95938
G0 F7800 X117.576 Y102.727
G1 F3600 X102.157 Y87.307 E473.50334
G0 F7800 X102.56 Y87.286
G1 F3600 X117.576 Y102.302 E474.03307
G0 F7800 X117.576 Y101.878
G1 F3600 X102.963 Y87.265 E474.54859
G0 F7800 X103.365 Y87.243
G1 F3600 X117.576 Y101.454 E475.04992
G0 F7800 X117.576 Y101.03
G1 F3600 X103.768 Y87.222 E475.53703
G0 F7800 X104.171 Y87.201
G1 F3600 X117.576 Y100.605 E476.00991
G0 F7800 X117.576 Y100.181
G1 F3600 X104.574 Y87.179 E476.46859
G0 F7800 X104.977 Y87.157
G1 F3600 X117.576 Y99.757 E476.91307
G0 F7800 X117.576 Y99.332
G1 F3600 X105.38 Y87.136 E477.34332
G0 F7800 X105.783 Y87.115
G1 F3600 X117.576 Y98.908 E477.75935
G0 F7800 X117.576 Y98.484
G1 F3600 X106.186 Y87.094 E478.16116
G0 F7800 X106.589 Y87.073
G1 F3600 X117.576 Y98.06 E478.54876
G0 F7800 X117.576 Y97.635
G1 F3600 X106.991 Y87.051 E478.92216
G0 F7800 X107.394 Y87.029
G1 F3600 X117.576 Y97.211 E479.28135
G0 F7800 X117.576 Y96.787
G1 F3600 X107.797 Y87.008 E479.62634
G0 F7800 X108.2 Y86.987
G1 F3600 X117.576 Y96.363 E479.9571
G0 F7800 X117.576 Y95.938
G1 F3600 X108.603 Y86.966 E480.27363
G0 F7800 X109.006 Y86.944
G1 F3600 X117.576 Y95.514 E480.57596
G0 F7800 X117.576 Y95.09
G1 F3600 X109.409 Y86.923 E480.86407
G0 F7800 X109.812 Y86.902
G1 F3600 X117.576 Y94.666 E481.13797
G0 F7800 X117.576 Y94.241
G1 F3600 X110.215 Y86.88 E481.39765
G0 F7800 X110.617 Y86.858
G1 F3600 X117.576 Y93.817 E481.64314
G0 F7800 X117.618 Y93.434
G1 F3600 X111.02 Y86.837 E481.87589
G0 F7800 X111.423 Y86.816
G1 F3600 X117.681 Y93.074 E482.09666
G0 F7800 X117.744 Y92.713
G1 F3600 X111.826 Y86.795 E482.30543
G0 F7800 X112.229 Y86.774
G1 F3600 X117.881 Y92.425 E482.5048
G0 F7800 X118.027 Y92.147
G1 F3600 X112.632 Y86.752 E482.69512
G0 F7800 X113.035 Y86.73
