; Generated with MatterSlice 1.0
; filamentDiameter = 1.75
; extrusionWidth = 0.3
; firstLayerExtrusionWidth = 0.3
; layerThickness = 0.2
; firstLayerThickness = 0.25
; automatic settings before start_gcode
G21 ; set units to millimeters
M107 ; fan off
M190 S75 ; wait for bed temperature to be reached
M104 T0 S210 ; start heating extruder 1
T0 ; set the active extruder to 0
; settings from start_gcode
G28 ; home all axes
G1 Z5 F5000 ; lift nozzle
; automatic settings after start_gcode
M109 T0 S210 ; wait for extruder 1 to reach temperature
T0 ; set the active extruder to 0
G90 ; use absolute coordinates
G92 E0 ; reset the expected extruder position
M82 ; use absolute distance for extrusion
; Layer count: 273
; Layer Change GCode
; LAYER:0
G4 P0
M107
G0 F7800 X81.875 Y79.742 Z0.25
; TYPE:SKIRT
G1 F1800 E0
G1 F720 X112.562 Y90.043 E1.00933
G1 X114.548 Y91.077 E1.07915
G1 X116.151 Y92.601 E1.14812
G1 X117.468 Y94.677 E1.22478
G1 X118 Y97.2 E1.30518
G1 X118 Y102.863 E1.48176
G1 X117.451 Y105.349 E1.56114
G1 X116.151 Y107.399 E1.63683
G1 X114.548 Y108.923 E1.7058
G1 X112.555 Y109.96 E1.77586
G1 X81.85 Y120.267 E2.78578
G1 X79.218 Y121.125 E2.8721
G1 X77.8 Y121.549 E2.91825
G1 X75.704 Y121.39 E2.9838
G1 X73.192 Y120.628 E3.06565
G1 X70.497 Y118.145 E3.17991
G1 X69.522 Y114.986 E3.283
G1 X69.522 Y85.014 E4.21757
G1 X70.497 Y81.855 E4.32065
G1 X73.192 Y79.372 E4.43492
G1 X75.704 Y78.61 E4.51677
G1 X77.875 Y78.445 E4.58466
G1 X81.875 Y79.742 E4.71578
G0 F7800 X81.781 Y80.027
G1 F720 X112.444 Y90.32 E5.72432
G1 X114.372 Y91.323 E5.79209
G1 X115.917 Y92.793 E5.85858
G1 X117.185 Y94.792 E5.9324
G1 X117.7 Y97.231 E6.01013
G1 X117.7 Y102.83 E6.18471
G1 X117.169 Y105.233 E6.26145
G1 X115.917 Y107.207 E6.33434
G1 X114.372 Y108.677 E6.40083
G1 X112.438 Y109.683 E6.46881
G1 X81.756 Y119.982 E7.47798
G1 X79.128 Y120.838 E7.56416
G1 X77.767 Y121.246 E7.60846
G1 X75.759 Y121.093 E7.67125
G1 X73.345 Y120.361 E7.74991
G1 X70.76 Y117.979 E7.85952
G1 X69.822 Y114.94 E7.95869
G1 X69.822 Y85.06 E8.89039
G1 X70.76 Y82.021 E8.98956
G1 X73.345 Y79.639 E9.09917
G1 X75.759 Y78.907 E9.17782
G1 X77.839 Y78.749 E9.24287
G1 X81.781 Y80.027 E9.37208
G1 F1800 E8.37208
G0 F7800 X76.322 Y110.649
; TYPE:WALL-OUTER
G1 F1800 E9.37208
G1 F720 X76.322 Y109.972 E9.39319
G1 X78.86 Y108.504 E9.48462
G1 X80.031 Y107.663 E9.52957
G1 X81.015 Y106.613 E9.57444
G1 X81.122 Y106.454 E9.58042
G1 X81.122 Y93.545 E9.98294
G1 X81.005 Y93.377 E9.98932
G1 X80.01 Y92.318 E10.03463
G1 X78.847 Y91.488 E10.07918
G1 X76.322 Y90.029 E10.17011
G1 X76.322 Y89.35 E10.19129
G1 X76.122 Y89.35 E10.19752
G1 X76.122 Y86.008 E10.30173
G1 X76.278 Y85.503 E10.31821
G1 X76.552 Y85.25 E10.32984
G1 X76.928 Y85.137 E10.34208
G1 X77.078 Y85.125 E10.34677
G1 X79.808 Y86.01 E10.43626
G1 X109.973 Y96.135 E11.42842
G1 X110.675 Y96.501 E11.4531
G1 X111.013 Y96.823 E11.46766
G1 X111.256 Y97.205 E11.48178
G1 X111.4 Y97.89 E11.5036
G1 X111.4 Y102.145 E11.63628
G1 X111.257 Y102.792 E11.65694
G1 X111.013 Y103.177 E11.67115
G1 X110.675 Y103.499 E11.68571
G1 X109.967 Y103.868 E11.7106
G1 X79.779 Y114 E12.70351
G1 X77.25 Y114.824 E12.78645
G1 X77.08 Y114.875 E12.79198
G1 X76.928 Y114.863 E12.79674
G1 X76.552 Y114.75 E12.80898
G1 X76.278 Y114.497 E12.82061
G1 X76.122 Y113.992 E12.83709
G1 X76.122 Y110.65 E12.9413
G1 X76.322 Y110.649 E12.94753
G0 F7800 X76.422 Y110.949
; TYPE:WALL-INNER
G1 F720 X76.622 Y110.948 E12.95377
G1 X76.622 Y110.145 E12.97881
G1 X79.023 Y108.756 E13.0653
G1 X80.23 Y107.89 E13.11162
G1 X81.25 Y106.8 E13.15817
G1 X81.422 Y106.546 E13.16773
G1 X81.422 Y93.45 E13.57609
G1 X81.238 Y93.188 E13.58607
G1 X80.209 Y92.091 E13.63297
G1 X79.01 Y91.235 E13.6789
G1 X76.622 Y89.856 E13.76489
G1 X76.622 Y89.05 E13.79002
G1 X76.422 Y89.05 E13.79626
G1 X76.422 Y86.055 E13.88965
G1 X76.541 Y85.669 E13.90224
G1 X76.706 Y85.517 E13.90924
G1 X76.983 Y85.433 E13.91826
G1 X77.042 Y85.429 E13.92011
G1 X79.711 Y86.294 E14.00759
G1 X109.856 Y96.413 E14.9991
G1 X110.499 Y96.748 E15.0217
G1 X110.779 Y97.014 E15.03375
G1 X110.974 Y97.321 E15.04509
G1 X111.1 Y97.919 E15.06414
G1 X111.1 Y102.112 E15.19489
G1 X110.975 Y102.677 E15.21293
G1 X110.779 Y102.986 E15.22434
G1 X110.499 Y103.252 E15.23638
G1 X109.85 Y103.59 E15.2592
G1 X79.682 Y113.716 E16.25146
G1 X77.048 Y114.572 E16.33782
G1 X76.983 Y114.567 E16.33985
G1 X76.706 Y114.483 E16.34887
G1 X76.541 Y114.331 E16.35587
G1 X76.422 Y113.945 E16.36846
G1 X76.422 Y110.949 E16.46188
G0 F7800 X76.722 Y111.247
G1 F720 X76.922 Y111.246 E16.46812
G1 X76.922 Y110.317 E16.49709
G1 X79.186 Y109.009 E16.57862
G1 X80.429 Y108.116 E16.62634
G1 X81.485 Y106.988 E16.67452
G1 X81.722 Y106.638 E16.6877
G1 X81.722 Y93.356 E17.10185
G1 X81.472 Y92.998 E17.11547
G1 X80.407 Y91.864 E17.16398
G1 X79.172 Y90.983 E17.21128
G1 X76.922 Y89.684 E17.29229
G1 X76.922 Y88.75 E17.32141
G1 X76.722 Y88.75 E17.32765
G1 X76.722 Y86.101 E17.41025
G1 X76.804 Y85.834 E17.41896
G1 X76.859 Y85.784 E17.42128
G1 X77.019 Y85.736 E17.42649
G1 X79.615 Y86.577 E17.51157
G1 X109.74 Y96.69 E18.50243
G1 X110.323 Y96.994 E18.52293
G1 X110.546 Y97.206 E18.53253
G1 X110.691 Y97.435 E18.54098
G1 X110.8 Y97.952 E18.55745
G1 X110.8 Y102.079 E18.68614
G1 X110.693 Y102.561 E18.70153
G1 X110.546 Y102.794 E18.71012
G1 X110.323 Y103.006 E18.71972
G1 X109.734 Y103.313 E18.74043
G1 X79.586 Y113.432 E19.73202
G1 X77.025 Y114.266 E19.81601
G1 X76.859 Y114.216 E19.82141
G1 X76.804 Y114.166 E19.82373
G1 X76.722 Y113.899 E19.83244
G1 X76.722 Y111.247 E19.91513
G0 F7800 X77.161 Y111.102
; TYPE:BOTTOM-FILL
G1 F720 X79.323 Y113.264 E20.01047
G0 F7800 X79.642 Y113.159
G1 F720 X77.162 Y110.679 E20.11983
G0 F7800 X77.288 Y110.381
G1 F720 X79.959 Y113.052 E20.23761
G0 F7800 X80.277 Y112.946
G1 F720 X77.557 Y110.225 E20.35758
G0 F7800 X77.826 Y110.07
G1 F720 X80.595 Y112.839 E20.47969
G0 F7800 X80.912 Y112.732
G1 F720 X78.095 Y109.915 E20.60391
G0 F7800 X78.364 Y109.759
G1 F720 X81.23 Y112.625 E20.73029
G0 F7800 X81.548 Y112.519
G1 F720 X78.633 Y109.604 E20.85883
G0 F7800 X78.902 Y109.449
G1 F720 X81.865 Y112.413 E20.98952
G0 F7800 X82.183 Y112.306
G1 F720 X79.171 Y109.293 E21.12236
G0 F7800 X79.43 Y109.128
G1 F720 X82.5 Y112.199 E21.25776
G0 F7800 X82.819 Y112.093
G1 F720 X79.676 Y108.951 E21.39633
G0 F7800 X79.923 Y108.773
G1 F720 X83.136 Y111.986 E21.53802
G0 F7800 X83.454 Y111.879
G1 F720 X80.17 Y108.596 E21.68281
G0 F7800 X80.417 Y108.418
G1 F720 X83.771 Y111.773 E21.83073
G0 F7800 X84.089 Y111.666
G1 F720 X80.651 Y108.228 E21.98234
G0 F7800 X80.856 Y108.009
G1 F720 X84.407 Y111.56 E22.13893
G0 F7800 X84.724 Y111.453
G1 F720 X81.061 Y107.789 E22.30048
G0 F7800 X81.266 Y107.57
G1 F720 X85.042 Y111.346 E22.46699
G0 F7800 X85.359 Y111.239
G1 F720 X81.472 Y107.352 E22.63839
G0 F7800 X81.675 Y107.131
G1 F720 X85.678 Y111.133 E22.81489
G0 F7800 X85.995 Y111.027
G1 F720 X81.847 Y106.879 E22.99781
G0 F7800 X81.961 Y106.568
G1 F720 X86.312 Y110.92 E23.1897
G0 F7800 X86.63 Y110.813
G1 F720 X81.961 Y106.144 E23.39559
G0 F7800 X81.961 Y105.72
G1 F720 X86.948 Y110.707 E23.6155
G0 F7800 X87.266 Y110.6
G1 F720 X81.961 Y105.295 E23.84943
G0 F7800 X81.961 Y104.871
G1 F720 X87.583 Y110.493 E24.09735
G0 F7800 X87.901 Y110.387
G1 F720 X81.961 Y104.447 E24.35929
G0 F7800 X81.961 Y104.023
G1 F720 X88.219 Y110.281 E24.63524
G0 F7800 X88.536 Y110.174
G1 F720 X81.961 Y103.598 E24.92521
G0 F7800 X81.961 Y103.174
G1 F720 X88.854 Y110.067 E25.22917
G0 F7800 X89.171 Y109.96
G1 F720 X81.961 Y102.75 E25.54711
G0 F7800 X81.961 Y102.326
G1 F720 X89.489 Y109.853 E25.87905
G0 F7800 X89.807 Y109.747
G1 F720 X81.961 Y101.901 E26.22503
G0 F7800 X81.961 Y101.477
G1 F720 X90.125 Y109.641 E26.58504
G0 F7800 X90.442 Y109.534
G1 F720 X81.961 Y101.053 E26.95903
G0 F7800 X81.961 Y100.629
G1 F720 X90.759 Y109.427 E27.347
G0 F7800 X91.078 Y109.321
G1 F720 X81.961 Y100.204 E27.74903
G0 F7800 X81.961 Y99.78
G1 F720 X91.395 Y109.214 E28.16504
G0 F7800 X91.713 Y109.107
G1 F720 X81.961 Y99.356 E28.59506
G0 F7800 X81.961 Y98.932
G1 F720 X92.03 Y109.001 E29.03907
G0 F7800 X92.348 Y108.895
G1 F720 X81.961 Y98.507 E29.49713
G0 F7800 X81.961 Y98.083
G1 F720 X92.666 Y108.788 E29.96919
G0 F7800 X92.983 Y108.681
G1 F720 X81.961 Y97.659 E30.45523
G0 F7800 X81.961 Y97.234
G1 F720 X93.301 Y108.574 E30.95529
G0 F7800 X93.619 Y108.468
G1 F720 X81.961 Y96.81 E31.46937
G0 F7800 X81.961 Y96.386
G1 F720 X93.937 Y108.361 E31.99746
G0 F7800 X94.254 Y108.255
G1 F720 X81.961 Y95.962 E32.53954
G0 F7800 X81.961 Y95.537
G1 F720 X94.571 Y108.148 E33.09563
G0 F7800 X94.889 Y108.041
G1 F720 X81.961 Y95.113 E33.66572
G0 F7800 X81.961 Y94.689
G1 F720 X95.207 Y107.935 E34.24983
G0 F7800 X95.525 Y107.828
G1 F720 X81.961 Y94.265 E34.84794
G0 F7800 X81.961 Y93.84
G1 F720 X95.842 Y107.722 E35.46008
G0 F7800 X96.16 Y107.615
G1 F720 X81.961 Y93.416 E36.08621
G0 F7800 X79.383 Y90.838
G0 X79.383 Y90.838
G1 F720 X77.161 Y88.616 E36.18419
G0 F7800 X77.054 Y88.509
G1 F720 X76.962 Y88.417 E36.18825
G0 F7800 X76.962 Y87.993
G1 F720 X96.478 Y107.509 E37.04885
G0 F7800 X96.795 Y107.402
G1 F720 X76.962 Y87.568 E37.92345
G0 F7800 X76.962 Y87.144
G1 F720 X97.113 Y107.295 E38.81205
G0 F7800 X97.43 Y107.188
G1 F720 X76.962 Y86.72 E39.71463
G0 F7800 X76.962 Y86.296
G1 F720 X97.749 Y107.082 E40.63126
G0 F7800 X98.066 Y106.976
G1 F720 X77.104 Y86.013 E41.55564
G0 F7800 X77.732 Y86.217
G1 F720 X98.384 Y106.869 E42.46634
G0 F7800 X98.701 Y106.762
G1 F720 X78.36 Y86.421 E43.36332
G0 F7800 X78.988 Y86.624
G1 F720 X99.019 Y106.656 E44.24665
G0 F7800 X99.337 Y106.549
G1 F720 X79.617 Y86.829 E45.11624
G0 F7800 X80.256 Y87.044
G1 F720 X99.654 Y106.442 E45.97164
G0 F7800 X99.972 Y106.336
G1 F720 X80.895 Y87.259 E46.81288
G0 F7800 X81.533 Y87.473
G1 F720 X100.289 Y106.229 E47.63997
G0 F7800 X100.607 Y106.123
G1 F720 X82.172 Y87.687 E48.45292
G0 F7800 X82.811 Y87.902
G1 F720 X100.925 Y106.016 E49.25169
G0 F7800 X101.242 Y105.909
G1 F720 X83.449 Y88.116 E50.03631
G0 F7800 X84.088 Y88.331
G1 F720 X101.56 Y105.802 E50.80676
G0 F7800 X101.878 Y105.696
G1 F720 X84.726 Y88.545 E51.56309
G0 F7800 X85.365 Y88.759
G1 F720 X102.196 Y105.59 E52.30529
G0 F7800 X102.513 Y105.483
G1 F720 X86.004 Y88.974 E53.03329
G0 F7800 X86.643 Y89.188
G1 F720 X102.831 Y105.376 E53.74713
G0 F7800 X103.149 Y105.27
G1 F720 X87.281 Y89.403 E54.44684
G0 F7800 X87.92 Y89.617
G1 F720 X103.466 Y105.163 E55.13238
G0 F7800 X103.784 Y105.056
G1 F720 X88.559 Y89.832 E55.80373
G0 F7800 X89.197 Y90.046
G1 F720 X104.101 Y104.95 E56.46096
G0 F7800 X104.419 Y104.844
G1 F720 X89.836 Y90.26 E57.10405
G0 F7800 X90.475 Y90.475
G1 F720 X104.737 Y104.737 E57.73296
G0 F7800 X105.054 Y104.63
G1 F720 X91.113 Y90.689 E58.34772
G0 F7800 X91.752 Y90.904
G1 F720 X105.372 Y104.523 E58.9483
G0 F7800 X105.689 Y104.417
G1 F720 X92.391 Y91.118 E59.53472
G0 F7800 X93.029 Y91.332
G1 F720 X106.008 Y104.31 E60.10704
G0 F7800 X106.325 Y104.204
G1 F720 X93.668 Y91.546 E60.6652
G0 F7800 X94.307 Y91.761
G1 F720 X106.643 Y104.097 E61.20918
G0 F7800 X106.96 Y103.99
G1 F720 X94.946 Y91.976 E61.73896
G0 F7800 X95.584 Y92.19
G1 F720 X107.278 Y103.884 E62.25464
G0 F7800 X107.596 Y103.777
G1 F720 X96.223 Y92.404 E62.75615
G0 F7800 X96.861 Y92.618
G1 F720 X107.913 Y103.671 E63.24354
G0 F7800 X108.231 Y103.564
G1 F720 X97.5 Y92.833 E63.71674
G0 F7800 X98.139 Y93.048
G1 F720 X108.549 Y103.458 E64.17579
G0 F7800 X108.866 Y103.351
G1 F720 X98.777 Y93.262 E64.62069
G0 F7800 X99.416 Y93.476
G1 F720 X109.184 Y103.244 E65.05143
G0 F7800 X109.501 Y103.137
G1 F720 X100.055 Y93.691 E65.46797
G0 F7800 X100.694 Y93.905
G1 F720 X109.797 Y103.009 E65.86941
G0 F7800 X110.076 Y102.863
G1 F720 X101.332 Y94.12 E66.25497
G0 F7800 X101.971 Y94.334
G1 F720 X110.317 Y102.68 E66.62301
G0 F7800 X110.477 Y102.416
G1 F720 X102.61 Y94.549 E66.96992
G0 F7800 X103.248 Y94.763
G1 F720 X110.555 Y102.07 E67.29214
G0 F7800 X110.559 Y101.65
G1 F720 X103.887 Y94.977 E67.58637
G0 F7800 X104.525 Y95.192
G1 F720 X110.559 Y101.225 E67.85243
G0 F7800 X110.559 Y100.801
G1 F720 X105.164 Y95.406 E68.09034
G0 F7800 X105.803 Y95.621
G1 F720 X110.559 Y100.377 E68.30006
G0 F7800 X110.559 Y99.953
G1 F720 X106.442 Y95.835 E68.48163
G0 F7800 X107.08 Y96.049
G1 F720 X110.559 Y99.528 E68.63505
G0 F7800 X110.559 Y99.104
G1 F720 X107.719 Y96.264 E68.76028
G0 F7800 X108.358 Y96.479
G1 F720 X110.559 Y98.68 E68.85734
G0 F7800 X110.559 Y98.256
G1 F720 X108.996 Y96.693 E68.92627
G0 F7800 X109.635 Y96.907
G1 F720 X110.519 Y97.791 E68.96525
G0 F7800 X78.353 Y90.232
G0 X78.353 Y90.232
G1 F720 X77.162 Y89.041 E69.01777
G0 F7800 X77.162 Y89.465
G1 F720 X77.349 Y89.653 E69.02604
G1 F1800 E68.02604
G0 F7800 X77.342 Y90.244
G0 X79.037 Y91.193
G0 X80.24 Y92.054
G0 X81.276 Y93.156
G0 X81.462 Y93.437
G0 X81.463 Y106.558
G0 X81.288 Y106.831
G0 X80.263 Y107.927
G0 X79.05 Y108.798
G0 X77.135 Y109.872
G0 X77.119 Y111.484
G0 X77.119 Y111.484
G1 F1800 E69.02604
G1 F720 X79.003 Y113.369 E69.10914
G0 F7800 X78.683 Y113.472
G1 F720 X76.961 Y111.751 E69.18505
G0 F7800 X76.961 Y112.175
G1 F720 X78.363 Y113.577 E69.24687
G0 F7800 X78.043 Y113.681
G1 F720 X76.961 Y112.599 E69.29459
G0 F7800 X76.961 Y113.023
G1 F720 X77.723 Y113.786 E69.32821
G0 F7800 X77.403 Y113.89
G1 F720 X76.961 Y113.448 E69.3477
G0 F7800 X76.966 Y113.877
G1 F720 X77.083 Y113.994 E69.35286
; Layer Change GCode
; LAYER:1
G4 P0
M106 S89
G0 F7800 X76.571 Y110.649 Z0.45
G0 X76.571 Y110.649
G0 X76.321 Y110.648
G0 X76.321 Y110.648
G0 X76.921 Y110.32
; TYPE:WALL-INNER
G1 F1800 X79.077 Y109.07 E69.41503
G1 X80.311 Y108.179 E69.453
G1 X81.364 Y107.044 E69.49162
G1 X81.722 Y106.52 E69.50745
G1 X81.722 Y93.479 E69.83276
G1 X81.322 Y92.901 E69.85029
G1 X80.245 Y91.765 E69.88934
G1 X79.037 Y90.904 E69.92634
G1 X76.922 Y89.683 E69.98726
G1 X76.922 Y88.75 E70.01054
G1 X76.723 Y88.75 E70.0155
G1 X76.722 Y86.113 E70.08128
G1 X76.804 Y85.846 E70.08825
G1 X76.859 Y85.796 E70.0901
G1 X77.039 Y85.742 E70.09479
G1 X77.139 Y85.734 E70.09729
G1 X77.624 Y85.879 E70.10992
G1 X80.162 Y86.706 E70.17651
G1 X109.908 Y96.694 E70.95924
G1 X110.498 Y97.007 E70.9759
G1 X110.712 Y97.211 E70.98327
G1 X110.857 Y97.438 E70.98999
G1 X110.963 Y97.92 E71.0023
G1 X110.959 Y102.091 E71.10635
G1 X110.855 Y102.563 E71.11841
G1 X110.705 Y102.797 E71.12534
G1 X110.475 Y103.012 E71.13319
G1 X109.885 Y103.317 E71.14976
G1 X80.071 Y113.324 E71.93425
G1 X77.142 Y114.266 E72.011
G1 X77.039 Y114.258 E72.01358
G1 X76.859 Y114.204 E72.01826
G1 X76.804 Y114.154 E72.02012
G1 X76.722 Y113.887 E72.02709
G1 X76.722 Y111.242 E72.09307
G1 X76.92 Y111.239 E72.09801
G1 X76.921 Y110.32 E72.12093
G0 F7800 X76.622 Y110.147
G1 F1800 X78.913 Y108.818 E72.187
G1 X80.112 Y107.953 E72.22388
G1 X81.129 Y106.856 E72.26119
G1 X81.422 Y106.427 E72.27415
G1 X81.422 Y93.572 E72.59482
G1 X81.088 Y93.09 E72.60945
G1 X80.048 Y91.993 E72.64716
G1 X78.875 Y91.157 E72.68309
G1 X76.622 Y89.856 E72.74799
G1 X76.622 Y89.05 E72.76809
G1 X76.423 Y89.05 E72.77306
G1 X76.422 Y86.067 E72.84747
G1 X76.541 Y85.681 E72.85755
G1 X76.706 Y85.529 E72.86314
G1 X76.983 Y85.445 E72.87036
G1 X77.174 Y85.431 E72.87514
G1 X77.7 Y85.588 E72.88883
G1 X80.258 Y86.422 E72.95595
G1 X110.026 Y96.418 E73.73926
G1 X110.676 Y96.762 E73.75761
G1 X110.946 Y97.019 E73.7669
G1 X111.138 Y97.322 E73.77585
G1 X111.263 Y97.888 E73.79031
G1 X111.259 Y102.123 E73.89595
G1 X111.137 Y102.679 E73.91015
G1 X110.936 Y102.992 E73.91943
G1 X110.651 Y103.258 E73.92916
G1 X109.998 Y103.595 E73.94749
G1 X80.167 Y113.608 E74.73243
G1 X77.174 Y114.569 E74.81084
G1 X76.983 Y114.555 E74.81562
G1 X76.706 Y114.471 E74.82284
G1 X76.541 Y114.319 E74.82844
G1 X76.422 Y113.933 E74.83851
G1 X76.422 Y110.946 E74.91302
G1 X76.62 Y110.943 E74.91796
G1 X76.622 Y110.147 E74.93782
G0 F7800 X76.321 Y110.648
; TYPE:WALL-OUTER
G1 F1260 X76.322 Y109.975 E74.95461
G1 X78.75 Y108.566 E75.02463
G1 X79.912 Y107.727 E75.06039
G1 X80.894 Y106.669 E75.09639
G1 X81.122 Y106.334 E75.1065
G1 X81.122 Y93.666 E75.42251
G1 X80.855 Y93.28 E75.43421
G1 X79.85 Y92.22 E75.47065
G1 X78.712 Y91.41 E75.5055
G1 X76.322 Y90.029 E75.57435
G1 X76.322 Y89.35 E75.59129
G1 X76.123 Y89.35 E75.59625
G1 X76.122 Y86.02 E75.67932
G1 X76.278 Y85.515 E75.69251
G1 X76.552 Y85.262 E75.70181
G1 X76.927 Y85.149 E75.71158
G1 X77.207 Y85.128 E75.71858
G1 X77.793 Y85.303 E75.73384
G1 X80.355 Y86.138 E75.80106
G1 X110.143 Y96.14 E76.58489
G1 X110.852 Y96.516 E76.60491
G1 X111.179 Y96.827 E76.61617
G1 X111.42 Y97.207 E76.62739
G1 X111.563 Y97.855 E76.64394
G1 X111.559 Y102.157 E76.75126
G1 X111.418 Y102.796 E76.76758
G1 X111.17 Y103.185 E76.77909
G1 X110.824 Y103.507 E76.79088
G1 X110.117 Y103.872 E76.81073
G1 X80.264 Y113.892 E77.59624
G1 X77.731 Y114.715 E77.66268
G1 X77.207 Y114.872 E77.67632
G1 X76.927 Y114.851 E77.68333
G1 X76.552 Y114.738 E77.6931
G1 X76.278 Y114.485 E77.7024
G1 X76.122 Y113.98 E77.71559
G1 X76.122 Y110.651 E77.79863
G1 X76.321 Y110.648 E77.80359
G0 F7800 X77.16 Y110.788
; TYPE:FILL
G1 F3600 X77.947 Y110.001 E77.83136
G0 F7800 X78.957 Y109.415
G1 F3600 X77.16 Y111.213 E77.89477
G0 F7800 X76.962 Y111.835
G1 F3600 X80.358 Y108.439 E78.01457
G0 F7800 X80.873 Y107.924
G1 F3600 X96.389 Y92.408 E78.56194
G0 F7800 X96.707 Y92.514
G1 F3600 X76.962 Y112.259 E79.2585
G0 F7800 X76.962 Y112.683
G1 F3600 X97.024 Y92.621 E79.96624
G0 F7800 X97.342 Y92.727
G1 F3600 X76.962 Y113.108 E80.68522
G0 F7800 X76.962 Y113.532
G1 F3600 X97.659 Y92.834 E81.41538
G0 F7800 X97.977 Y92.941
G1 F3600 X76.986 Y113.931 E82.15587
G0 F7800 X76.999 Y114.09
G1 F3600 X77.03 Y114.092 E82.15621
G0 F7800 X77.426 Y113.917
G1 F3600 X98.294 Y93.048 E82.89241
G0 F7800 X98.613 Y93.154
G1 F3600 X78.049 Y113.717 E83.61784
G0 F7800 X78.672 Y113.518
G1 F3600 X98.93 Y93.261 E84.33248
G0 F7800 X99.248 Y93.367
G1 F3600 X79.296 Y113.319 E85.03634
G0 F7800 X79.919 Y113.12
G1 F3600 X99.565 Y93.474 E85.7294
G0 F7800 X99.883 Y93.581
G1 F3600 X80.556 Y112.907 E86.4112
G0 F7800 X81.194 Y112.693
G1 F3600 X100.2 Y93.688 E87.08167
G0 F7800 X100.518 Y93.794
G1 F3600 X81.833 Y112.479 E87.74083
G0 F7800 X82.471 Y112.265
G1 F3600 X100.836 Y93.9 E88.38871
G0 F7800 X101.153 Y94.007
G1 F3600 X83.11 Y112.05 E89.02522
G0 F7800 X83.749 Y111.836
G1 F3600 X101.471 Y94.114 E89.65041
G0 F7800 X101.788 Y94.221
G1 F3600 X84.388 Y111.621 E90.26425
G0 F7800 X85.026 Y111.407
G1 F3600 X102.106 Y94.328 E90.86677
G0 F7800 X102.424 Y94.434
G1 F3600 X85.665 Y111.193 E91.45799
G0 F7800 X86.303 Y110.978
G1 F3600 X102.741 Y94.54 E92.03788
G0 F7800 X103.059 Y94.647
G1 F3600 X86.942 Y110.764 E92.60646
G0 F7800 X87.58 Y110.55
G1 F3600 X103.376 Y94.754 E93.1637
G0 F7800 X103.694 Y94.861
G1 F3600 X88.219 Y110.336 E93.70962
G0 F7800 X88.857 Y110.121
G1 F3600 X104.011 Y94.967 E94.24422
G0 F7800 X104.329 Y95.074
G1 F3600 X89.497 Y109.907 E94.76748
G0 F7800 X90.135 Y109.692
G1 F3600 X104.647 Y95.18 E95.27943
G0 F7800 X104.965 Y95.287
G1 F3600 X90.774 Y109.478 E95.78005
G0 F7800 X91.412 Y109.264
G1 F3600 X105.282 Y95.394 E96.26936
G0 F7800 X105.6 Y95.501
G1 F3600 X92.051 Y109.05 E96.74733
G0 F7800 X92.689 Y108.835
G1 F3600 X105.917 Y95.607 E97.21399
G0 F7800 X106.235 Y95.714
G1 F3600 X93.328 Y108.621 E97.66932
G0 F7800 X93.966 Y108.407
G1 F3600 X106.553 Y95.82 E98.11336
G0 F7800 X106.87 Y95.927
G1 F3600 X94.605 Y108.192 E98.54604
G0 F7800 X95.244 Y107.978
G1 F3600 X107.188 Y96.034 E98.96739
G0 F7800 X107.505 Y96.141
G1 F3600 X95.882 Y107.763 E99.37741
G0 F7800 X96.521 Y107.549
G1 F3600 X107.823 Y96.247 E99.77612
G0 F7800 X108.14 Y96.354
G1 F3600 X97.16 Y107.335 E100.16349
G0 F7800 X97.798 Y107.121
G1 F3600 X108.458 Y96.46 E100.53956
G0 F7800 X108.776 Y96.567
G1 F3600 X98.437 Y106.906 E100.9043
G0 F7800 X99.075 Y106.692
G1 F3600 X109.093 Y96.674 E101.25771
G0 F7800 X109.411 Y96.78
G1 F3600 X99.714 Y106.477 E101.5998
G0 F7800 X100.353 Y106.263
G1 F3600 X109.728 Y96.887 E101.93055
G0 F7800 X110.016 Y97.024
G1 F3600 X100.991 Y106.049 E102.24893
G0 F7800 X101.63 Y105.834
G1 F3600 X110.293 Y97.171 E102.55454
G0 F7800 X110.525 Y97.364
G1 F3600 X102.268 Y105.62 E102.84581
G0 F7800 X102.907 Y105.406
G1 F3600 X110.658 Y97.654 E103.11926
G0 F7800 X110.722 Y98.015
G1 F3600 X103.545 Y105.192 E103.37245
G0 F7800 X104.185 Y104.977
G1 F3600 X110.721 Y98.44 E103.60304
G0 F7800 X110.721 Y98.864
G1 F3600 X104.823 Y104.762 E103.81111
G0 F7800 X105.462 Y104.548
G1 F3600 X110.72 Y99.289 E103.99662
G0 F7800 X110.72 Y99.714
G1 F3600 X106.1 Y104.334 E104.1596
G0 F7800 X106.739 Y104.12
G1 F3600 X110.72 Y100.139 E104.30004
G0 F7800 X110.72 Y100.563
G1 F3600 X107.377 Y103.905 E104.41796
G0 F7800 X108.016 Y103.691
G1 F3600 X110.719 Y100.988 E104.51331
G0 F7800 X110.719 Y101.412
G1 F3600 X108.654 Y103.477 E104.58616
G0 F7800 X109.293 Y103.262
G1 F3600 X110.718 Y101.837 E104.63643
G0 F7800 X110.662 Y102.317
G1 F3600 X109.986 Y102.994 E104.6603
G0 F7800 X96.071 Y92.301
G0 X96.071 Y92.301
G1 F3600 X81.962 Y106.411 E105.15805
G0 F7800 X81.962 Y105.986
G1 F3600 X95.754 Y92.194 E105.6446
G0 F7800 X95.436 Y92.087
G1 F3600 X81.962 Y105.562 E106.11995
G0 F7800 X81.962 Y105.138
G1 F3600 X95.119 Y91.981 E106.5841
G0 F7800 X94.801 Y91.874
G1 F3600 X81.962 Y104.714 E107.03705
G0 F7800 X81.962 Y104.289
G1 F3600 X94.483 Y91.768 E107.47876
G0 F7800 X94.166 Y91.661
G1 F3600 X81.962 Y103.865 E107.90929
G0 F7800 X81.962 Y103.441
G1 F3600 X93.848 Y91.554 E108.32862
G0 F7800 X93.531 Y91.447
G1 F3600 X81.962 Y103.016 E108.73674
G0 F7800 X81.962 Y102.592
G1 F3600 X93.213 Y91.341 E109.13365
G0 F7800 X92.896 Y91.234
G1 F3600 X81.962 Y102.168 E109.51938
G0 F7800 X81.962 Y101.744
G1 F3600 X92.578 Y91.127 E109.8939
G0 F7800 X92.26 Y91.021
G1 F3600 X81.962 Y101.319 E110.25719
G0 F7800 X81.962 Y100.895
G1 F3600 X91.942 Y90.914 E110.60928
G0 F7800 X91.625 Y90.808
G1 F3600 X81.962 Y100.471 E110.95017
G0 F7800 X81.962 Y100.047
G1 F3600 X91.307 Y90.701 E111.27986
G0 F7800 X90.99 Y90.594
G1 F3600 X81.961 Y99.623 E111.59838
G0 F7800 X81.961 Y99.199
G1 F3600 X90.673 Y90.487 E111.90572
G0 F7800 X90.354 Y90.381
G1 F3600 X81.961 Y98.775 E112.20182
G0 F7800 X81.961 Y98.35
G1 F3600 X90.037 Y90.274 E112.48673
G0 F7800 X89.719 Y90.168
G1 F3600 X81.961 Y97.926 E112.76041
G0 F7800 X81.961 Y97.502
G1 F3600 X89.402 Y90.061 E113.02291
G0 F7800 X89.084 Y89.954
G1 F3600 X81.961 Y97.077 E113.2742
G0 F7800 X81.961 Y96.653
G1 F3600 X88.767 Y89.847 E113.5143
G0 F7800 X88.449 Y89.741
G1 F3600 X81.961 Y96.229 E113.74318
G0 F7800 X81.961 Y95.805
G1 F3600 X88.131 Y89.634 E113.96086
G0 F7800 X87.814 Y89.528
G1 F3600 X81.961 Y95.38 E114.16732
G0 F7800 X81.961 Y94.956
G1 F3600 X87.496 Y89.421 E114.36258
G0 F7800 X87.179 Y89.314
G1 F3600 X81.961 Y94.532 E114.54666
G0 F7800 X81.961 Y94.108
G1 F3600 X86.861 Y89.207 E114.71954
G0 F7800 X86.543 Y89.101
G1 F3600 X81.961 Y93.683 E114.88118
G0 F7800 X81.903 Y93.317
G1 F3600 X86.226 Y88.995 E115.03367
G0 F7800 X85.908 Y88.888
G1 F3600 X81.73 Y93.066 E115.18106
G0 F7800 X81.556 Y92.815
G1 F3600 X85.591 Y88.781 E115.32339
G0 F7800 X85.273 Y88.674
G1 F3600 X81.358 Y92.589 E115.4615
G0 F7800 X81.152 Y92.371
G1 F3600 X84.956 Y88.567 E115.5957
G0 F7800 X84.637 Y88.461
G1 F3600 X80.945 Y92.154 E115.72596
G0 F7800 X80.738 Y91.936
G1 F3600 X84.32 Y88.355 E115.85231
G0 F7800 X84.002 Y88.248
G1 F3600 X80.532 Y91.718 E115.97472
G0 F7800 X80.31 Y91.516
G1 F3600 X83.685 Y88.141 E116.09378
G0 F7800 X83.367 Y88.034
G1 F3600 X80.062 Y91.339 E116.21038
G0 F7800 X79.814 Y91.163
G1 F3600 X83.05 Y87.928 E116.32452
G0 F7800 X82.732 Y87.821
G1 F3600 X79.567 Y90.986 E116.43617
G0 F7800 X79.319 Y90.81
G1 F3600 X82.414 Y87.715 E116.54536
G0 F7800 X82.097 Y87.608
G1 F3600 X79.063 Y90.641 E116.65237
G0 F7800 X78.795 Y90.486
G1 F3600 X81.779 Y87.501 E116.75766
G0 F7800 X81.462 Y87.394
G1 F3600 X78.525 Y90.331 E116.86127
G0 F7800 X78.256 Y90.175
G1 F3600 X81.144 Y87.288 E116.96313
G0 F7800 X80.827 Y87.181
G1 F3600 X77.987 Y90.021 E117.06332
G0 F7800 X77.718 Y89.865
G1 F3600 X80.509 Y87.075 E117.16176
G0 F7800 X80.191 Y86.968
G1 F3600 X77.449 Y89.71 E117.25849
G0 F7800 X77.18 Y89.555
G1 F3600 X79.871 Y86.863 E117.35344
G0 F7800 X79.55 Y86.76
G1 F3600 X77.161 Y89.149 E117.43772
G0 F7800 X77.161 Y88.725
G1 F3600 X79.229 Y86.657 E117.51068
G0 F7800 X78.908 Y86.554
G1 F3600 X76.963 Y88.499 E117.57929
G0 F7800 X76.963 Y88.075
G1 F3600 X78.588 Y86.45 E117.63662
G0 F7800 X78.267 Y86.346
G1 F3600 X76.962 Y87.651 E117.68266
G0 F7800 X76.962 Y87.227
G1 F3600 X77.946 Y86.243 E117.71737
G0 F7800 X77.625 Y86.14
G1 F3600 X76.962 Y86.803 E117.74076
G0 F7800 X76.962 Y86.379
G1 F3600 X77.304 Y86.037 E117.75282
G0 F7800 X77.03 Y85.908
G1 F3600 X76.999 Y85.91 E117.75316
; Layer Change GCode
; LAYER:2
G1 F1800 E116.75316
G0 F7800 X76.927 Y90.004 Z0.65
G0 X78.782 Y91.046
G0 X79.997 Y91.917
G0 X80.993 Y92.976
G0 X81.462 Y93.667
G0 X81.463 Y106.33
G0 X81.057 Y106.943
G0 X80.038 Y108.044
G0 X78.843 Y108.915
G0 X76.576 Y110.199
G0 X76.569 Y110.647
G0 X76.569 Y110.647
G0 X76.32 Y110.646
G0 X76.32 Y110.646
G0 X76.921 Y110.322
; TYPE:WALL-INNER
G1 F1800 E117.75316
G1 X78.98 Y109.125 E117.81257
G1 X80.207 Y108.233 E117.85041
G1 X81.254 Y107.1 E117.8889
G1 X81.722 Y106.411 E117.90967
G1 X81.722 Y93.585 E118.22962
G1 X81.188 Y92.817 E118.25295
G1 X80.164 Y91.727 E118.29026
G1 X78.918 Y90.835 E118.32848
G1 X76.922 Y89.683 E118.38597
G1 X76.922 Y88.75 E118.40925
G1 X76.724 Y88.75 E118.41419
G1 X76.722 Y86.121 E118.47977
G1 X76.803 Y85.858 E118.48663
G1 X76.859 Y85.806 E118.48854
G1 X77.038 Y85.752 E118.4932
G1 X77.254 Y85.736 E118.4986
G1 X78.071 Y85.981 E118.51988
G1 X80.645 Y86.82 E118.58741
G1 X110.068 Y96.701 E119.36166
G1 X110.632 Y96.995 E119.37752
G1 X110.859 Y97.213 E119.38537
G1 X111 Y97.436 E119.39195
G1 X111.109 Y97.923 E119.4044
G1 X111.102 Y102.103 E119.50867
G1 X111.001 Y102.56 E119.52035
G1 X110.847 Y102.801 E119.52748
G1 X110.617 Y103.012 E119.53527
G1 X110.02 Y103.32 E119.55203
G1 X80.502 Y113.227 E120.32872
G1 X77.987 Y114.044 E120.39469
G1 X77.252 Y114.264 E120.41382
G1 X77.038 Y114.248 E120.41918
G1 X76.859 Y114.194 E120.42384
G1 X76.803 Y114.142 E120.42575
G1 X76.722 Y113.878 E120.43264
G1 X76.722 Y111.236 E120.49854
G1 X76.918 Y111.231 E120.50343
G1 X76.921 Y110.322 E120.52611
G0 F7800 X76.621 Y110.149
G1 F1800 X78.816 Y108.873 E120.58944
G1 X80.006 Y108.008 E120.62614
G1 X81.018 Y106.913 E120.66333
G1 X81.422 Y106.318 E120.68127
G1 X81.422 Y93.679 E120.99655
G1 X80.955 Y93.006 E121.01699
G1 X79.966 Y91.954 E121.05301
G1 X78.755 Y91.087 E121.09016
G1 X76.622 Y89.856 E121.15159
G1 X76.622 Y89.05 E121.1717
G1 X76.424 Y89.05 E121.17664
G1 X76.422 Y86.076 E121.25082
G1 X76.54 Y85.692 E121.26084
G1 X76.706 Y85.539 E121.26648
G1 X76.983 Y85.455 E121.2737
G1 X77.287 Y85.433 E121.2813
G1 X78.164 Y85.696 E121.30414
G1 X80.741 Y86.536 E121.37175
G1 X110.184 Y96.424 E122.14652
G1 X110.807 Y96.748 E122.16404
G1 X111.093 Y97.023 E122.17394
G1 X111.282 Y97.323 E122.18278
G1 X111.409 Y97.889 E122.19725
G1 X111.402 Y102.136 E122.30319
G1 X111.282 Y102.678 E122.31704
G1 X111.079 Y102.995 E122.32643
G1 X110.79 Y103.261 E122.33623
G1 X110.139 Y103.596 E122.35449
G1 X80.598 Y113.511 E123.13179
G1 X78.063 Y114.335 E123.19829
G1 X77.287 Y114.567 E123.21849
G1 X76.983 Y114.545 E123.22609
G1 X76.706 Y114.461 E123.23331
G1 X76.54 Y114.308 E123.23895
G1 X76.422 Y113.924 E123.24897
G1 X76.422 Y110.944 E123.3233
G1 X76.619 Y110.939 E123.32822
G1 X76.621 Y110.149 E123.34793
G0 F7800 X76.32 Y110.646
; TYPE:WALL-OUTER
G1 F1260 X76.322 Y109.977 E123.36461
G1 X78.652 Y108.622 E123.43185
G1 X79.806 Y107.783 E123.46744
G1 X80.783 Y106.726 E123.50335
G1 X81.122 Y106.226 E123.51841
G1 X81.122 Y93.773 E123.82906
G1 X80.721 Y93.195 E123.8466
G1 X79.767 Y92.181 E123.88133
G1 X78.592 Y91.34 E123.91738
G1 X76.322 Y90.029 E123.98277
G1 X76.322 Y89.35 E123.99971
G1 X76.124 Y89.35 E124.00465
G1 X76.122 Y86.03 E124.08746
G1 X76.277 Y85.526 E124.10062
G1 X76.552 Y85.272 E124.10996
G1 X76.927 Y85.159 E124.11973
G1 X77.32 Y85.13 E124.12956
G1 X78.257 Y85.411 E124.15396
G1 X80.838 Y86.252 E124.22167
G1 X110.301 Y96.146 E124.99696
G1 X110.985 Y96.503 E125.01621
G1 X111.326 Y96.83 E125.028
G1 X111.564 Y97.206 E125.0391
G1 X111.709 Y97.856 E125.05571
G1 X111.702 Y102.17 E125.16332
G1 X111.564 Y102.794 E125.17926
G1 X111.31 Y103.19 E125.191
G1 X110.963 Y103.509 E125.20276
G1 X110.254 Y103.874 E125.22265
G1 X80.695 Y113.795 E126.00043
G1 X78.159 Y114.619 E126.06694
G1 X77.32 Y114.87 E126.08879
G1 X76.927 Y114.841 E126.09862
G1 X76.552 Y114.728 E126.10839
G1 X76.277 Y114.474 E126.11773
G1 X76.122 Y113.97 E126.13088
G1 X76.122 Y110.651 E126.21367
G1 X76.32 Y110.646 E126.21861
G0 F7800 X77.159 Y110.676
; TYPE:FILL
G1 F3600 X79.713 Y113.23 E126.30871
G0 F7800 X79.393 Y113.334
G1 F3600 X77.158 Y111.099 E126.38756
G0 F7800 X77.1 Y111.465
G1 F3600 X79.072 Y113.438 E126.45714
G0 F7800 X78.752 Y113.542
G1 F3600 X76.962 Y111.751 E126.52031
G0 F7800 X76.962 Y112.176
G1 F3600 X78.432 Y113.646 E126.57217
G0 F7800 X78.111 Y113.75
G1 F3600 X76.962 Y112.6 E126.61272
G0 F7800 X76.962 Y113.024
G1 F3600 X77.789 Y113.851 E126.64189
G0 F7800 X77.463 Y113.95
G1 F3600 X76.962 Y113.448 E126.65958
G0 F7800 X76.976 Y113.887
G1 F3600 X77.094 Y114.005 E126.66375
G0 F7800 X80.033 Y113.126
G1 F3600 X77.291 Y110.383 E126.7605
G0 F7800 X77.559 Y110.227
G1 F3600 X80.354 Y113.022 E126.8591
G0 F7800 X80.672 Y112.916
G1 F3600 X77.827 Y110.071 E126.95946
G0 F7800 X78.095 Y109.915
G1 F3600 X80.989 Y112.809 E127.06156
G0 F7800 X81.307 Y112.702
G1 F3600 X78.364 Y109.759 E127.16538
G0 F7800 X78.633 Y109.604
G1 F3600 X81.625 Y112.596 E127.27093
G0 F7800 X81.943 Y112.49
G1 F3600 X78.901 Y109.448 E127.37824
G0 F7800 X79.164 Y109.287
G1 F3600 X82.26 Y112.383 E127.48746
G0 F7800 X82.578 Y112.276
G1 F3600 X79.41 Y109.108 E127.59922
G0 F7800 X79.655 Y108.929
G1 F3600 X82.895 Y112.169 E127.71352
G0 F7800 X83.213 Y112.063
G1 F3600 X79.9 Y108.75 E127.8304
G0 F7800 X80.147 Y108.572
G1 F3600 X83.531 Y111.956 E127.94978
G0 F7800 X83.848 Y111.85
G1 F3600 X80.388 Y108.389 E128.07186
G0 F7800 X80.591 Y108.168
G1 F3600 X84.166 Y111.743 E128.19797
G0 F7800 X84.484 Y111.637
G1 F3600 X80.795 Y107.948 E128.32811
G0 F7800 X80.999 Y107.727
G1 F3600 X84.801 Y111.53 E128.46226
G0 F7800 X85.119 Y111.423
G1 F3600 X81.203 Y107.507 E128.6004
G0 F7800 X81.407 Y107.287
G1 F3600 X85.436 Y111.316 E128.74254
G0 F7800 X85.754 Y111.21
G1 F3600 X81.583 Y107.039 E128.88968
G0 F7800 X81.755 Y106.787
G1 F3600 X86.072 Y111.104 E129.04197
G0 F7800 X86.39 Y110.997
G1 F3600 X81.927 Y106.534 E129.19942
G0 F7800 X81.962 Y106.145
G1 F3600 X86.707 Y110.89 E129.36681
G0 F7800 X87.025 Y110.783
G1 F3600 X81.962 Y105.72 E129.54542
G0 F7800 X81.962 Y105.296
G1 F3600 X87.343 Y110.677 E129.73525
G0 F7800 X87.66 Y110.57
G1 F3600 X81.962 Y104.872 E129.93626
G0 F7800 X81.962 Y104.448
G1 F3600 X87.978 Y110.464 E130.1485
G0 F7800 X88.295 Y110.357
G1 F3600 X81.962 Y104.023 E130.37193
G0 F7800 X81.962 Y103.599
G1 F3600 X88.613 Y110.251 E130.60658
G0 F7800 X88.931 Y110.144
G1 F3600 X81.962 Y103.175 E130.85243
G0 F7800 X81.962 Y102.751
G1 F3600 X89.248 Y110.037 E131.10946
G0 F7800 X89.566 Y109.931
G1 F3600 X81.962 Y102.326 E131.37773
G0 F7800 X81.962 Y101.902
G1 F3600 X89.883 Y109.824 E131.65718
G0 F7800 X90.202 Y109.718
G1 F3600 X81.962 Y101.478 E131.94787
G0 F7800 X81.962 Y101.054
G1 F3600 X90.519 Y109.611 E132.24974
G0 F7800 X90.837 Y109.504
G1 F3600 X81.962 Y100.629 E132.56283
G0 F7800 X81.962 Y100.205
G1 F3600 X91.154 Y109.397 E132.8871
G0 F7800 X91.472 Y109.291
G1 F3600 X81.962 Y99.781 E133.22259
G0 F7800 X81.962 Y99.356
G1 F3600 X91.79 Y109.185 E133.56932
G0 F7800 X92.107 Y109.078
G1 F3600 X81.962 Y98.932 E133.92723
G0 F7800 X81.962 Y98.508
G1 F3600 X92.425 Y108.971 E134.29634
G0 F7800 X92.742 Y108.864
G1 F3600 X81.962 Y98.084 E134.67664
G0 F7800 X81.962 Y97.659
G1 F3600 X93.06 Y108.758 E135.06816
G0 F7800 X93.378 Y108.651
G1 F3600 X81.962 Y97.235 E135.47089
G0 F7800 X81.962 Y96.811
G1 F3600 X93.695 Y108.545 E135.88483
G0 F7800 X94.013 Y108.438
G1 F3600 X81.962 Y96.387 E136.30996
G0 F7800 X81.962 Y95.962
G1 F3600 X94.331 Y108.332 E136.74632
G0 F7800 X94.649 Y108.225
G1 F3600 X81.962 Y95.538 E137.19389
G0 F7800 X81.962 Y95.114
G1 F3600 X94.966 Y108.118 E137.65264
G0 F7800 X95.284 Y108.011
G1 F3600 X81.962 Y94.69 E138.1226
G0 F7800 X81.962 Y94.265
G1 F3600 X95.601 Y107.905 E138.60377
G0 F7800 X95.919 Y107.799
G1 F3600 X81.962 Y93.841 E139.09615
G0 F7800 X81.755 Y93.21
G1 F3600 X96.237 Y107.692 E139.60705
G0 F7800 X96.554 Y107.585
G1 F3600 X76.963 Y87.994 E140.29817
G0 F7800 X76.963 Y88.418
G1 F3600 X77.054 Y88.509 E140.30138
G0 F7800 X77.161 Y88.616
G1 F3600 X79.503 Y90.958 E140.384
G0 F7800 X78.35 Y90.23
G1 F3600 X77.161 Y89.041 E140.42595
G0 F7800 X77.161 Y89.465
G1 F3600 X77.348 Y89.652 E140.43254
G0 F7800 X76.962 Y87.569
G0 X76.962 Y87.569
G1 F3600 X96.872 Y107.478 E141.13491
G0 F7800 X97.19 Y107.372
G1 F3600 X76.962 Y87.145 E141.84849
G0 F7800 X76.962 Y86.72
G1 F3600 X97.507 Y107.265 E142.57327
G0 F7800 X97.825 Y107.159
G1 F3600 X76.962 Y86.296 E143.30926
G0 F7800 X77.085 Y85.994
G1 F3600 X98.142 Y107.052 E144.05212
G0 F7800 X98.46 Y106.945
G1 F3600 X77.605 Y86.09 E144.78784
G0 F7800 X78.22 Y86.281
G1 F3600 X98.778 Y106.839 E145.51308
G0 F7800 X99.096 Y106.732
G1 F3600 X78.849 Y86.486 E146.22733
G0 F7800 X79.478 Y86.691
G1 F3600 X99.413 Y106.626 E146.93059
G0 F7800 X99.731 Y106.519
G1 F3600 X80.108 Y86.896 E147.62285
G0 F7800 X80.74 Y87.104
G1 F3600 X100.049 Y106.413 E148.30402
G0 F7800 X100.366 Y106.306
G1 F3600 X81.378 Y87.318 E148.97388
G0 F7800 X82.018 Y87.533
G1 F3600 X100.684 Y106.199 E149.63237
G0 F7800 X101.001 Y106.092
G1 F3600 X82.656 Y87.747 E150.27954
G0 F7800 X83.295 Y87.962
G1 F3600 X101.319 Y105.986 E150.91538
G0 F7800 X101.637 Y105.88
G1 F3600 X83.934 Y88.176 E151.53992
G0 F7800 X84.572 Y88.391
G1 F3600 X101.954 Y105.773 E152.15312
G0 F7800 X102.272 Y105.666
G1 F3600 X85.212 Y88.606 E152.75496
G0 F7800 X85.85 Y88.82
G1 F3600 X102.589 Y105.559 E153.34547
G0 F7800 X102.908 Y105.453
G1 F3600 X86.489 Y89.035 E153.92468
G0 F7800 X87.128 Y89.249
G1 F3600 X103.225 Y105.346 E154.49254
G0 F7800 X103.543 Y105.24
G1 F3600 X87.766 Y89.463 E155.04912
G0 F7800 X88.406 Y89.678
G1 F3600 X103.86 Y105.133 E155.59432
G0 F7800 X104.178 Y105.027
G1 F3600 X89.044 Y89.893 E156.12821
G0 F7800 X89.683 Y90.108
G1 F3600 X104.496 Y104.92 E156.65076
G0 F7800 X104.813 Y104.813
G1 F3600 X90.322 Y90.322 E157.16197
G0 F7800 X90.96 Y90.536
G1 F3600 X105.131 Y104.706 E157.66187
G0 F7800 X105.448 Y104.6
G1 F3600 X91.6 Y90.751 E158.15042
G0 F7800 X92.238 Y90.965
G1 F3600 X105.766 Y104.494 E158.62767
G0 F7800 X106.084 Y104.387
G1 F3600 X92.877 Y91.18 E159.09358
G0 F7800 X93.516 Y91.394
G1 F3600 X106.401 Y104.28 E159.54815
G0 F7800 X106.719 Y104.173
G1 F3600 X94.155 Y91.609 E159.99138
G0 F7800 X94.794 Y91.824
G1 F3600 X107.037 Y104.067 E160.42329
G0 F7800 X107.355 Y103.96
G1 F3600 X95.432 Y92.038 E160.84389
G0 F7800 X96.071 Y92.253
G1 F3600 X107.672 Y103.854 E161.25314
G0 F7800 X107.99 Y103.747
G1 F3600 X96.71 Y92.467 E161.65108
G0 F7800 X97.349 Y92.682
G1 F3600 X108.307 Y103.64 E162.03765
G0 F7800 X108.625 Y103.534
G1 F3600 X97.988 Y92.896 E162.41292
G0 F7800 X98.626 Y93.111
G1 F3600 X108.943 Y103.427 E162.77686
G0 F7800 X109.26 Y103.321
G1 F3600 X99.265 Y93.326 E163.12946
G0 F7800 X99.904 Y93.54
G1 F3600 X109.578 Y103.214 E163.47074
G0 F7800 X109.896 Y103.108
G1 F3600 X100.543 Y93.755 E163.80069
G0 F7800 X101.182 Y93.969
G1 F3600 X110.179 Y102.966 E164.11808
G0 F7800 X110.459 Y102.822
G1 F3600 X101.82 Y94.183 E164.42285
G0 F7800 X102.459 Y94.398
G1 F3600 X110.678 Y102.617 E164.71279
G0 F7800 X110.807 Y102.321
G1 F3600 X103.098 Y94.613 E164.98473
G0 F7800 X103.737 Y94.827
G1 F3600 X110.86 Y101.951 E165.23603
G0 F7800 X110.861 Y101.527
G1 F3600 X104.376 Y95.042 E165.46481
G0 F7800 X105.015 Y95.257
G1 F3600 X110.863 Y101.104 E165.67109
G0 F7800 X110.863 Y100.681
G1 F3600 X105.653 Y95.471 E165.85489
G0 F7800 X106.292 Y95.685
G1 F3600 X110.864 Y100.257 E166.01618
G0 F7800 X110.865 Y99.834
G1 F3600 X106.931 Y95.9 E166.15496
G0 F7800 X107.57 Y96.114
G1 F3600 X110.865 Y99.41 E166.27122
G0 F7800 X110.866 Y98.987
G1 F3600 X108.209 Y96.329 E166.36497
G0 F7800 X108.847 Y96.544
G1 F3600 X110.867 Y98.563 E166.43621
G0 F7800 X110.867 Y98.14
G1 F3600 X109.486 Y96.758 E166.48495
G0 F7800 X110.185 Y97.033
G1 F3600 X110.8 Y97.647 E166.50663
; Layer Change GCode
; LAYER:3
G0 F7800 X76.568 Y110.647 Z0.85
G0 X76.568 Y110.647
G0 X76.318 Y110.646
G0 X76.318 Y110.646
G0 X76.92 Y110.325
; TYPE:WALL-INNER
G1 F1800 X78.88 Y109.182 E166.56323
G1 X80.046 Y108.342 E166.59907
G1 X81.108 Y107.207 E166.63785
G1 X81.554 Y106.549 E166.65768
G1 X81.705 Y106.214 E166.66684
G1 X81.705 Y93.78 E166.97701
G1 X81.537 Y93.421 E166.9869
G1 X81.055 Y92.731 E167.00789
G1 X80.044 Y91.657 E167.04469
G1 X78.798 Y90.766 E167.0829
G1 X76.922 Y89.683 E167.13693
G1 X76.922 Y88.787 E167.15929
G1 X76.722 Y88.777 E167.16428
G1 X76.722 Y86.133 E167.23024
G1 X76.804 Y85.867 E167.23718
G1 X76.858 Y85.817 E167.23901
G1 X77.037 Y85.763 E167.24368
G1 X77.367 Y85.739 E167.25193
G1 X78.536 Y86.089 E167.28237
G1 X81.128 Y86.933 E167.35037
G1 X110.223 Y96.706 E168.116
G1 X110.775 Y96.994 E168.13153
G1 X111.006 Y97.217 E168.13954
G1 X111.146 Y97.437 E168.14604
G1 X111.254 Y97.923 E168.15846
G1 X111.246 Y102.11 E168.26291
G1 X111.146 Y102.559 E168.27438
G1 X110.986 Y102.809 E168.28179
G1 X110.782 Y103.002 E168.28879
G1 X110.158 Y103.323 E168.3063
G1 X80.932 Y113.131 E169.0753
G1 X78.415 Y113.948 E169.14131
G1 X77.365 Y114.261 E169.16864
G1 X77.037 Y114.237 E169.17685
G1 X76.858 Y114.183 E169.18151
G1 X76.803 Y114.132 E169.18338
G1 X76.722 Y113.867 E169.1903
G1 X76.722 Y111.234 E169.25598
G1 X76.915 Y111.228 E169.26079
G1 X76.92 Y110.325 E169.28332
G0 F7800 X76.621 Y110.153
G1 F1800 X78.716 Y108.93 E169.34383
G1 X79.847 Y108.115 E169.37861
G1 X80.873 Y107.019 E169.41606
G1 X81.291 Y106.402 E169.43465
G1 X81.405 Y106.15 E169.44155
G1 X81.405 Y93.847 E169.74845
G1 X81.276 Y93.572 E169.75602
G1 X80.821 Y92.921 E169.77584
G1 X79.846 Y91.884 E169.81134
G1 X78.635 Y91.018 E169.84848
G1 X76.622 Y89.856 E169.90646
G1 X76.622 Y89.072 E169.92602
G1 X76.422 Y89.062 E169.93101
G1 X76.422 Y86.087 E170.00522
G1 X76.541 Y85.701 E170.0153
G1 X76.704 Y85.55 E170.02084
G1 X76.981 Y85.466 E170.02806
G1 X77.4 Y85.436 E170.03854
G1 X78.629 Y85.804 E170.07054
G1 X81.224 Y86.649 E170.13862
G1 X110.34 Y96.429 E170.9048
G1 X110.955 Y96.749 E170.9221
G1 X111.24 Y97.025 E170.93199
G1 X111.427 Y97.321 E170.94073
G1 X111.554 Y97.889 E170.95524
G1 X111.546 Y102.144 E171.06139
G1 X111.427 Y102.678 E171.07503
G1 X111.222 Y102.997 E171.08449
G1 X110.955 Y103.25 E171.09367
G1 X110.277 Y103.599 E171.11269
G1 X81.028 Y113.415 E171.8823
G1 X78.491 Y114.238 E171.94883
G1 X77.4 Y114.564 E171.97724
G1 X76.981 Y114.534 E171.98772
G1 X76.704 Y114.45 E171.99494
G1 X76.541 Y114.299 E172.00048
G1 X76.422 Y113.913 E172.01056
G1 X76.422 Y110.943 E172.08464
G1 X76.617 Y110.937 E172.08951
G1 X76.621 Y110.153 E172.10907
G0 F7800 X76.318 Y110.646
; TYPE:WALL-OUTER
G1 F1260 X76.322 Y109.98 E172.12568
G1 X78.553 Y108.678 E172.19012
G1 X79.648 Y107.889 E172.22378
G1 X80.638 Y106.831 E172.25993
G1 X81.028 Y106.255 E172.27728
G1 X81.105 Y106.085 E172.28194
G1 X81.105 Y93.914 E172.58554
G1 X81.015 Y93.723 E172.59081
G1 X80.588 Y93.11 E172.60944
G1 X79.647 Y92.111 E172.64368
G1 X78.472 Y91.271 E172.67971
G1 X76.322 Y90.029 E172.74165
G1 X76.322 Y89.357 E172.75841
G1 X76.122 Y89.347 E172.76341
G1 X76.122 Y86.041 E172.84587
G1 X76.277 Y85.537 E172.85903
G1 X76.552 Y85.283 E172.86837
G1 X76.926 Y85.17 E172.87811
G1 X77.433 Y85.133 E172.89079
G1 X78.722 Y85.519 E172.92436
G1 X81.321 Y86.365 E172.99254
G1 X110.456 Y96.151 E173.75922
G1 X111.131 Y96.503 E173.77821
G1 X111.474 Y96.835 E173.79011
G1 X111.709 Y97.205 E173.80105
G1 X111.854 Y97.856 E173.81768
G1 X111.846 Y102.178 E173.9255
G1 X111.709 Y102.795 E173.94126
G1 X111.453 Y103.192 E173.95305
G1 X111.132 Y103.497 E173.96409
G1 X110.392 Y103.877 E173.98484
G1 X81.125 Y113.699 E174.75493
G1 X78.587 Y114.522 E174.82148
G1 X77.433 Y114.867 E174.85153
G1 X76.926 Y114.83 E174.86421
G1 X76.552 Y114.717 E174.87396
G1 X76.277 Y114.463 E174.88329
G1 X76.122 Y113.959 E174.89645
G1 X76.122 Y110.652 E174.97894
G1 X76.318 Y110.646 E174.98383
G0 F7800 X77.156 Y110.792
; TYPE:FILL
G1 F3600 X77.943 Y110.005 E175.0116
G0 F7800 X78.959 Y109.414
G1 F3600 X77.154 Y111.218 E175.07525
G0 F7800 X76.962 Y111.835
G1 F3600 X96.461 Y92.336 E175.76313
G0 F7800 X96.778 Y92.442
G1 F3600 X76.962 Y112.259 E176.46222
G0 F7800 X76.962 Y112.683
G1 F3600 X97.096 Y92.549 E177.1725
G0 F7800 X97.413 Y92.656
G1 F3600 X76.962 Y113.108 E177.89398
G0 F7800 X76.962 Y113.532
G1 F3600 X97.732 Y92.762 E178.6267
G0 F7800 X98.049 Y92.869
G1 F3600 X76.991 Y113.926 E179.36956
G0 F7800 X77.326 Y114.016
G1 F3600 X98.367 Y92.976 E180.11182
G0 F7800 X98.684 Y93.082
G1 F3600 X77.923 Y113.843 E180.84422
G0 F7800 X78.536 Y113.655
G1 F3600 X99.002 Y93.189 E181.56621
G0 F7800 X99.319 Y93.296
G1 F3600 X79.164 Y113.451 E182.27723
G0 F7800 X79.792 Y113.248
G1 F3600 X99.637 Y93.403 E182.97732
G0 F7800 X99.954 Y93.509
G1 F3600 X80.419 Y113.044 E183.66647
G0 F7800 X81.051 Y112.837
G1 F3600 X100.272 Y93.615 E184.34456
G0 F7800 X100.59 Y93.722
G1 F3600 X81.689 Y112.623 E185.01134
G0 F7800 X82.328 Y112.408
G1 F3600 X100.907 Y93.829 E185.66677
G0 F7800 X101.225 Y93.936
G1 F3600 X82.966 Y112.194 E186.31088
G0 F7800 X83.605 Y111.98
G1 F3600 X101.542 Y94.043 E186.94366
G0 F7800 X101.86 Y94.149
G1 F3600 X84.243 Y111.766 E187.56515
G0 F7800 X84.882 Y111.551
G1 F3600 X102.177 Y94.256 E188.17528
G0 F7800 X102.495 Y94.363
G1 F3600 X85.521 Y111.337 E188.77408
G0 F7800 X86.159 Y111.123
G1 F3600 X102.813 Y94.469 E189.36159
G0 F7800 X103.13 Y94.576
G1 F3600 X86.798 Y110.908 E189.93775
G0 F7800 X87.436 Y110.694
G1 F3600 X103.448 Y94.683 E190.5026
G0 F7800 X103.765 Y94.789
G1 F3600 X88.075 Y110.48 E191.05612
G0 F7800 X88.713 Y110.266
G1 F3600 X104.083 Y94.896 E191.59834
G0 F7800 X104.4 Y95.003
G1 F3600 X89.352 Y110.051 E192.1292
G0 F7800 X89.99 Y109.837
G1 F3600 X104.718 Y95.11 E192.64875
G0 F7800 X105.036 Y95.216
G1 F3600 X90.629 Y109.623 E193.157
G0 F7800 X91.267 Y109.409
G1 F3600 X105.353 Y95.322 E193.65394
G0 F7800 X105.671 Y95.429
G1 F3600 X91.906 Y109.194 E194.13954
G0 F7800 X92.544 Y108.98
G1 F3600 X105.988 Y95.536 E194.61381
G0 F7800 X106.306 Y95.643
G1 F3600 X93.183 Y108.766 E195.07676
G0 F7800 X93.821 Y108.552
G1 F3600 X106.623 Y95.75 E195.52838
G0 F7800 X106.941 Y95.856
G1 F3600 X94.46 Y108.337 E195.96868
G0 F7800 X95.098 Y108.123
G1 F3600 X107.258 Y95.963 E196.39766
G0 F7800 X107.577 Y96.069
G1 F3600 X95.737 Y107.909 E196.81535
G0 F7800 X96.375 Y107.695
G1 F3600 X107.894 Y96.176 E197.22171
G0 F7800 X108.212 Y96.283
G1 F3600 X97.014 Y107.48 E197.61674
G0 F7800 X97.652 Y107.266
G1 F3600 X108.529 Y96.389 E198.00045
G0 F7800 X108.847 Y96.496
G1 F3600 X98.291 Y107.052 E198.37284
G0 F7800 X98.929 Y106.838
G1 F3600 X109.164 Y96.603 E198.73391
G0 F7800 X109.482 Y96.71
G1 F3600 X99.568 Y106.623 E199.08364
G0 F7800 X100.206 Y106.409
G1 F3600 X109.799 Y96.817 E199.42204
G0 F7800 X110.117 Y96.923
G1 F3600 X100.845 Y106.195 E199.74913
G0 F7800 X101.483 Y105.981
G1 F3600 X110.397 Y97.068 E200.06358
G0 F7800 X110.666 Y97.222
G1 F3600 X102.122 Y105.766 E200.36499
G0 F7800 X102.761 Y105.551
G1 F3600 X110.866 Y97.447 E200.6509
G0 F7800 X110.972 Y97.765
G1 F3600 X103.4 Y105.337 E200.91802
G0 F7800 X104.038 Y105.123
G1 F3600 X111.012 Y98.149 E201.16405
G0 F7800 X111.012 Y98.574
G1 F3600 X104.677 Y104.909 E201.38753
G0 F7800 X105.315 Y104.694
G1 F3600 X111.011 Y98.999 E201.58846
G0 F7800 X111.01 Y99.424
G1 F3600 X105.954 Y104.48 E201.76682
G0 F7800 X106.592 Y104.266
G1 F3600 X111.009 Y99.849 E201.92264
G0 F7800 X111.008 Y100.274
G1 F3600 X107.231 Y104.052 E202.0559
G0 F7800 X107.869 Y103.837
G1 F3600 X111.007 Y100.699 E202.16661
G0 F7800 X111.007 Y101.124
G1 F3600 X108.508 Y103.623 E202.25477
G0 F7800 X109.146 Y103.409
G1 F3600 X111.006 Y101.549 E202.32038
G0 F7800 X111.005 Y101.975
G1 F3600 X109.785 Y103.195 E202.36342
G0 F7800 X110.559 Y102.845
G1 F3600 X110.884 Y102.52 E202.37489
G0 F7800 X96.143 Y92.229
G0 X96.143 Y92.229
G1 F3600 X81.81 Y106.563 E202.88054
G0 F7800 X81.944 Y106.004
G1 F3600 X95.826 Y92.122 E203.37026
G0 F7800 X95.508 Y92.015
G1 F3600 X81.944 Y105.58 E203.84879
G0 F7800 X81.944 Y105.155
G1 F3600 X95.191 Y91.909 E204.31609
G0 F7800 X94.873 Y91.802
G1 F3600 X81.944 Y104.731 E204.7722
G0 F7800 X81.944 Y104.307
G1 F3600 X94.555 Y91.696 E205.21709
G0 F7800 X94.238 Y91.589
G1 F3600 X81.944 Y103.883 E205.65079
G0 F7800 X81.944 Y103.458
G1 F3600 X93.92 Y91.482 E206.07328
G0 F7800 X93.603 Y91.375
G1 F3600 X81.944 Y103.034 E206.48458
G0 F7800 X81.944 Y102.61
G1 F3600 X93.285 Y91.269 E206.88466
G0 F7800 X92.968 Y91.162
G1 F3600 X81.944 Y102.186 E207.27356
G0 F7800 X81.944 Y101.761
G1 F3600 X92.65 Y91.055 E207.65125
G0 F7800 X92.332 Y90.949
G1 F3600 X81.944 Y101.337 E208.01771
G0 F7800 X81.944 Y100.913
G1 F3600 X92.015 Y90.842 E208.37299
G0 F7800 X91.697 Y90.735
G1 F3600 X81.944 Y100.489 E208.71708
G0 F7800 X81.944 Y100.064
G1 F3600 X91.38 Y90.629 E209.04994
G0 F7800 X91.062 Y90.522
G1 F3600 X81.945 Y99.639 E209.37156
G0 F7800 X81.945 Y99.215
G1 F3600 X90.745 Y90.415 E209.68201
G0 F7800 X90.427 Y90.308
G1 F3600 X81.945 Y98.791 E209.98125
G0 F7800 X81.945 Y98.367
G1 F3600 X90.11 Y90.202 E210.26929
G0 F7800 X89.791 Y90.096
G1 F3600 X81.945 Y97.942 E210.54608
G0 F7800 X81.945 Y97.518
G1 F3600 X89.474 Y89.989 E210.81169
G0 F7800 X89.156 Y89.882
G1 F3600 X81.945 Y97.094 E211.06609
G0 F7800 X81.945 Y96.669
G1 F3600 X88.839 Y89.775 E211.3093
G0 F7800 X88.521 Y89.668
G1 F3600 X81.945 Y96.245 E211.5413
G0 F7800 X81.945 Y95.821
G1 F3600 X88.204 Y89.562 E211.76211
G0 F7800 X87.887 Y89.455
G1 F3600 X81.945 Y95.397 E211.97173
G0 F7800 X81.945 Y94.972
G1 F3600 X87.569 Y89.348 E212.17013
G0 F7800 X87.251 Y89.242
G1 F3600 X81.945 Y94.548 E212.35731
G0 F7800 X81.945 Y94.124
G1 F3600 X86.933 Y89.135 E212.53329
G0 F7800 X86.616 Y89.028
G1 F3600 X81.937 Y93.707 E212.69836
G0 F7800 X81.802 Y93.418
G1 F3600 X86.298 Y88.922 E212.85697
G0 F7800 X85.981 Y88.815
G1 F3600 X81.643 Y93.152 E213.00998
G0 F7800 X81.469 Y92.903
G1 F3600 X85.663 Y88.708 E213.15796
G0 F7800 X85.346 Y88.601
G1 F3600 X81.294 Y92.653 E213.3009
G0 F7800 X81.097 Y92.426
G1 F3600 X85.028 Y88.495 E213.43958
G0 F7800 X84.71 Y88.389
G1 F3600 X80.892 Y92.207 E213.57427
G0 F7800 X80.686 Y91.988
G1 F3600 X84.393 Y88.282 E213.70502
G0 F7800 X84.075 Y88.175
G1 F3600 X80.48 Y91.77 E213.83185
G0 F7800 X80.275 Y91.551
G1 F3600 X83.758 Y88.068 E213.95472
G0 F7800 X83.44 Y87.961
G1 F3600 X80.042 Y91.36 E214.07461
G0 F7800 X79.794 Y91.183
G1 F3600 X83.123 Y87.855 E214.19203
G0 F7800 X82.805 Y87.748
G1 F3600 X79.548 Y91.006 E214.30695
G0 F7800 X79.3 Y90.829
G1 F3600 X82.488 Y87.641 E214.41942
G0 F7800 X82.17 Y87.535
G1 F3600 X79.053 Y90.652 E214.52938
G0 F7800 X78.795 Y90.485
G1 F3600 X81.852 Y87.428 E214.63722
G0 F7800 X81.535 Y87.322
G1 F3600 X78.526 Y90.33 E214.74335
G0 F7800 X78.256 Y90.175
G1 F3600 X81.217 Y87.215 E214.84779
G0 F7800 X80.898 Y87.109
G1 F3600 X77.988 Y90.02 E214.95047
G0 F7800 X77.718 Y89.865
G1 F3600 X80.578 Y87.005 E215.05136
G0 F7800 X80.258 Y86.901
G1 F3600 X77.449 Y89.71 E215.15046
G0 F7800 X77.18 Y89.555
G1 F3600 X79.938 Y86.797 E215.24775
G0 F7800 X79.618 Y86.693
G1 F3600 X77.161 Y89.149 E215.33441
G0 F7800 X77.162 Y88.724
G1 F3600 X79.298 Y86.588 E215.40977
G0 F7800 X78.978 Y86.484
G1 F3600 X76.961 Y88.501 E215.48092
G0 F7800 X76.961 Y88.077
G1 F3600 X78.657 Y86.38 E215.54077
G0 F7800 X78.335 Y86.279
G1 F3600 X76.961 Y87.652 E215.58922
G0 F7800 X76.961 Y87.228
G1 F3600 X78.008 Y86.181 E215.62616
G0 F7800 X77.682 Y86.083
G1 F3600 X76.961 Y86.804 E215.6516
G0 F7800 X76.961 Y86.38
G1 F3600 X77.356 Y85.985 E215.66553
; Layer Change GCode
; LAYER:4
G1 F1800 E214.66553
G0 F7800 X77.221 Y90.166 Z1.05
G0 X78.542 Y90.908
G0 X79.757 Y91.778
G0 X80.724 Y92.803
G0 X81.186 Y93.461
G0 X81.426 Y93.973
G0 X81.426 Y106.022
G0 X81.221 Y106.481
G0 X80.791 Y107.119
G0 X79.759 Y108.221
G0 X78.643 Y109.026
G0 X76.58 Y110.189
G0 X76.566 Y110.646
G0 X76.566 Y110.646
G0 X76.317 Y110.644
G0 X76.317 Y110.644
G0 X76.919 Y110.318
; TYPE:WALL-INNER
G1 F1800 E215.66553
G1 X78.781 Y109.237 E215.71924
G1 X79.926 Y108.411 E215.75446
G1 X80.988 Y107.276 E215.79323
G1 X81.441 Y106.605 E215.81343
G1 X81.681 Y106.078 E215.82787
G1 X81.681 Y93.916 E216.13125
G1 X81.404 Y93.334 E216.14733
G1 X80.92 Y92.644 E216.16836
G1 X79.924 Y91.587 E216.20458
G1 X78.679 Y90.698 E216.24275
G1 X76.922 Y89.674 E216.29348
G1 X76.922 Y88.75 E216.31652
G1 X76.725 Y88.75 E216.32144
G1 X76.722 Y86.143 E216.38647
G1 X76.804 Y85.879 E216.39337
G1 X76.86 Y85.827 E216.39527
G1 X77.036 Y85.773 E216.39987
G1 X77.477 Y85.741 E216.4109
G1 X79.018 Y86.202 E216.45102
G1 X81.61 Y87.046 E216.51902
G1 X110.377 Y96.711 E217.27603
G1 X110.923 Y96.995 E217.29138
G1 X111.153 Y97.218 E217.29938
G1 X111.291 Y97.436 E217.30581
G1 X111.399 Y97.922 E217.31823
G1 X111.389 Y102.119 E217.42293
G1 X111.292 Y102.559 E217.43416
G1 X111.128 Y102.812 E217.44169
G1 X110.928 Y103.001 E217.44855
G1 X110.299 Y103.324 E217.46619
G1 X81.371 Y113.032 E218.22735
G1 X78.836 Y113.853 E218.29382
G1 X77.478 Y114.259 E218.32918
G1 X77.036 Y114.227 E218.34023
G1 X76.86 Y114.173 E218.34482
G1 X76.804 Y114.121 E218.34673
G1 X76.722 Y113.856 E218.35365
G1 X76.722 Y111.228 E218.41921
G1 X76.913 Y111.22 E218.42397
G1 X76.919 Y110.318 E218.44648
G0 F7800 X76.62 Y110.144
G1 F1800 X78.617 Y108.985 E218.50407
G1 X79.727 Y108.184 E218.53822
G1 X80.753 Y107.088 E218.57567
G1 X81.178 Y106.458 E218.59463
G1 X81.381 Y106.013 E218.60683
G1 X81.381 Y93.983 E218.90692
G1 X81.144 Y93.485 E218.92067
G1 X80.687 Y92.834 E218.94052
G1 X79.725 Y91.814 E218.97549
G1 X78.516 Y90.95 E219.01256
G1 X76.622 Y89.846 E219.06725
G1 X76.622 Y89.05 E219.0871
G1 X76.425 Y89.05 E219.09202
G1 X76.422 Y86.097 E219.16568
G1 X76.54 Y85.712 E219.17572
G1 X76.705 Y85.56 E219.18132
G1 X76.979 Y85.477 E219.18846
G1 X77.513 Y85.438 E219.20182
G1 X79.094 Y85.911 E219.24298
G1 X81.706 Y86.762 E219.31151
G1 X110.494 Y96.434 E220.06908
G1 X111.1 Y96.75 E220.08612
G1 X111.388 Y97.029 E220.09613
G1 X111.572 Y97.32 E220.10472
G1 X111.699 Y97.889 E220.11926
G1 X111.689 Y102.153 E220.22563
G1 X111.573 Y102.677 E220.23901
G1 X111.362 Y103.002 E220.24868
G1 X111.1 Y103.25 E220.25768
G1 X110.418 Y103.6 E220.2768
G1 X81.459 Y113.319 E221.03878
G1 X78.919 Y114.142 E221.10539
G1 X77.513 Y114.562 E221.14199
G1 X76.979 Y114.523 E221.15535
G1 X76.705 Y114.44 E221.16249
G1 X76.54 Y114.288 E221.16808
G1 X76.422 Y113.903 E221.17813
G1 X76.422 Y110.94 E221.25204
G1 X76.615 Y110.932 E221.25686
G1 X76.62 Y110.144 E221.27652
G0 F7800 X76.317 Y110.644
; TYPE:WALL-OUTER
G1 F1260 X76.321 Y109.971 E221.29331
G1 X78.454 Y108.733 E221.35483
G1 X79.528 Y107.958 E221.38786
G1 X80.518 Y106.901 E221.42399
G1 X80.915 Y106.311 E221.44173
G1 X81.081 Y105.948 E221.45169
G1 X81.081 Y94.051 E221.74846
G1 X80.884 Y93.637 E221.7599
G1 X80.454 Y93.024 E221.77857
G1 X79.527 Y92.041 E221.81228
G1 X78.353 Y91.202 E221.84827
G1 X76.322 Y90.018 E221.90692
G1 X76.322 Y89.35 E221.92358
G1 X76.126 Y89.35 E221.92847
G1 X76.122 Y86.051 E222.01076
G1 X76.277 Y85.548 E222.02389
G1 X76.553 Y85.293 E222.03327
G1 X76.923 Y85.18 E222.04292
G1 X77.546 Y85.135 E222.0585
G1 X79.187 Y85.626 E222.10123
G1 X81.803 Y86.478 E222.16986
G1 X110.611 Y96.156 E222.92794
G1 X111.277 Y96.504 E222.94669
G1 X111.622 Y96.839 E222.95868
G1 X111.854 Y97.204 E222.96947
G1 X111.999 Y97.856 E222.98613
G1 X111.989 Y102.187 E223.09417
G1 X111.854 Y102.794 E223.10968
G1 X111.594 Y103.197 E223.12165
G1 X111.277 Y103.497 E223.13253
G1 X110.533 Y103.878 E223.15339
G1 X81.556 Y113.603 E223.91584
G1 X79.015 Y114.426 E223.98247
G1 X77.546 Y114.865 E224.02072
G1 X76.923 Y114.82 E224.0363
G1 X76.553 Y114.707 E224.04595
G1 X76.277 Y114.452 E224.05532
G1 X76.122 Y113.949 E224.06845
G1 X76.122 Y110.652 E224.15069
G1 X76.317 Y110.644 E224.15556
G0 F7800 X77.156 Y110.673
; TYPE:FILL
G1 F3600 X79.777 Y113.294 E224.24803
G0 F7800 X79.457 Y113.398
G1 F3600 X77.153 Y111.094 E224.32931
G0 F7800 X77.087 Y111.452
G1 F3600 X79.137 Y113.502 E224.40162
G0 F7800 X78.816 Y113.606
G1 F3600 X76.962 Y111.751 E224.46705
G0 F7800 X76.962 Y112.176
G1 F3600 X78.49 Y113.704 E224.52095
G0 F7800 X78.164 Y113.802
G1 F3600 X76.962 Y112.6 E224.56336
G0 F7800 X76.961 Y113.023
G1 F3600 X77.838 Y113.9 E224.59429
G0 F7800 X77.511 Y113.998
G1 F3600 X76.961 Y113.448 E224.6137
G0 F7800 X76.985 Y113.896
G1 F3600 X77.068 Y113.979 E224.61662
G0 F7800 X80.098 Y113.191
G0 X80.098 Y113.191
G1 F3600 X77.287 Y110.38 E224.71579
G0 F7800 X77.556 Y110.224
G1 F3600 X80.419 Y113.087 E224.81679
G0 F7800 X80.739 Y112.983
G1 F3600 X77.824 Y110.068 E224.91962
G0 F7800 X78.092 Y109.912
G1 F3600 X81.06 Y112.88 E225.02433
G0 F7800 X81.38 Y112.775
G1 F3600 X78.361 Y109.757 E225.13081
G0 F7800 X78.629 Y109.6
G1 F3600 X81.697 Y112.668 E225.23905
G0 F7800 X82.015 Y112.562
G1 F3600 X78.898 Y109.445 E225.34901
G0 F7800 X79.145 Y109.268
G1 F3600 X82.333 Y112.456 E225.46147
G0 F7800 X82.65 Y112.349
G1 F3600 X79.391 Y109.09 E225.57644
G0 F7800 X79.638 Y108.912
G1 F3600 X82.968 Y112.242 E225.69392
G0 F7800 X83.285 Y112.135
G1 F3600 X79.884 Y108.734 E225.8139
G0 F7800 X80.123 Y108.549
G1 F3600 X83.603 Y112.029 E225.93666
G0 F7800 X83.921 Y111.922
G1 F3600 X80.328 Y108.33 E226.0634
G0 F7800 X80.533 Y108.11
G1 F3600 X84.239 Y111.816 E226.19414
G0 F7800 X84.556 Y111.709
G1 F3600 X80.738 Y107.891 E226.32883
G0 F7800 X80.943 Y107.672
G1 F3600 X84.874 Y111.602 E226.46749
G0 F7800 X85.192 Y111.496
G1 F3600 X81.148 Y107.453 E226.61013
G0 F7800 X81.324 Y107.204
G1 F3600 X85.509 Y111.389 E226.75777
G0 F7800 X85.827 Y111.283
G1 F3600 X81.495 Y106.951 E226.91059
G0 F7800 X81.663 Y106.694
G1 F3600 X86.144 Y111.176 E227.06869
G0 F7800 X86.462 Y111.07
G1 F3600 X81.795 Y106.403 E227.23333
G0 F7800 X81.921 Y106.104
G1 F3600 X86.78 Y110.963 E227.40474
G0 F7800 X87.097 Y110.856
G1 F3600 X81.921 Y105.679 E227.58736
G0 F7800 X81.921 Y105.255
G1 F3600 X87.415 Y110.749 E227.78118
G0 F7800 X87.733 Y110.643
G1 F3600 X81.921 Y104.831 E227.98621
G0 F7800 X81.921 Y104.407
G1 F3600 X88.051 Y110.537 E228.20246
G0 F7800 X88.368 Y110.43
G1 F3600 X81.921 Y103.982 E228.42991
G0 F7800 X81.921 Y103.558
G1 F3600 X88.686 Y110.323 E228.66857
G0 F7800 X89.004 Y110.217
G1 F3600 X81.921 Y103.134 E228.91844
G0 F7800 X81.921 Y102.71
G1 F3600 X89.321 Y110.11 E229.1795
G0 F7800 X89.639 Y110.003
G1 F3600 X81.921 Y102.285 E229.45177
G0 F7800 X81.921 Y101.861
G1 F3600 X89.956 Y109.897 E229.73524
G0 F7800 X90.274 Y109.791
G1 F3600 X81.921 Y101.437 E230.02993
G0 F7800 X81.921 Y101.013
G1 F3600 X90.592 Y109.684 E230.33583
G0 F7800 X90.909 Y109.577
G1 F3600 X81.921 Y100.588 E230.65292
G0 F7800 X81.921 Y100.164
G1 F3600 X91.227 Y109.47 E230.98122
G0 F7800 X91.545 Y109.364
G1 F3600 X81.921 Y99.74 E231.32073
G0 F7800 X81.921 Y99.315
G1 F3600 X91.863 Y109.257 E231.67146
G0 F7800 X92.18 Y109.151
G1 F3600 X81.921 Y98.891 E232.03339
G0 F7800 X81.921 Y98.467
G1 F3600 X92.498 Y109.044 E232.40652
G0 F7800 X92.816 Y108.938
G1 F3600 X81.921 Y98.043 E232.79087
G0 F7800 X81.921 Y97.618
G1 F3600 X93.133 Y108.831 E233.18642
G0 F7800 X93.451 Y108.724
G1 F3600 X81.921 Y97.194 E233.59318
G0 F7800 X81.921 Y96.77
G1 F3600 X93.768 Y108.617 E234.01111
G0 F7800 X94.086 Y108.511
G1 F3600 X81.921 Y96.346 E234.44026
G0 F7800 X81.921 Y95.921
G1 F3600 X94.404 Y108.405 E234.88065
G0 F7800 X94.721 Y108.298
G1 F3600 X81.921 Y95.497 E235.33223
G0 F7800 X81.921 Y95.073
G1 F3600 X95.039 Y108.191 E235.795
G0 F7800 X95.356 Y108.084
G1 F3600 X81.921 Y94.649 E236.26895
G0 F7800 X81.921 Y94.224
G1 F3600 X95.675 Y107.978 E236.75416
G0 F7800 X95.992 Y107.871
G1 F3600 X81.866 Y93.746 E237.25248
G0 F7800 X81.271 Y92.726
G1 F3600 X96.31 Y107.765 E237.78302
G0 F7800 X96.627 Y107.658
G1 F3600 X76.964 Y87.995 E238.47669
G0 F7800 X76.963 Y87.57
G1 F3600 X96.945 Y107.552 E239.18161
G0 F7800 X97.263 Y107.445
G1 F3600 X76.963 Y87.145 E239.89774
G0 F7800 X76.962 Y86.72
G1 F3600 X97.58 Y107.338 E240.6251
G0 F7800 X97.898 Y107.232
G1 F3600 X76.962 Y86.296 E241.36367
G0 F7800 X77.105 Y86.015
G1 F3600 X98.216 Y107.125 E242.1084
G0 F7800 X98.533 Y107.019
G1 F3600 X77.516 Y86.001 E242.84985
G0 F7800 X78.122 Y86.183
G1 F3600 X98.851 Y106.912 E243.58112
G0 F7800 X99.168 Y106.805
G1 F3600 X78.728 Y86.365 E244.3022
G0 F7800 X79.349 Y86.561
G1 F3600 X99.487 Y106.699 E245.01262
G0 F7800 X99.804 Y106.592
G1 F3600 X79.978 Y86.766 E245.71204
G0 F7800 X80.606 Y86.97
G1 F3600 X100.122 Y106.486 E246.40052
G0 F7800 X100.439 Y106.379
G1 F3600 X81.235 Y87.174 E247.07801
G0 F7800 X81.869 Y87.384
G1 F3600 X100.757 Y106.273 E247.74435
G0 F7800 X101.075 Y106.166
G1 F3600 X82.508 Y87.599 E248.39935
G0 F7800 X83.147 Y87.814
G1 F3600 X101.392 Y106.059 E249.04299
G0 F7800 X101.71 Y105.952
G1 F3600 X83.786 Y88.029 E249.67529
G0 F7800 X84.425 Y88.243
G1 F3600 X102.028 Y105.846 E250.29629
G0 F7800 X102.345 Y105.74
G1 F3600 X85.064 Y88.458 E250.90594
G0 F7800 X85.703 Y88.673
G1 F3600 X102.663 Y105.633 E251.50425
G0 F7800 X102.98 Y105.526
G1 F3600 X86.341 Y88.887 E252.09123
G0 F7800 X86.981 Y89.102
G1 F3600 X103.298 Y105.419 E252.66686
G0 F7800 X103.616 Y105.313
G1 F3600 X87.62 Y89.317 E253.23116
G0 F7800 X88.258 Y89.531
G1 F3600 X103.934 Y105.206 E253.78416
G0 F7800 X104.251 Y105.1
G1 F3600 X88.898 Y89.746 E254.32579
G0 F7800 X89.537 Y89.961
G1 F3600 X104.569 Y104.993 E254.85609
G0 F7800 X104.887 Y104.887
G1 F3600 X90.175 Y90.175 E255.37509
G0 F7800 X90.815 Y90.39
G1 F3600 X105.204 Y104.78 E255.88272
G0 F7800 X105.522 Y104.673
G1 F3600 X91.454 Y90.605 E256.37901
G0 F7800 X92.092 Y90.82
G1 F3600 X105.839 Y104.566 E256.86395
G0 F7800 X106.157 Y104.46
G1 F3600 X92.732 Y91.035 E257.33756
G0 F7800 X93.371 Y91.25
G1 F3600 X106.475 Y104.354 E257.79983
G0 F7800 X106.792 Y104.247
G1 F3600 X94.009 Y91.464 E258.25079
G0 F7800 X94.649 Y91.679
G1 F3600 X107.11 Y104.14 E258.69039
G0 F7800 X107.428 Y104.034
G1 F3600 X95.287 Y91.893 E259.11869
G0 F7800 X95.926 Y92.108
G1 F3600 X107.746 Y103.927 E259.53566
G0 F7800 X108.063 Y103.82
G1 F3600 X96.566 Y92.323 E259.94124
G0 F7800 X97.204 Y92.537
G1 F3600 X108.381 Y103.714 E260.33554
G0 F7800 X108.699 Y103.608
G1 F3600 X97.843 Y92.752 E260.71852
G0 F7800 X98.483 Y92.967
G1 F3600 X109.016 Y103.501 E261.09012
G0 F7800 X109.334 Y103.394
G1 F3600 X99.121 Y93.181 E261.45041
G0 F7800 X99.76 Y93.396
G1 F3600 X109.651 Y103.287 E261.79934
G0 F7800 X109.969 Y103.181
G1 F3600 X100.399 Y93.611 E262.13695
G0 F7800 X101.038 Y93.825
G1 F3600 X110.276 Y103.064 E262.46286
G0 F7800 X110.556 Y102.92
G1 F3600 X101.677 Y94.04 E262.77611
G0 F7800 X102.316 Y94.255
G1 F3600 X110.826 Y102.765 E263.07632
G0 F7800 X111.02 Y102.534
G1 F3600 X102.955 Y94.47 E263.36082
G0 F7800 X103.594 Y94.685
G1 F3600 X111.121 Y102.212 E263.62635
G0 F7800 X111.149 Y101.815
G1 F3600 X104.233 Y94.899 E263.87033
G0 F7800 X104.872 Y95.114
G1 F3600 X111.15 Y101.392 E264.09181
G0 F7800 X111.151 Y100.969
G1 F3600 X105.511 Y95.329 E264.29077
G0 F7800 X106.15 Y95.543
G1 F3600 X111.152 Y100.545 E264.46723
G0 F7800 X111.152 Y100.122
G1 F3600 X106.789 Y95.758 E264.62117
G0 F7800 X107.428 Y95.973
G1 F3600 X111.154 Y99.699 E264.75261
G0 F7800 X111.155 Y99.275
G1 F3600 X108.067 Y96.187 E264.86155
G0 F7800 X108.706 Y96.402
G1 F3600 X111.155 Y98.852 E264.94796
G0 F7800 X111.156 Y98.428
G1 F3600 X109.345 Y96.617 E265.01185
G0 F7800 X109.984 Y96.831
G1 F3600 X111.157 Y98.005 E265.05325
G0 F7800 X110.997 Y97.42
G1 F3600 X110.755 Y97.179 E265.06177
G0 F7800 X79.618 Y91.073
G0 X79.618 Y91.073
G1 F3600 X77.161 Y88.616 E265.14844
G0 F7800 X77.054 Y88.509
G1 F3600 X76.965 Y88.42 E265.15158
G0 F7800 X77.162 Y89.041
G1 F3600 X78.346 Y90.225 E265.19335
G0 F7800 X77.328 Y89.632
G1 F3600 X77.162 Y89.465 E265.19923
; Layer Change GCode
; LAYER:5
G1 F1800 E264.19923
G0 F7800 X77.142 Y90.127 Z1.25
G0 X78.422 Y90.838
G0 X79.638 Y91.708
G0 X80.67 Y92.81
G0 X81.087 Y93.422
G0 X81.401 Y94.114
G0 X81.401 Y105.885
G0 X81.109 Y106.536
G0 X80.671 Y107.188
G0 X79.639 Y108.291
G0 X78.547 Y109.082
G0 X76.577 Y110.191
G0 X76.566 Y110.645
G0 X76.566 Y110.645
G0 X76.317 Y110.643
G0 X76.317 Y110.643
G0 X76.919 Y110.318
; TYPE:WALL-INNER
G1 F1800 E265.19923
G1 F1314 X78.683 Y109.293 E265.25012
G1 X79.806 Y108.48 E265.2847
G1 X80.868 Y107.345 E265.32348
G1 X81.329 Y106.659 E265.34409
G1 X81.656 Y105.941 E265.36377
G1 X81.656 Y94.058 E265.6602
G1 X81.306 Y93.297 E265.68109
G1 X80.866 Y92.653 E265.70055
G1 X79.805 Y91.518 E265.73931
G1 X78.557 Y90.628 E265.77754
G1 X76.922 Y89.684 E265.82464
G1 X76.922 Y88.75 E265.84794
G1 X76.726 Y88.75 E265.85283
G1 X76.725 Y86.146 E265.91778
G1 X76.807 Y85.888 E265.92454
G1 X76.864 Y85.836 E265.92646
G1 X77.037 Y85.784 E265.93097
G1 X77.594 Y85.743 E265.9449
G1 X79.466 Y86.304 E265.99365
G1 X82.093 Y87.159 E266.06256
G1 X110.475 Y96.686 E266.80938
G1 X111.067 Y96.995 E266.82603
G1 X111.303 Y97.225 E266.83425
G1 X111.435 Y97.435 E266.84044
G1 X111.544 Y97.923 E266.85291
G1 X111.544 Y102.077 E266.95654
G1 X111.437 Y102.56 E266.96888
G1 X111.273 Y102.811 E266.97636
G1 X111.073 Y103.001 E266.98324
G1 X110.434 Y103.327 E267.00113
G1 X81.802 Y112.935 E267.7545
G1 X79.264 Y113.756 E267.82104
G1 X77.592 Y114.256 E267.86458
G1 X77.035 Y114.214 E267.87851
G1 X76.858 Y114.157 E267.88315
G1 X76.802 Y114.104 E267.88507
G1 X76.722 Y113.845 E267.89183
G1 X76.722 Y111.223 E267.95724
G1 X76.913 Y111.213 E267.96201
G1 X76.919 Y110.318 E267.98434
G0 F7800 X76.62 Y110.144
G1 F1314 X78.52 Y109.041 E268.03914
G1 X79.607 Y108.254 E268.07262
G1 X80.632 Y107.158 E268.11005
G1 X81.066 Y106.512 E268.12946
G1 X81.356 Y105.876 E268.1469
G1 X81.356 Y94.123 E268.44008
G1 X81.044 Y93.446 E268.45867
G1 X80.631 Y92.841 E268.47695
G1 X79.606 Y91.745 E268.51438
G1 X78.395 Y90.88 E268.5515
G1 X76.622 Y89.856 E268.60258
G1 X76.622 Y89.05 E268.62268
G1 X76.426 Y89.05 E268.62757
G1 X76.425 Y86.101 E268.70113
G1 X76.545 Y85.72 E268.7111
G1 X76.713 Y85.569 E268.71673
G1 X76.982 Y85.487 E268.72375
G1 X77.626 Y85.44 E268.73986
G1 X79.559 Y86.019 E268.79019
G1 X82.189 Y86.875 E268.85919
G1 X110.595 Y96.41 E269.60663
G1 X111.246 Y96.75 E269.62495
G1 X111.536 Y97.032 E269.63504
G1 X111.717 Y97.319 E269.64351
G1 X111.844 Y97.89 E269.6581
G1 X111.844 Y102.11 E269.76337
G1 X111.718 Y102.678 E269.77788
G1 X111.503 Y103.007 E269.78768
G1 X111.251 Y103.247 E269.79636
G1 X110.55 Y103.605 E269.816
G1 X81.89 Y113.222 E270.5701
G1 X79.347 Y114.045 E270.63678
G1 X77.627 Y114.56 E270.68156
G1 X76.976 Y114.51 E270.69785
G1 X76.704 Y114.423 E270.70497
G1 X76.538 Y114.267 E270.71066
G1 X76.422 Y113.891 E270.72047
G1 X76.422 Y110.938 E270.79413
G1 X76.615 Y110.928 E270.79896
G1 X76.62 Y110.144 E270.81851
G0 F7800 X76.317 Y110.643
; TYPE:WALL-OUTER
G1 F919.8 X76.321 Y109.971 E270.83528
G1 X78.356 Y108.789 E270.89398
G1 X79.408 Y108.028 E270.92637
G1 X80.397 Y106.971 E270.96248
G1 X80.803 Y106.365 E270.98067
G1 X81.056 Y105.811 E270.99587
G1 X81.056 Y94.189 E271.28578
G1 X80.782 Y93.594 E271.30212
G1 X80.396 Y93.029 E271.31919
G1 X79.407 Y91.972 E271.3553
G1 X78.232 Y91.133 E271.39131
G1 X76.322 Y90.029 E271.44635
G1 X76.322 Y89.35 E271.46328
G1 X76.126 Y89.35 E271.46817
G1 X76.125 Y86.054 E271.55039
G1 X76.284 Y85.552 E271.56353
G1 X76.561 Y85.301 E271.57285
G1 X76.926 Y85.191 E271.58236
G1 X77.659 Y85.137 E271.6007
G1 X79.652 Y85.734 E271.65259
G1 X82.286 Y86.591 E271.72169
G1 X110.711 Y96.132 E272.46963
G1 X111.423 Y96.504 E272.48967
G1 X111.77 Y96.842 E272.50175
G1 X111.999 Y97.203 E272.51242
G1 X112.144 Y97.856 E272.5291
G1 X112.144 Y102.144 E272.63607
G1 X111.999 Y102.795 E272.65271
G1 X111.735 Y103.2 E272.66476
G1 X111.425 Y103.495 E272.67544
G1 X110.664 Y103.883 E272.69675
G1 X81.987 Y113.506 E273.4513
G1 X79.443 Y114.329 E273.518
G1 X77.659 Y114.863 E273.56445
G1 X76.917 Y114.806 E273.58302
G1 X76.547 Y114.688 E273.5927
G1 X76.274 Y114.431 E273.60206
G1 X76.122 Y113.938 E273.61493
G1 X76.122 Y110.653 E273.69687
G1 X76.317 Y110.643 E273.70174
G0 F7800 X77.153 Y111.094
; TYPE:FILL
G1 F2628 X79.489 Y113.43 E273.78415
G0 F7800 X78.205 Y113.821
G1 F2628 X79.497 Y108.998 E273.9087
G0 F7800 X79.383 Y109.081
G1 F2628 X82.686 Y112.385 E274.02524
G0 F7800 X81.599 Y112.748
G1 F2628 X87.868 Y89.35 E274.62949
G0 F7800 X86.071 Y88.747
G0 X86.071 Y88.747
G1 F2628 X78.992 Y90.643 E274.8123
G0 F7800 X78.319 Y90.212
G1 F2628 X79.312 Y86.508 E274.90796
G0 F7800 X80.906 Y87.025
G1 F2628 X76.965 Y88.081 E275.00974
G0 F7800 X77.504 Y85.989
G0 X77.504 Y85.989
G1 F2628 X98.57 Y107.055 E275.7529
G0 F7800 X98.661 Y107.024
G1 F2628 X102.116 Y94.132 E276.08584
G0 F7800 X101.508 Y93.928
G1 F2628 X81.895 Y99.183 E276.59235
G0 F7800 X81.895 Y98.866
G1 F2628 X92.216 Y109.187 E276.95645
G0 F7800 X91.836 Y109.314
G1 F2628 X96.417 Y92.218 E277.39795
G0 F7800 X96.361 Y92.201
G1 F2628 X81.895 Y96.077 E277.77154
G0 F7800 X81.895 Y94.623
G1 F2628 X95.393 Y108.121 E278.24772
G0 F7800 X95.249 Y108.169
G1 F2628 X99.266 Y93.176 E278.63491
G0 F7800 X96.484 Y92.242
G0 X96.484 Y92.242
G1 F2628 X108.1 Y103.857 E279.04468
G0 F7800 X108.899 Y103.589
G1 F2628 X110.612 Y97.198 E279.20973
G0 F7800 X110.554 Y97.334
G1 F2628 X110.775 Y97.114 E279.21751
G0 F7800 X111.024 Y97.288
G1 F2628 X110.672 Y97.641 E279.22994
G0 F7800 X110.797 Y97.65
G1 F2628 X81.894 Y105.395 E279.97637
G0 F7800 X81.451 Y106.907
G1 F2628 X85.863 Y111.319 E280.13201
G0 F7800 X85.011 Y111.604
G1 F2628 X90.718 Y90.306 E280.68204
G0 F7800 X91.216 Y90.474
G1 F2628 X81.453 Y93.09 E280.93417
G0 F7800 X80.865 Y92.301
G1 F2628 X82.169 Y87.437 E281.05978
G0 F7800 X83.711 Y87.954
G1 F2628 X101.747 Y105.989 E281.69604
G0 F7800 X102.074 Y105.879
G1 F2628 X104.965 Y95.088 E281.97471
G0 F7800 X106.653 Y95.655
G1 F2628 X81.894 Y102.289 E282.61411
G0 F7800 X81.895 Y103.108
G1 F2628 X89.04 Y110.253 E282.86617
G0 F7800 X88.423 Y110.459
G1 F2628 X93.567 Y91.262 E283.36194
G0 F7800 X90.098 Y90.098
G0 X90.098 Y90.098
G1 F2628 X104.924 Y104.924 E283.88496
G0 F7800 X105.487 Y104.733
G1 F2628 X107.815 Y96.045 E284.10933
G0 F7800 X109.257 Y96.529
G0 X109.257 Y96.529
G1 F2628 X110.859 Y98.131 E284.16585
G0 F7800 X110.739 Y97.998
G1 F2628 X111.208 Y97.529 E284.18239
G0 F7800 X111.286 Y97.875
G1 F2628 X110.739 Y98.422 E284.20169
G0 F7800 X110.739 Y98.847
G1 F2628 X111.302 Y98.283 E284.22157
G0 F7800 X111.302 Y98.707
G1 F2628 X110.739 Y99.271 E284.24145
G0 F7800 X110.739 Y99.695
G1 F2628 X111.302 Y99.132 E284.26131
G0 F7800 X111.302 Y99.556
G1 F2628 X110.739 Y100.119 E284.28117
G0 F7800 X110.739 Y100.544
G1 F2628 X111.302 Y99.98 E284.30105
G0 F7800 X111.302 Y100.404
G1 F2628 X110.739 Y100.968 E284.32093
G0 F7800 X110.858 Y100.74
G1 F2628 X79.18 Y109.228 E285.13901
G0 F7800 X76.961 Y112.928
G0 X76.961 Y112.928
G1 F2628 X97.34 Y107.468 E285.6653
G0 F7800 X110.277 Y103.127
G0 X110.277 Y103.127
G1 F2628 X111.288 Y102.116 E285.70097
G0 F7800 X111.302 Y101.677
G1 F2628 X110.69 Y102.29 E285.72257
G0 F7800 X110.807 Y102.321
G1 F2628 X102.871 Y94.386 E286.00252
G0 F7800 X110.096 Y96.944
G0 X110.096 Y96.944
G1 F2628 X110.196 Y96.844 E286.00605
G0 F7800 X110.356 Y97.108
G1 F2628 X110.496 Y96.968 E286.01099
G0 F7800 X111.302 Y100.829
G1 F2628 X110.739 Y101.392 E286.03085
G0 F7800 X110.739 Y101.817
G1 F2628 X111.302 Y101.253 E286.05073
G0 F7800 X85.019 Y88.393
G0 X85.019 Y88.393
G1 F2628 X81.895 Y100.049 E286.35175
; Layer Change GCode
; LAYER:6
G0 F7800 X81.271 Y101.259 Z1.45
G0 X81.376 Y105.748
G0 X80.996 Y106.591
G0 X80.551 Y107.258
G0 X79.518 Y108.36
G0 X78.448 Y109.137
G0 X76.644 Y110.157
G0 X76.605 Y110.942
G0 X76.413 Y110.941
G0 X76.179 Y111.163
G0 X76.316 Y110.9
G0 X76.316 Y110.9
G0 X76.316 Y110.65
G0 X76.316 Y110.65
G0 X76.919 Y110.317
; TYPE:WALL-INNER
G1 F1314 X78.585 Y109.347 E286.39984
G1 X79.685 Y108.549 E286.43374
G1 X80.748 Y107.415 E286.47251
G1 X81.216 Y106.714 E286.49354
G1 X81.631 Y105.804 E286.51848
G1 X81.631 Y94.194 E286.8081
G1 X81.185 Y93.229 E286.83462
G1 X80.746 Y92.583 E286.8541
G1 X79.684 Y91.449 E286.89286
G1 X78.438 Y90.558 E286.93107
G1 X76.922 Y89.683 E286.97473
G1 X76.922 Y88.787 E286.99708
G1 X76.723 Y88.777 E287.00205
G1 X76.725 Y86.158 E287.06738
G1 X76.808 Y85.898 E287.07419
G1 X76.865 Y85.847 E287.0761
G1 X77.037 Y85.795 E287.08058
G1 X77.707 Y85.746 E287.09734
G1 X79.931 Y86.412 E287.15525
G1 X82.576 Y87.273 E287.22464
G1 X110.62 Y96.686 E287.96255
G1 X111.212 Y96.995 E287.97921
G1 X111.45 Y97.229 E287.98754
G1 X111.58 Y97.433 E287.99357
G1 X111.69 Y97.924 E288.00612
G1 X111.69 Y102.076 E288.1097
G1 X111.581 Y102.561 E288.1221
G1 X111.415 Y102.815 E288.12967
G1 X111.22 Y103 E288.13637
G1 X110.575 Y103.328 E288.15442
G1 X82.233 Y112.839 E288.90016
G1 X79.692 Y113.66 E288.96677
G1 X77.707 Y114.253 E289.01845
G1 X77.033 Y114.202 E289.03531
G1 X76.859 Y114.146 E289.03987
G1 X76.802 Y114.092 E289.04183
G1 X76.722 Y113.833 E289.04859
G1 X76.722 Y111.25 E289.11303
G1 X76.911 Y111.25 E289.11774
G1 X76.919 Y110.317 E289.14102
G0 F7800 X76.62 Y110.144
G1 F1314 X78.421 Y109.096 E289.19299
G1 X79.486 Y108.323 E289.22582
G1 X80.513 Y107.228 E289.26327
G1 X80.953 Y106.568 E289.28306
G1 X81.331 Y105.739 E289.30578
G1 X81.331 Y94.26 E289.59213
G1 X80.923 Y93.377 E289.61639
G1 X80.511 Y92.771 E289.63467
G1 X79.485 Y91.676 E289.67211
G1 X78.275 Y90.81 E289.70922
G1 X76.622 Y89.856 E289.75683
G1 X76.622 Y89.072 E289.77639
G1 X76.422 Y89.062 E289.78138
G1 X76.425 Y86.11 E289.85502
G1 X76.546 Y85.73 E289.86497
G1 X76.713 Y85.579 E289.87059
G1 X76.981 Y85.498 E289.87757
G1 X77.74 Y85.443 E289.89655
G1 X80.024 Y86.127 E289.95603
G1 X82.672 Y86.989 E290.02549
G1 X110.74 Y96.41 E290.76404
G1 X111.389 Y96.749 E290.78231
G1 X111.685 Y97.039 E290.79264
G1 X111.862 Y97.318 E290.80088
G1 X111.99 Y97.89 E290.81551
G1 X111.99 Y102.11 E290.92077
G1 X111.863 Y102.679 E290.93532
G1 X111.646 Y103.009 E290.94517
G1 X111.396 Y103.247 E290.95378
G1 X110.691 Y103.606 E290.97352
G1 X82.321 Y113.126 E291.71999
G1 X79.785 Y113.946 E291.78648
G1 X77.741 Y114.557 E291.83969
G1 X76.974 Y114.498 E291.85888
G1 X76.701 Y114.411 E291.86603
G1 X76.538 Y114.256 E291.87164
G1 X76.422 Y113.88 E291.88146
G1 X76.422 Y110.95 E291.95454
G1 X76.613 Y110.95 E291.95931
G1 X76.62 Y110.144 E291.97942
G0 F7800 X76.316 Y110.65
; TYPE:WALL-OUTER
G1 F919.8 X76.321 Y109.971 E291.99635
G1 X78.257 Y108.844 E292.05223
G1 X79.287 Y108.097 E292.08397
G1 X80.277 Y107.041 E292.12008
G1 X80.69 Y106.421 E292.13866
G1 X81.031 Y105.674 E292.15915
G1 X81.031 Y94.326 E292.44223
G1 X80.661 Y93.525 E292.46424
G1 X80.276 Y92.959 E292.48131
G1 X79.286 Y91.903 E292.51742
G1 X78.112 Y91.063 E292.55343
G1 X76.322 Y90.029 E292.60499
G1 X76.322 Y89.357 E292.62176
G1 X76.122 Y89.347 E292.62675
G1 X76.125 Y86.063 E292.70867
G1 X76.285 Y85.561 E292.72182
G1 X76.562 Y85.312 E292.73111
G1 X76.926 Y85.202 E292.74059
G1 X77.773 Y85.14 E292.76178
G1 X80.117 Y85.842 E292.82282
G1 X82.769 Y86.705 E292.89238
G1 X110.856 Y96.132 E293.63143
G1 X111.569 Y96.504 E293.65149
G1 X111.918 Y96.846 E293.66368
G1 X112.144 Y97.202 E293.6742
G1 X112.29 Y97.856 E293.69091
G1 X112.29 Y102.144 E293.79788
G1 X112.144 Y102.798 E293.81459
G1 X111.88 Y103.201 E293.82661
G1 X111.571 Y103.494 E293.83723
G1 X110.802 Y103.885 E293.85875
G1 X82.418 Y113.41 E294.6056
G1 X79.871 Y114.233 E294.67237
G1 X77.773 Y114.86 E294.72699
G1 X76.915 Y114.794 E294.74846
G1 X76.545 Y114.676 E294.75814
G1 X76.274 Y114.419 E294.76746
G1 X76.122 Y113.927 E294.78031
G1 X76.122 Y110.65 E294.86205
G1 X76.316 Y110.65 E294.86689
G0 F7800 X77.151 Y111.092
; TYPE:FILL
G1 F2628 X79.519 Y113.46 E294.95043
G0 F7800 X78.196 Y113.856
G1 F2628 X79.504 Y108.975 E295.07648
G0 F7800 X79.372 Y109.071
G1 F2628 X82.723 Y112.421 E295.19468
G0 F7800 X81.586 Y112.795
G1 F2628 X87.88 Y89.306 E295.80128
G0 F7800 X86.15 Y88.725
G0 X86.15 Y88.725
G1 F2628 X78.976 Y90.648 E295.98656
G0 F7800 X78.32 Y90.211
G1 F2628 X79.32 Y86.479 E296.08294
G0 F7800 X80.979 Y87.005
G1 F2628 X76.962 Y88.081 E296.18667
G0 F7800 X77.515 Y86.001
G0 X77.515 Y86.001
G1 F2628 X98.606 Y107.091 E296.9307
G0 F7800 X98.647 Y107.076
G1 F2628 X102.127 Y94.088 E297.26611
G0 F7800 X101.587 Y93.907
G1 F2628 X81.87 Y99.19 E297.77531
G0 F7800 X81.87 Y98.841
G1 F2628 X92.252 Y109.223 E298.14156
G0 F7800 X91.822 Y109.367
G1 F2628 X96.428 Y92.175 E298.58554
G0 F7800 X96.442 Y92.179
G1 F2628 X81.871 Y96.084 E298.96184
G0 F7800 X81.87 Y94.598
G1 F2628 X95.429 Y108.156 E299.44015
G0 F7800 X95.235 Y108.222
G1 F2628 X99.278 Y93.131 E299.82988
G0 F7800 X96.413 Y92.17
G0 X96.413 Y92.17
G1 F2628 X108.135 Y103.893 E300.24342
G0 F7800 X108.886 Y103.64
G1 F2628 X110.647 Y97.067 E300.41317
G0 F7800 X110.463 Y96.887
G1 F2628 X111.425 Y97.849 E300.4471
G0 F7800 X111.449 Y98.297
G1 F2628 X110.851 Y97.699 E300.4682
G0 F7800 X110.954 Y97.608
G1 F2628 X81.87 Y105.401 E301.2193
G0 F7800 X81.405 Y106.861
G1 F2628 X85.899 Y111.355 E301.37783
G0 F7800 X84.996 Y111.658
G1 F2628 X90.729 Y90.262 E301.93039
G0 F7800 X91.296 Y90.452
G1 F2628 X81.391 Y93.106 E302.18618
G0 F7800 X80.853 Y92.347
G1 F2628 X82.18 Y87.395 E302.31407
G0 F7800 X83.639 Y87.882
G1 F2628 X101.782 Y106.025 E302.95411
G0 F7800 X102.06 Y105.931
G1 F2628 X104.977 Y95.044 E303.23527
G0 F7800 X106.732 Y95.634
G1 F2628 X81.87 Y102.295 E303.87733
G0 F7800 X81.87 Y103.084
G1 F2628 X89.075 Y110.288 E304.13149
G0 F7800 X88.409 Y110.512
G1 F2628 X93.579 Y91.218 E304.62976
G0 F7800 X90.026 Y90.026
G0 X90.026 Y90.026
G1 F2628 X104.958 Y104.958 E305.15652
G0 F7800 X105.473 Y104.785
G1 F2628 X107.827 Y96 E305.3834
G0 F7800 X109.186 Y96.458
G1 F2628 X111.022 Y98.294 E305.44817
G0 F7800 X110.901 Y98.173
G1 F2628 X111.449 Y98.721 E305.4675
G0 F7800 X111.449 Y99.145
G1 F2628 X110.901 Y98.597 E305.48683
G0 F7800 X110.901 Y99.021
G1 F2628 X111.449 Y99.569 E305.50616
G0 F7800 X111.449 Y99.994
G1 F2628 X110.9 Y99.445 E305.52553
G0 F7800 X110.9 Y99.869
G1 F2628 X111.449 Y100.418 E305.5449
G0 F7800 X111.449 Y100.842
G1 F2628 X110.899 Y100.293 E305.56428
G0 F7800 X111.019 Y100.697
G1 F2628 X79.142 Y109.238 E306.38751
G0 F7800 X76.961 Y112.928
G0 X76.961 Y112.928
G1 F2628 X98.041 Y107.28 E306.9319
G0 F7800 X110.264 Y103.052
G0 X110.264 Y103.052
G1 F2628 X110.359 Y103.147 E306.93525
G0 F7800 X110.521 Y102.884
G1 F2628 X110.654 Y103.017 E306.93994
G0 F7800 X110.935 Y102.874
G1 F2628 X110.72 Y102.659 E306.94752
G0 F7800 X110.939 Y102.454
G1 F2628 X102.799 Y94.314 E307.23468
G0 F7800 X110.899 Y100.717
G0 X110.899 Y100.717
G1 F2628 X111.449 Y101.266 E307.25407
G0 F7800 X111.449 Y101.691
G1 F2628 X110.899 Y101.141 E307.27347
G0 F7800 X110.899 Y101.565
G1 F2628 X111.436 Y102.102 E307.29242
G0 F7800 X111.359 Y102.449
G1 F2628 X110.898 Y101.988 E307.30868
G0 F7800 X110.838 Y102.352
G1 F2628 X111.186 Y102.7 E307.32096
G0 F7800 X81.87 Y100.143
G0 X81.87 Y100.143
G1 F2628 X85.03 Y88.349 E307.62554
; Layer Change GCode
; LAYER:7
G0 F7800 X81.226 Y98.369 Z1.65
G0 X81.351 Y105.61
G0 X80.884 Y106.646
G0 X80.43 Y107.328
G0 X79.398 Y108.429
G0 X78.349 Y109.193
G0 X76.81 Y110.003
G0 X76.564 Y110.652
G0 X76.564 Y110.652
G0 X76.315 Y110.65
G0 X76.315 Y110.65
G0 X76.918 Y110.317
; TYPE:WALL-INNER
G1 F1332 X78.486 Y109.403 E307.67081
G1 X79.566 Y108.619 E307.7041
G1 X80.628 Y107.484 E307.74287
G1 X81.105 Y106.768 E307.76434
G1 X81.606 Y105.665 E307.79456
G1 X81.606 Y94.333 E308.07723
G1 X81.065 Y93.158 E308.1095
G1 X80.625 Y92.513 E308.12898
G1 X79.564 Y91.379 E308.16772
G1 X78.317 Y90.489 E308.20593
G1 X76.922 Y89.683 E308.24612
G1 X76.922 Y88.75 E308.2694
G1 X76.728 Y88.75 E308.27424
G1 X76.726 Y86.166 E308.33869
G1 X76.808 Y85.908 E308.34545
G1 X76.866 Y85.857 E308.34737
G1 X77.037 Y85.805 E308.35183
G1 X77.818 Y85.748 E308.37137
G1 X80.413 Y86.525 E308.43894
G1 X83.059 Y87.386 E308.50835
G1 X110.765 Y96.686 E309.23737
G1 X111.36 Y96.996 E309.25411
G1 X111.596 Y97.228 E309.26237
G1 X111.726 Y97.433 E309.26842
G1 X111.835 Y97.923 E309.28094
G1 X111.835 Y102.077 E309.38456
G1 X111.727 Y102.562 E309.39696
G1 X111.558 Y102.817 E309.40459
G1 X111.368 Y102.998 E309.41114
G1 X110.71 Y103.332 E309.42954
G1 X82.664 Y112.743 E310.16749
G1 X80.127 Y113.561 E310.23399
G1 X77.82 Y114.251 E310.29405
G1 X77.031 Y114.191 E310.31379
G1 X76.86 Y114.136 E310.31827
G1 X76.801 Y114.08 E310.3203
G1 X76.722 Y113.824 E310.32698
G1 X76.722 Y111.25 E310.39119
G1 X76.909 Y111.25 E310.39586
G1 X76.918 Y110.317 E310.41913
G0 F7800 X76.62 Y110.144
G1 F1332 X78.322 Y109.151 E310.46829
G1 X79.366 Y108.393 E310.50047
G1 X80.392 Y107.297 E310.53792
G1 X80.842 Y106.622 E310.55816
G1 X81.306 Y105.6 E310.58615
G1 X81.306 Y94.398 E310.86559
G1 X80.803 Y93.307 E310.89556
G1 X80.39 Y92.701 E310.91385
G1 X79.365 Y91.606 E310.95127
G1 X78.155 Y90.741 E310.98837
G1 X76.622 Y89.856 E311.03253
G1 X76.622 Y89.05 E311.05263
G1 X76.428 Y89.05 E311.05747
G1 X76.426 Y86.119 E311.13058
G1 X76.547 Y85.74 E311.14051
G1 X76.716 Y85.589 E311.14616
G1 X76.981 Y85.508 E311.15307
G1 X77.853 Y85.445 E311.17488
G1 X80.489 Y86.234 E311.24352
G1 X83.155 Y87.102 E311.31346
G1 X110.885 Y96.41 E312.04312
G1 X111.537 Y96.75 E312.06146
G1 X111.834 Y97.041 E312.07183
G1 X112.007 Y97.315 E312.07992
G1 X112.135 Y97.89 E312.09461
G1 X112.135 Y102.11 E312.19988
G1 X112.008 Y102.679 E312.21442
G1 X111.789 Y103.012 E312.22436
G1 X111.542 Y103.246 E312.23285
G1 X110.828 Y103.609 E312.25283
G1 X82.751 Y113.03 E312.99159
G1 X80.213 Y113.849 E313.05812
G1 X77.854 Y114.555 E313.11954
G1 X76.97 Y114.487 E313.14166
G1 X76.704 Y114.401 E313.14863
G1 X76.537 Y114.242 E313.15438
G1 X76.422 Y113.87 E313.1641
G1 X76.422 Y110.95 E313.23694
G1 X76.612 Y110.95 E313.24168
G1 X76.62 Y110.144 E313.26178
G0 F7800 X76.315 Y110.65
; TYPE:WALL-OUTER
G1 F932.4 X76.321 Y109.971 E313.27872
G1 X78.158 Y108.9 E313.33176
G1 X79.167 Y108.167 E313.36287
G1 X80.156 Y107.11 E313.39898
G1 X80.579 Y106.476 E313.41799
G1 X81.006 Y105.535 E313.44377
G1 X81.006 Y94.464 E313.71994
G1 X80.541 Y93.455 E313.74765
G1 X80.155 Y92.889 E313.76474
G1 X79.166 Y91.833 E313.80083
G1 X77.992 Y90.994 E313.83683
G1 X76.322 Y90.029 E313.88494
G1 X76.322 Y89.35 E313.90188
G1 X76.128 Y89.35 E313.90672
G1 X76.126 Y86.072 E313.98849
G1 X76.286 Y85.571 E314.00161
G1 X76.564 Y85.321 E314.01093
G1 X76.926 Y85.212 E314.02037
G1 X77.886 Y85.142 E314.04438
G1 X80.582 Y85.949 E314.11458
G1 X83.252 Y86.818 E314.18462
G1 X111.001 Y96.132 E314.91477
G1 X111.715 Y96.504 E314.93486
G1 X112.067 Y96.85 E314.94717
G1 X112.289 Y97.201 E314.95753
G1 X112.435 Y97.856 E314.97427
G1 X112.435 Y102.144 E315.08123
G1 X112.289 Y102.799 E315.09797
G1 X112.022 Y103.205 E315.11009
G1 X111.717 Y103.493 E315.12056
G1 X110.939 Y103.888 E315.14232
G1 X82.848 Y113.314 E315.88145
G1 X80.299 Y114.136 E315.94826
G1 X77.886 Y114.858 E316.01109
G1 X76.913 Y114.783 E316.03544
G1 X76.546 Y114.665 E316.04505
G1 X76.273 Y114.405 E316.05446
G1 X76.122 Y113.917 E316.0672
G1 X76.122 Y110.65 E316.1487
G1 X76.315 Y110.65 E316.15351
G0 F7800 X77.15 Y111.091
; TYPE:FILL
G1 F2664 X79.542 Y113.483 E316.23789
G0 F7800 X78.187 Y113.89
G1 F2664 X79.509 Y108.955 E316.36534
G0 F7800 X79.363 Y109.062
G1 F2664 X82.759 Y112.457 E316.48512
G0 F7800 X81.573 Y112.841
G1 F2664 X87.892 Y89.26 E317.09411
G0 F7800 X86.232 Y88.703
G0 X86.232 Y88.703
G1 F2664 X78.959 Y90.652 E317.28194
G0 F7800 X78.319 Y90.212
G1 F2664 X79.328 Y86.449 E317.37912
G0 F7800 X81.054 Y86.985
G1 F2664 X76.967 Y88.08 E317.48467
G0 F7800 X77.526 Y86.011
G0 X77.526 Y86.011
G1 F2664 X98.642 Y107.127 E318.22959
G0 F7800 X98.633 Y107.13
G1 F2664 X102.14 Y94.043 E318.56756
G0 F7800 X101.668 Y93.885
G1 F2664 X81.844 Y99.197 E319.07952
G0 F7800 X81.846 Y98.816
G1 F2664 X92.289 Y109.26 E319.44794
G0 F7800 X91.808 Y109.421
G1 F2664 X96.441 Y92.13 E319.89449
G0 F7800 X96.523 Y92.158
G1 F2664 X81.845 Y96.091 E320.27355
G0 F7800 X81.846 Y94.574
G0 X81.846 Y94.574
G1 F2664 X95.465 Y108.193 E320.75399
G0 F7800 X95.22 Y108.276
G1 F2664 X99.29 Y93.087 E321.14625
G0 F7800 X96.339 Y92.096
G0 X96.339 Y92.096
G1 F2664 X108.172 Y103.929 E321.56369
G0 F7800 X108.871 Y103.695
G1 F2664 X110.677 Y96.955 E321.73775
G0 F7800 X110.586 Y96.878
G1 F2664 X110.481 Y96.983 E321.74146
G0 F7800 X110.723 Y97.166
G1 F2664 X110.875 Y97.014 E321.74682
G0 F7800 X111.154 Y97.159
G1 F2664 X110.908 Y97.405 E321.7555
G0 F7800 X111.09 Y97.572
G1 F2664 X81.845 Y105.408 E322.51075
G0 F7800 X81.781 Y106.167
G1 F2664 X81.523 Y106.425 E322.51985
G0 F7800 X81.35 Y106.806
G1 F2664 X85.936 Y111.391 E322.68162
G0 F7800 X84.982 Y111.711
G1 F2664 X90.742 Y90.216 E323.23673
G0 F7800 X91.377 Y90.431
G1 F2664 X81.314 Y93.127 E323.49661
G0 F7800 X81.293 Y93.079
G1 F2664 X81.384 Y92.988 E323.49982
G0 F7800 X81.557 Y93.239
G1 F2664 X81.426 Y93.369 E323.50442
G0 F7800 X81.56 Y93.66
G1 F2664 X81.73 Y93.49 E323.51042
G0 F7800 X81.781 Y93.863
G1 F2664 X81.714 Y93.93 E323.51278
G0 F7800 X80.839 Y92.402
G0 X80.839 Y92.402
G1 F2664 X82.191 Y87.355 E323.64312
G0 F7800 X83.565 Y87.808
G1 F2664 X101.819 Y106.061 E324.28706
G0 F7800 X102.045 Y105.985
G1 F2664 X104.989 Y94.999 E324.57078
G0 F7800 X106.813 Y95.612
G1 F2664 X81.844 Y102.302 E325.2156
G0 F7800 X81.846 Y103.059
G1 F2664 X89.112 Y110.325 E325.47193
G0 F7800 X88.395 Y110.566
G1 F2664 X93.591 Y91.173 E325.97275
G0 F7800 X89.952 Y89.952
G0 X89.952 Y89.952
G1 F2664 X104.995 Y104.995 E326.50343
G0 F7800 X105.458 Y104.84
G1 F2664 X107.839 Y95.956 E326.73287
G0 F7800 X109.111 Y96.383
G1 F2664 X111.167 Y98.439 E326.8054
G0 F7800 X111.047 Y98.538
G1 F2664 X111.594 Y97.992 E326.82468
G0 F7800 X111.524 Y97.638
G1 F2664 X111.048 Y98.113 E326.84145
G0 F7800 X111.003 Y97.734
G1 F2664 X111.383 Y97.354 E326.85486
G0 F7800 X111.594 Y98.416
G1 F2664 X111.046 Y98.963 E326.87417
G0 F7800 X111.045 Y99.389
G1 F2664 X111.594 Y98.84 E326.89354
G0 F7800 X111.594 Y99.265
G1 F2664 X111.044 Y99.814 E326.91292
G0 F7800 X111.044 Y100.239
G1 F2664 X111.594 Y99.689 E326.93233
G0 F7800 X111.594 Y100.113
G1 F2664 X111.043 Y100.664 E326.95176
G0 F7800 X111.164 Y100.658
G1 F2664 X79.107 Y109.248 E327.77964
G0 F7800 X81.383 Y106.99
G0 X81.383 Y106.99
G1 F2664 X81.4 Y106.973 E327.78024
G0 F7800 X81.845 Y100.236
G0 X81.845 Y100.236
G1 F2664 X85.042 Y88.304 E328.08838
G0 F7800 X102.724 Y94.239
G0 X102.724 Y94.239
G1 F2664 X111.058 Y102.573 E328.38239
G0 F7800 X110.964 Y102.44
G1 F2664 X111.594 Y101.81 E328.40461
G0 F7800 X111.594 Y101.386
G1 F2664 X111.041 Y101.939 E328.42412
G0 F7800 X111.041 Y101.514
G1 F2664 X111.594 Y100.962 E328.44361
G0 F7800 X111.594 Y100.537
G1 F2664 X111.042 Y101.089 E328.46309
G0 F7800 X111.54 Y102.288
G1 F2664 X110.826 Y103.002 E328.48827
G0 F7800 X98.768 Y107.085
G0 X98.768 Y107.085
G1 F2664 X76.961 Y112.928 E329.05144
; Layer Change GCode
; LAYER:8
G0 F7800 X76.313 Y110.9 Z1.85
G0 X76.313 Y110.9
G0 X76.313 Y110.65
G0 X76.313 Y110.65
G0 X76.917 Y110.317
; TYPE:WALL-INNER
G1 F1350 X78.389 Y109.458 E329.09395
G1 X79.446 Y108.687 E329.12659
G1 X80.509 Y107.554 E329.16535
G1 X80.992 Y106.822 E329.18722
G1 X81.581 Y105.529 E329.22267
G1 X81.581 Y94.47 E329.49853
G1 X80.945 Y93.088 E329.53648
G1 X80.505 Y92.443 E329.55596
G1 X79.446 Y91.313 E329.59459
G1 X78.389 Y90.542 E329.62723
G1 X76.922 Y89.685 E329.66961
G1 X76.922 Y88.75 E329.69293
G1 X76.728 Y88.75 E329.69777
G1 X76.726 Y86.175 E329.762
G1 X76.808 Y85.921 E329.76866
G1 X76.867 Y85.868 E329.77064
G1 X77.039 Y85.816 E329.77512
G1 X77.934 Y85.75 E329.79751
G1 X80.861 Y86.627 E329.87373
G1 X83.542 Y87.499 E329.94406
G1 X110.91 Y96.686 E330.66419
G1 X111.503 Y96.996 E330.68089
G1 X111.745 Y97.234 E330.68935
G1 X111.871 Y97.432 E330.69521
G1 X111.98 Y97.923 E330.70775
G1 X111.98 Y102.077 E330.81137
G1 X111.872 Y102.561 E330.82375
G1 X111.7 Y102.82 E330.8315
G1 X111.514 Y102.997 E330.83791
G1 X110.848 Y103.335 E330.85654
G1 X83.095 Y112.647 E331.58677
G1 X80.555 Y113.465 E331.65333
G1 X77.933 Y114.249 E331.7216
G1 X77.028 Y114.18 E331.74424
G1 X76.859 Y114.125 E331.74868
G1 X76.801 Y114.069 E331.75069
G1 X76.722 Y113.813 E331.75737
G1 X76.722 Y111.25 E331.8213
G1 X76.907 Y111.25 E331.82592
G1 X76.917 Y110.317 E331.84919
G0 F7800 X76.619 Y110.145
G1 F1350 X78.225 Y109.207 E331.89559
G1 X79.246 Y108.462 E331.92712
G1 X80.272 Y107.367 E331.96455
G1 X80.729 Y106.677 E331.98519
G1 X81.281 Y105.464 E332.01844
G1 X81.281 Y94.535 E332.29106
G1 X80.683 Y93.237 E332.32671
G1 X80.27 Y92.631 E332.34501
G1 X79.246 Y91.538 E332.38237
G1 X78.225 Y90.793 E332.4139
G1 X76.622 Y89.857 E332.4602
G1 X76.622 Y89.05 E332.48033
G1 X76.429 Y89.05 E332.48514
G1 X76.426 Y86.126 E332.55808
G1 X76.546 Y85.752 E332.56788
G1 X76.717 Y85.6 E332.57359
G1 X76.983 Y85.519 E332.58053
G1 X77.966 Y85.447 E332.60511
G1 X80.954 Y86.342 E332.68292
G1 X83.638 Y87.215 E332.75333
G1 X111.03 Y96.41 E333.47409
G1 X111.681 Y96.75 E333.49241
G1 X111.982 Y97.046 E333.50294
G1 X112.152 Y97.316 E333.5109
G1 X112.28 Y97.89 E333.52557
G1 X112.28 Y102.11 E333.63084
G1 X112.153 Y102.681 E333.64543
G1 X111.934 Y103.011 E333.65531
G1 X111.686 Y103.247 E333.66385
G1 X110.966 Y103.612 E333.68399
G1 X83.182 Y112.934 E334.41503
G1 X80.641 Y113.753 E334.48163
G1 X77.967 Y114.553 E334.55125
G1 X76.97 Y114.476 E334.5762
G1 X76.702 Y114.389 E334.58323
G1 X76.537 Y114.23 E334.58894
G1 X76.422 Y113.859 E334.59863
G1 X76.422 Y110.95 E334.6712
G1 X76.61 Y110.95 E334.67589
G1 X76.619 Y110.145 E334.69597
G0 F7800 X76.313 Y110.65
; TYPE:WALL-OUTER
G1 F945 X76.321 Y109.971 E334.71291
G1 X78.06 Y108.956 E334.76314
G1 X79.047 Y108.236 E334.79361
G1 X80.036 Y107.18 E334.8297
G1 X80.466 Y106.531 E334.84912
G1 X80.981 Y105.399 E334.88015
G1 X80.981 Y94.601 E335.1495
G1 X80.421 Y93.385 E335.1829
G1 X80.035 Y92.819 E335.19999
G1 X79.047 Y91.764 E335.23604
G1 X78.06 Y91.044 E335.26652
G1 X76.322 Y90.029 E335.31673
G1 X76.322 Y89.35 E335.33366
G1 X76.129 Y89.35 E335.33848
G1 X76.126 Y86.081 E335.42002
G1 X76.287 Y85.582 E335.4331
G1 X76.566 Y85.333 E335.44243
G1 X76.927 Y85.223 E335.45185
G1 X77.999 Y85.144 E335.47866
G1 X81.047 Y86.057 E335.55803
G1 X83.735 Y86.931 E335.62854
G1 X111.146 Y96.132 E336.3498
G1 X111.861 Y96.505 E336.36992
G1 X112.215 Y96.854 E336.38232
G1 X112.434 Y97.2 E336.39253
G1 X112.58 Y97.856 E336.4093
G1 X112.58 Y102.144 E336.51626
G1 X112.434 Y102.798 E336.53298
G1 X112.162 Y103.209 E336.54527
G1 X111.863 Y103.492 E336.55554
G1 X111.078 Y103.891 E336.57751
G1 X83.279 Y113.218 E337.30895
G1 X80.727 Y114.04 E337.37583
G1 X77.999 Y114.856 E337.44686
G1 X76.912 Y114.772 E337.47405
G1 X76.543 Y114.653 E337.48372
G1 X76.272 Y114.393 E337.49309
G1 X76.122 Y113.906 E337.5058
G1 X76.122 Y110.65 E337.58703
G1 X76.313 Y110.65 E337.59179
G0 F7800 X77.148 Y111.09
; TYPE:FILL
G1 F2700 X79.567 Y113.509 E337.67713
G0 F7800 X78.177 Y113.924
G1 F2700 X79.515 Y108.931 E337.80607
G0 F7800 X79.352 Y109.051
G1 F2700 X82.793 Y112.491 E337.92745
G0 F7800 X81.561 Y112.888
G1 F2700 X87.904 Y89.215 E338.5388
G0 F7800 X87.962 Y89.235
G1 F2700 X88.153 Y89.426 E338.54554
G0 F7800 X88.601 Y89.449
G1 F2700 X88.792 Y89.64 E338.55228
G0 F7800 X89.239 Y89.663
G1 F2700 X89.43 Y89.854 E338.55902
G0 F7800 X89.878 Y89.878
G1 F2700 X90.069 Y90.069 E338.56575
G0 F7800 X89.878 Y89.878
G1 F2700 X105.032 Y105.032 E339.10035
G0 F7800 X105.444 Y104.893
G1 F2700 X107.851 Y95.91 E339.33234
G0 F7800 X107.76 Y95.881
G1 F2700 X107.952 Y96.073 E339.33911
G0 F7800 X108.399 Y96.095
G1 F2700 X108.591 Y96.287 E339.34588
G0 F7800 X109.037 Y96.31
G1 F2700 X109.229 Y96.501 E339.35264
G0 F7800 X109.037 Y96.31
G1 F2700 X111.311 Y98.583 E339.43284
G0 F7800 X111.192 Y98.464
G1 F2700 X111.739 Y99.011 E339.45214
G0 F7800 X111.739 Y99.435
G1 F2700 X111.191 Y98.887 E339.47147
G0 F7800 X111.19 Y99.311
G1 F2700 X111.739 Y99.859 E339.49082
G0 F7800 X111.739 Y100.284
G1 F2700 X111.189 Y99.734 E339.51023
G0 F7800 X111.189 Y100.158
G1 F2700 X111.739 Y100.708 E339.52963
G0 F7800 X111.739 Y101.132
G1 F2700 X111.188 Y100.581 E339.54907
G0 F7800 X111.308 Y100.619
G1 F2700 X79.067 Y109.258 E340.38169
G0 F7800 X80.808 Y107.536
G0 X80.808 Y107.536
G1 F2700 X80.895 Y107.624 E340.38478
G0 F7800 X81.066 Y107.371
G1 F2700 X80.977 Y107.281 E340.38794
G0 F7800 X81.145 Y107.025
G1 F2700 X81.238 Y107.118 E340.39122
G0 F7800 X81.41 Y106.866
G1 F2700 X81.29 Y106.746 E340.39545
G0 F7800 X81.323 Y106.779
G1 F2700 X85.972 Y111.428 E340.55946
G0 F7800 X84.968 Y111.764
G1 F2700 X90.754 Y90.171 E341.1171
G0 F7800 X90.708 Y90.284
G1 F2700 X90.516 Y90.092 E341.12387
G0 F7800 X91.155 Y90.307
G1 F2700 X91.346 Y90.498 E341.13061
G0 F7800 X91.46 Y90.409
G1 F2700 X81.235 Y93.148 E341.39467
G0 F7800 X81.209 Y93.089
G1 F2700 X81.657 Y93.536 E341.41045
G0 F7800 X81.571 Y93.875
G1 F2700 X81.765 Y94.069 E341.4173
G0 F7800 X81.82 Y94.548
G1 F2700 X95.502 Y108.23 E341.89997
G0 F7800 X95.206 Y108.329
G1 F2700 X99.302 Y93.04 E342.2948
G0 F7800 X99.458 Y93.094
G1 F2700 X99.649 Y93.285 E342.30154
G0 F7800 X100.096 Y93.308
G1 F2700 X100.288 Y93.5 E342.30831
G0 F7800 X100.735 Y93.523
G1 F2700 X100.926 Y93.714 E342.31505
G0 F7800 X101.374 Y93.737
G1 F2700 X101.565 Y93.929 E342.32181
G0 F7800 X101.75 Y93.863
G1 F2700 X81.819 Y99.203 E342.83652
G0 F7800 X81.82 Y98.791
G1 F2700 X92.325 Y109.296 E343.20712
G0 F7800 X91.793 Y109.474
G1 F2700 X96.453 Y92.084 E343.65622
G0 F7800 X96.456 Y92.213
G1 F2700 X96.264 Y92.022 E343.66297
G1 X108.209 Y103.966 E344.08435
G0 F7800 X108.857 Y103.748
G1 F2700 X110.696 Y96.884 E344.26161
G0 F7800 X110.507 Y96.93
G1 F2700 X110.315 Y96.739 E344.26836
G0 F7800 X109.868 Y96.716
G1 F2700 X109.676 Y96.524 E344.27514
G0 F7800 X111.01 Y97.009
G1 F2700 X111.678 Y97.677 E344.2987
G0 F7800 X111.229 Y97.535
G1 F2700 X81.82 Y105.415 E345.05819
G0 F7800 X81.742 Y105.926
G1 F2700 X81.764 Y105.947 E345.05895
G0 F7800 X81.555 Y106.162
G1 F2700 X81.719 Y106.326 E345.06474
G0 F7800 X81.581 Y106.613
G1 F2700 X81.422 Y106.454 E345.07035
G0 F7800 X81.82 Y103.033
G0 X81.82 Y103.033
G1 F2700 X89.149 Y110.362 E345.3289
G0 F7800 X88.38 Y110.619
G1 F2700 X93.603 Y91.128 E345.83225
G0 F7800 X93.71 Y91.164
G1 F2700 X93.901 Y91.356 E345.83901
G0 F7800 X94.349 Y91.379
G1 F2700 X94.54 Y91.57 E345.84575
G0 F7800 X94.987 Y91.593
G1 F2700 X95.178 Y91.784 E345.85249
G0 F7800 X95.626 Y91.807
G1 F2700 X95.817 Y91.999 E345.85924
G0 F7800 X96.605 Y92.136
G1 F2700 X81.819 Y96.097 E346.24109
G0 F7800 X80.818 Y92.477
G0 X80.818 Y92.477
G1 F2700 X82.202 Y87.314 E346.37442
G0 F7800 X81.127 Y86.965
G1 F2700 X76.967 Y88.08 E346.48186
G0 F7800 X77.537 Y86.022
G0 X77.537 Y86.022
G1 F2700 X98.678 Y107.164 E347.22768
G0 F7800 X98.619 Y107.183
G1 F2700 X102.152 Y93.997 E347.56821
G0 F7800 X102.012 Y93.951
G1 F2700 X102.204 Y94.143 E347.57498
G0 F7800 X102.651 Y94.166
G1 F2700 X102.843 Y94.357 E347.58174
G0 F7800 X102.651 Y94.166
G1 F2700 X111.149 Y102.664 E347.88153
G0 F7800 X111.061 Y102.576
G1 F2700 X111.314 Y102.828 E347.89044
G0 F7800 X111.538 Y102.628
G1 F2700 X111.153 Y102.244 E347.904
G0 F7800 X111.186 Y101.852
G1 F2700 X111.674 Y102.34 E347.92122
G0 F7800 X111.739 Y101.981
G1 F2700 X111.186 Y101.428 E347.94073
G0 F7800 X111.187 Y101.005
G1 F2700 X111.739 Y101.556 E347.96018
G0 F7800 X110.883 Y102.822
G0 X110.883 Y102.822
G1 F2700 X111.032 Y102.971 E347.96544
G0 F7800 X110.749 Y103.113
G1 F2700 X110.643 Y103.006 E347.96919
G0 F7800 X111.739 Y98.586
G0 X111.739 Y98.586
G1 F2700 X111.193 Y98.041 E347.98844
G0 F7800 X111.103 Y97.526
G1 F2700 X111.739 Y98.162 E348.01087
G0 F7800 X107.314 Y95.858
G0 X107.314 Y95.858
G1 F2700 X107.122 Y95.667 E348.01763
G0 F7800 X106.895 Y95.59
G1 F2700 X81.819 Y102.309 E348.66522
G0 F7800 X81.821 Y100.328
G1 F2700 X85.055 Y88.259 E348.9769
G0 F7800 X84.96 Y88.354
G1 F2700 X84.769 Y88.163 E348.98364
G0 F7800 X84.321 Y88.14
G1 F2700 X84.13 Y87.948 E348.9904
G0 F7800 X83.682 Y87.925
G1 F2700 X83.491 Y87.734 E348.99713
G1 X101.855 Y106.098 E349.64497
G0 F7800 X102.031 Y106.038
G1 F2700 X105.001 Y94.953 E349.93124
G0 F7800 X105.206 Y95.023
G1 F2700 X105.397 Y95.215 E349.938
G0 F7800 X105.844 Y95.238
G1 F2700 X106.036 Y95.429 E349.94476
G0 F7800 X106.483 Y95.452
G1 F2700 X106.674 Y95.643 E349.95149
G0 F7800 X104.759 Y95.001
G0 X104.759 Y95.001
G1 F2700 X104.567 Y94.809 E349.95827
G0 F7800 X104.12 Y94.786
G1 F2700 X103.929 Y94.595 E349.965
G0 F7800 X103.481 Y94.571
G1 F2700 X103.289 Y94.38 E349.97176
G0 F7800 X99.011 Y93.071
G0 X99.011 Y93.071
G1 F2700 X98.819 Y92.879 E349.97853
G0 F7800 X98.371 Y92.856
G1 F2700 X98.181 Y92.665 E349.98525
G0 F7800 X97.733 Y92.642
G1 F2700 X97.542 Y92.451 E349.99199
G0 F7800 X97.094 Y92.428
G1 F2700 X96.903 Y92.236 E349.99875
G0 F7800 X93.263 Y91.141
G0 X93.263 Y91.141
G1 F2700 X93.071 Y90.95 E350.0055
G0 F7800 X92.623 Y90.926
G1 F2700 X92.432 Y90.735 E350.01224
G0 F7800 X91.985 Y90.712
G1 F2700 X91.794 Y90.521 E350.01898
G0 F7800 X87.515 Y89.212
G0 X87.515 Y89.212
G1 F2700 X87.323 Y89.02 E350.02575
G0 F7800 X86.875 Y88.997
G1 F2700 X86.684 Y88.806 E350.03249
G0 F7800 X86.314 Y88.681
G1 F2700 X78.95 Y90.655 E350.22267
G0 F7800 X78.317 Y90.222
G1 F2700 X79.336 Y86.42 E350.32086
G0 F7800 X85.407 Y88.377
G0 X85.407 Y88.377
G1 F2700 X85.598 Y88.568 E350.3276
G0 F7800 X86.046 Y88.591
G1 F2700 X86.237 Y88.782 E350.33434
G0 F7800 X99.491 Y106.891
G0 X99.491 Y106.891
G1 F2700 X76.961 Y112.928 E350.91618
; Layer Change GCode
; LAYER:9
G0 F7800 X76.313 Y110.9 Z2.05
G0 X76.313 Y110.9
G0 X76.313 Y110.65
G0 X76.313 Y110.65
G0 X76.917 Y110.317
; TYPE:WALL-INNER
G1 F1332 X78.291 Y109.513 E350.95589
G1 X79.324 Y108.759 E350.98779
G1 X80.237 Y107.798 E351.02086
G1 X80.494 Y107.468 E351.03129
G1 X80.881 Y106.875 E351.04895
G1 X81.47 Y105.58 E351.08444
G1 X81.527 Y105.29 E351.09181
G1 X81.527 Y94.705 E351.35586
G1 X81.463 Y94.403 E351.36356
G1 X80.824 Y93.018 E351.40161
G1 X80.386 Y92.375 E351.42102
G1 X79.495 Y91.408 E351.45382
G1 X79.309 Y91.23 E351.46024
G1 X78.291 Y90.487 E351.49168
G1 X76.922 Y89.686 E351.53124
G1 X76.922 Y88.75 E351.55459
G1 X76.729 Y88.75 E351.55941
G1 X76.727 Y86.184 E351.62341
G1 X76.808 Y85.931 E351.63004
G1 X76.869 Y85.877 E351.63207
G1 X77.036 Y85.826 E351.63643
G1 X78.046 Y85.752 E351.66169
G1 X81.326 Y86.735 E351.74711
G1 X84.025 Y87.613 E351.81791
G1 X111.058 Y96.687 E352.52922
G1 X111.647 Y96.995 E352.5458
G1 X111.893 Y97.239 E352.55445
G1 X112.016 Y97.432 E352.56015
G1 X112.126 Y97.925 E352.57276
G1 X112.126 Y102.075 E352.67628
G1 X112.016 Y102.568 E352.68888
G1 X111.893 Y102.761 E352.69459
G1 X111.647 Y103.005 E352.70323
G1 X111.058 Y103.313 E352.71981
G1 X83.526 Y112.55 E353.44422
G1 X80.968 Y113.373 E353.51125
G1 X78.049 Y114.247 E353.58726
G1 X77.029 Y114.169 E353.61278
G1 X76.858 Y114.113 E353.61727
G1 X76.8 Y114.057 E353.61928
G1 X76.722 Y113.805 E353.62586
G1 X76.722 Y111.25 E353.68959
G1 X76.907 Y111.25 E353.69421
G1 X76.917 Y110.317 E353.71748
G0 F7800 X76.619 Y110.143
G1 F1332 X78.126 Y109.262 E353.76103
G1 X79.125 Y108.532 E353.79189
G1 X80.009 Y107.602 E353.8239
G1 X80.25 Y107.294 E353.83366
G1 X80.617 Y106.73 E353.85044
G1 X81.182 Y105.487 E353.8845
G1 X81.227 Y105.261 E353.89025
G1 X81.227 Y94.736 E354.1528
G1 X81.177 Y94.498 E354.15886
G1 X80.562 Y93.166 E354.19546
G1 X80.15 Y92.562 E354.2137
G1 X79.281 Y91.619 E354.24569
G1 X79.116 Y91.461 E354.25138
G1 X78.126 Y90.738 E354.28197
G1 X76.622 Y89.858 E354.32543
G1 X76.622 Y89.05 E354.34559
G1 X76.429 Y89.05 E354.3504
G1 X76.427 Y86.135 E354.42312
G1 X76.547 Y85.762 E354.43289
G1 X76.72 Y85.609 E354.43865
G1 X76.979 Y85.53 E354.44541
G1 X78.079 Y85.449 E354.47292
G1 X81.419 Y86.45 E354.5599
G1 X84.121 Y87.329 E354.63078
G1 X111.173 Y96.409 E355.34259
G1 X111.827 Y96.752 E355.36101
G1 X112.129 Y97.051 E355.37161
G1 X112.297 Y97.316 E355.37944
G1 X112.426 Y97.89 E355.39412
G1 X112.426 Y102.11 E355.49938
G1 X112.297 Y102.684 E355.51406
G1 X112.129 Y102.949 E355.52189
G1 X111.827 Y103.248 E355.53249
G1 X111.173 Y103.591 E355.55091
G1 X83.613 Y112.837 E356.27605
G1 X81.069 Y113.656 E356.34272
G1 X78.08 Y114.551 E356.42055
G1 X76.97 Y114.465 E356.44833
G1 X76.7 Y114.377 E356.45541
G1 X76.537 Y114.22 E356.46106
G1 X76.422 Y113.849 E356.47074
G1 X76.422 Y110.95 E356.54306
G1 X76.61 Y110.95 E356.54775
G1 X76.619 Y110.143 E356.56788
G0 F7800 X76.313 Y110.65
; TYPE:WALL-OUTER
G1 F932.4 X76.321 Y109.97 E356.58485
G1 X77.961 Y109.011 E356.63224
G1 X78.926 Y108.306 E356.66205
G1 X79.782 Y107.406 E356.69303
G1 X80.005 Y107.119 E356.7021
G1 X80.354 Y106.585 E356.71801
G1 X80.895 Y105.395 E356.75062
G1 X80.927 Y105.232 E356.75476
G1 X80.927 Y94.767 E357.01581
G1 X80.89 Y94.593 E357.02025
G1 X80.3 Y93.315 E357.05536
G1 X79.915 Y92.749 E357.07244
G1 X79.067 Y91.829 E357.10365
G1 X78.923 Y91.692 E357.10861
G1 X77.961 Y90.989 E357.13833
G1 X76.322 Y90.03 E357.1857
G1 X76.322 Y89.35 E357.20266
G1 X76.129 Y89.35 E357.20748
G1 X76.127 Y86.09 E357.2888
G1 X76.287 Y85.591 E357.30187
G1 X76.569 Y85.341 E357.31127
G1 X76.923 Y85.233 E357.3205
G1 X78.112 Y85.146 E357.35024
G1 X81.512 Y86.165 E357.43878
G1 X84.218 Y87.045 E357.50977
G1 X111.29 Y96.132 E358.22211
G1 X112.005 Y96.506 E358.24224
G1 X112.365 Y96.862 E358.25486
G1 X112.579 Y97.2 E358.26484
G1 X112.726 Y97.856 E358.28161
G1 X112.726 Y102.144 E358.38858
G1 X112.579 Y102.8 E358.40535
G1 X112.365 Y103.138 E358.41533
G1 X112.005 Y103.494 E358.42796
G1 X111.29 Y103.868 E358.44809
G1 X83.71 Y113.121 E359.17376
G1 X81.155 Y113.943 E359.24071
G1 X78.112 Y114.854 E359.31995
G1 X76.912 Y114.761 E359.34997
G1 X76.541 Y114.64 E359.35971
G1 X76.272 Y114.381 E359.36902
G1 X76.122 Y113.896 E359.38168
G1 X76.122 Y110.65 E359.46266
G1 X76.313 Y110.65 E359.46742
G0 F7800 X77.148 Y111.09
; TYPE:FILL
G1 F2664 X79.592 Y113.533 E359.55362
G0 F7800 X78.168 Y113.96
G1 F2664 X79.525 Y108.895 E359.68442
G0 F7800 X79.343 Y109.041
G1 F2664 X82.824 Y112.523 E359.80724
G0 F7800 X81.549 Y112.932
G1 F2664 X87.916 Y89.17 E360.4209
G0 F7800 X86.392 Y88.66
G1 F2664 X78.934 Y90.659 E360.61351
G0 F7800 X78.316 Y90.224
G1 F2664 X79.343 Y86.391 E360.71249
G0 F7800 X77.546 Y86.031
G1 F2664 X98.714 Y107.2 E361.45927
G0 F7800 X98.604 Y107.237
G1 F2664 X102.163 Y93.954 E361.8023
G0 F7800 X101.829 Y93.842
G1 F2664 X81.766 Y99.218 E362.32043
G0 F7800 X81.766 Y98.737
G1 F2664 X92.361 Y109.332 E362.6942
G0 F7800 X91.779 Y109.527
G1 F2664 X96.464 Y92.041 E363.14577
G0 F7800 X96.684 Y92.114
G1 F2664 X81.766 Y96.112 E363.53104
G0 F7800 X81.717 Y94.445
G0 X81.717 Y94.445
G1 F2664 X95.537 Y108.265 E364.01858
G0 F7800 X95.192 Y108.382
G1 F2664 X99.314 Y92.997 E364.41589
G0 F7800 X96.191 Y91.949
G0 X96.191 Y91.949
G1 F2664 X108.245 Y104.002 E364.84111
G0 F7800 X108.842 Y103.802
G1 F2664 X110.712 Y96.823 E365.02134
G0 F7800 X110.859 Y97.029
G1 F2664 X110.974 Y96.915 E365.02538
G0 F7800 X111.253 Y97.06
G1 F2664 X111.08 Y97.232 E365.03147
G0 F7800 X111.242 Y97.495
G1 F2664 X111.525 Y97.212 E365.04145
G0 F7800 X111.73 Y97.431
G1 F2664 X111.319 Y97.843 E365.05597
G0 F7800 X111.365 Y97.498
G1 F2664 X81.742 Y105.436 E365.82099
G0 F7800 X81.733 Y105.79
G1 F2664 X81.556 Y105.967 E365.82723
G0 F7800 X81.642 Y106.306
G1 F2664 X81.204 Y106.744 E365.84268
G0 F7800 X81.279 Y106.734
G1 F2664 X86.008 Y111.464 E366.00953
G0 F7800 X84.954 Y111.817
G1 F2664 X90.765 Y90.127 E366.56967
G0 F7800 X91.539 Y90.387
G1 F2664 X81.158 Y93.169 E366.83776
G0 F7800 X81.172 Y93.2
G1 F2664 X81.298 Y93.073 E366.84223
G0 F7800 X81.126 Y92.821
G1 F2664 X81.037 Y92.91 E366.84537
G0 F7800 X80.798 Y92.554
G1 F2664 X82.212 Y87.275 E366.98169
G0 F7800 X81.197 Y86.947
G1 F2664 X76.968 Y88.08 E367.09091
G0 F7800 X83.427 Y87.669
G1 F2664 X101.891 Y106.134 E367.74229
G0 F7800 X102.017 Y106.092
G1 F2664 X105.013 Y94.91 E368.03107
G0 F7800 X106.976 Y95.568
G0 X106.976 Y95.568
G1 F2664 X81.766 Y102.323 E368.68212
G0 F7800 X81.766 Y102.98
G1 F2664 X89.184 Y110.397 E368.94379
G0 F7800 X88.366 Y110.672
G1 F2664 X93.615 Y91.084 E369.44965
G0 F7800 X89.805 Y89.805
G0 X89.805 Y89.805
G1 F2664 X105.068 Y105.068 E369.9881
G0 F7800 X105.43 Y104.947
G1 F2664 X107.862 Y95.867 E370.22258
G0 F7800 X108.965 Y96.237
G1 F2664 X111.456 Y98.728 E370.31046
G0 F7800 X111.336 Y98.673
G1 F2664 X111.884 Y98.125 E370.32979
G0 F7800 X111.838 Y97.747
G1 F2664 X111.337 Y98.248 E370.34746
G0 F7800 X111.884 Y98.55
G1 F2664 X111.335 Y99.099 E370.36683
G0 F7800 X111.334 Y99.524
G1 F2664 X111.884 Y98.974 E370.38623
G0 F7800 X111.884 Y99.398
G1 F2664 X111.333 Y99.95 E370.40569
G0 F7800 X111.332 Y100.375
G1 F2664 X111.884 Y99.822 E370.42518
G0 F7800 X111.885 Y100.246
G1 F2664 X111.331 Y100.8 E370.44473
G0 F7800 X111.451 Y100.581
G1 F2664 X79.032 Y109.268 E371.28195
G0 F7800 X80.69 Y107.682
G0 X80.69 Y107.682
G1 F2664 X80.974 Y107.398 E371.29197
G0 F7800 X76.961 Y112.928
G0 X76.961 Y112.928
G1 F2664 X100.2 Y106.701 E371.89212
G0 F7800 X110.66 Y103.168
G0 X110.66 Y103.168
G1 F2664 X110.861 Y102.967 E371.89921
G0 F7800 X111.128 Y102.7
G1 F2664 X111.885 Y101.943 E371.92591
G0 F7800 X111.885 Y101.519
G1 F2664 X111.328 Y102.076 E371.94556
G0 F7800 X111.329 Y101.65
G1 F2664 X111.885 Y101.095 E371.96516
G0 F7800 X111.885 Y100.67
G1 F2664 X111.33 Y101.225 E371.98474
G0 F7800 X111.792 Y102.46
G1 F2664 X111.379 Y102.873 E371.99931
G0 F7800 X111.237 Y102.752
