; Generated with MatterSlice 1.0
; filamentDiameter = 1.75
; extrusionWidth = 0.3
; firstLayerExtrusionWidth = 0.3
; layerThickness = 0.2
; firstLayerThickness = 0.25
; automatic settings before start_gcode
G21 ; set units to millimeters
M107 ; fan off
M190 S75 ; wait for bed temperature to be reached
M104 T0 S210 ; start heating extruder 1
T0 ; set the active extruder to 0
; settings from start_gcode
G28 ; home all axes
G1 Z5 F5000 ; lift nozzle
; automatic settings after start_gcode
M109 T0 S210 ; wait for extruder 1 to reach temperature
T0 ; set the active extruder to 0
G90 ; use absolute coordinates
G92 E0 ; reset the expected extruder position
M82 ; use absolute distance for extrusion
; Layer count: 100
; Layer Change GCode
; LAYER:0
G4 P0
M107
G0 F7800 X167.24 Y98.256 Z0.25
; TYPE:SKIRT
G1 F1800 E0
G1 F720 X115.23 Y146.939 E2.22135
G1 X32.76 Y146.939 E4.79288
G1 X32.76 Y53.061 E7.72012
G1 X167.24 Y53.061 E11.91339
G1 X167.24 Y98.256 E13.32263
G0 F7800 X166.94 Y98.126
G1 F720 X115.111 Y146.639 E15.53624
G1 X33.06 Y146.639 E18.0947
G1 X33.06 Y53.361 E21.00324
G1 X166.94 Y53.361 E25.1778
G1 X166.94 Y98.126 E26.57364
G0 F7800 X160.79 Y95.459
G1 F720 X151.819 Y95.459 E26.85336
G1 X151.819 Y70.43 E27.6338
G1 X112.682 Y70.43 E28.85415
G1 X112.682 Y140.489 E31.03868
G1 X101.766 Y140.489 E31.37906
G1 X101.766 Y59.511 E33.90407
G1 X160.79 Y59.511 E35.74452
G1 X160.79 Y95.459 E36.86542
G0 F7800 X160.49 Y95.159
G1 F720 X152.119 Y95.159 E37.12644
G1 X152.119 Y70.13 E37.90688
G1 X112.382 Y70.13 E39.14594
G1 X112.382 Y140.189 E41.33047
G1 X102.066 Y140.189 E41.65214
G1 X102.066 Y59.811 E44.15844
G1 X160.49 Y59.811 E45.98018
G1 X160.49 Y95.159 E47.08238
G0 F7800 X98.234 Y95.459
G1 F720 X89.263 Y95.459 E47.3621
G1 X89.263 Y70.43 E48.14254
G1 X50.126 Y70.43 E49.36289
G1 X50.126 Y140.489 E51.54742
G1 X39.21 Y140.489 E51.8878
G1 X39.21 Y59.511 E54.41281
G1 X98.234 Y59.511 E56.25326
G1 X98.234 Y95.459 E57.37416
G0 F7800 X97.934 Y95.159
G1 F720 X89.563 Y95.159 E57.63518
G1 X89.563 Y70.13 E58.41562
G1 X49.826 Y70.13 E59.65468
G1 X49.826 Y140.189 E61.83921
G1 X39.51 Y140.189 E62.16088
G1 X39.51 Y59.811 E64.66718
G1 X97.934 Y59.811 E66.48892
G1 X97.934 Y95.159 E67.59112
G1 F1800 E66.59112
G0 F7800 X97.384 Y94.699
G0 X49.526 Y69.58
G0 X49.526 Y69.58
G0 X49.526 Y69.83
; TYPE:WALL-OUTER
G1 F1800 E67.59112
G1 F720 X49.526 Y139.889 E69.77565
G1 X39.81 Y139.889 E70.07861
G1 X39.81 Y60.111 E72.5662
G1 X97.634 Y60.111 E74.36923
G1 X97.634 Y94.859 E75.45272
G1 X89.863 Y94.859 E75.69503
G1 X89.863 Y69.83 E76.47547
G1 X49.526 Y69.83 E77.73323
G0 F7800 X49.226 Y69.53
; TYPE:WALL-INNER
G1 F720 X49.226 Y139.589 E79.91777
G1 X40.11 Y139.589 E80.20202
G1 X40.11 Y60.411 E82.6709
G1 X97.334 Y60.411 E84.45522
G1 X97.334 Y94.559 E85.52
G1 X90.163 Y94.559 E85.7436
G1 X90.163 Y69.53 E86.52404
G1 X49.226 Y69.53 E87.80051
G0 F7800 X48.926 Y69.23
G1 F720 X48.926 Y139.289 E89.98505
G1 X40.41 Y139.289 E90.25059
G1 X40.41 Y60.711 E92.70076
G1 X97.034 Y60.711 E94.46638
G1 X97.034 Y94.259 E95.51245
G1 X90.463 Y94.259 E95.71734
G1 X90.463 Y69.23 E96.49778
G1 X48.926 Y69.23 E97.79296
G0 F7800 X49.049 Y68.989
; TYPE:BOTTOM-FILL
G1 F720 X41.009 Y60.949 E98.1475
G0 F7800 X40.65 Y61.014
G1 F720 X48.685 Y69.05 E98.50184
G0 F7800 X48.685 Y69.474
G1 F720 X40.65 Y61.439 E98.85616
G0 F7800 X40.65 Y61.863
G1 F720 X48.685 Y69.898 E99.21048
G0 F7800 X48.685 Y70.323
G1 F720 X40.65 Y62.287 E99.56483
G0 F7800 X40.65 Y62.711
G1 F720 X48.685 Y70.747 E99.91917
G0 F7800 X48.685 Y71.171
G1 F720 X40.65 Y63.136 E100.27349
G0 F7800 X40.65 Y63.56
G1 F720 X48.685 Y71.595 E100.62781
G0 F7800 X48.685 Y72.02
G1 F720 X40.65 Y63.984 E100.98215
G0 F7800 X40.65 Y64.408
G1 F720 X48.685 Y72.444 E101.3365
G0 F7800 X48.685 Y72.868
G1 F720 X40.65 Y64.833 E101.69082
G0 F7800 X40.65 Y65.257
G1 F720 X48.685 Y73.293 E102.04516
G0 F7800 X48.685 Y73.717
G1 F720 X40.65 Y65.681 E102.3995
G0 F7800 X40.65 Y66.105
G1 F720 X48.685 Y74.141 E102.75384
G0 F7800 X48.685 Y74.565
G1 F720 X40.65 Y66.53 E103.10816
G0 F7800 X40.65 Y66.954
G1 F720 X48.685 Y74.99 E103.46251
G0 F7800 X48.685 Y75.414
G1 F720 X40.65 Y67.378 E103.81685
G0 F7800 X40.65 Y67.803
G1 F720 X48.685 Y75.838 E104.17117
G0 F7800 X48.685 Y76.262
G1 F720 X40.65 Y68.227 E104.52549
G0 F7800 X40.65 Y68.651
G1 F720 X48.685 Y76.687 E104.87983
G0 F7800 X48.685 Y77.111
G1 F720 X40.65 Y69.075 E105.23417
G0 F7800 X40.65 Y69.5
G1 F720 X48.685 Y77.535 E105.58849
G0 F7800 X48.685 Y77.959
G1 F720 X40.65 Y69.924 E105.94281
G0 F7800 X40.65 Y70.348
G1 F720 X48.685 Y78.384 E106.29716
G0 F7800 X48.685 Y78.808
G1 F720 X40.65 Y70.772 E106.6515
G0 F7800 X40.65 Y71.197
G1 F720 X48.685 Y79.232 E107.00582
G0 F7800 X48.685 Y79.656
G1 F720 X40.65 Y71.621 E107.36014
G0 F7800 X40.65 Y72.045
G1 F720 X48.685 Y80.081 E107.71448
G0 F7800 X48.685 Y80.505
G1 F720 X40.65 Y72.469 E108.06883
G0 F7800 X40.65 Y72.894
G1 F720 X48.685 Y80.929 E108.42315
G0 F7800 X48.685 Y81.354
G1 F720 X40.65 Y73.318 E108.77749
G0 F7800 X40.65 Y73.742
G1 F720 X48.685 Y81.778 E109.13183
G0 F7800 X48.685 Y82.202
G1 F720 X40.65 Y74.167 E109.48615
G0 F7800 X40.65 Y74.591
G1 F720 X48.685 Y82.626 E109.84047
G0 F7800 X48.685 Y83.051
G1 F720 X40.65 Y75.015 E110.19481
G0 F7800 X40.65 Y75.439
G1 F720 X48.685 Y83.475 E110.54916
G0 F7800 X48.685 Y83.899
G1 F720 X40.65 Y75.864 E110.90348
G0 F7800 X40.65 Y76.288
G1 F720 X48.685 Y84.323 E111.2578
G0 F7800 X48.685 Y84.748
G1 F720 X40.65 Y76.712 E111.61214
G0 F7800 X40.65 Y77.136
G1 F720 X48.685 Y85.172 E111.96648
G0 F7800 X48.685 Y85.596
G1 F720 X40.65 Y77.561 E112.3208
G0 F7800 X40.65 Y77.985
G1 F720 X48.685 Y86.02 E112.67512
G0 F7800 X48.685 Y86.445
G1 F720 X40.65 Y78.409 E113.02947
G0 F7800 X40.65 Y78.833
G1 F720 X48.685 Y86.869 E113.38381
G0 F7800 X48.685 Y87.293
G1 F720 X40.65 Y79.258 E113.73813
G0 F7800 X40.65 Y79.682
G1 F720 X48.685 Y87.718 E114.09247
G0 F7800 X48.685 Y88.142
G1 F720 X40.65 Y80.106 E114.44681
G0 F7800 X40.65 Y80.53
G1 F720 X48.685 Y88.566 E114.80116
G0 F7800 X48.685 Y88.99
G1 F720 X40.65 Y80.955 E115.15548
G0 F7800 X40.65 Y81.379
G1 F720 X48.685 Y89.415 E115.50982
G0 F7800 X48.685 Y89.839
G1 F720 X40.65 Y81.803 E115.86416
G0 F7800 X40.65 Y82.228
G1 F720 X48.685 Y90.263 E116.21848
G0 F7800 X48.685 Y90.687
G1 F720 X40.65 Y82.652 E116.5728
G0 F7800 X40.65 Y83.076
G1 F720 X48.685 Y91.112 E116.92714
G0 F7800 X48.685 Y91.536
G1 F720 X40.65 Y83.5 E117.28149
G0 F7800 X40.65 Y83.925
G1 F720 X48.685 Y91.96 E117.63581
G0 F7800 X48.685 Y92.384
G1 F720 X40.65 Y84.349 E117.99013
G0 F7800 X40.65 Y84.773
G1 F720 X48.685 Y92.809 E118.34447
G0 F7800 X48.685 Y93.233
G1 F720 X40.65 Y85.197 E118.69881
G0 F7800 X40.65 Y85.622
G1 F720 X48.685 Y93.657 E119.05313
G0 F7800 X48.685 Y94.081
G1 F720 X40.65 Y86.046 E119.40745
G0 F7800 X40.65 Y86.47
G1 F720 X48.685 Y94.506 E119.7618
G0 F7800 X48.685 Y94.93
G1 F720 X40.65 Y86.894 E120.11614
G0 F7800 X40.65 Y87.319
G1 F720 X48.685 Y95.354 E120.47046
G0 F7800 X48.685 Y95.779
G1 F720 X40.65 Y87.743 E120.8248
G0 F7800 X40.65 Y88.167
G1 F720 X48.685 Y96.203 E121.17914
G0 F7800 X48.685 Y96.627
G1 F720 X40.65 Y88.591 E121.53349
G0 F7800 X40.65 Y89.016
G1 F720 X48.685 Y97.051 E121.88781
G0 F7800 X48.685 Y97.476
G1 F720 X40.65 Y89.44 E122.24215
G0 F7800 X40.65 Y89.864
G1 F720 X48.685 Y97.9 E122.59649
G0 F7800 X48.685 Y98.324
G1 F720 X40.65 Y90.289 E122.95081
G0 F7800 X40.65 Y90.713
G1 F720 X48.685 Y98.748 E123.30513
G0 F7800 X48.685 Y99.173
G1 F720 X40.65 Y91.137 E123.65947
G0 F7800 X40.65 Y91.561
G1 F720 X48.685 Y99.597 E124.01382
G0 F7800 X48.685 Y100.021
G1 F720 X40.65 Y91.986 E124.36814
G0 F7800 X40.65 Y92.41
G1 F720 X48.685 Y100.445 E124.72246
G0 F7800 X48.685 Y100.87
G1 F720 X40.65 Y92.834 E125.0768
G0 F7800 X40.65 Y93.258
G1 F720 X48.685 Y101.294 E125.43114
G0 F7800 X48.685 Y101.718
G1 F720 X40.65 Y93.683 E125.78546
G0 F7800 X40.65 Y94.107
G1 F720 X48.685 Y102.142 E126.13978
G0 F7800 X48.685 Y102.567
G1 F720 X40.65 Y94.531 E126.49413
G0 F7800 X40.65 Y94.955
G1 F720 X48.685 Y102.991 E126.84847
G0 F7800 X48.685 Y103.415
G1 F720 X40.65 Y95.38 E127.20279
G0 F7800 X40.65 Y95.804
G1 F720 X48.685 Y103.84 E127.55713
G0 F7800 X48.685 Y104.264
G1 F720 X40.65 Y96.228 E127.91147
G0 F7800 X40.65 Y96.653
G1 F720 X48.685 Y104.688 E128.26579
G0 F7800 X48.685 Y105.112
G1 F720 X40.65 Y97.077 E128.62011
G0 F7800 X40.65 Y97.501
G1 F720 X48.685 Y105.537 E128.97446
G0 F7800 X48.685 Y105.961
G1 F720 X40.65 Y97.925 E129.3288
G0 F7800 X40.65 Y98.35
G1 F720 X48.685 Y106.385 E129.68312
G0 F7800 X48.685 Y106.809
G1 F720 X40.65 Y98.774 E130.03744
G0 F7800 X40.65 Y99.198
G1 F720 X48.685 Y107.234 E130.39178
G0 F7800 X48.685 Y107.658
G1 F720 X40.65 Y99.622 E130.74613
G0 F7800 X40.65 Y100.047
G1 F720 X48.685 Y108.082 E131.10045
G0 F7800 X48.685 Y108.506
G1 F720 X40.65 Y100.471 E131.45477
G0 F7800 X40.65 Y100.895
G1 F720 X48.685 Y108.931 E131.80911
G0 F7800 X48.685 Y109.355
G1 F720 X40.65 Y101.319 E132.16345
G0 F7800 X40.65 Y101.744
G1 F720 X48.685 Y109.779 E132.51777
G0 F7800 X48.685 Y110.204
G1 F720 X40.65 Y102.168 E132.87211
G0 F7800 X40.65 Y102.592
G1 F720 X48.685 Y110.628 E133.22646
G0 F7800 X48.685 Y111.052
G1 F720 X40.65 Y103.016 E133.5808
G0 F7800 X40.65 Y103.441
G1 F720 X48.685 Y111.476 E133.93512
G0 F7800 X48.685 Y111.901
G1 F720 X40.65 Y103.865 E134.28946
G0 F7800 X40.65 Y104.289
G1 F720 X48.685 Y112.325 E134.6438
G0 F7800 X48.685 Y112.749
G1 F720 X40.65 Y104.714 E134.99812
G0 F7800 X40.65 Y105.138
G1 F720 X48.685 Y113.173 E135.35244
G0 F7800 X48.685 Y113.598
G1 F720 X40.65 Y105.562 E135.70679
G0 F7800 X40.65 Y105.986
G1 F720 X48.685 Y114.022 E136.06113
G0 F7800 X48.685 Y114.446
G1 F720 X40.65 Y106.411 E136.41545
G0 F7800 X40.65 Y106.835
G1 F720 X48.685 Y114.87 E136.76977
G0 F7800 X48.685 Y115.295
G1 F720 X40.65 Y107.259 E137.12411
G0 F7800 X40.65 Y107.683
G1 F720 X48.685 Y115.719 E137.47846
G0 F7800 X48.685 Y116.143
G1 F720 X40.65 Y108.108 E137.83278
G0 F7800 X40.65 Y108.532
G1 F720 X48.685 Y116.567 E138.1871
G0 F7800 X48.685 Y116.992
G1 F720 X40.65 Y108.956 E138.54144
G0 F7800 X40.65 Y109.38
G1 F720 X48.685 Y117.416 E138.89578
G0 F7800 X48.685 Y117.84
G1 F720 X40.65 Y109.805 E139.2501
G0 F7800 X40.65 Y110.229
G1 F720 X48.685 Y118.265 E139.60444
G0 F7800 X48.685 Y118.689
G1 F720 X40.65 Y110.653 E139.95879
G0 F7800 X40.65 Y111.077
G1 F720 X48.685 Y119.113 E140.31313
G0 F7800 X48.685 Y119.537
G1 F720 X40.65 Y111.502 E140.66745
G0 F7800 X40.65 Y111.926
G1 F720 X48.685 Y119.962 E141.02179
G0 F7800 X48.685 Y120.386
G1 F720 X40.65 Y112.35 E141.37613
G0 F7800 X40.65 Y112.775
G1 F720 X48.685 Y120.81 E141.73045
G0 F7800 X48.685 Y121.234
G1 F720 X40.65 Y113.199 E142.08477
G0 F7800 X40.65 Y113.623
G1 F720 X48.685 Y121.659 E142.43912
G0 F7800 X48.685 Y122.083
G1 F720 X40.65 Y114.047 E142.79346
G0 F7800 X40.65 Y114.472
G1 F720 X48.685 Y122.507 E143.14778
G0 F7800 X48.685 Y122.931
G1 F720 X40.65 Y114.896 E143.5021
G0 F7800 X40.65 Y115.32
G1 F720 X48.685 Y123.356 E143.85644
G0 F7800 X48.685 Y123.78
G1 F720 X40.65 Y115.744 E144.21079
G0 F7800 X40.65 Y116.169
G1 F720 X48.685 Y124.204 E144.56511
G0 F7800 X48.685 Y124.628
G1 F720 X40.65 Y116.593 E144.91943
G0 F7800 X40.65 Y117.017
G1 F720 X48.685 Y125.053 E145.27377
G0 F7800 X48.685 Y125.477
G1 F720 X40.65 Y117.441 E145.62811
G0 F7800 X40.65 Y117.866
G1 F720 X48.685 Y125.901 E145.98243
G0 F7800 X48.685 Y126.326
G1 F720 X40.65 Y118.29 E146.33677
G0 F7800 X40.65 Y118.714
G1 F720 X48.685 Y126.75 E146.69112
G0 F7800 X48.685 Y127.174
G1 F720 X40.65 Y119.139 E147.04544
G0 F7800 X40.65 Y119.563
G1 F720 X48.685 Y127.598 E147.39976
G0 F7800 X48.685 Y128.023
G1 F720 X40.65 Y119.987 E147.7541
G0 F7800 X40.65 Y120.411
G1 F720 X48.685 Y128.447 E148.10844
G0 F7800 X48.685 Y128.871
G1 F720 X40.65 Y120.836 E148.46276
G0 F7800 X40.65 Y121.26
G1 F720 X48.685 Y129.295 E148.81708
G0 F7800 X48.685 Y129.72
G1 F720 X40.65 Y121.684 E149.17143
G0 F7800 X40.65 Y122.108
G1 F720 X48.685 Y130.144 E149.52577
G0 F7800 X48.685 Y130.568
G1 F720 X40.65 Y122.533 E149.88009
G0 F7800 X40.65 Y122.957
G1 F720 X48.685 Y130.992 E150.23441
G0 F7800 X48.685 Y131.417
G1 F720 X40.65 Y123.381 E150.58875
G0 F7800 X40.65 Y123.805
G1 F720 X48.685 Y131.841 E150.94309
G0 F7800 X48.685 Y132.265
G1 F720 X40.65 Y124.23 E151.29741
G0 F7800 X40.65 Y124.654
G1 F720 X48.685 Y132.69 E151.65176
G0 F7800 X48.685 Y133.114
G1 F720 X40.65 Y125.078 E152.0061
G0 F7800 X40.65 Y125.502
G1 F720 X48.685 Y133.538 E152.36044
G0 F7800 X48.685 Y133.962
G1 F720 X40.65 Y125.927 E152.71476
G0 F7800 X40.65 Y126.351
G1 F720 X48.685 Y134.387 E153.0691
G0 F7800 X48.685 Y134.811
G1 F720 X40.65 Y126.775 E153.42345
G0 F7800 X40.65 Y127.2
G1 F720 X48.685 Y135.235 E153.77777
G0 F7800 X48.685 Y135.659
G1 F720 X40.65 Y127.624 E154.13209
G0 F7800 X40.65 Y128.048
G1 F720 X48.685 Y136.084 E154.48643
G0 F7800 X48.685 Y136.508
G1 F720 X40.65 Y128.472 E154.84077
G0 F7800 X40.65 Y128.897
G1 F720 X48.685 Y136.932 E155.19509
G0 F7800 X48.685 Y137.356
G1 F720 X40.65 Y129.321 E155.54941
G0 F7800 X40.65 Y129.745
G1 F720 X48.685 Y137.781 E155.90376
G0 F7800 X48.685 Y138.205
G1 F720 X40.65 Y130.169 E156.2581
G0 F7800 X40.65 Y130.594
G1 F720 X48.685 Y138.629 E156.61242
G0 F7800 X48.68 Y139.048
G1 F720 X40.65 Y131.018 E156.96652
G0 F7800 X40.65 Y131.442
G1 F720 X48.255 Y139.048 E157.3019
G0 F7800 X47.831 Y139.048
G1 F720 X40.65 Y131.866 E157.61858
G0 F7800 X40.65 Y132.291
G1 F720 X47.407 Y139.048 E157.91655
G0 F7800 X46.983 Y139.048
G1 F720 X40.65 Y132.715 E158.19581
G0 F7800 X40.65 Y133.139
G1 F720 X46.558 Y139.048 E158.45636
G0 F7800 X46.134 Y139.048
G1 F720 X40.65 Y133.563 E158.69821
G0 F7800 X40.65 Y133.988
G1 F720 X45.71 Y139.048 E158.92134
G0 F7800 X45.285 Y139.048
G1 F720 X40.65 Y134.412 E159.12576
G0 F7800 X40.65 Y134.836
G1 F720 X44.861 Y139.048 E159.31147
G0 F7800 X44.437 Y139.048
G1 F720 X40.65 Y135.261 E159.47847
G0 F7800 X40.65 Y135.685
G1 F720 X44.013 Y139.048 E159.62677
G0 F7800 X43.588 Y139.048
G1 F720 X40.65 Y136.109 E159.75635
G0 F7800 X40.65 Y136.533
G1 F720 X43.164 Y139.048 E159.86723
G0 F7800 X42.74 Y139.048
G1 F720 X40.65 Y136.958 E159.95939
G0 F7800 X40.65 Y137.382
G1 F720 X42.316 Y139.048 E160.03286
G0 F7800 X41.891 Y139.048
G1 F720 X40.65 Y137.806 E160.0876
G0 F7800 X40.65 Y138.23
G1 F720 X41.467 Y139.048 E160.12365
G0 F7800 X41.043 Y139.048
G1 F720 X40.65 Y138.655 E160.14098
G1 F1800 E159.14098
G0 F7800 X49.227 Y130.945
G0 X49.235 Y69.539
G0 X90.154 Y69.539
G0 X90.16 Y94.16
G0 X90.703 Y93.673
G0 X90.703 Y93.673
G1 F1800 E160.14098
G1 F720 X91.048 Y94.018 E160.1562
G0 F7800 X91.472 Y94.018
G1 F720 X90.703 Y93.248 E160.19013
G0 F7800 X90.703 Y92.824
G1 F720 X91.897 Y94.018 E160.24278
G0 F7800 X92.321 Y94.018
G1 F720 X90.703 Y92.4 E160.31413
G0 F7800 X90.703 Y91.976
G1 F720 X92.745 Y94.018 E160.40418
G0 F7800 X93.169 Y94.018
G1 F720 X90.703 Y91.551 E160.51294
G0 F7800 X90.703 Y91.127
G1 F720 X93.594 Y94.018 E160.64043
G0 F7800 X94.019 Y94.019
G1 F720 X90.703 Y90.703 E160.78665
G0 F7800 X90.703 Y90.279
G1 F720 X94.443 Y94.019 E160.95158
G0 F7800 X94.867 Y94.019
G1 F720 X90.703 Y89.854 E161.13522
G0 F7800 X90.703 Y89.43
G1 F720 X95.291 Y94.019 E161.33756
G0 F7800 X95.716 Y94.019
G1 F720 X90.703 Y89.006 E161.55862
G0 F7800 X90.703 Y88.582
G1 F720 X96.14 Y94.019 E161.79837
G0 F7800 X96.564 Y94.019
G1 F720 X90.703 Y88.157 E162.05685
G0 F7800 X90.703 Y87.733
G1 F720 X96.793 Y93.823 E162.3254
G0 F7800 X96.793 Y93.399
G1 F720 X90.703 Y87.309 E162.59395
G0 F7800 X90.703 Y86.885
G1 F720 X96.793 Y92.975 E162.8625
G0 F7800 X96.793 Y92.551
G1 F720 X90.703 Y86.46 E163.13108
G0 F7800 X90.703 Y86.036
G1 F720 X96.793 Y92.126 E163.39963
G0 F7800 X96.793 Y91.702
G1 F720 X90.703 Y85.612 E163.66818
G0 F7800 X90.703 Y85.187
G1 F720 X96.793 Y91.278 E163.93675
G0 F7800 X96.793 Y90.854
G1 F720 X90.703 Y84.763 E164.20533
G0 F7800 X90.703 Y84.339
G1 F720 X96.793 Y90.429 E164.47388
G0 F7800 X96.793 Y90.005
G1 F720 X90.703 Y83.915 E164.74243
G0 F7800 X90.703 Y83.49
G1 F720 X96.793 Y89.581 E165.011
G0 F7800 X96.793 Y89.156
G1 F720 X90.703 Y83.066 E165.27955
G0 F7800 X90.703 Y82.642
G1 F720 X96.793 Y88.732 E165.54811
G0 F7800 X96.793 Y88.308
G1 F720 X90.703 Y82.218 E165.81666
G0 F7800 X90.703 Y81.793
G1 F720 X96.793 Y87.884 E166.08523
G0 F7800 X96.793 Y87.459
G1 F720 X90.702 Y81.368 E166.35383
G0 F7800 X90.702 Y80.944
G1 F720 X96.793 Y87.035 E166.62242
G0 F7800 X96.793 Y86.611
G1 F720 X90.702 Y80.52 E166.89102
G0 F7800 X90.702 Y80.096
G1 F720 X96.793 Y86.187 E167.15961
G0 F7800 X96.793 Y85.762
G1 F720 X90.702 Y79.671 E167.42821
G0 F7800 X90.702 Y79.247
G1 F720 X96.793 Y85.338 E167.6968
G0 F7800 X96.793 Y84.914
G1 F720 X90.702 Y78.823 E167.9654
G0 F7800 X90.702 Y78.399
G1 F720 X96.793 Y84.49 E168.234
G0 F7800 X96.793 Y84.065
G1 F720 X90.702 Y77.974 E168.50259
G0 F7800 X90.702 Y77.55
G1 F720 X96.793 Y83.641 E168.77119
G0 F7800 X96.793 Y83.217
G1 F720 X90.702 Y77.126 E169.03978
G0 F7800 X90.702 Y76.701
G1 F720 X96.793 Y82.793 E169.3084
G0 F7800 X96.793 Y82.368
G1 F720 X90.702 Y76.277 E169.577
G0 F7800 X90.702 Y75.853
G1 F720 X96.793 Y81.944 E169.84559
G0 F7800 X96.793 Y81.52
G1 F720 X90.702 Y75.429 E170.11419
G0 F7800 X90.702 Y75.004
G1 F720 X96.793 Y81.095 E170.38278
G0 F7800 X96.793 Y80.671
G1 F720 X90.702 Y74.58 E170.65138
G0 F7800 X90.702 Y74.156
G1 F720 X96.793 Y80.247 E170.91997
G0 F7800 X96.793 Y79.823
G1 F720 X90.702 Y73.732 E171.18857
G0 F7800 X90.702 Y73.307
G1 F720 X96.793 Y79.398 E171.45716
G0 F7800 X96.793 Y78.974
G1 F720 X90.702 Y72.883 E171.72576
G0 F7800 X90.702 Y72.459
G1 F720 X96.793 Y78.55 E171.99436
G0 F7800 X96.793 Y78.126
G1 F720 X90.702 Y72.035 E172.26295
G0 F7800 X90.702 Y71.61
G1 F720 X96.793 Y77.701 E172.53155
G0 F7800 X96.793 Y77.276
G1 F720 X90.702 Y71.186 E172.80012
G0 F7800 X90.702 Y70.762
G1 F720 X96.793 Y76.852 E173.06869
G0 F7800 X96.793 Y76.428
G1 F720 X90.702 Y70.338 E173.33727
G0 F7800 X90.702 Y69.913
G1 F720 X96.793 Y76.004 E173.60586
G0 F7800 X96.793 Y75.579
G1 F720 X90.702 Y69.489 E173.87444
G0 F7800 X90.702 Y69.065
G1 F720 X96.793 Y75.155 E174.14301
G0 F7800 X96.793 Y74.731
G1 F720 X83.012 Y60.951 E174.75069
G0 F7800 X83.437 Y60.951
G1 F720 X96.793 Y74.307 E175.33965
G0 F7800 X96.793 Y73.882
G1 F720 X83.861 Y60.951 E175.90989
G0 F7800 X84.285 Y60.951
G1 F720 X96.793 Y73.458 E176.46144
G0 F7800 X96.793 Y73.034
G1 F720 X84.709 Y60.951 E176.99429
G0 F7800 X85.134 Y60.951
G1 F720 X96.793 Y72.609 E177.50839
G0 F7800 X96.793 Y72.185
G1 F720 X85.558 Y60.951 E178.0038
G0 F7800 X85.982 Y60.951
G1 F720 X96.793 Y71.761 E178.48051
G0 F7800 X96.793 Y71.337
G1 F720 X86.407 Y60.951 E178.93851
G0 F7800 X86.831 Y60.951
G1 F720 X96.793 Y70.912 E179.37778
G0 F7800 X96.793 Y70.488
G1 F720 X87.255 Y60.951 E179.79836
G0 F7800 X87.679 Y60.951
G1 F720 X96.793 Y70.064 E180.20024
G0 F7800 X96.793 Y69.64
G1 F720 X88.104 Y60.951 E180.5834
G0 F7800 X88.528 Y60.951
G1 F720 X96.793 Y69.215 E180.94784
G0 F7800 X96.793 Y68.791
G1 F720 X88.952 Y60.951 E181.29358
G0 F7800 X89.376 Y60.951
G1 F720 X96.793 Y68.367 E181.62063
G0 F7800 X96.793 Y67.943
G1 F720 X89.801 Y60.951 E181.92895
G0 F7800 X90.225 Y60.951
G1 F720 X96.793 Y67.518 E182.21856
G0 F7800 X96.793 Y67.094
G1 F720 X90.649 Y60.951 E182.48947
G0 F7800 X91.073 Y60.951
G1 F720 X96.793 Y66.67 E182.74169
G0 F7800 X96.793 Y66.246
G1 F720 X91.498 Y60.951 E182.97518
G0 F7800 X91.922 Y60.951
G1 F720 X96.793 Y65.821 E183.18995
G0 F7800 X96.793 Y65.397
G1 F720 X92.346 Y60.951 E183.38603
G0 F7800 X92.77 Y60.951
G1 F720 X96.793 Y64.973 E183.56341
G0 F7800 X96.793 Y64.548
G1 F720 X93.195 Y60.951 E183.72205
G0 F7800 X93.619 Y60.951
G1 F720 X96.793 Y64.124 E183.86199
G0 F7800 X96.793 Y63.7
G1 F720 X94.043 Y60.951 E183.98324
G0 F7800 X94.468 Y60.951
G1 F720 X96.793 Y63.276 E184.08577
G0 F7800 X96.793 Y62.851
G1 F720 X94.892 Y60.951 E184.16957
G0 F7800 X95.316 Y60.951
G1 F720 X96.793 Y62.427 E184.23468
G0 F7800 X96.793 Y62.003
G1 F720 X95.74 Y60.951 E184.28109
G0 F7800 X96.165 Y60.951
G1 F720 X96.793 Y61.579 E184.30879
G0 F7800 X96.793 Y61.154
G1 F720 X96.589 Y60.951 E184.31776
G0 F7800 X90.627 Y68.99
G1 F720 X82.587 Y60.95 E184.6723
G0 F7800 X82.163 Y60.95
G1 F720 X90.203 Y68.99 E185.02684
G0 F7800 X89.779 Y68.99
G1 F720 X81.739 Y60.95 E185.38138
G0 F7800 X81.315 Y60.95
G1 F720 X89.354 Y68.99 E185.7359
G0 F7800 X88.93 Y68.99
G1 F720 X80.89 Y60.95 E186.09044
G0 F7800 X80.466 Y60.95
G1 F720 X88.506 Y68.99 E186.44498
G0 F7800 X88.082 Y68.99
G1 F720 X80.042 Y60.95 E186.79953
G0 F7800 X79.618 Y60.95
G1 F720 X87.657 Y68.99 E187.15404
G0 F7800 X87.233 Y68.99
G1 F720 X79.193 Y60.95 E187.50858
G0 F7800 X78.769 Y60.95
G1 F720 X86.809 Y68.99 E187.86313
G0 F7800 X86.385 Y68.99
G1 F720 X78.345 Y60.95 E188.21767
G0 F7800 X77.921 Y60.95
G1 F720 X85.96 Y68.99 E188.57219
G0 F7800 X85.536 Y68.99
G1 F720 X77.496 Y60.95 E188.92673
G0 F7800 X77.072 Y60.95
G1 F720 X85.112 Y68.99 E189.28127
G0 F7800 X84.688 Y68.99
G1 F720 X76.648 Y60.95 E189.63581
G0 F7800 X76.223 Y60.95
G1 F720 X84.263 Y68.99 E189.99035
G0 F7800 X83.839 Y68.99
G1 F720 X75.799 Y60.95 E190.34489
G0 F7800 X75.375 Y60.95
G1 F720 X83.415 Y68.99 E190.69943
G0 F7800 X82.991 Y68.99
G1 F720 X74.951 Y60.95 E191.05397
G0 F7800 X74.526 Y60.95
G1 F720 X82.566 Y68.99 E191.40851
G0 F7800 X82.142 Y68.99
G1 F720 X74.102 Y60.95 E191.76305
G0 F7800 X73.678 Y60.95
G1 F720 X81.718 Y68.99 E192.11759
G0 F7800 X81.293 Y68.99
G1 F720 X73.254 Y60.95 E192.47211
G0 F7800 X72.829 Y60.95
G1 F720 X80.869 Y68.99 E192.82665
G0 F7800 X80.445 Y68.99
G1 F720 X72.405 Y60.95 E193.18119
G0 F7800 X71.981 Y60.95
G1 F720 X80.021 Y68.99 E193.53574
G0 F7800 X79.596 Y68.99
G1 F720 X71.557 Y60.95 E193.89025
G0 F7800 X71.132 Y60.95
G1 F720 X79.172 Y68.99 E194.2448
G0 F7800 X78.748 Y68.99
G1 F720 X70.708 Y60.95 E194.59934
G0 F7800 X70.284 Y60.95
G1 F720 X78.324 Y68.99 E194.95388
G0 F7800 X77.899 Y68.99
G1 F720 X69.86 Y60.95 E195.3084
G0 F7800 X69.435 Y60.95
G1 F720 X77.475 Y68.99 E195.66294
G0 F7800 X77.051 Y68.99
G1 F720 X69.011 Y60.95 E196.01748
G0 F7800 X68.587 Y60.95
G1 F720 X76.627 Y68.99 E196.37202
G0 F7800 X76.202 Y68.99
G1 F720 X68.162 Y60.95 E196.72656
G0 F7800 X67.738 Y60.95
G1 F720 X75.778 Y68.99 E197.0811
G0 F7800 X75.354 Y68.99
G1 F720 X67.314 Y60.95 E197.43564
G0 F7800 X66.89 Y60.95
G1 F720 X74.929 Y68.99 E197.79016
G0 F7800 X74.505 Y68.99
G1 F720 X66.465 Y60.95 E198.1447
G0 F7800 X66.041 Y60.95
G1 F720 X74.081 Y68.99 E198.49924
G0 F7800 X73.657 Y68.99
G1 F720 X65.617 Y60.95 E198.85378
G0 F7800 X65.193 Y60.95
G1 F720 X73.232 Y68.99 E199.2083
G0 F7800 X72.808 Y68.99
G1 F720 X64.768 Y60.95 E199.56284
G0 F7800 X64.344 Y60.95
G1 F720 X72.384 Y68.99 E199.91738
G0 F7800 X71.96 Y68.99
G1 F720 X63.92 Y60.95 E200.27192
G0 F7800 X63.496 Y60.95
G1 F720 X71.535 Y68.99 E200.62644
G0 F7800 X71.111 Y68.99
G1 F720 X63.071 Y60.95 E200.98098
G0 F7800 X62.647 Y60.95
G1 F720 X70.687 Y68.99 E201.33553
G0 F7800 X70.263 Y68.99
G1 F720 X62.223 Y60.95 E201.69007
G0 F7800 X61.799 Y60.95
G1 F720 X69.838 Y68.99 E202.04458
G0 F7800 X69.413 Y68.989
G1 F720 X61.374 Y60.95 E202.39908
G0 F7800 X60.95 Y60.95
G1 F720 X68.989 Y68.989 E202.75358
G0 F7800 X68.565 Y68.989
G1 F720 X60.526 Y60.95 E203.10808
G0 F7800 X60.101 Y60.95
G1 F720 X68.141 Y68.989 E203.46259
G0 F7800 X67.716 Y68.989
G1 F720 X59.677 Y60.95 E203.81709
G0 F7800 X59.253 Y60.95
G1 F720 X67.292 Y68.989 E204.17159
G0 F7800 X66.868 Y68.989
G1 F720 X58.829 Y60.95 E204.52608
G0 F7800 X58.404 Y60.95
G1 F720 X66.443 Y68.989 E204.88058
G0 F7800 X66.019 Y68.989
G1 F720 X57.98 Y60.95 E205.23508
G0 F7800 X57.556 Y60.95
G1 F720 X65.595 Y68.989 E205.58957
G0 F7800 X65.171 Y68.989
G1 F720 X57.132 Y60.95 E205.94407
G0 F7800 X56.707 Y60.95
G1 F720 X64.746 Y68.989 E206.29857
G0 F7800 X64.322 Y68.989
G1 F720 X56.283 Y60.95 E206.65307
G0 F7800 X55.859 Y60.95
G1 F720 X63.898 Y68.989 E207.00756
G0 F7800 X63.474 Y68.989
G1 F720 X55.435 Y60.95 E207.36206
G0 F7800 X55.01 Y60.95
G1 F720 X63.049 Y68.989 E207.71656
G0 F7800 X62.625 Y68.989
G1 F720 X54.585 Y60.949 E208.0711
G0 F7800 X54.161 Y60.949
G1 F720 X62.201 Y68.989 E208.42564
G0 F7800 X61.777 Y68.989
G1 F720 X53.737 Y60.949 E208.78018
G0 F7800 X53.313 Y60.949
G1 F720 X61.352 Y68.989 E209.1347
G0 F7800 X60.928 Y68.989
G1 F720 X52.888 Y60.949 E209.48924
G0 F7800 X52.464 Y60.949
G1 F720 X60.504 Y68.989 E209.84378
G0 F7800 X60.08 Y68.989
G1 F720 X52.04 Y60.949 E210.19832
G0 F7800 X51.615 Y60.949
G1 F720 X59.655 Y68.989 E210.55286
G0 F7800 X59.231 Y68.989
G1 F720 X51.191 Y60.949 E210.9074
G0 F7800 X50.767 Y60.949
G1 F720 X58.807 Y68.989 E211.26194
G0 F7800 X58.382 Y68.989
G1 F720 X50.343 Y60.949 E211.61646
G0 F7800 X49.918 Y60.949
G1 F720 X57.958 Y68.989 E211.971
G0 F7800 X57.534 Y68.989
G1 F720 X49.494 Y60.949 E212.32554
G0 F7800 X49.07 Y60.949
G1 F720 X57.11 Y68.989 E212.68008
G0 F7800 X56.685 Y68.989
G1 F720 X48.646 Y60.949 E213.0346
G0 F7800 X48.221 Y60.949
G1 F720 X56.261 Y68.989 E213.38914
G0 F7800 X55.837 Y68.989
G1 F720 X47.797 Y60.949 E213.74368
G0 F7800 X47.373 Y60.949
G1 F720 X55.413 Y68.989 E214.09823
G0 F7800 X54.988 Y68.989
G1 F720 X46.949 Y60.949 E214.45274
G0 F7800 X46.524 Y60.949
G1 F720 X54.564 Y68.989 E214.80729
G0 F7800 X54.14 Y68.989
G1 F720 X46.1 Y60.949 E215.16183
G0 F7800 X45.676 Y60.949
G1 F720 X53.716 Y68.989 E215.51637
G0 F7800 X53.291 Y68.989
G1 F720 X45.252 Y60.949 E215.87089
G0 F7800 X44.827 Y60.949
G1 F720 X52.867 Y68.989 E216.22543
G0 F7800 X52.443 Y68.989
G1 F720 X44.403 Y60.949 E216.57997
G0 F7800 X43.979 Y60.949
G1 F720 X52.019 Y68.989 E216.93451
G0 F7800 X51.594 Y68.989
G1 F720 X43.554 Y60.949 E217.28905
G0 F7800 X43.13 Y60.949
G1 F720 X51.17 Y68.989 E217.64359
G0 F7800 X50.746 Y68.989
G1 F720 X42.706 Y60.949 E217.99813
G0 F7800 X42.282 Y60.949
G1 F720 X50.321 Y68.989 E218.35265
G0 F7800 X49.897 Y68.989
G1 F720 X41.857 Y60.949 E218.70719
G0 F7800 X41.433 Y60.949
G1 F720 X49.473 Y68.989 E219.06173
G1 F1800 E218.06173
G0 F7800 X112.082 Y69.83
; TYPE:WALL-OUTER
G1 F1800 E219.06173
G1 F720 X112.082 Y139.889 E221.24627
G1 X102.366 Y139.889 E221.54923
G1 X102.366 Y60.111 E224.03681
G1 X160.19 Y60.111 E225.83985
G1 X160.19 Y94.859 E226.92334
G1 X152.419 Y94.859 E227.16565
G1 X152.419 Y69.83 E227.94609
G1 X112.082 Y69.83 E229.20385
G0 F7800 X111.782 Y69.53
; TYPE:WALL-INNER
G1 F720 X111.782 Y139.589 E231.38838
G1 X102.666 Y139.589 E231.67263
G1 X102.666 Y60.411 E234.14151
G1 X159.89 Y60.411 E235.92584
G1 X159.89 Y94.559 E236.99062
G1 X152.719 Y94.559 E237.21422
G1 X152.719 Y69.53 E237.99466
G1 X111.782 Y69.53 E239.27113
G0 F7800 X111.482 Y69.23
G1 F720 X111.482 Y139.289 E241.45567
G1 X102.966 Y139.289 E241.72121
G1 X102.966 Y60.711 E244.17138
G1 X159.59 Y60.711 E245.93699
G1 X159.59 Y94.259 E246.98306
G1 X153.019 Y94.259 E247.18796
G1 X153.019 Y69.23 E247.9684
G1 X111.482 Y69.23 E249.26358
G0 F7800 X111.241 Y69.239
; TYPE:BOTTOM-FILL
G1 F720 X103.205 Y61.202 E249.61796
G0 F7800 X103.377 Y60.951
G1 F720 X111.416 Y68.99 E249.97246
G0 F7800 X111.84 Y68.99
G1 F720 X103.801 Y60.951 E250.32696
G0 F7800 X104.226 Y60.951
G1 F720 X112.265 Y68.99 E250.68145
G0 F7800 X112.689 Y68.99
G1 F720 X104.65 Y60.951 E251.03595
G0 F7800 X105.074 Y60.951
G1 F720 X113.113 Y68.99 E251.39045
G0 F7800 X113.538 Y68.99
G1 F720 X105.498 Y60.951 E251.74497
G0 F7800 X105.923 Y60.951
G1 F720 X113.962 Y68.99 E252.09946
G0 F7800 X114.386 Y68.99
G1 F720 X106.347 Y60.951 E252.45396
G0 F7800 X106.771 Y60.951
G1 F720 X114.81 Y68.99 E252.80846
G0 F7800 X115.235 Y68.99
G1 F720 X107.195 Y60.951 E253.16298
G0 F7800 X107.62 Y60.951
G1 F720 X115.659 Y68.99 E253.51747
G0 F7800 X116.083 Y68.99
G1 F720 X108.044 Y60.951 E253.87197
G0 F7800 X108.468 Y60.951
G1 F720 X116.507 Y68.99 E254.22647
G0 F7800 X116.932 Y68.99
G1 F720 X108.893 Y60.951 E254.58096
G0 F7800 X109.317 Y60.951
G1 F720 X117.356 Y68.99 E254.93546
G0 F7800 X117.78 Y68.99
G1 F720 X109.741 Y60.951 E255.28996
G0 F7800 X110.165 Y60.951
G1 F720 X118.204 Y68.99 E255.64445
G0 F7800 X118.629 Y68.99
G1 F720 X110.59 Y60.951 E255.99895
G0 F7800 X111.014 Y60.951
G1 F720 X119.053 Y68.99 E256.35345
G0 F7800 X119.477 Y68.99
G1 F720 X111.438 Y60.951 E256.70794
G0 F7800 X111.862 Y60.951
G1 F720 X119.901 Y68.99 E257.06244
G0 F7800 X120.326 Y68.99
G1 F720 X112.287 Y60.951 E257.41694
G0 F7800 X112.711 Y60.951
G1 F720 X120.75 Y68.99 E257.77143
G0 F7800 X121.174 Y68.99
G1 F720 X113.135 Y60.951 E258.12593
G0 F7800 X113.559 Y60.951
G1 F720 X121.599 Y68.99 E258.48045
G0 F7800 X122.023 Y68.99
G1 F720 X113.984 Y60.951 E258.83495
G0 F7800 X114.408 Y60.951
G1 F720 X122.447 Y68.99 E259.18944
G0 F7800 X122.871 Y68.99
G1 F720 X114.832 Y60.951 E259.54394
G0 F7800 X115.256 Y60.951
G1 F720 X123.296 Y68.99 E259.89846
G0 F7800 X123.72 Y68.99
G1 F720 X115.681 Y60.951 E260.25296
G0 F7800 X116.105 Y60.951
G1 F720 X124.144 Y68.99 E260.60745
G0 F7800 X124.568 Y68.99
G1 F720 X116.529 Y60.951 E260.96195
G0 F7800 X116.954 Y60.951
G1 F720 X124.993 Y68.99 E261.31645
G0 F7800 X125.417 Y68.99
G1 F720 X117.378 Y60.951 E261.67094
G0 F7800 X117.802 Y60.951
G1 F720 X125.841 Y68.99 E262.02544
G0 F7800 X126.265 Y68.99
G1 F720 X118.226 Y60.951 E262.37994
G0 F7800 X118.651 Y60.951
G1 F720 X126.69 Y68.99 E262.73443
G0 F7800 X127.114 Y68.99
G1 F720 X119.075 Y60.951 E263.08893
G0 F7800 X119.499 Y60.951
G1 F720 X127.538 Y68.99 E263.44343
G0 F7800 X127.962 Y68.99
G1 F720 X119.923 Y60.951 E263.79792
G0 F7800 X120.348 Y60.951
G1 F720 X128.387 Y68.99 E264.15242
G0 F7800 X128.811 Y68.99
G1 F720 X120.772 Y60.951 E264.50692
G0 F7800 X121.196 Y60.951
G1 F720 X129.235 Y68.99 E264.86141
G0 F7800 X129.66 Y68.99
G1 F720 X121.62 Y60.951 E265.21593
G0 F7800 X122.045 Y60.951
G1 F720 X130.084 Y68.99 E265.57043
G0 F7800 X130.508 Y68.99
G1 F720 X122.469 Y60.951 E265.92493
G0 F7800 X122.893 Y60.951
G1 F720 X130.932 Y68.99 E266.27942
G0 F7800 X131.357 Y68.99
G1 F720 X123.318 Y60.951 E266.63392
G0 F7800 X123.742 Y60.951
G1 F720 X131.781 Y68.99 E266.98842
G0 F7800 X132.205 Y68.99
G1 F720 X124.166 Y60.951 E267.34291
G0 F7800 X124.59 Y60.951
G1 F720 X132.629 Y68.989 E267.69739
G0 F7800 X133.053 Y68.989
G1 F720 X125.015 Y60.951 E268.05184
G0 F7800 X125.439 Y60.951
G1 F720 X133.477 Y68.989 E268.40629
G0 F7800 X133.901 Y68.989
G1 F720 X125.863 Y60.951 E268.76075
G0 F7800 X126.287 Y60.951
G1 F720 X134.326 Y68.989 E269.11522
G0 F7800 X134.75 Y68.989
G1 F720 X126.712 Y60.951 E269.46967
G0 F7800 X127.136 Y60.951
G1 F720 X135.174 Y68.989 E269.82413
G0 F7800 X135.599 Y68.989
G1 F720 X127.56 Y60.951 E270.1786
G0 F7800 X127.984 Y60.951
G1 F720 X136.023 Y68.989 E270.53308
G0 F7800 X136.447 Y68.989
G1 F720 X128.409 Y60.951 E270.88753
G0 F7800 X128.833 Y60.951
G1 F720 X136.871 Y68.989 E271.24198
G0 F7800 X137.296 Y68.989
G1 F720 X129.257 Y60.951 E271.59646
G0 F7800 X129.681 Y60.951
G1 F720 X137.72 Y68.989 E271.95093
G0 F7800 X138.144 Y68.989
G1 F720 X130.106 Y60.951 E272.30538
G0 F7800 X130.53 Y60.951
G1 F720 X138.568 Y68.989 E272.65984
G0 F7800 X138.993 Y68.989
G1 F720 X130.954 Y60.951 E273.01431
G0 F7800 X131.379 Y60.951
G1 F720 X139.417 Y68.989 E273.36876
G0 F7800 X139.841 Y68.989
G1 F720 X131.803 Y60.951 E273.72322
G0 F7800 X132.227 Y60.951
G1 F720 X140.265 Y68.989 E274.07767
G0 F7800 X140.69 Y68.989
G1 F720 X132.651 Y60.951 E274.43214
G0 F7800 X133.076 Y60.951
G1 F720 X141.114 Y68.989 E274.7866
G0 F7800 X141.538 Y68.989
G1 F720 X133.5 Y60.951 E275.14105
G0 F7800 X133.924 Y60.951
G1 F720 X141.963 Y68.989 E275.49552
G0 F7800 X142.387 Y68.989
G1 F720 X134.348 Y60.951 E275.85
G0 F7800 X134.773 Y60.951
G1 F720 X142.811 Y68.989 E276.20445
G0 F7800 X143.235 Y68.989
G1 F720 X135.197 Y60.951 E276.5589
G0 F7800 X135.621 Y60.951
G1 F720 X143.66 Y68.989 E276.91338
G0 F7800 X144.084 Y68.989
G1 F720 X136.045 Y60.951 E277.26785
G0 F7800 X136.47 Y60.951
G1 F720 X144.508 Y68.989 E277.62231
G0 F7800 X144.932 Y68.989
G1 F720 X136.894 Y60.951 E277.97676
G0 F7800 X137.318 Y60.951
G1 F720 X145.357 Y68.989 E278.33123
G0 F7800 X145.781 Y68.989
G1 F720 X137.742 Y60.951 E278.68571
G0 F7800 X138.167 Y60.951
G1 F720 X146.205 Y68.989 E279.04016
G0 F7800 X146.629 Y68.989
G1 F720 X138.591 Y60.951 E279.39461
G0 F7800 X139.015 Y60.951
G1 F720 X147.054 Y68.989 E279.74909
G0 F7800 X147.478 Y68.989
G1 F720 X139.44 Y60.951 E280.10354
G0 F7800 X139.864 Y60.951
G1 F720 X147.902 Y68.989 E280.45799
G0 F7800 X148.326 Y68.989
G1 F720 X140.288 Y60.951 E280.81245
G0 F7800 X140.712 Y60.951
G1 F720 X148.751 Y68.989 E281.16692
G0 F7800 X149.175 Y68.989
G1 F720 X141.137 Y60.951 E281.52137
G0 F7800 X141.561 Y60.951
G1 F720 X149.599 Y68.989 E281.87583
G0 F7800 X150.024 Y68.989
G1 F720 X141.985 Y60.951 E282.2303
G0 F7800 X142.409 Y60.951
G1 F720 X150.448 Y68.989 E282.58478
G0 F7800 X150.872 Y68.989
G1 F720 X142.834 Y60.951 E282.93923
G0 F7800 X143.258 Y60.951
G1 F720 X151.296 Y68.989 E283.29368
G0 F7800 X151.721 Y68.989
G1 F720 X143.682 Y60.951 E283.64816
G0 F7800 X144.106 Y60.951
G1 F720 X152.145 Y68.989 E284.00263
G0 F7800 X152.569 Y68.989
G1 F720 X144.531 Y60.951 E284.35708
G0 F7800 X144.955 Y60.951
G1 F720 X152.993 Y68.989 E284.71154
G0 F7800 X153.258 Y69.254
G1 F720 X159.349 Y75.345 E284.98013
G0 F7800 X159.349 Y75.769
G1 F720 X153.258 Y69.678 E285.24873
G0 F7800 X153.258 Y70.102
G1 F720 X159.349 Y76.193 E285.51732
G0 F7800 X159.349 Y76.617
G1 F720 X153.258 Y70.526 E285.78592
G0 F7800 X153.258 Y70.951
G1 F720 X159.349 Y77.042 E286.05451
G0 F7800 X159.349 Y77.466
G1 F720 X153.258 Y71.375 E286.32311
G0 F7800 X153.258 Y71.799
G1 F720 X159.348 Y77.889 E286.59166
G0 F7800 X159.348 Y78.314
G1 F720 X153.258 Y72.223 E286.86023
G0 F7800 X153.258 Y72.648
G1 F720 X159.348 Y78.738 E287.12879
G0 F7800 X159.348 Y79.162
G1 F720 X153.258 Y73.072 E287.39734
G0 F7800 X153.258 Y73.496
G1 F720 X159.348 Y79.586 E287.66589
G0 F7800 X159.348 Y80.011
G1 F720 X153.258 Y73.92 E287.93446
G0 F7800 X153.258 Y74.345
G1 F720 X159.348 Y80.435 E288.20301
G0 F7800 X159.348 Y80.859
G1 F720 X153.258 Y74.769 E288.47157
G0 F7800 X153.258 Y75.193
G1 F720 X159.348 Y81.284 E288.74014
G0 F7800 X159.348 Y81.708
G1 F720 X153.258 Y75.617 E289.00871
G0 F7800 X153.258 Y76.042
G1 F720 X159.348 Y82.132 E289.27726
G0 F7800 X159.348 Y82.556
G1 F720 X153.258 Y76.466 E289.54582
G0 F7800 X153.258 Y76.89
G1 F720 X159.348 Y82.981 E289.81439
G0 F7800 X159.348 Y83.405
G1 F720 X153.258 Y77.315 E290.08294
G0 F7800 X153.258 Y77.739
G1 F720 X159.348 Y83.829 E290.35149
G0 F7800 X159.348 Y84.253
G1 F720 X153.258 Y78.163 E290.62004
G0 F7800 X153.258 Y78.587
G1 F720 X159.348 Y84.678 E290.88862
G0 F7800 X159.348 Y85.102
G1 F720 X153.258 Y79.012 E291.15717
G0 F7800 X153.258 Y79.436
G1 F720 X159.348 Y85.526 E291.42572
G0 F7800 X159.348 Y85.95
G1 F720 X153.258 Y79.86 E291.69427
G0 F7800 X153.258 Y80.284
G1 F720 X159.348 Y86.375 E291.96285
G0 F7800 X159.348 Y86.799
G1 F720 X153.258 Y80.709 E292.2314
G0 F7800 X153.258 Y81.133
G1 F720 X159.348 Y87.223 E292.49995
G0 F7800 X159.348 Y87.648
G1 F720 X153.258 Y81.557 E292.76852
G0 F7800 X153.258 Y81.981
G1 F720 X159.348 Y88.072 E293.0371
G0 F7800 X159.348 Y88.496
G1 F720 X153.258 Y82.406 E293.30565
G0 F7800 X153.258 Y82.83
G1 F720 X159.348 Y88.92 E293.5742
G0 F7800 X159.348 Y89.345
G1 F720 X153.258 Y83.254 E293.84277
G0 F7800 X153.258 Y83.679
G1 F720 X159.348 Y89.769 E294.11132
G0 F7800 X159.348 Y90.193
G1 F720 X153.258 Y84.103 E294.37988
G0 F7800 X153.258 Y84.527
G1 F720 X159.348 Y90.617 E294.64843
G0 F7800 X159.348 Y91.042
G1 F720 X153.258 Y84.951 E294.917
G0 F7800 X153.258 Y85.376
G1 F720 X159.348 Y91.466 E295.18555
G0 F7800 X159.348 Y91.89
G1 F720 X153.258 Y85.8 E295.4541
G0 F7800 X153.258 Y86.224
G1 F720 X159.348 Y92.314 E295.72265
G0 F7800 X159.348 Y92.739
G1 F720 X153.258 Y86.648 E295.99123
G0 F7800 X153.258 Y87.073
G1 F720 X159.348 Y93.163 E296.25978
G0 F7800 X159.348 Y93.587
G1 F720 X153.258 Y87.497 E296.52833
G0 F7800 X153.258 Y87.921
G1 F720 X159.348 Y94.011 E296.79688
G0 F7800 X158.931 Y94.019
G1 F720 X153.258 Y88.345 E297.04707
G0 F7800 X153.258 Y88.77
G1 F720 X158.507 Y94.019 E297.27853
G0 F7800 X158.082 Y94.019
G1 F720 X153.258 Y89.194 E297.49128
G0 F7800 X153.258 Y89.618
G1 F720 X157.658 Y94.019 E297.68533
G0 F7800 X157.234 Y94.019
G1 F720 X153.258 Y90.042 E297.86068
G0 F7800 X153.258 Y90.467
G1 F720 X156.81 Y94.019 E298.01731
G0 F7800 X156.385 Y94.019
G1 F720 X153.258 Y90.891 E298.15523
G0 F7800 X153.258 Y91.315
G1 F720 X155.96 Y94.018 E298.2744
G0 F7800 X155.536 Y94.018
G1 F720 X153.258 Y91.74 E298.37485
G0 F7800 X153.258 Y92.164
G1 F720 X155.112 Y94.018 E298.45661
G0 F7800 X154.688 Y94.018
G1 F720 X153.258 Y92.588 E298.51967
G0 F7800 X153.258 Y93.012
G1 F720 X154.263 Y94.018 E298.56401
G0 F7800 X153.839 Y94.018
G1 F720 X153.258 Y93.437 E298.58963
G0 F7800 X153.258 Y93.861
G1 F720 X153.415 Y94.018 E298.59655
G0 F7800 X159.349 Y74.92
G1 F720 X145.379 Y60.951 E299.21257
G0 F7800 X145.804 Y60.951
G1 F720 X159.349 Y74.496 E299.80986
G0 F7800 X159.349 Y74.072
G1 F720 X146.228 Y60.951 E300.38846
G0 F7800 X146.652 Y60.951
G1 F720 X159.349 Y73.647 E300.94834
G0 F7800 X159.349 Y73.223
G1 F720 X147.076 Y60.951 E301.48952
G0 F7800 X147.501 Y60.951
G1 F720 X159.349 Y72.799 E302.01199
G0 F7800 X159.349 Y72.375
G1 F720 X147.925 Y60.951 E302.51575
G0 F7800 X148.349 Y60.951
G1 F720 X159.349 Y71.95 E303.0008
G0 F7800 X159.349 Y71.526
G1 F720 X148.773 Y60.951 E303.46715
G0 F7800 X149.198 Y60.951
G1 F720 X159.349 Y71.102 E303.91478
G0 F7800 X159.349 Y70.678
G1 F720 X149.622 Y60.951 E304.34371
G0 F7800 X150.046 Y60.951
G1 F720 X159.349 Y70.253 E304.75392
G0 F7800 X159.349 Y69.829
G1 F720 X150.47 Y60.951 E305.14544
G0 F7800 X150.895 Y60.951
G1 F720 X159.349 Y69.405 E305.51824
G0 F7800 X159.349 Y68.981
G1 F720 X151.319 Y60.951 E305.87234
G0 F7800 X151.743 Y60.951
G1 F720 X159.349 Y68.556 E306.20772
G0 F7800 X159.349 Y68.132
G1 F720 X152.167 Y60.951 E306.5244
G0 F7800 X152.592 Y60.951
G1 F720 X159.349 Y67.708 E306.82236
G0 F7800 X159.349 Y67.284
G1 F720 X153.016 Y60.951 E307.10163
G0 F7800 X153.44 Y60.951
G1 F720 X159.349 Y66.859 E307.36218
G0 F7800 X159.349 Y66.435
G1 F720 X153.865 Y60.951 E307.60401
G0 F7800 X154.289 Y60.951
G1 F720 X159.349 Y66.011 E307.82714
G0 F7800 X159.349 Y65.586
G1 F720 X154.713 Y60.951 E308.03155
G0 F7800 X155.137 Y60.951
G1 F720 X159.349 Y65.162 E308.21727
G0 F7800 X159.349 Y64.738
G1 F720 X155.562 Y60.951 E308.38426
G0 F7800 X155.986 Y60.951
G1 F720 X159.349 Y64.314 E308.53256
G0 F7800 X159.349 Y63.889
G1 F720 X156.41 Y60.951 E308.66214
G0 F7800 X156.834 Y60.951
G1 F720 X159.349 Y63.465 E308.77302
G0 F7800 X159.349 Y63.041
G1 F720 X157.259 Y60.951 E308.86519
G0 F7800 X157.683 Y60.951
G1 F720 X159.349 Y62.617 E308.93865
G0 F7800 X159.349 Y62.192
G1 F720 X158.107 Y60.951 E308.9934
G0 F7800 X158.531 Y60.951
G1 F720 X159.349 Y61.768 E309.02945
G0 F7800 X159.349 Y61.344
G1 F720 X158.956 Y60.951 E309.04678
G0 F7800 X111.241 Y69.663
G1 F720 X103.205 Y61.627 E309.40114
G0 F7800 X103.205 Y62.051
G1 F720 X111.241 Y70.087 E309.75551
G0 F7800 X111.241 Y70.511
G1 F720 X103.205 Y62.475 E310.10987
G0 F7800 X103.205 Y62.899
G1 F720 X111.241 Y70.936 E310.46426
G0 F7800 X111.241 Y71.36
G1 F720 X103.205 Y63.324 E310.81862
G0 F7800 X103.205 Y63.748
G1 F720 X111.241 Y71.784 E311.17299
G0 F7800 X111.241 Y72.209
G1 F720 X103.205 Y64.172 E311.52737
G0 F7800 X103.205 Y64.597
G1 F720 X111.241 Y72.633 E311.88174
G0 F7800 X111.241 Y73.057
G1 F720 X103.205 Y65.021 E312.2361
G0 F7800 X103.205 Y65.445
G1 F720 X111.241 Y73.481 E312.59047
G0 F7800 X111.241 Y73.906
G1 F720 X103.205 Y65.869 E312.94485
G0 F7800 X103.205 Y66.294
G1 F720 X111.241 Y74.33 E313.29922
G0 F7800 X111.241 Y74.754
G1 F720 X103.205 Y66.718 E313.65358
G0 F7800 X103.205 Y67.142
G1 F720 X111.241 Y75.178 E314.00795
G0 F7800 X111.241 Y75.603
G1 F720 X103.205 Y67.566 E314.36233
G0 F7800 X103.205 Y67.991
G1 F720 X111.241 Y76.027 E314.7167
G0 F7800 X111.241 Y76.451
G1 F720 X103.205 Y68.415 E315.07106
G0 F7800 X103.205 Y68.839
G1 F720 X111.241 Y76.875 E315.42543
G0 F7800 X111.241 Y77.3
G1 F720 X103.205 Y69.263 E315.77981
G0 F7800 X103.205 Y69.688
G1 F720 X111.241 Y77.724 E316.13418
G0 F7800 X111.241 Y78.148
G1 F720 X103.205 Y70.112 E316.48854
G0 F7800 X103.205 Y70.536
G1 F720 X111.241 Y78.572 E316.84291
G0 F7800 X111.241 Y78.997
G1 F720 X103.205 Y70.96 E317.19729
G0 F7800 X103.205 Y71.385
G1 F720 X111.241 Y79.421 E317.55166
G0 F7800 X111.241 Y79.845
G1 F720 X103.205 Y71.809 E317.90602
G0 F7800 X103.205 Y72.233
G1 F720 X111.241 Y80.27 E318.26041
G0 F7800 X111.241 Y80.694
G1 F720 X103.205 Y72.658 E318.61477
G0 F7800 X103.205 Y73.082
G1 F720 X111.241 Y81.118 E318.96914
G0 F7800 X111.241 Y81.542
G1 F720 X103.205 Y73.506 E319.3235
G0 F7800 X103.205 Y73.93
G1 F720 X111.241 Y81.967 E319.67789
G0 F7800 X111.241 Y82.391
G1 F720 X103.205 Y74.355 E320.03225
G0 F7800 X103.205 Y74.779
G1 F720 X111.241 Y82.815 E320.38662
G0 F7800 X111.241 Y83.239
G1 F720 X103.205 Y75.203 E320.74098
G0 F7800 X103.205 Y75.627
G1 F720 X111.241 Y83.664 E321.09537
G0 F7800 X111.241 Y84.088
G1 F720 X103.205 Y76.052 E321.44973
G0 F7800 X103.205 Y76.476
G1 F720 X111.241 Y84.512 E321.8041
G0 F7800 X111.241 Y84.936
G1 F720 X103.205 Y76.9 E322.15846
G0 F7800 X103.205 Y77.324
G1 F720 X111.241 Y85.361 E322.51285
G0 F7800 X111.241 Y85.785
G1 F720 X103.205 Y77.749 E322.86721
G0 F7800 X103.205 Y78.173
G1 F720 X111.241 Y86.209 E323.22158
G0 F7800 X111.241 Y86.634
G1 F720 X103.205 Y78.597 E323.57596
G0 F7800 X103.205 Y79.022
G1 F720 X111.241 Y87.058 E323.93033
G0 F7800 X111.241 Y87.482
G1 F720 X103.205 Y79.446 E324.28469
G0 F7800 X103.205 Y79.87
G1 F720 X111.241 Y87.906 E324.63906
G0 F7800 X111.241 Y88.331
G1 F720 X103.205 Y80.294 E324.99344
G0 F7800 X103.205 Y80.719
G1 F720 X111.241 Y88.755 E325.34781
G0 F7800 X111.241 Y89.179
G1 F720 X103.205 Y81.144 E325.70215
G0 F7800 X103.205 Y81.568
G1 F720 X111.241 Y89.603 E326.05649
G0 F7800 X111.241 Y90.028
G1 F720 X103.205 Y81.992 E326.41086
G0 F7800 X103.205 Y82.416
G1 F720 X111.241 Y90.452 E326.76522
G0 F7800 X111.241 Y90.876
G1 F720 X103.205 Y82.841 E327.11957
G0 F7800 X103.205 Y83.265
G1 F720 X111.241 Y91.3 E327.47391
G0 F7800 X111.241 Y91.725
G1 F720 X103.205 Y83.689 E327.82827
G0 F7800 X103.205 Y84.113
G1 F720 X111.241 Y92.149 E328.18264
G0 F7800 X111.241 Y92.573
G1 F720 X103.205 Y84.538 E328.53698
G0 F7800 X103.205 Y84.962
G1 F720 X111.241 Y92.997 E328.89132
G0 F7800 X111.241 Y93.422
G1 F720 X103.205 Y85.386 E329.24569
G0 F7800 X103.205 Y85.81
G1 F720 X111.241 Y93.846 E329.60005
G0 F7800 X111.241 Y94.27
G1 F720 X103.205 Y86.235 E329.95439
G0 F7800 X103.205 Y86.659
G1 F720 X111.241 Y94.695 E330.30876
G0 F7800 X111.241 Y95.119
G1 F720 X103.205 Y87.083 E330.66312
G0 F7800 X103.205 Y87.507
G1 F720 X111.241 Y95.543 E331.01749
G0 F7800 X111.241 Y95.967
G1 F720 X103.205 Y87.932 E331.37183
G0 F7800 X103.205 Y88.356
G1 F720 X111.241 Y96.392 E331.72619
G0 F7800 X111.241 Y96.816
G1 F720 X103.205 Y88.78 E332.08056
G0 F7800 X103.205 Y89.205
G1 F720 X111.241 Y97.24 E332.4349
G0 F7800 X111.241 Y97.664
G1 F720 X103.205 Y89.629 E332.78924
G0 F7800 X103.205 Y90.053
G1 F720 X111.241 Y98.089 E333.14361
G0 F7800 X111.241 Y98.513
G1 F720 X103.205 Y90.477 E333.49797
G0 F7800 X103.205 Y90.902
G1 F720 X111.241 Y98.937 E333.85231
G0 F7800 X111.241 Y99.361
G1 F720 X103.205 Y91.326 E334.20666
G0 F7800 X103.205 Y91.75
G1 F720 X111.241 Y99.786 E334.56102
G0 F7800 X111.241 Y100.21
G1 F720 X103.205 Y92.174 E334.91539
G0 F7800 X103.205 Y92.599
G1 F720 X111.241 Y100.634 E335.26973
G0 F7800 X111.241 Y101.058
G1 F720 X103.205 Y93.023 E335.62407
G0 F7800 X103.205 Y93.447
G1 F720 X111.241 Y101.483 E335.97844
G0 F7800 X111.241 Y101.907
G1 F720 X103.205 Y93.871 E336.3328
G0 F7800 X103.205 Y94.296
G1 F720 X111.241 Y102.331 E336.68714
G0 F7800 X111.241 Y102.756
G1 F720 X103.205 Y94.72 E337.04151
G0 F7800 X103.205 Y95.144
G1 F720 X111.241 Y103.18 E337.39587
G0 F7800 X111.241 Y103.604
G1 F720 X103.205 Y95.569 E337.75021
G0 F7800 X103.205 Y95.993
G1 F720 X111.242 Y104.029 E338.1046
G0 F7800 X111.242 Y104.453
G1 F720 X103.205 Y96.417 E338.45899
G0 F7800 X103.205 Y96.841
G1 F720 X111.242 Y104.878 E338.8134
G0 F7800 X111.242 Y105.302
G1 F720 X103.205 Y97.266 E339.16778
G0 F7800 X103.205 Y97.69
G1 F720 X111.242 Y105.726 E339.52217
G0 F7800 X111.242 Y106.15
G1 F720 X103.205 Y98.114 E339.87656
G0 F7800 X103.205 Y98.538
G1 F720 X111.242 Y106.575 E340.23096
G0 F7800 X111.242 Y106.999
G1 F720 X103.205 Y98.963 E340.58535
G0 F7800 X103.205 Y99.387
G1 F720 X111.242 Y107.423 E340.93974
G0 F7800 X111.242 Y107.847
G1 F720 X103.205 Y99.811 E341.29412
G0 F7800 X103.205 Y100.235
G1 F720 X111.242 Y108.272 E341.64853
G0 F7800 X111.242 Y108.696
G1 F720 X103.205 Y100.66 E342.00292
G0 F7800 X103.205 Y101.084
G1 F720 X111.242 Y109.12 E342.35731
G0 F7800 X111.242 Y109.544
G1 F720 X103.205 Y101.508 E342.71169
G0 F7800 X103.205 Y101.932
G1 F720 X111.242 Y109.969 E343.0661
G0 F7800 X111.242 Y110.393
G1 F720 X103.205 Y102.357 E343.42049
G0 F7800 X103.205 Y102.781
G1 F720 X111.242 Y110.817 E343.77487
G0 F7800 X111.242 Y111.242
G1 F720 X103.205 Y103.205 E344.12928
G0 F7800 X103.205 Y103.63
G1 F720 X111.242 Y111.666 E344.48367
G0 F7800 X111.242 Y112.09
G1 F720 X103.205 Y104.054 E344.83806
G0 F7800 X103.205 Y104.478
G1 F720 X111.242 Y112.514 E345.19244
G0 F7800 X111.242 Y112.939
G1 F720 X103.205 Y104.902 E345.54685
G0 F7800 X103.205 Y105.327
G1 F720 X111.242 Y113.363 E345.90124
G0 F7800 X111.242 Y113.787
G1 F720 X103.205 Y105.751 E346.25562
G0 F7800 X103.205 Y106.175
G1 F720 X111.242 Y114.211 E346.61001
G0 F7800 X111.242 Y114.636
G1 F720 X103.205 Y106.599 E346.96442
G0 F7800 X103.205 Y107.024
G1 F720 X111.242 Y115.06 E347.31881
G0 F7800 X111.242 Y115.484
G1 F720 X103.205 Y107.448 E347.67319
G0 F7800 X103.205 Y107.872
G1 F720 X111.242 Y115.908 E348.02758
G0 F7800 X111.242 Y116.333
G1 F720 X103.205 Y108.296 E348.38199
G0 F7800 X103.205 Y108.721
G1 F720 X111.242 Y116.757 E348.73637
G0 F7800 X111.242 Y117.181
G1 F720 X103.205 Y109.145 E349.09076
G0 F7800 X103.205 Y109.569
G1 F720 X111.242 Y117.605 E349.44515
G0 F7800 X111.242 Y118.03
G1 F720 X103.205 Y109.993 E349.79956
G0 F7800 X103.205 Y110.418
G1 F720 X111.242 Y118.454 E350.15394
G0 F7800 X111.242 Y118.878
G1 F720 X103.205 Y110.842 E350.50833
G0 F7800 X103.205 Y111.266
G1 F720 X111.242 Y119.303 E350.86274
G0 F7800 X111.242 Y119.727
G1 F720 X103.205 Y111.691 E351.21712
G0 F7800 X103.205 Y112.115
G1 F720 X111.242 Y120.151 E351.57151
G0 F7800 X111.242 Y120.575
G1 F720 X103.205 Y112.539 E351.9259
G0 F7800 X103.205 Y112.963
G1 F720 X111.242 Y121 E352.28031
G0 F7800 X111.242 Y121.424
G1 F720 X103.205 Y113.388 E352.63469
G0 F7800 X103.205 Y113.812
G1 F720 X111.242 Y121.848 E352.98908
G0 F7800 X111.242 Y122.272
G1 F720 X103.205 Y114.236 E353.34346
G0 F7800 X103.205 Y114.66
G1 F720 X111.242 Y122.697 E353.69787
G0 F7800 X111.242 Y123.121
G1 F720 X103.205 Y115.085 E354.05226
G0 F7800 X103.205 Y115.509
G1 F720 X111.242 Y123.545 E354.40665
G0 F7800 X111.242 Y123.969
G1 F720 X103.205 Y115.933 E354.76103
G0 F7800 X103.205 Y116.357
G1 F720 X111.242 Y124.394 E355.11544
G0 F7800 X111.242 Y124.818
G1 F720 X103.205 Y116.782 E355.46983
G0 F7800 X103.205 Y117.206
G1 F720 X111.242 Y125.242 E355.82421
G0 F7800 X111.242 Y125.667
G1 F720 X103.205 Y117.63 E356.17862
G0 F7800 X103.205 Y118.055
G1 F720 X111.242 Y126.091 E356.53301
G0 F7800 X111.242 Y126.515
G1 F720 X103.205 Y118.479 E356.8874
G0 F7800 X103.205 Y118.903
G1 F720 X111.242 Y126.939 E357.24178
G0 F7800 X111.242 Y127.364
G1 F720 X103.205 Y119.327 E357.59619
G0 F7800 X103.206 Y119.752
G1 F720 X111.242 Y127.788 E357.95056
G0 F7800 X111.242 Y128.212
G1 F720 X103.206 Y120.177 E358.3049
G0 F7800 X103.206 Y120.601
G1 F720 X111.242 Y128.636 E358.65924
G0 F7800 X111.242 Y129.061
G1 F720 X103.206 Y121.025 E359.01361
G0 F7800 X103.206 Y121.449
G1 F720 X111.242 Y129.485 E359.36797
G0 F7800 X111.242 Y129.909
G1 F720 X103.206 Y121.874 E359.72231
G0 F7800 X103.206 Y122.298
G1 F720 X111.242 Y130.333 E360.07666
G0 F7800 X111.242 Y130.758
G1 F720 X103.206 Y122.722 E360.43102
G0 F7800 X103.206 Y123.146
G1 F720 X111.242 Y131.182 E360.78538
G0 F7800 X111.242 Y131.606
G1 F720 X103.206 Y123.571 E361.13973
G0 F7800 X103.206 Y123.995
G1 F720 X111.242 Y132.03 E361.49407
G0 F7800 X111.242 Y132.455
G1 F720 X103.206 Y124.419 E361.84843
G0 F7800 X103.206 Y124.843
G1 F720 X111.242 Y132.879 E362.2028
G0 F7800 X111.242 Y133.303
G1 F720 X103.206 Y125.268 E362.55714
G0 F7800 X103.206 Y125.692
G1 F720 X111.242 Y133.728 E362.9115
G0 F7800 X111.242 Y134.152
G1 F720 X103.206 Y126.116 E363.26587
G0 F7800 X103.206 Y126.541
G1 F720 X111.242 Y134.576 E363.62021
G0 F7800 X111.242 Y135
G1 F720 X103.206 Y126.965 E363.97455
G0 F7800 X103.206 Y127.389
G1 F720 X111.242 Y135.425 E364.32892
G0 F7800 X111.242 Y135.849
G1 F720 X103.206 Y127.813 E364.68328
G0 F7800 X103.206 Y128.238
G1 F720 X111.242 Y136.273 E365.03763
G0 F7800 X111.242 Y136.697
G1 F720 X103.206 Y128.662 E365.39197
G0 F7800 X103.206 Y129.086
G1 F720 X111.242 Y137.122 E365.74633
G0 F7800 X111.242 Y137.546
G1 F720 X103.206 Y129.51 E366.1007
G0 F7800 X103.206 Y129.935
G1 F720 X111.242 Y137.97 E366.45504
G0 F7800 X111.242 Y138.394
G1 F720 X103.206 Y130.359 E366.80938
G0 F7800 X103.206 Y130.783
G1 F720 X111.242 Y138.819 E367.16375
G0 F7800 X111.046 Y139.048
G1 F720 X103.206 Y131.207 E367.50949
G0 F7800 X103.206 Y131.632
G1 F720 X110.622 Y139.048 E367.83651
G0 F7800 X110.198 Y139.048
G1 F720 X103.206 Y132.056 E368.14484
G0 F7800 X103.206 Y132.48
G1 F720 X109.774 Y139.048 E368.43447
G0 F7800 X109.349 Y139.048
G1 F720 X103.206 Y132.904 E368.70538
G0 F7800 X103.206 Y133.329
G1 F720 X108.925 Y139.048 E368.95757
G0 F7800 X108.501 Y139.048
G1 F720 X103.206 Y133.753 E369.19107
G0 F7800 X103.206 Y134.177
G1 F720 X108.077 Y139.048 E369.40586
G0 F7800 X107.652 Y139.048
G1 F720 X103.206 Y134.602 E369.60192
G0 F7800 X103.206 Y135.026
G1 F720 X107.228 Y139.048 E369.77928
G0 F7800 X106.804 Y139.048
G1 F720 X103.206 Y135.45 E369.93794
G0 F7800 X103.206 Y135.874
G1 F720 X106.379 Y139.048 E370.07788
G0 F7800 X105.955 Y139.048
G1 F720 X103.206 Y136.299 E370.19911
G0 F7800 X103.206 Y136.723
G1 F720 X105.531 Y139.048 E370.30163
G0 F7800 X105.107 Y139.048
G1 F720 X103.206 Y137.147 E370.38546
G0 F7800 X103.206 Y137.571
G1 F720 X104.682 Y139.048 E370.45057
G0 F7800 X104.258 Y139.048
G1 F720 X103.206 Y137.996 E370.49696
G0 F7800 X103.206 Y138.42
G1 F720 X103.834 Y139.048 E370.52465
G0 F7800 X103.41 Y139.048
G1 F720 X103.206 Y138.844 E370.53365
; Layer Change GCode
; LAYER:1
G4 P0
M106 S89
G1 F1800 E369.53365
G0 F7800 X49.526 Y69.83 Z0.45
G0 X48.926 Y69.23
; TYPE:WALL-INNER
G1 F1800 E370.53365
G1 X48.926 Y139.289 E372.28128
G1 X40.41 Y139.289 E372.49371
G1 X40.41 Y60.711 E374.45385
G1 X97.034 Y60.711 E375.86634
G1 X97.034 Y94.259 E376.7032
G1 X90.463 Y94.259 E376.86711
G1 X90.463 Y69.23 E377.49146
G1 X48.926 Y69.23 E378.52761
G0 F7800 X49.226 Y69.53
G1 F1800 X49.226 Y139.589 E380.27523
G1 X40.11 Y139.589 E380.50263
G1 X40.11 Y60.411 E382.47774
G1 X97.334 Y60.411 E383.9052
G1 X97.334 Y94.559 E384.75702
G1 X90.163 Y94.559 E384.9359
G1 X90.163 Y69.53 E385.56025
G1 X49.226 Y69.53 E386.58143
G0 F7800 X49.526 Y69.83
; TYPE:WALL-OUTER
G1 F1260 X49.526 Y139.889 E388.32906
G1 X39.81 Y139.889 E388.57143
G1 X39.81 Y60.111 E390.5615
G1 X97.634 Y60.111 E392.00392
G1 X97.634 Y94.859 E392.87071
G1 X89.863 Y94.859 E393.06456
G1 X89.863 Y69.83 E393.68891
G1 X49.526 Y69.83 E394.69512
G0 F7800 X49.38 Y68.989
; TYPE:FILL
G1 F3600 X57.419 Y60.95 E394.97872
G0 F7800 X57.843 Y60.95
G1 F3600 X49.804 Y68.989 E395.26232
G0 F7800 X50.228 Y68.989
G1 F3600 X58.267 Y60.95 E395.54592
G0 F7800 X58.691 Y60.95
G1 F3600 X50.652 Y68.989 E395.82951
G0 F7800 X51.077 Y68.989
G1 F3600 X59.116 Y60.95 E396.11311
G0 F7800 X59.54 Y60.95
G1 F3600 X51.501 Y68.989 E396.39671
G0 F7800 X51.925 Y68.989
G1 F3600 X59.964 Y60.95 E396.68031
G0 F7800 X60.389 Y60.95
G1 F3600 X52.349 Y68.989 E396.96392
G0 F7800 X52.774 Y68.989
G1 F3600 X60.813 Y60.95 E397.24752
G0 F7800 X61.237 Y60.95
G1 F3600 X53.198 Y68.989 E397.53112
G0 F7800 X53.622 Y68.989
G1 F3600 X61.661 Y60.95 E397.81471
G0 F7800 X62.086 Y60.95
G1 F3600 X54.046 Y68.989 E398.09833
G0 F7800 X54.471 Y68.989
G1 F3600 X62.51 Y60.95 E398.38193
G0 F7800 X62.934 Y60.95
G1 F3600 X54.895 Y68.989 E398.66552
G0 F7800 X55.319 Y68.989
G1 F3600 X63.358 Y60.95 E398.94912
G0 F7800 X63.783 Y60.95
G1 F3600 X55.744 Y68.989 E399.23272
G0 F7800 X56.168 Y68.989
G1 F3600 X64.207 Y60.95 E399.51632
G0 F7800 X64.631 Y60.95
G1 F3600 X56.592 Y68.989 E399.79991
G0 F7800 X57.016 Y68.989
G1 F3600 X65.055 Y60.95 E400.08351
G0 F7800 X65.48 Y60.95
G1 F3600 X57.441 Y68.989 E400.36711
G0 F7800 X57.865 Y68.989
G1 F3600 X65.904 Y60.95 E400.65071
G0 F7800 X66.328 Y60.95
G1 F3600 X58.289 Y68.989 E400.9343
G0 F7800 X58.713 Y68.989
G1 F3600 X66.753 Y60.95 E401.21792
G0 F7800 X67.177 Y60.95
G1 F3600 X59.138 Y68.989 E401.50152
G0 F7800 X59.562 Y68.989
G1 F3600 X67.601 Y60.95 E401.78511
G0 F7800 X68.025 Y60.95
G1 F3600 X59.986 Y68.989 E402.06871
G0 F7800 X60.41 Y68.989
G1 F3600 X68.45 Y60.95 E402.35233
G0 F7800 X68.874 Y60.95
G1 F3600 X60.835 Y68.989 E402.63592
G0 F7800 X61.259 Y68.989
G1 F3600 X69.298 Y60.95 E402.91952
G0 F7800 X69.722 Y60.95
G1 F3600 X61.683 Y68.989 E403.20312
G0 F7800 X62.108 Y68.989
G1 F3600 X70.147 Y60.95 E403.48672
G0 F7800 X70.571 Y60.95
G1 F3600 X62.532 Y68.989 E403.77031
G0 F7800 X62.956 Y68.989
G1 F3600 X70.995 Y60.95 E404.05391
G0 F7800 X71.419 Y60.95
G1 F3600 X63.38 Y68.989 E404.33751
G0 F7800 X63.805 Y68.989
G1 F3600 X71.844 Y60.95 E404.62111
G0 F7800 X72.268 Y60.95
G1 F3600 X64.229 Y68.989 E404.9047
G0 F7800 X64.653 Y68.989
G1 F3600 X72.692 Y60.95 E405.1883
G0 F7800 X73.116 Y60.95
G1 F3600 X65.077 Y68.989 E405.4719
G0 F7800 X65.502 Y68.989
G1 F3600 X73.541 Y60.95 E405.7555
G0 F7800 X73.965 Y60.95
G1 F3600 X65.926 Y68.989 E406.03909
G0 F7800 X66.35 Y68.989
G1 F3600 X74.389 Y60.95 E406.32269
G0 F7800 X74.814 Y60.95
G1 F3600 X66.774 Y68.989 E406.60631
G0 F7800 X67.199 Y68.989
G1 F3600 X75.238 Y60.95 E406.8899
G0 F7800 X75.662 Y60.95
G1 F3600 X67.623 Y68.989 E407.1735
G0 F7800 X68.047 Y68.989
G1 F3600 X76.086 Y60.95 E407.4571
G0 F7800 X76.511 Y60.95
G1 F3600 X68.471 Y68.989 E407.74071
G0 F7800 X68.896 Y68.989
G1 F3600 X76.935 Y60.95 E408.02431
G0 F7800 X77.359 Y60.95
G1 F3600 X69.32 Y68.989 E408.30791
G0 F7800 X69.744 Y68.99
G1 F3600 X77.783 Y60.95 E408.59152
G0 F7800 X78.208 Y60.95
G1 F3600 X70.168 Y68.99 E408.87516
G0 F7800 X70.592 Y68.99
G1 F3600 X78.632 Y60.95 E409.15879
G0 F7800 X79.056 Y60.95
G1 F3600 X71.016 Y68.99 E409.44242
G0 F7800 X71.441 Y68.99
G1 F3600 X79.48 Y60.95 E409.72604
G0 F7800 X79.905 Y60.95
G1 F3600 X71.865 Y68.99 E410.00967
G0 F7800 X72.289 Y68.99
G1 F3600 X80.329 Y60.95 E410.2933
G0 F7800 X80.753 Y60.95
G1 F3600 X72.713 Y68.99 E410.57693
G0 F7800 X73.138 Y68.99
G1 F3600 X81.177 Y60.95 E410.86055
G0 F7800 X81.602 Y60.95
G1 F3600 X73.562 Y68.99 E411.14418
G0 F7800 X73.986 Y68.99
G1 F3600 X82.026 Y60.95 E411.42781
G0 F7800 X82.45 Y60.95
G1 F3600 X74.41 Y68.99 E411.71145
G0 F7800 X74.835 Y68.99
G1 F3600 X82.874 Y60.951 E411.99504
G0 F7800 X83.298 Y60.951
G1 F3600 X75.259 Y68.99 E412.27864
G0 F7800 X75.683 Y68.99
G1 F3600 X83.722 Y60.951 E412.56224
G0 F7800 X84.147 Y60.951
G1 F3600 X76.108 Y68.99 E412.84584
G0 F7800 X76.532 Y68.99
G1 F3600 X84.571 Y60.951 E413.12943
G0 F7800 X84.995 Y60.951
G1 F3600 X76.956 Y68.99 E413.41303
G0 F7800 X77.38 Y68.99
G1 F3600 X85.419 Y60.951 E413.69663
G0 F7800 X85.844 Y60.951
G1 F3600 X77.805 Y68.99 E413.98023
G0 F7800 X78.229 Y68.99
G1 F3600 X86.268 Y60.951 E414.26382
G0 F7800 X86.692 Y60.951
G1 F3600 X78.653 Y68.99 E414.54742
G0 F7800 X79.077 Y68.99
G1 F3600 X87.116 Y60.951 E414.83102
G0 F7800 X87.541 Y60.951
G1 F3600 X79.502 Y68.99 E415.11462
G0 F7800 X79.926 Y68.99
G1 F3600 X87.965 Y60.951 E415.39821
G0 F7800 X88.389 Y60.951
G1 F3600 X80.35 Y68.99 E415.68181
G0 F7800 X80.774 Y68.99
G1 F3600 X88.814 Y60.951 E415.96543
G0 F7800 X89.238 Y60.951
G1 F3600 X81.199 Y68.99 E416.24902
G0 F7800 X81.623 Y68.99
G1 F3600 X89.662 Y60.951 E416.53262
G0 F7800 X90.086 Y60.951
G1 F3600 X82.047 Y68.99 E416.81622
G0 F7800 X82.471 Y68.99
G1 F3600 X90.511 Y60.951 E417.09983
G0 F7800 X90.935 Y60.951
G1 F3600 X82.896 Y68.99 E417.38343
G0 F7800 X83.32 Y68.99
G1 F3600 X91.359 Y60.951 E417.66703
G0 F7800 X91.783 Y60.951
G1 F3600 X83.744 Y68.99 E417.95063
G0 F7800 X84.169 Y68.99
G1 F3600 X92.208 Y60.951 E418.23422
G0 F7800 X92.632 Y60.951
G1 F3600 X84.593 Y68.99 E418.51782
G0 F7800 X85.017 Y68.99
G1 F3600 X93.056 Y60.951 E418.80142
G0 F7800 X93.48 Y60.951
G1 F3600 X85.441 Y68.99 E419.08502
G0 F7800 X85.866 Y68.99
G1 F3600 X93.905 Y60.951 E419.36861
G0 F7800 X94.329 Y60.951
G1 F3600 X86.29 Y68.99 E419.65221
G0 F7800 X86.714 Y68.99
G1 F3600 X94.753 Y60.951 E419.93581
G0 F7800 X95.177 Y60.951
G1 F3600 X87.138 Y68.99 E420.21941
G0 F7800 X87.563 Y68.99
G1 F3600 X95.602 Y60.951 E420.503
G0 F7800 X96.026 Y60.951
G1 F3600 X87.987 Y68.99 E420.7866
G0 F7800 X88.411 Y68.99
G1 F3600 X96.45 Y60.951 E421.0702
G0 F7800 X96.793 Y61.033
G1 F3600 X88.835 Y68.99 E421.35092
G0 F7800 X89.26 Y68.99
G1 F3600 X96.793 Y61.457 E421.61667
G0 F7800 X96.793 Y61.881
G1 F3600 X89.684 Y68.99 E421.86746
G0 F7800 X90.108 Y68.99
G1 F3600 X96.793 Y62.306 E422.10327
G0 F7800 X96.793 Y62.73
G1 F3600 X90.533 Y68.99 E422.32411
G0 F7800 X90.702 Y69.244
G1 F3600 X96.793 Y63.154 E422.53897
G0 F7800 X96.793 Y63.578
G1 F3600 X90.702 Y69.669 E422.75384
G0 F7800 X90.702 Y70.093
G1 F3600 X96.793 Y64.003 E422.9687
G0 F7800 X96.793 Y64.427
G1 F3600 X90.702 Y70.517 E423.18356
G0 F7800 X90.702 Y70.941
G1 F3600 X96.793 Y64.851 E423.39842
G0 F7800 X96.793 Y65.275
G1 F3600 X90.702 Y71.366 E423.6133
G0 F7800 X90.702 Y71.79
G1 F3600 X96.793 Y65.7 E423.82816
G0 F7800 X96.793 Y66.124
G1 F3600 X90.702 Y72.214 E424.04301
G0 F7800 X90.702 Y72.638
G1 F3600 X96.793 Y66.548 E424.25787
G0 F7800 X96.793 Y66.972
G1 F3600 X90.702 Y73.063 E424.47275
G0 F7800 X90.702 Y73.487
G1 F3600 X96.793 Y67.397 E424.68761
G0 F7800 X96.793 Y67.821
G1 F3600 X90.702 Y73.911 E424.90247
G0 F7800 X90.702 Y74.336
G1 F3600 X96.793 Y68.245 E425.11734
G0 F7800 X96.793 Y68.669
G1 F3600 X90.702 Y74.76 E425.33222
G0 F7800 X90.702 Y75.184
G1 F3600 X96.793 Y69.094 E425.54708
G0 F7800 X96.793 Y69.518
G1 F3600 X90.702 Y75.608 E425.76194
G0 F7800 X90.702 Y76.033
G1 F3600 X96.793 Y69.942 E425.97681
G0 F7800 X96.793 Y70.367
G1 F3600 X90.702 Y76.457 E426.19167
G0 F7800 X90.702 Y76.881
G1 F3600 X96.793 Y70.791 E426.40653
G0 F7800 X96.793 Y71.215
G1 F3600 X90.702 Y77.305 E426.62139
G0 F7800 X90.702 Y77.73
G1 F3600 X96.793 Y71.639 E426.83627
G0 F7800 X96.793 Y72.064
G1 F3600 X90.702 Y78.154 E427.05113
G0 F7800 X90.702 Y78.578
G1 F3600 X96.793 Y72.488 E427.26599
G0 F7800 X96.793 Y72.912
G1 F3600 X90.702 Y79.002 E427.48084
G0 F7800 X90.702 Y79.427
G1 F3600 X96.793 Y73.336 E427.69572
G0 F7800 X96.793 Y73.761
G1 F3600 X90.702 Y79.851 E427.91058
G0 F7800 X90.702 Y80.275
G1 F3600 X96.793 Y74.185 E428.12544
G0 F7800 X96.793 Y74.609
G1 F3600 X90.702 Y80.699 E428.3403
G0 F7800 X90.702 Y81.124
G1 F3600 X96.793 Y75.033 E428.55517
G0 F7800 X96.793 Y75.458
G1 F3600 X90.703 Y81.547 E428.77
G0 F7800 X90.703 Y81.972
G1 F3600 X96.793 Y75.882 E428.98484
G0 F7800 X96.793 Y76.306
G1 F3600 X90.703 Y82.396 E429.19968
G0 F7800 X90.703 Y82.82
G1 F3600 X96.793 Y76.73 E429.41452
G0 F7800 X96.793 Y77.155
G1 F3600 X90.703 Y83.244 E429.62934
G0 F7800 X90.703 Y83.669
G1 F3600 X96.793 Y77.578 E429.8442
G0 F7800 X96.793 Y78.003
G1 F3600 X90.703 Y84.093 E430.05904
G0 F7800 X90.703 Y84.517
G1 F3600 X96.793 Y78.427 E430.27389
G0 F7800 X96.793 Y78.851
G1 F3600 X90.703 Y84.941 E430.48873
G0 F7800 X90.703 Y85.366
G1 F3600 X96.793 Y79.275 E430.70359
G0 F7800 X96.793 Y79.7
G1 F3600 X90.703 Y85.79 E430.91843
G0 F7800 X90.703 Y86.214
G1 F3600 X96.793 Y80.124 E431.13327
G0 F7800 X96.793 Y80.548
G1 F3600 X90.703 Y86.638 E431.34811
G0 F7800 X90.703 Y87.063
G1 F3600 X96.793 Y80.972 E431.56297
G0 F7800 X96.793 Y81.397
G1 F3600 X90.703 Y87.487 E431.77781
G0 F7800 X90.703 Y87.911
G1 F3600 X96.793 Y81.821 E431.99265
G0 F7800 X96.793 Y82.245
G1 F3600 X90.703 Y88.336 E432.20751
G0 F7800 X90.703 Y88.76
G1 F3600 X96.793 Y82.669 E432.42237
G0 F7800 X96.793 Y83.094
G1 F3600 X90.703 Y89.184 E432.63721
G0 F7800 X90.703 Y89.608
G1 F3600 X96.793 Y83.518 E432.85205
G0 F7800 X96.793 Y83.942
G1 F3600 X90.703 Y90.033 E433.06691
G0 F7800 X90.703 Y90.457
G1 F3600 X96.793 Y84.367 E433.28175
G0 F7800 X96.793 Y84.791
G1 F3600 X90.703 Y90.881 E433.49659
G0 F7800 X90.703 Y91.305
G1 F3600 X96.793 Y85.215 E433.71143
G0 F7800 X96.793 Y85.639
G1 F3600 X90.703 Y91.73 E433.92629
G0 F7800 X90.703 Y92.154
G1 F3600 X96.793 Y86.064 E434.14113
G0 F7800 X96.793 Y86.488
G1 F3600 X90.703 Y92.578 E434.35597
G0 F7800 X90.703 Y93.002
G1 F3600 X96.793 Y86.912 E434.57082
G0 F7800 X96.793 Y87.336
G1 F3600 X90.703 Y93.427 E434.78567
G0 F7800 X90.703 Y93.851
G1 F3600 X96.793 Y87.761 E435.00052
G0 F7800 X96.793 Y88.185
G1 F3600 X90.96 Y94.018 E435.20629
G0 F7800 X91.385 Y94.018
G1 F3600 X96.793 Y88.609 E435.39709
G0 F7800 X96.793 Y89.033
G1 F3600 X91.809 Y94.018 E435.57293
G0 F7800 X92.233 Y94.018
G1 F3600 X96.793 Y89.458 E435.7338
G0 F7800 X96.793 Y89.882
G1 F3600 X92.657 Y94.018 E435.87971
G0 F7800 X93.082 Y94.018
G1 F3600 X96.793 Y90.306 E436.01064
G0 F7800 X96.793 Y90.73
G1 F3600 X93.506 Y94.018 E436.12661
G0 F7800 X93.929 Y94.019
G1 F3600 X96.793 Y91.155 E436.22765
G0 F7800 X96.793 Y91.579
G1 F3600 X94.354 Y94.019 E436.31371
G0 F7800 X94.778 Y94.019
G1 F3600 X96.793 Y92.003 E436.38481
G0 F7800 X96.793 Y92.428
G1 F3600 X95.202 Y94.019 E436.44094
G0 F7800 X95.626 Y94.019
G1 F3600 X96.793 Y92.852 E436.48211
G0 F7800 X96.793 Y93.276
G1 F3600 X96.051 Y94.019 E436.5083
G0 F7800 X96.475 Y94.019
G1 F3600 X96.793 Y93.7 E436.51954
G1 F1800 E435.51954
G0 F7800 X90.211 Y93.722
G0 X90.154 Y69.539
G0 X49.235 Y69.539
G0 X49.176 Y93.864
G0 X48.685 Y93.867
G0 X48.685 Y93.867
G1 F1800 E436.51954
G1 F3600 X40.65 Y101.902 E436.80299
G0 F7800 X40.65 Y102.326
G1 F3600 X48.685 Y94.291 E437.08645
G0 F7800 X48.685 Y94.715
G1 F3600 X40.65 Y102.751 E437.36992
G0 F7800 X40.65 Y103.175
G1 F3600 X48.685 Y95.139 E437.6534
G0 F7800 X48.685 Y95.564
G1 F3600 X40.65 Y103.599 E437.93685
G0 F7800 X40.65 Y104.023
G1 F3600 X48.685 Y95.988 E438.22031
G0 F7800 X48.685 Y96.412
G1 F3600 X40.65 Y104.448 E438.50378
G0 F7800 X40.65 Y104.872
G1 F3600 X48.685 Y96.836 E438.78726
G0 F7800 X48.685 Y97.261
G1 F3600 X40.65 Y105.296 E439.07072
G0 F7800 X40.65 Y105.72
G1 F3600 X48.685 Y97.685 E439.35417
G0 F7800 X48.685 Y98.109
G1 F3600 X40.65 Y106.145 E439.63765
G0 F7800 X40.65 Y106.569
G1 F3600 X48.685 Y98.533 E439.92112
G0 F7800 X48.685 Y98.958
G1 F3600 X40.65 Y106.993 E440.20458
G0 F7800 X40.65 Y107.418
G1 F3600 X48.685 Y99.382 E440.48805
G0 F7800 X48.685 Y99.806
G1 F3600 X40.65 Y107.842 E440.77152
G0 F7800 X40.65 Y108.266
G1 F3600 X48.685 Y100.23 E441.055
G0 F7800 X48.685 Y100.655
G1 F3600 X40.65 Y108.69 E441.33845
G0 F7800 X40.65 Y109.115
G1 F3600 X48.685 Y101.079 E441.62193
G0 F7800 X48.685 Y101.503
G1 F3600 X40.65 Y109.539 E441.9054
G0 F7800 X40.65 Y109.963
G1 F3600 X48.685 Y101.928 E442.18886
G0 F7800 X48.685 Y102.352
G1 F3600 X40.65 Y110.387 E442.47231
G0 F7800 X40.65 Y110.812
G1 F3600 X48.685 Y102.776 E442.75579
G0 F7800 X48.685 Y103.2
G1 F3600 X40.65 Y111.236 E443.03926
G0 F7800 X40.65 Y111.66
G1 F3600 X48.685 Y103.625 E443.32272
G0 F7800 X48.685 Y104.049
G1 F3600 X40.65 Y112.084 E443.60618
G0 F7800 X40.65 Y112.509
G1 F3600 X48.685 Y104.473 E443.88965
G0 F7800 X48.685 Y104.897
G1 F3600 X40.65 Y112.933 E444.17312
G0 F7800 X40.65 Y113.357
G1 F3600 X48.685 Y105.322 E444.45658
G0 F7800 X48.685 Y105.746
G1 F3600 X40.65 Y113.781 E444.74004
G0 F7800 X40.65 Y114.206
G1 F3600 X48.685 Y106.17 E445.02351
G0 F7800 X48.685 Y106.594
G1 F3600 X40.65 Y114.63 E445.30698
G0 F7800 X40.65 Y115.054
G1 F3600 X48.685 Y107.019 E445.59044
G0 F7800 X48.685 Y107.443
G1 F3600 X40.65 Y115.479 E445.87391
G0 F7800 X40.65 Y115.903
G1 F3600 X48.685 Y107.867 E446.15739
G0 F7800 X48.685 Y108.291
G1 F3600 X40.65 Y116.327 E446.44086
G0 F7800 X40.65 Y116.751
G1 F3600 X48.685 Y108.716 E446.72432
G0 F7800 X48.685 Y109.14
G1 F3600 X40.65 Y117.176 E447.00779
G0 F7800 X40.65 Y117.6
G1 F3600 X48.685 Y109.564 E447.29127
G0 F7800 X48.685 Y109.989
G1 F3600 X40.65 Y118.024 E447.57472
G0 F7800 X40.65 Y118.448
G1 F3600 X48.685 Y110.413 E447.85818
G0 F7800 X48.685 Y110.837
G1 F3600 X40.65 Y118.873 E448.14165
G0 F7800 X40.65 Y119.297
G1 F3600 X48.685 Y111.261 E448.42513
G0 F7800 X48.685 Y111.686
G1 F3600 X40.65 Y119.721 E448.70858
G0 F7800 X40.65 Y120.145
G1 F3600 X48.685 Y112.11 E448.99204
G0 F7800 X48.685 Y112.534
G1 F3600 X40.65 Y120.57 E449.27551
G0 F7800 X40.65 Y120.994
G1 F3600 X48.685 Y112.958 E449.55899
G0 F7800 X48.685 Y113.383
G1 F3600 X40.65 Y121.418 E449.84244
G0 F7800 X40.65 Y121.842
G1 F3600 X48.685 Y113.807 E450.1259
G0 F7800 X48.685 Y114.231
G1 F3600 X40.65 Y122.267 E450.40937
G0 F7800 X40.65 Y122.691
G1 F3600 X48.685 Y114.655 E450.69285
G0 F7800 X48.685 Y115.08
G1 F3600 X40.65 Y123.115 E450.9763
G0 F7800 X40.65 Y123.54
G1 F3600 X48.685 Y115.504 E451.25978
G0 F7800 X48.685 Y115.928
G1 F3600 X40.65 Y123.964 E451.54325
G0 F7800 X40.65 Y124.388
G1 F3600 X48.685 Y116.353 E451.82671
G0 F7800 X48.685 Y116.777
G1 F3600 X40.65 Y124.812 E452.11016
G0 F7800 X40.65 Y125.237
G1 F3600 X48.685 Y117.201 E452.39364
G0 F7800 X48.685 Y117.625
G1 F3600 X40.65 Y125.661 E452.67711
G0 F7800 X40.65 Y126.085
G1 F3600 X48.685 Y118.05 E452.96057
G0 F7800 X48.685 Y118.474
G1 F3600 X40.65 Y126.509 E453.24403
G0 F7800 X40.65 Y126.934
G1 F3600 X48.685 Y118.898 E453.5275
G0 F7800 X48.685 Y119.322
G1 F3600 X40.65 Y127.358 E453.81097
G0 F7800 X40.65 Y127.782
G1 F3600 X48.685 Y119.747 E454.09443
G0 F7800 X48.685 Y120.171
G1 F3600 X40.65 Y128.206 E454.37789
G0 F7800 X40.65 Y128.631
G1 F3600 X48.685 Y120.595 E454.66136
G0 F7800 X48.685 Y121.019
G1 F3600 X40.65 Y129.055 E454.94483
G0 F7800 X40.65 Y129.479
G1 F3600 X48.685 Y121.444 E455.22829
G0 F7800 X48.685 Y121.868
G1 F3600 X40.65 Y129.904 E455.51176
G0 F7800 X40.65 Y130.328
G1 F3600 X48.685 Y122.292 E455.79524
G0 F7800 X48.685 Y122.716
G1 F3600 X40.65 Y130.752 E456.07871
G0 F7800 X40.65 Y131.176
G1 F3600 X48.685 Y123.141 E456.36217
G0 F7800 X48.685 Y123.565
G1 F3600 X40.65 Y131.601 E456.64564
G0 F7800 X40.65 Y132.025
G1 F3600 X48.685 Y123.989 E456.92912
G0 F7800 X48.685 Y124.414
G1 F3600 X40.65 Y132.449 E457.21257
G0 F7800 X40.65 Y132.873
G1 F3600 X48.685 Y124.838 E457.49603
G0 F7800 X48.685 Y125.262
G1 F3600 X40.65 Y133.298 E457.7795
G0 F7800 X40.65 Y133.722
G1 F3600 X48.685 Y125.686 E458.06298
G0 F7800 X48.685 Y126.111
G1 F3600 X40.65 Y134.146 E458.34643
G0 F7800 X40.65 Y134.57
G1 F3600 X48.685 Y126.535 E458.62989
G0 F7800 X48.685 Y126.959
G1 F3600 X40.65 Y134.995 E458.91336
G0 F7800 X40.65 Y135.419
G1 F3600 X48.685 Y127.383 E459.19684
G0 F7800 X48.685 Y127.808
G1 F3600 X40.65 Y135.843 E459.48029
G0 F7800 X40.65 Y136.267
G1 F3600 X48.685 Y128.232 E459.76375
G0 F7800 X48.685 Y128.656
G1 F3600 X40.65 Y136.692 E460.04722
G0 F7800 X40.65 Y137.116
G1 F3600 X48.685 Y129.08 E460.3307
G0 F7800 X48.685 Y129.505
G1 F3600 X40.65 Y137.54 E460.61415
G0 F7800 X40.65 Y137.965
G1 F3600 X48.685 Y129.929 E460.89763
G0 F7800 X48.685 Y130.353
G1 F3600 X40.65 Y138.389 E461.1811
G0 F7800 X40.65 Y138.813
G1 F3600 X48.685 Y130.777 E461.46458
G0 F7800 X48.685 Y131.202
G1 F3600 X40.839 Y139.048 E461.74136
G0 F7800 X41.263 Y139.048
G1 F3600 X48.685 Y131.626 E462.0032
G0 F7800 X48.685 Y132.05
G1 F3600 X41.688 Y139.048 E462.25005
G0 F7800 X42.112 Y139.048
G1 F3600 X48.685 Y132.475 E462.48193
G0 F7800 X48.685 Y132.899
G1 F3600 X42.536 Y139.048 E462.69885
G0 F7800 X42.96 Y139.048
G1 F3600 X48.685 Y133.323 E462.90082
G0 F7800 X48.685 Y133.747
G1 F3600 X43.385 Y139.048 E463.08781
G0 F7800 X43.809 Y139.048
G1 F3600 X48.685 Y134.172 E463.25982
G0 F7800 X48.685 Y134.596
G1 F3600 X44.233 Y139.048 E463.41688
G0 F7800 X44.658 Y139.048
G1 F3600 X48.685 Y135.02 E463.55896
G0 F7800 X48.685 Y135.444
G1 F3600 X45.082 Y139.048 E463.68608
G0 F7800 X45.506 Y139.048
G1 F3600 X48.685 Y135.869 E463.79823
G0 F7800 X48.685 Y136.293
G1 F3600 X45.93 Y139.048 E463.89542
G0 F7800 X46.355 Y139.048
G1 F3600 X48.685 Y136.717 E463.97764
G0 F7800 X48.685 Y137.141
G1 F3600 X46.779 Y139.048 E464.04489
G0 F7800 X47.203 Y139.048
G1 F3600 X48.685 Y137.566 E464.09717
G0 F7800 X48.685 Y137.99
G1 F3600 X47.627 Y139.048 E464.1345
G0 F7800 X48.052 Y139.048
G1 F3600 X48.685 Y138.414 E464.15685
G0 F7800 X48.685 Y138.839
G1 F3600 X48.476 Y139.048 E464.16422
G0 F7800 X40.65 Y101.478
G1 F3600 X48.685 Y93.442 E464.44769
G0 F7800 X48.685 Y93.018
G1 F3600 X40.65 Y101.054 E464.73117
G0 F7800 X40.65 Y100.629
G1 F3600 X48.685 Y92.594 E465.01462
G0 F7800 X48.685 Y92.169
G1 F3600 X40.65 Y100.205 E465.2981
G0 F7800 X40.65 Y99.781
G1 F3600 X48.685 Y91.745 E465.58157
G0 F7800 X48.685 Y91.321
G1 F3600 X40.65 Y99.356 E465.86503
G0 F7800 X40.65 Y98.932
G1 F3600 X48.685 Y90.897 E466.14848
G0 F7800 X48.685 Y90.472
G1 F3600 X40.65 Y98.508 E466.43196
G0 F7800 X40.65 Y98.084
G1 F3600 X48.685 Y90.048 E466.71543
G0 F7800 X48.685 Y89.624
G1 F3600 X40.65 Y97.659 E466.99889
G0 F7800 X40.65 Y97.235
G1 F3600 X48.685 Y89.2 E467.28235
G0 F7800 X48.685 Y88.775
G1 F3600 X40.65 Y96.811 E467.56582
G0 F7800 X40.65 Y96.387
G1 F3600 X48.685 Y88.351 E467.84929
G0 F7800 X48.685 Y87.927
G1 F3600 X40.65 Y95.962 E468.13275
G0 F7800 X40.65 Y95.538
G1 F3600 X48.685 Y87.503 E468.41621
G0 F7800 X48.685 Y87.078
G1 F3600 X40.65 Y95.114 E468.69968
G0 F7800 X40.65 Y94.69
G1 F3600 X48.685 Y86.654 E468.98315
G0 F7800 X48.685 Y86.23
G1 F3600 X40.65 Y94.265 E469.26661
G0 F7800 X40.65 Y93.841
G1 F3600 X48.685 Y85.805 E469.55008
G0 F7800 X48.685 Y85.381
G1 F3600 X40.65 Y93.417 E469.83356
G0 F7800 X40.65 Y92.993
G1 F3600 X48.685 Y84.957 E470.11703
G0 F7800 X48.685 Y84.533
G1 F3600 X40.65 Y92.568 E470.40049
G0 F7800 X40.65 Y92.144
G1 F3600 X48.685 Y84.108 E470.68396
G0 F7800 X48.685 Y83.684
G1 F3600 X40.65 Y91.72 E470.96744
G0 F7800 X40.65 Y91.295
G1 F3600 X48.685 Y83.26 E471.25089
G0 F7800 X48.685 Y82.836
G1 F3600 X40.65 Y90.871 E471.53435
G0 F7800 X40.65 Y90.447
G1 F3600 X48.685 Y82.411 E471.81782
G0 F7800 X48.685 Y81.987
G1 F3600 X40.65 Y90.023 E472.1013
G0 F7800 X40.65 Y89.598
G1 F3600 X48.685 Y81.563 E472.38475
G0 F7800 X48.685 Y81.139
G1 F3600 X40.65 Y89.174 E472.66821
G0 F7800 X40.65 Y88.75
G1 F3600 X48.685 Y80.714 E472.95168
G0 F7800 X48.685 Y80.29
G1 F3600 X40.65 Y88.326 E473.23516
G0 F7800 X40.65 Y87.901
G1 F3600 X48.685 Y79.866 E473.51861
G0 F7800 X48.685 Y79.442
G1 F3600 X40.65 Y87.477 E473.80207
G0 F7800 X40.65 Y87.053
G1 F3600 X48.685 Y79.017 E474.08554
G0 F7800 X48.685 Y78.593
G1 F3600 X40.65 Y86.629 E474.36902
G0 F7800 X40.65 Y86.204
G1 F3600 X48.685 Y78.169 E474.65247
G0 F7800 X48.685 Y77.744
G1 F3600 X40.65 Y85.78 E474.93595
G0 F7800 X40.65 Y85.356
G1 F3600 X48.685 Y77.32 E475.21942
G0 F7800 X48.685 Y76.896
G1 F3600 X40.65 Y84.932 E475.5029
G0 F7800 X40.65 Y84.507
G1 F3600 X48.685 Y76.472 E475.78635
G0 F7800 X48.685 Y76.047
G1 F3600 X40.65 Y84.083 E476.06983
G0 F7800 X40.65 Y83.659
G1 F3600 X48.685 Y75.623 E476.3533
G0 F7800 X48.685 Y75.199
G1 F3600 X40.65 Y83.234 E476.63676
G0 F7800 X40.65 Y82.81
G1 F3600 X48.685 Y74.775 E476.92021
G0 F7800 X48.685 Y74.35
G1 F3600 X40.65 Y82.386 E477.20369
G0 F7800 X40.65 Y81.962
G1 F3600 X48.685 Y73.926 E477.48716
G0 F7800 X48.685 Y73.502
G1 F3600 X40.65 Y81.537 E477.77062
G0 F7800 X40.65 Y81.113
G1 F3600 X48.685 Y73.078 E478.05407
G0 F7800 X48.685 Y72.653
G1 F3600 X40.65 Y80.689 E478.33755
G0 F7800 X40.65 Y80.265
G1 F3600 X48.685 Y72.229 E478.62102
G0 F7800 X48.685 Y71.805
G1 F3600 X40.65 Y79.84 E478.90448
G0 F7800 X40.65 Y79.416
G1 F3600 X48.685 Y71.381 E479.18793
G0 F7800 X48.685 Y70.956
G1 F3600 X40.65 Y78.992 E479.47141
G0 F7800 X40.65 Y78.568
G1 F3600 X48.685 Y70.532 E479.75488
G0 F7800 X48.685 Y70.108
G1 F3600 X40.65 Y78.143 E480.03834
G0 F7800 X40.65 Y77.719
G1 F3600 X48.685 Y69.683 E480.32181
G0 F7800 X48.685 Y69.259
G1 F3600 X40.65 Y77.295 E480.60529
G0 F7800 X40.65 Y76.87
G1 F3600 X56.57 Y60.95 E481.16691
G0 F7800 X56.994 Y60.95
G1 F3600 X48.955 Y68.989 E481.4505
G0 F7800 X48.934 Y60.949
G1 F3600 X40.65 Y69.234 E481.74276
G0 F7800 X40.65 Y69.658
G1 F3600 X49.358 Y60.949 E482.04998
G0 F7800 X49.783 Y60.949
G1 F3600 X40.65 Y70.082 E482.37217
G0 F7800 X40.65 Y70.507
G1 F3600 X50.207 Y60.949 E482.70934
G0 F7800 X50.631 Y60.949
G1 F3600 X40.65 Y70.931 E483.06146
G0 F7800 X40.65 Y71.355
G1 F3600 X51.055 Y60.949 E483.42854
G0 F7800 X51.48 Y60.949
G1 F3600 X40.65 Y71.779 E483.8106
G0 F7800 X40.65 Y72.204
G1 F3600 X51.904 Y60.949 E484.20763
G0 F7800 X52.328 Y60.949
G1 F3600 X40.65 Y72.628 E484.61962
G0 F7800 X40.65 Y73.052
G1 F3600 X52.752 Y60.949 E485.04657
G0 F7800 X53.177 Y60.949
G1 F3600 X40.65 Y73.476 E485.4885
G0 F7800 X40.65 Y73.901
G1 F3600 X53.601 Y60.949 E485.9454
G0 F7800 X54.025 Y60.949
G1 F3600 X40.65 Y74.325 E486.41725
G0 F7800 X40.65 Y74.749
G1 F3600 X54.45 Y60.949 E486.90408
G0 F7800 X54.873 Y60.95
G1 F3600 X40.65 Y75.173 E487.40584
G0 F7800 X40.65 Y75.598
G1 F3600 X55.297 Y60.95 E487.92257
G0 F7800 X55.722 Y60.95
G1 F3600 X40.65 Y76.022 E488.45427
G0 F7800 X40.65 Y76.446
G1 F3600 X56.146 Y60.95 E489.00094
G0 F7800 X48.51 Y60.949
G1 F3600 X40.65 Y68.809 E489.27822
G0 F7800 X40.65 Y68.385
G1 F3600 X48.086 Y60.949 E489.54055
G0 F7800 X47.661 Y60.949
G1 F3600 X40.65 Y67.961 E489.7879
G0 F7800 X40.65 Y67.537
G1 F3600 X47.237 Y60.949 E490.02029
G0 F7800 X46.813 Y60.949
G1 F3600 X40.65 Y67.112 E490.2377
G0 F7800 X40.65 Y66.688
G1 F3600 X46.389 Y60.949 E490.44016
G0 F7800 X45.964 Y60.949
G1 F3600 X40.65 Y66.264 E490.62765
G0 F7800 X40.65 Y65.84
G1 F3600 X45.54 Y60.949 E490.80017
G0 F7800 X45.116 Y60.949
G1 F3600 X40.65 Y65.415 E490.95772
G0 F7800 X40.65 Y64.991
G1 F3600 X44.691 Y60.949 E491.1003
G0 F7800 X44.267 Y60.949
G1 F3600 X40.65 Y64.567 E491.22791
G0 F7800 X40.65 Y64.143
G1 F3600 X43.843 Y60.949 E491.34057
G0 F7800 X43.419 Y60.949
G1 F3600 X40.65 Y63.718 E491.43826
G0 F7800 X40.65 Y63.294
G1 F3600 X42.994 Y60.949 E491.52097
G0 F7800 X42.57 Y60.949
G1 F3600 X40.65 Y62.87 E491.58872
G0 F7800 X40.65 Y62.446
G1 F3600 X42.146 Y60.949 E491.64151
G0 F7800 X41.722 Y60.949
G1 F3600 X40.65 Y62.021 E491.67933
G0 F7800 X40.65 Y61.597
G1 F3600 X41.297 Y60.949 E491.70217
G0 F7800 X40.873 Y60.949
G1 F3600 X40.65 Y61.173 E491.71005
G1 F1800 E490.71005
G0 F7800 X112.082 Y69.83
G0 X111.482 Y69.23
; TYPE:WALL-INNER
G1 F1800 E491.71005
G1 X111.482 Y139.289 E493.45768
G1 X102.966 Y139.289 E493.67012
G1 X102.966 Y60.711 E495.63025
G1 X159.59 Y60.711 E497.04274
G1 X159.59 Y94.259 E497.8796
G1 X153.019 Y94.259 E498.04352
G1 X153.019 Y69.23 E498.66787
G1 X111.482 Y69.23 E499.70401
G0 F7800 X111.782 Y69.53
G1 F1800 X111.782 Y139.589 E501.45164
G1 X102.666 Y139.589 E501.67904
G1 X102.666 Y60.411 E503.65414
G1 X159.89 Y60.411 E505.0816
G1 X159.89 Y94.559 E505.93343
G1 X152.719 Y94.559 E506.11231
G1 X152.719 Y69.53 E506.73666
G1 X111.782 Y69.53 E507.75784
G0 F7800 X112.082 Y69.83
; TYPE:WALL-OUTER
G1 F1260 X112.082 Y139.889 E509.50547
G1 X102.366 Y139.889 E509.74783
G1 X102.366 Y60.111 E511.7379
G1 X160.19 Y60.111 E513.18033
G1 X160.19 Y94.859 E514.04712
G1 X152.419 Y94.859 E514.24097
G1 X152.419 Y69.83 E514.86532
G1 X112.082 Y69.83 E515.87153
G0 F7800 X112.17 Y68.99
; TYPE:FILL
G1 F3600 X120.209 Y60.951 E516.15513
G0 F7800 X120.633 Y60.951
G1 F3600 X112.594 Y68.99 E516.43872
G0 F7800 X113.018 Y68.99
G1 F3600 X121.058 Y60.951 E516.72234
G0 F7800 X121.482 Y60.951
G1 F3600 X113.443 Y68.99 E517.00594
G0 F7800 X113.867 Y68.99
G1 F3600 X121.906 Y60.951 E517.28953
G0 F7800 X122.33 Y60.951
G1 F3600 X114.291 Y68.99 E517.57313
G0 F7800 X114.716 Y68.99
G1 F3600 X122.755 Y60.951 E517.85673
G0 F7800 X123.179 Y60.951
G1 F3600 X115.14 Y68.99 E518.14033
G0 F7800 X115.564 Y68.99
G1 F3600 X123.603 Y60.951 E518.42392
G0 F7800 X124.027 Y60.951
G1 F3600 X115.988 Y68.99 E518.70752
G0 F7800 X116.413 Y68.99
G1 F3600 X124.452 Y60.951 E518.99112
G0 F7800 X124.876 Y60.951
G1 F3600 X116.837 Y68.99 E519.27472
G0 F7800 X117.261 Y68.99
G1 F3600 X125.3 Y60.951 E519.55831
G0 F7800 X125.724 Y60.951
G1 F3600 X117.685 Y68.99 E519.84191
G0 F7800 X118.11 Y68.99
G1 F3600 X126.149 Y60.951 E520.12551
G0 F7800 X126.573 Y60.951
G1 F3600 X118.534 Y68.99 E520.40911
G0 F7800 X118.958 Y68.99
G1 F3600 X126.997 Y60.951 E520.6927
G0 F7800 X127.422 Y60.951
G1 F3600 X119.382 Y68.99 E520.97632
G0 F7800 X119.807 Y68.99
G1 F3600 X127.846 Y60.951 E521.25992
G0 F7800 X128.27 Y60.951
G1 F3600 X120.231 Y68.99 E521.54351
G0 F7800 X120.655 Y68.99
G1 F3600 X128.694 Y60.951 E521.82711
G0 F7800 X129.119 Y60.951
G1 F3600 X121.08 Y68.99 E522.11071
G0 F7800 X121.504 Y68.99
G1 F3600 X129.543 Y60.951 E522.39431
G0 F7800 X129.967 Y60.951
G1 F3600 X121.928 Y68.99 E522.6779
G0 F7800 X122.352 Y68.99
G1 F3600 X130.391 Y60.951 E522.9615
G0 F7800 X130.816 Y60.951
G1 F3600 X122.777 Y68.99 E523.2451
G0 F7800 X123.201 Y68.99
G1 F3600 X131.24 Y60.951 E523.5287
G0 F7800 X131.664 Y60.951
G1 F3600 X123.625 Y68.99 E523.81229
G0 F7800 X124.049 Y68.99
G1 F3600 X132.088 Y60.951 E524.09589
G0 F7800 X132.513 Y60.951
G1 F3600 X124.474 Y68.99 E524.37949
G0 F7800 X124.898 Y68.99
G1 F3600 X132.937 Y60.951 E524.66309
G0 F7800 X133.361 Y60.951
G1 F3600 X125.322 Y68.99 E524.94668
G0 F7800 X125.746 Y68.99
G1 F3600 X133.786 Y60.951 E525.2303
G0 F7800 X134.21 Y60.951
G1 F3600 X126.171 Y68.99 E525.5139
G0 F7800 X126.595 Y68.99
G1 F3600 X134.634 Y60.951 E525.79749
G0 F7800 X135.058 Y60.951
G1 F3600 X127.019 Y68.99 E526.08109
G0 F7800 X127.443 Y68.99
G1 F3600 X135.483 Y60.951 E526.36471
G0 F7800 X135.907 Y60.951
G1 F3600 X127.868 Y68.99 E526.6483
G0 F7800 X128.292 Y68.99
G1 F3600 X136.331 Y60.951 E526.9319
G0 F7800 X136.755 Y60.951
G1 F3600 X128.716 Y68.99 E527.2155
G0 F7800 X129.141 Y68.99
G1 F3600 X137.18 Y60.951 E527.4991
G0 F7800 X137.604 Y60.951
G1 F3600 X129.565 Y68.99 E527.78269
G0 F7800 X129.989 Y68.99
G1 F3600 X138.028 Y60.951 E528.06629
G0 F7800 X138.452 Y60.951
G1 F3600 X130.413 Y68.99 E528.34989
G0 F7800 X130.838 Y68.99
G1 F3600 X138.877 Y60.951 E528.63348
G0 F7800 X139.301 Y60.951
G1 F3600 X131.262 Y68.99 E528.91708
G0 F7800 X131.686 Y68.99
G1 F3600 X139.725 Y60.951 E529.20068
G0 F7800 X140.149 Y60.951
G1 F3600 X132.11 Y68.99 E529.48428
G0 F7800 X132.535 Y68.989
G1 F3600 X140.574 Y60.951 E529.76786
G0 F7800 X140.998 Y60.951
G1 F3600 X132.96 Y68.989 E530.05142
G0 F7800 X133.384 Y68.989
G1 F3600 X141.422 Y60.951 E530.33498
G0 F7800 X141.847 Y60.951
G1 F3600 X133.808 Y68.989 E530.61856
G0 F7800 X134.232 Y68.989
G1 F3600 X142.271 Y60.951 E530.90214
G0 F7800 X142.695 Y60.951
G1 F3600 X134.657 Y68.989 E531.1857
G0 F7800 X135.081 Y68.989
G1 F3600 X143.119 Y60.951 E531.46927
G0 F7800 X143.544 Y60.951
G1 F3600 X135.505 Y68.989 E531.75285
G0 F7800 X135.929 Y68.989
G1 F3600 X143.968 Y60.951 E532.03642
G0 F7800 X144.392 Y60.951
G1 F3600 X136.354 Y68.989 E532.31999
G0 F7800 X136.778 Y68.989
G1 F3600 X144.816 Y60.951 E532.60355
G0 F7800 X145.241 Y60.951
G1 F3600 X137.202 Y68.989 E532.88713
G0 F7800 X137.627 Y68.989
G1 F3600 X145.665 Y60.951 E533.17069
G0 F7800 X146.089 Y60.951
G1 F3600 X138.051 Y68.989 E533.45425
G0 F7800 X138.475 Y68.989
G1 F3600 X146.513 Y60.951 E533.73782
G0 F7800 X146.938 Y60.951
G1 F3600 X138.899 Y68.989 E534.0214
G0 F7800 X139.324 Y68.989
G1 F3600 X147.362 Y60.951 E534.30496
G0 F7800 X147.786 Y60.951
G1 F3600 X139.748 Y68.989 E534.58852
G0 F7800 X140.172 Y68.989
G1 F3600 X148.21 Y60.951 E534.87208
G0 F7800 X148.635 Y60.951
G1 F3600 X140.596 Y68.989 E535.15566
G0 F7800 X141.021 Y68.989
G1 F3600 X149.059 Y60.951 E535.43922
G0 F7800 X149.483 Y60.951
G1 F3600 X141.445 Y68.989 E535.72279
G0 F7800 X141.869 Y68.989
G1 F3600 X149.908 Y60.951 E536.00637
G0 F7800 X150.332 Y60.951
G1 F3600 X142.293 Y68.989 E536.28995
G0 F7800 X142.718 Y68.989
G1 F3600 X150.756 Y60.951 E536.57351
G0 F7800 X151.18 Y60.951
G1 F3600 X143.142 Y68.989 E536.85707
G0 F7800 X143.566 Y68.989
G1 F3600 X151.605 Y60.951 E537.14065
G0 F7800 X152.029 Y60.951
G1 F3600 X143.99 Y68.989 E537.42423
G0 F7800 X144.415 Y68.989
G1 F3600 X152.453 Y60.951 E537.70779
G0 F7800 X152.877 Y60.951
G1 F3600 X144.839 Y68.989 E537.99135
G0 F7800 X145.263 Y68.989
G1 F3600 X153.302 Y60.951 E538.27493
G0 F7800 X153.726 Y60.951
G1 F3600 X145.688 Y68.989 E538.5585
G0 F7800 X146.112 Y68.989
G1 F3600 X154.15 Y60.951 E538.84206
G0 F7800 X154.574 Y60.951
G1 F3600 X146.536 Y68.989 E539.12562
G0 F7800 X146.96 Y68.989
G1 F3600 X154.999 Y60.951 E539.4092
G0 F7800 X155.423 Y60.951
G1 F3600 X147.385 Y68.989 E539.69276
G0 F7800 X147.809 Y68.989
G1 F3600 X155.847 Y60.951 E539.97632
G0 F7800 X156.272 Y60.951
G1 F3600 X148.233 Y68.989 E540.2599
G0 F7800 X148.657 Y68.989
G1 F3600 X156.696 Y60.951 E540.54348
G0 F7800 X157.12 Y60.951
G1 F3600 X149.082 Y68.989 E540.82705
G0 F7800 X149.506 Y68.989
G1 F3600 X157.544 Y60.951 E541.11061
G0 F7800 X157.969 Y60.951
G1 F3600 X149.93 Y68.989 E541.39419
G0 F7800 X150.354 Y68.989
G1 F3600 X158.393 Y60.951 E541.67777
G0 F7800 X158.817 Y60.951
G1 F3600 X150.779 Y68.989 E541.96133
G0 F7800 X151.203 Y68.989
G1 F3600 X159.241 Y60.951 E542.24489
G0 F7800 X159.349 Y61.267
G1 F3600 X151.627 Y68.989 E542.51731
G0 F7800 X152.051 Y68.989
G1 F3600 X159.349 Y61.692 E542.77475
G0 F7800 X159.349 Y62.116
G1 F3600 X152.476 Y68.989 E543.01721
G0 F7800 X152.9 Y68.989
G1 F3600 X159.349 Y62.54 E543.24471
G0 F7800 X159.349 Y62.965
G1 F3600 X153.258 Y69.056 E543.45959
G0 F7800 X153.258 Y69.48
G1 F3600 X159.349 Y63.389 E543.67447
G0 F7800 X159.349 Y63.813
G1 F3600 X153.258 Y69.904 E543.88934
G0 F7800 X153.258 Y70.328
G1 F3600 X159.349 Y64.237 E544.10422
G0 F7800 X159.349 Y64.662
G1 F3600 X153.258 Y70.753 E544.3191
G0 F7800 X153.258 Y71.177
G1 F3600 X159.349 Y65.086 E544.53397
G0 F7800 X159.349 Y65.51
G1 F3600 X153.258 Y71.601 E544.74885
G0 F7800 X153.258 Y72.025
G1 F3600 X159.349 Y65.934 E544.96373
G0 F7800 X159.349 Y66.359
G1 F3600 X153.258 Y72.45 E545.1786
G0 F7800 X153.258 Y72.874
G1 F3600 X159.349 Y66.783 E545.39348
G0 F7800 X159.349 Y67.207
G1 F3600 X153.258 Y73.298 E545.60836
G0 F7800 X153.258 Y73.722
G1 F3600 X159.349 Y67.631 E545.82323
G0 F7800 X159.349 Y68.056
G1 F3600 X153.258 Y74.147 E546.03811
G0 F7800 X153.258 Y74.571
G1 F3600 X159.349 Y68.48 E546.25299
G0 F7800 X159.349 Y68.904
G1 F3600 X153.258 Y74.995 E546.46786
G0 F7800 X153.258 Y75.42
G1 F3600 X159.349 Y69.328 E546.68276
G0 F7800 X159.349 Y69.753
G1 F3600 X153.258 Y75.844 E546.89763
G0 F7800 X153.258 Y76.268
G1 F3600 X159.349 Y70.177 E547.11251
G0 F7800 X159.349 Y70.601
G1 F3600 X153.258 Y76.692 E547.32739
G0 F7800 X153.258 Y77.117
G1 F3600 X159.349 Y71.026 E547.54226
G0 F7800 X159.349 Y71.45
G1 F3600 X153.258 Y77.541 E547.75714
G0 F7800 X153.258 Y77.965
G1 F3600 X159.349 Y71.874 E547.97201
G0 F7800 X159.349 Y72.298
G1 F3600 X153.258 Y78.389 E548.18689
G0 F7800 X153.258 Y78.814
G1 F3600 X159.349 Y72.723 E548.40177
G0 F7800 X159.349 Y73.147
G1 F3600 X153.258 Y79.238 E548.61664
G0 F7800 X153.258 Y79.662
G1 F3600 X159.349 Y73.571 E548.83152
G0 F7800 X159.349 Y73.995
G1 F3600 X153.258 Y80.086 E549.0464
G0 F7800 X153.258 Y80.511
G1 F3600 X159.349 Y74.42 E549.26127
G0 F7800 X159.349 Y74.844
G1 F3600 X153.258 Y80.935 E549.47615
G0 F7800 X153.258 Y81.359
G1 F3600 X159.349 Y75.268 E549.69103
G0 F7800 X159.349 Y75.692
G1 F3600 X153.258 Y81.783 E549.9059
G0 F7800 X153.258 Y82.208
G1 F3600 X159.349 Y76.117 E550.12078
G0 F7800 X159.349 Y76.541
G1 F3600 X153.258 Y82.632 E550.33566
G0 F7800 X153.258 Y83.056
G1 F3600 X159.349 Y76.965 E550.55053
G0 F7800 X159.349 Y77.39
G1 F3600 X153.258 Y83.481 E550.76541
G0 F7800 X153.258 Y83.905
G1 F3600 X159.348 Y77.814 E550.98027
G0 F7800 X159.348 Y78.239
G1 F3600 X153.258 Y84.329 E551.19511
G0 F7800 X153.258 Y84.753
G1 F3600 X159.348 Y78.663 E551.40995
G0 F7800 X159.348 Y79.087
G1 F3600 X153.258 Y85.178 E551.62481
G0 F7800 X153.258 Y85.602
G1 F3600 X159.348 Y79.512 E551.83965
G0 F7800 X159.348 Y79.936
G1 F3600 X153.258 Y86.026 E552.05449
G0 F7800 X153.258 Y86.45
G1 F3600 X159.348 Y80.36 E552.26933
G0 F7800 X159.348 Y80.784
G1 F3600 X153.258 Y86.875 E552.48419
G0 F7800 X153.258 Y87.299
G1 F3600 X159.348 Y81.209 E552.69903
G0 F7800 X159.348 Y81.633
G1 F3600 X153.258 Y87.723 E552.91387
G0 F7800 X153.258 Y88.147
G1 F3600 X159.348 Y82.057 E553.12872
G0 F7800 X159.348 Y82.481
G1 F3600 X153.258 Y88.572 E553.34357
G0 F7800 X153.258 Y88.996
G1 F3600 X159.348 Y82.906 E553.55842
G0 F7800 X159.348 Y83.33
G1 F3600 X153.258 Y89.42 E553.77326
G0 F7800 X153.258 Y89.844
G1 F3600 X159.348 Y83.754 E553.9881
G0 F7800 X159.348 Y84.178
G1 F3600 X153.258 Y90.269 E554.20296
G0 F7800 X153.258 Y90.693
G1 F3600 X159.348 Y84.603 E554.4178
G0 F7800 X159.348 Y85.027
G1 F3600 X153.258 Y91.117 E554.63264
G0 F7800 X153.258 Y91.542
G1 F3600 X159.348 Y85.451 E554.8475
G0 F7800 X159.348 Y85.875
G1 F3600 X153.258 Y91.966 E555.06236
G0 F7800 X153.258 Y92.39
G1 F3600 X159.348 Y86.3 E555.2772
G0 F7800 X159.348 Y86.724
G1 F3600 X153.258 Y92.814 E555.49204
G0 F7800 X153.258 Y93.239
G1 F3600 X159.348 Y87.148 E555.7069
G0 F7800 X159.348 Y87.573
G1 F3600 X153.258 Y93.663 E555.92174
G0 F7800 X153.327 Y94.018
G1 F3600 X159.348 Y87.997 E556.13415
G0 F7800 X159.348 Y88.421
G1 F3600 X153.751 Y94.018 E556.3316
G0 F7800 X154.176 Y94.018
G1 F3600 X159.348 Y88.845 E556.51407
G0 F7800 X159.348 Y89.27
G1 F3600 X154.6 Y94.018 E556.68157
G0 F7800 X155.024 Y94.018
G1 F3600 X159.348 Y89.694 E556.83411
G0 F7800 X159.348 Y90.118
G1 F3600 X155.448 Y94.018 E556.97169
G0 F7800 X155.873 Y94.018
G1 F3600 X159.348 Y90.542 E557.0943
G0 F7800 X159.348 Y90.967
G1 F3600 X156.297 Y94.018 E557.20193
G0 F7800 X156.721 Y94.019
G1 F3600 X159.348 Y91.391 E557.29462
G0 F7800 X159.348 Y91.815
G1 F3600 X157.145 Y94.019 E557.37236
G0 F7800 X157.569 Y94.019
G1 F3600 X159.348 Y92.239 E557.43513
G0 F7800 X159.348 Y92.664
G1 F3600 X157.993 Y94.019 E557.48294
G0 F7800 X158.418 Y94.019
G1 F3600 X159.348 Y93.088 E557.51576
G0 F7800 X159.348 Y93.512
G1 F3600 X158.842 Y94.019 E557.53363
G0 F7800 X159.266 Y94.019
G1 F3600 X159.348 Y93.937 E557.53652
G1 F1800 E556.53652
G0 F7800 X152.768 Y93.958
G0 X152.71 Y69.539
G0 X111.791 Y69.539
G0 X111.732 Y94.099
G0 X111.241 Y94.102
G0 X111.241 Y94.102
G1 F1800 E557.53652
G1 F3600 X103.205 Y102.138 E557.82001
G0 F7800 X103.205 Y102.562
G1 F3600 X111.241 Y94.526 E558.10351
G0 F7800 X111.241 Y94.951
G1 F3600 X103.205 Y102.986 E558.38698
G0 F7800 X103.205 Y103.41
G1 F3600 X111.241 Y95.375 E558.67045
G0 F7800 X111.241 Y95.799
G1 F3600 X103.205 Y103.835 E558.95395
G0 F7800 X103.205 Y104.259
G1 F3600 X111.241 Y96.223 E559.23744
G0 F7800 X111.241 Y96.648
G1 F3600 X103.205 Y104.683 E559.52091
G0 F7800 X103.205 Y105.107
G1 F3600 X111.241 Y97.072 E559.80438
G0 F7800 X111.241 Y97.496
G1 F3600 X103.205 Y105.532 E560.08788
G0 F7800 X103.205 Y105.956
G1 F3600 X111.241 Y97.92 E560.37137
G0 F7800 X111.241 Y98.345
G1 F3600 X103.205 Y106.38 E560.65484
G0 F7800 X103.205 Y106.804
G1 F3600 X111.241 Y98.769 E560.93832
G0 F7800 X111.241 Y99.193
G1 F3600 X103.205 Y107.229 E561.22181
G0 F7800 X103.205 Y107.653
G1 F3600 X111.241 Y99.617 E561.5053
G0 F7800 X111.241 Y100.042
G1 F3600 X103.205 Y108.077 E561.78877
G0 F7800 X103.205 Y108.502
G1 F3600 X111.241 Y100.466 E562.07226
G0 F7800 X111.241 Y100.89
G1 F3600 X103.205 Y108.926 E562.35576
G0 F7800 X103.205 Y109.35
G1 F3600 X111.241 Y101.314 E562.63925
G0 F7800 X111.241 Y101.739
G1 F3600 X103.205 Y109.774 E562.92272
G0 F7800 X103.205 Y110.199
G1 F3600 X111.241 Y102.163 E563.20621
G0 F7800 X111.241 Y102.587
G1 F3600 X103.205 Y110.623 E563.48971
G0 F7800 X103.205 Y111.047
G1 F3600 X111.241 Y103.012 E563.77318
G0 F7800 X111.241 Y103.436
G1 F3600 X103.205 Y111.471 E564.05665
G0 F7800 X103.205 Y111.896
G1 F3600 X111.241 Y103.86 E564.34014
G0 F7800 X111.242 Y104.284
G1 F3600 X103.205 Y112.32 E564.62365
G0 F7800 X103.205 Y112.744
G1 F3600 X111.242 Y104.708 E564.90716
G0 F7800 X111.242 Y105.132
G1 F3600 X103.205 Y113.168 E565.19067
G0 F7800 X103.205 Y113.593
G1 F3600 X111.242 Y105.556 E565.4742
G0 F7800 X111.242 Y105.981
G1 F3600 X103.205 Y114.017 E565.75771
G0 F7800 X103.205 Y114.441
G1 F3600 X111.242 Y106.405 E566.04122
G0 F7800 X111.242 Y106.829
G1 F3600 X103.205 Y114.865 E566.32473
G0 F7800 X103.205 Y115.29
G1 F3600 X111.242 Y107.253 E566.60825
G0 F7800 X111.242 Y107.678
G1 F3600 X103.205 Y115.714 E566.89176
G0 F7800 X103.205 Y116.138
G1 F3600 X111.242 Y108.102 E567.17527
G0 F7800 X111.242 Y108.526
G1 F3600 X103.205 Y116.563 E567.4588
G0 F7800 X103.205 Y116.987
G1 F3600 X111.242 Y108.951 E567.74231
G0 F7800 X111.242 Y109.375
G1 F3600 X103.205 Y117.411 E568.02582
G0 F7800 X103.205 Y117.835
G1 F3600 X111.242 Y109.799 E568.30933
G0 F7800 X111.242 Y110.223
G1 F3600 X103.205 Y118.26 E568.59285
G0 F7800 X103.205 Y118.684
G1 F3600 X111.242 Y110.648 E568.87636
G0 F7800 X111.242 Y111.072
G1 F3600 X103.205 Y119.108 E569.15987
G0 F7800 X103.206 Y119.532
G1 F3600 X111.242 Y111.496 E569.44336
G0 F7800 X111.242 Y111.92
G1 F3600 X103.206 Y119.956 E569.72686
G0 F7800 X103.206 Y120.38
G1 F3600 X111.242 Y112.345 E570.01033
G0 F7800 X111.242 Y112.769
G1 F3600 X103.206 Y120.804 E570.2938
G0 F7800 X103.206 Y121.229
G1 F3600 X111.242 Y113.193 E570.5773
G0 F7800 X111.242 Y113.617
G1 F3600 X103.206 Y121.653 E570.86079
G0 F7800 X103.206 Y122.077
G1 F3600 X111.242 Y114.042 E571.14426
G0 F7800 X111.242 Y114.466
G1 F3600 X103.206 Y122.502 E571.42775
G0 F7800 X103.206 Y122.926
G1 F3600 X111.242 Y114.89 E571.71124
G0 F7800 X111.242 Y115.314
G1 F3600 X103.206 Y123.35 E571.99474
G0 F7800 X103.206 Y123.774
G1 F3600 X111.242 Y115.739 E572.27821
G0 F7800 X111.242 Y116.163
G1 F3600 X103.206 Y124.199 E572.5617
G0 F7800 X103.206 Y124.623
G1 F3600 X111.242 Y116.587 E572.84519
G0 F7800 X111.242 Y117.012
G1 F3600 X103.206 Y125.047 E573.12867
G0 F7800 X103.206 Y125.471
G1 F3600 X111.242 Y117.436 E573.41214
G0 F7800 X111.242 Y117.86
G1 F3600 X103.206 Y125.896 E573.69563
G0 F7800 X103.206 Y126.32
G1 F3600 X111.242 Y118.284 E573.97912
G0 F7800 X111.242 Y118.709
G1 F3600 X103.206 Y126.744 E574.2626
G0 F7800 X103.206 Y127.168
G1 F3600 X111.242 Y119.133 E574.54607
G0 F7800 X111.242 Y119.557
G1 F3600 X103.206 Y127.593 E574.82956
G0 F7800 X103.206 Y128.017
G1 F3600 X111.242 Y119.981 E575.11305
G0 F7800 X111.242 Y120.406
G1 F3600 X103.206 Y128.441 E575.39653
G0 F7800 X103.206 Y128.865
G1 F3600 X111.242 Y120.83 E575.68
G0 F7800 X111.242 Y121.254
G1 F3600 X103.206 Y129.29 E575.96349
G0 F7800 X103.206 Y129.714
G1 F3600 X111.242 Y121.678 E576.24699
G0 F7800 X111.242 Y122.103
G1 F3600 X103.206 Y130.138 E576.53046
G0 F7800 X103.206 Y130.563
G1 F3600 X111.242 Y122.527 E576.81395
G0 F7800 X111.242 Y122.951
G1 F3600 X103.206 Y130.987 E577.09744
G0 F7800 X103.206 Y131.411
G1 F3600 X111.242 Y123.375 E577.38093
G0 F7800 X111.242 Y123.8
G1 F3600 X103.206 Y131.835 E577.66441
G0 F7800 X103.206 Y132.26
G1 F3600 X111.242 Y124.224 E577.9479
G0 F7800 X111.242 Y124.648
G1 F3600 X103.206 Y132.684 E578.23139
G0 F7800 X103.206 Y133.108
G1 F3600 X111.242 Y125.073 E578.51487
G0 F7800 X111.242 Y125.497
G1 F3600 X103.206 Y133.532 E578.79834
G0 F7800 X103.206 Y133.957
G1 F3600 X111.242 Y125.921 E579.08183
G0 F7800 X111.242 Y126.345
G1 F3600 X103.206 Y134.381 E579.36532
G0 F7800 X103.206 Y134.805
G1 F3600 X111.242 Y126.77 E579.6488
G0 F7800 X111.242 Y127.194
G1 F3600 X103.206 Y135.229 E579.93227
G0 F7800 X103.206 Y135.654
G1 F3600 X111.242 Y127.618 E580.21576
G0 F7800 X111.242 Y128.042
G1 F3600 X103.206 Y136.078 E580.49925
G0 F7800 X103.206 Y136.502
G1 F3600 X111.242 Y128.467 E580.78273
G0 F7800 X111.242 Y128.891
G1 F3600 X103.206 Y136.926 E581.0662
G0 F7800 X103.206 Y137.351
G1 F3600 X111.242 Y129.315 E581.34969
G0 F7800 X111.242 Y129.739
G1 F3600 X103.206 Y137.775 E581.63319
G0 F7800 X103.206 Y138.199
G1 F3600 X111.242 Y130.164 E581.91666
G0 F7800 X111.242 Y130.588
G1 F3600 X103.206 Y138.624 E582.20015
G0 F7800 X103.206 Y139.048
G1 F3600 X111.242 Y131.012 E582.48364
G0 F7800 X111.242 Y131.437
G1 F3600 X103.63 Y139.048 E582.75216
G0 F7800 X104.055 Y139.048
G1 F3600 X111.242 Y131.861 E583.0057
G0 F7800 X111.242 Y132.285
G1 F3600 X104.479 Y139.048 E583.24428
G0 F7800 X104.903 Y139.048
G1 F3600 X111.242 Y132.709 E583.46791
G0 F7800 X111.242 Y133.134
G1 F3600 X105.327 Y139.048 E583.67656
G0 F7800 X105.752 Y139.048
G1 F3600 X111.242 Y133.558 E583.87023
G0 F7800 X111.242 Y133.982
G1 F3600 X106.176 Y139.048 E584.04895
G0 F7800 X106.6 Y139.048
G1 F3600 X111.242 Y134.406 E584.21271
G0 F7800 X111.242 Y134.831
G1 F3600 X107.024 Y139.048 E584.36149
G0 F7800 X107.449 Y139.048
G1 F3600 X111.242 Y135.255 E584.4953
G0 F7800 X111.242 Y135.679
G1 F3600 X107.873 Y139.048 E584.61415
G0 F7800 X108.297 Y139.048
G1 F3600 X111.242 Y136.103 E584.71804
G0 F7800 X111.242 Y136.528
G1 F3600 X108.721 Y139.048 E584.80696
G0 F7800 X109.146 Y139.048
G1 F3600 X111.242 Y136.952 E584.8809
G0 F7800 X111.242 Y137.376
G1 F3600 X109.57 Y139.048 E584.93989
G0 F7800 X109.994 Y139.048
G1 F3600 X111.242 Y137.8 E584.98391
G0 F7800 X111.242 Y138.225
G1 F3600 X110.418 Y139.048 E585.01297
G0 F7800 X110.843 Y139.048
G1 F3600 X111.242 Y138.649 E585.02704
G0 F7800 X103.205 Y101.713
G1 F3600 X111.241 Y93.678 E585.31052
G0 F7800 X111.241 Y93.253
G1 F3600 X103.205 Y101.289 E585.59401
G0 F7800 X103.205 Y100.865
G1 F3600 X111.241 Y92.829 E585.8775
G0 F7800 X111.241 Y92.405
G1 F3600 X103.205 Y100.44 E586.16097
G0 F7800 X103.205 Y100.016
G1 F3600 X111.241 Y91.981 E586.44445
G0 F7800 X111.241 Y91.556
G1 F3600 X103.205 Y99.592 E586.72794
G0 F7800 X103.205 Y99.168
G1 F3600 X111.241 Y91.132 E587.01143
G0 F7800 X111.241 Y90.708
G1 F3600 X103.205 Y98.743 E587.2949
G0 F7800 X103.205 Y98.319
G1 F3600 X111.241 Y90.284 E587.57838
G0 F7800 X111.241 Y89.859
G1 F3600 X103.205 Y97.895 E587.86187
G0 F7800 X103.205 Y97.471
G1 F3600 X111.241 Y89.435 E588.14536
G0 F7800 X111.241 Y89.011
G1 F3600 X103.205 Y97.046 E588.42883
G0 F7800 X103.205 Y96.622
G1 F3600 X111.241 Y88.587 E588.71231
G0 F7800 X111.241 Y88.162
G1 F3600 X103.205 Y96.198 E588.9958
G0 F7800 X103.205 Y95.774
G1 F3600 X111.241 Y87.738 E589.27929
G0 F7800 X111.241 Y87.314
G1 F3600 X103.205 Y95.349 E589.56277
G0 F7800 X103.205 Y94.925
G1 F3600 X111.241 Y86.889 E589.84626
G0 F7800 X111.241 Y86.465
G1 F3600 X103.205 Y94.501 E590.12975
G0 F7800 X103.205 Y94.077
G1 F3600 X111.241 Y86.041 E590.41324
G0 F7800 X111.241 Y85.617
G1 F3600 X103.205 Y93.652 E590.69671
G0 F7800 X103.205 Y93.228
G1 F3600 X111.241 Y85.192 E590.98021
G0 F7800 X111.241 Y84.768
G1 F3600 X103.205 Y92.804 E591.2637
G0 F7800 X103.205 Y92.379
G1 F3600 X111.241 Y84.344 E591.54717
G0 F7800 X111.241 Y83.92
G1 F3600 X103.205 Y91.955 E591.83065
G0 F7800 X103.205 Y91.531
G1 F3600 X111.241 Y83.495 E592.11414
G0 F7800 X111.241 Y83.071
G1 F3600 X103.205 Y91.107 E592.39763
G0 F7800 X103.205 Y90.682
G1 F3600 X111.241 Y82.647 E592.6811
G0 F7800 X111.241 Y82.223
G1 F3600 X103.205 Y90.258 E592.96458
G0 F7800 X103.205 Y89.834
G1 F3600 X111.241 Y81.798 E593.24807
G0 F7800 X111.241 Y81.374
G1 F3600 X103.205 Y89.41 E593.53156
G0 F7800 X103.205 Y88.985
G1 F3600 X111.241 Y80.95 E593.81503
G0 F7800 X111.241 Y80.526
G1 F3600 X103.205 Y88.561 E594.09851
G0 F7800 X103.205 Y88.137
G1 F3600 X111.241 Y80.101 E594.382
G0 F7800 X111.241 Y79.677
G1 F3600 X103.205 Y87.713 E594.66549
G0 F7800 X103.205 Y87.288
G1 F3600 X111.241 Y79.253 E594.94897
G0 F7800 X111.241 Y78.828
G1 F3600 X103.205 Y86.864 E595.23246
G0 F7800 X103.205 Y86.44
G1 F3600 X111.241 Y78.404 E595.51595
G0 F7800 X111.241 Y77.98
G1 F3600 X103.205 Y86.016 E595.79944
G0 F7800 X103.205 Y85.591
G1 F3600 X111.241 Y77.556 E596.08291
G0 F7800 X111.241 Y77.131
G1 F3600 X103.205 Y85.167 E596.36641
G0 F7800 X103.205 Y84.743
G1 F3600 X111.241 Y76.707 E596.6499
G0 F7800 X111.241 Y76.283
G1 F3600 X103.205 Y84.318 E596.93337
G0 F7800 X103.205 Y83.894
G1 F3600 X111.241 Y75.859 E597.21684
G0 F7800 X111.241 Y75.434
G1 F3600 X103.205 Y83.47 E597.50034
G0 F7800 X103.205 Y83.046
G1 F3600 X111.241 Y75.01 E597.78383
G0 F7800 X111.241 Y74.586
G1 F3600 X103.205 Y82.621 E598.0673
G0 F7800 X103.205 Y82.197
G1 F3600 X111.241 Y74.162 E598.35078
G0 F7800 X111.241 Y73.737
G1 F3600 X103.205 Y81.773 E598.63427
G0 F7800 X103.205 Y81.349
G1 F3600 X111.241 Y73.313 E598.91776
G0 F7800 X111.241 Y72.889
G1 F3600 X103.205 Y80.924 E599.20123
G0 F7800 X103.205 Y80.5
G1 F3600 X111.241 Y72.465 E599.48471
G0 F7800 X111.241 Y72.04
G1 F3600 X103.205 Y80.077 E599.76822
G0 F7800 X103.205 Y79.652
G1 F3600 X111.241 Y71.616 E600.05171
G0 F7800 X111.241 Y71.192
G1 F3600 X103.205 Y79.228 E600.3352
G0 F7800 X103.205 Y78.804
G1 F3600 X111.241 Y70.767 E600.61871
G0 F7800 X111.241 Y70.343
G1 F3600 X103.205 Y78.379 E600.9022
G0 F7800 X103.205 Y77.955
G1 F3600 X111.241 Y69.919 E601.18569
G0 F7800 X111.241 Y69.495
G1 F3600 X103.205 Y77.531 E601.46918
G0 F7800 X103.205 Y77.107
G1 F3600 X111.241 Y69.07 E601.75269
G0 F7800 X111.321 Y68.99
G1 F3600 X119.361 Y60.951 E602.03631
G0 F7800 X119.785 Y60.951
G1 F3600 X111.746 Y68.99 E602.31991
G0 F7800 X111.724 Y60.951
G1 F3600 X103.205 Y69.47 E602.62044
G0 F7800 X103.205 Y69.046
G1 F3600 X111.3 Y60.951 E602.90601
G0 F7800 X110.875 Y60.951
G1 F3600 X103.205 Y68.621 E603.17659
G0 F7800 X103.205 Y68.197
G1 F3600 X110.451 Y60.951 E603.43221
G0 F7800 X110.027 Y60.951
G1 F3600 X103.205 Y67.773 E603.67288
G0 F7800 X103.205 Y67.349
G1 F3600 X109.602 Y60.951 E603.89856
G0 F7800 X109.178 Y60.951
G1 F3600 X103.205 Y66.924 E604.10928
G0 F7800 X103.205 Y66.5
G1 F3600 X108.754 Y60.951 E604.30503
G0 F7800 X108.33 Y60.951
G1 F3600 X103.205 Y66.076 E604.48583
G0 F7800 X103.205 Y65.652
G1 F3600 X107.905 Y60.951 E604.65166
G0 F7800 X107.481 Y60.951
G1 F3600 X103.205 Y65.227 E604.8025
G0 F7800 X103.205 Y64.803
G1 F3600 X107.057 Y60.951 E604.93839
G0 F7800 X106.633 Y60.951
G1 F3600 X103.205 Y64.379 E605.05932
G0 F7800 X103.205 Y63.954
G1 F3600 X106.208 Y60.951 E605.16526
G0 F7800 X105.784 Y60.951
G1 F3600 X103.205 Y63.53 E605.25624
G0 F7800 X103.205 Y63.106
G1 F3600 X105.36 Y60.951 E605.33227
G0 F7800 X104.936 Y60.951
G1 F3600 X103.205 Y62.682 E605.39333
G0 F7800 X103.205 Y62.257
G1 F3600 X104.511 Y60.951 E605.43941
G0 F7800 X104.087 Y60.951
G1 F3600 X103.205 Y61.833 E605.47052
G0 F7800 X103.205 Y61.409
G1 F3600 X103.663 Y60.951 E605.48668
G0 F7800 X103.239 Y60.951
G1 F3600 X103.205 Y60.985 E605.48788
G0 F7800 X103.205 Y69.894
G0 X103.205 Y69.894
G1 F3600 X112.148 Y60.951 E605.80337
G0 F7800 X112.572 Y60.951
G1 F3600 X103.205 Y70.318 E606.13381
G0 F7800 X103.205 Y70.743
G1 F3600 X112.997 Y60.951 E606.47925
G0 F7800 X113.421 Y60.951
G1 F3600 X103.205 Y71.167 E606.83965
G0 F7800 X103.205 Y71.591
G1 F3600 X113.845 Y60.951 E607.215
G0 F7800 X114.269 Y60.951
G1 F3600 X103.205 Y72.015 E607.60532
G0 F7800 X103.205 Y72.44
G1 F3600 X114.694 Y60.951 E608.01062
G0 F7800 X115.118 Y60.951
G1 F3600 X103.205 Y72.864 E608.43089
G0 F7800 X103.205 Y73.288
G1 F3600 X115.542 Y60.951 E608.86611
G0 F7800 X115.966 Y60.951
G1 F3600 X103.205 Y73.713 E609.3163
G0 F7800 X103.205 Y74.137
G1 F3600 X116.391 Y60.951 E609.78147
G0 F7800 X116.815 Y60.951
G1 F3600 X103.205 Y74.561 E610.2616
G0 F7800 X103.205 Y74.985
G1 F3600 X117.239 Y60.951 E610.75669
G0 F7800 X117.663 Y60.951
G1 F3600 X103.205 Y75.41 E611.26675
G0 F7800 X103.205 Y75.834
G1 F3600 X118.088 Y60.951 E611.79179
G0 F7800 X118.512 Y60.951
G1 F3600 X103.205 Y76.258 E612.33179
G0 F7800 X103.205 Y76.682
G1 F3600 X118.936 Y60.951 E612.88674
; Layer Change GCode
; LAYER:2
G1 F1800 E611.88674
G0 F7800 X49.526 Y69.83 Z0.65
G0 X48.926 Y69.23
; TYPE:WALL-INNER
G1 F1800 E612.88674
G1 X48.926 Y139.289 E614.63437
G1 X40.41 Y139.289 E614.8468
G1 X40.41 Y60.711 E616.80694
G1 X97.034 Y60.711 E618.21943
G1 X97.034 Y94.259 E619.05629
G1 X90.463 Y94.259 E619.2202
G1 X90.463 Y69.23 E619.84455
G1 X48.926 Y69.23 E620.8807
G0 F7800 X49.226 Y69.53
G1 F1800 X49.226 Y139.589 E622.62833
G1 X40.11 Y139.589 E622.85573
G1 X40.11 Y60.411 E624.83083
G1 X97.334 Y60.411 E626.25829
G1 X97.334 Y94.559 E627.11011
G1 X90.163 Y94.559 E627.28899
G1 X90.163 Y69.53 E627.91335
G1 X49.226 Y69.53 E628.93452
G0 F7800 X49.526 Y69.83
; TYPE:WALL-OUTER
G1 F1260 X49.526 Y139.889 E630.68215
G1 X39.81 Y139.889 E630.92452
G1 X39.81 Y60.111 E632.91459
G1 X97.634 Y60.111 E634.35701
G1 X97.634 Y94.859 E635.22381
G1 X89.863 Y94.859 E635.41766
G1 X89.863 Y69.83 E636.04201
G1 X49.526 Y69.83 E637.04822
G0 F7800 X49.473 Y68.989
; TYPE:FILL
G1 F3600 X41.433 Y60.949 E637.33185
G0 F7800 X41.009 Y60.949
G1 F3600 X49.049 Y68.989 E637.61548
G0 F7800 X48.685 Y69.05
G1 F3600 X40.65 Y61.014 E637.89896
G0 F7800 X40.65 Y61.439
G1 F3600 X48.685 Y69.474 E638.18241
G0 F7800 X48.685 Y69.898
G1 F3600 X40.65 Y61.863 E638.46587
G0 F7800 X40.65 Y62.287
G1 F3600 X48.685 Y70.323 E638.74934
G0 F7800 X48.685 Y70.747
G1 F3600 X40.65 Y62.711 E639.03282
G0 F7800 X40.65 Y63.136
G1 F3600 X48.685 Y71.171 E639.31627
G0 F7800 X48.685 Y71.595
G1 F3600 X40.65 Y63.56 E639.59973
G0 F7800 X40.65 Y63.984
G1 F3600 X48.685 Y72.02 E639.8832
G0 F7800 X48.685 Y72.444
G1 F3600 X40.65 Y64.408 E640.16668
G0 F7800 X40.65 Y64.833
G1 F3600 X48.685 Y72.868 E640.45013
G0 F7800 X48.685 Y73.293
G1 F3600 X40.65 Y65.257 E640.73361
G0 F7800 X40.65 Y65.681
