; Generated with MatterSlice 1.0
; filamentDiameter = 1.75
; extrusionWidth = 0.3
; firstLayerExtrusionWidth = 0.3
; layerThickness = 0.2
; firstLayerThickness = 0.25
; automatic settings before start_gcode
G21 ; set units to millimeters
M107 ; fan off
M190 S80 ; wait for bed temperature to be reached
M104 T0 S210 ; start heating extruder 1
T0 ; set the active extruder to 0
; settings from start_gcode
G28 ; home all axes
G1 Z5 F5000 ; lift nozzle
; automatic settings after start_gcode
M109 T0 S210 ; wait for extruder 1 to reach temperature
T0 ; set the active extruder to 0
G90 ; use absolute coordinates
G92 E0 ; reset the expected extruder position
M82 ; use absolute distance for extrusion
; Layer count: 107
; Layer Change GCode
; LAYER:0
G4 P0
M107
G0 F7800 X113.111 Y72.65 Z0.25
; TYPE:SKIRT
G1 F1800 E0
G1 F720 X114.129 Y72.813 E0.03215
G1 X115.141 Y73.088 E0.06485
G1 X116.091 Y73.459 E0.09665
G1 X117.019 Y73.93 E0.1291
G1 X117.897 Y74.508 E0.16187
G1 X118.689 Y75.153 E0.19372
G1 X119.426 Y75.894 E0.22631
G1 X120.077 Y76.705 E0.25874
G1 X120.636 Y77.572 E0.29091
G1 X121.11 Y78.511 E0.3237
G1 X121.475 Y79.483 E0.35608
G1 X121.737 Y80.475 E0.38807
G1 X121.893 Y81.485 E0.41994
G1 X121.938 Y82.337 E0.44654
G1 X121.956 Y117.694 E1.54902
G1 X121.904 Y118.587 E1.57691
G1 X121.735 Y119.607 E1.60915
G1 X121.464 Y120.601 E1.64128
G1 X121.093 Y121.553 E1.67314
G1 X120.62 Y122.481 E1.70562
G1 X120.047 Y123.351 E1.7381
G1 X119.395 Y124.155 E1.77038
G1 X118.651 Y124.889 E1.80296
G1 X117.856 Y125.529 E1.83479
G1 X116.98 Y126.097 E1.86734
G1 X116.051 Y126.564 E1.89976
G1 X115.083 Y126.934 E1.93208
G1 X114.074 Y127.199 E1.96461
G1 X113.076 Y127.354 E1.9961
G1 X112.033 Y127.411 E2.02867
G1 X111.14 Y127.36 E2.05656
G1 X78.044 Y123.732 E3.09472
G1 X78.044 Y76.268 E4.57471
G1 X111.159 Y72.638 E5.61347
G1 X112.06 Y72.589 E5.64161
G1 X113.111 Y72.65 E5.67443
G0 F7800 X113.078 Y72.948
G1 F720 X114.066 Y73.106 E5.70563
G1 X115.047 Y73.374 E5.73734
G1 X115.968 Y73.733 E5.76816
G1 X116.868 Y74.19 E5.79964
G1 X117.719 Y74.75 E5.8314
G1 X118.487 Y75.376 E5.8623
G1 X119.202 Y76.094 E5.89389
G1 X119.833 Y76.881 E5.92535
G1 X120.376 Y77.721 E5.95653
G1 X120.835 Y78.632 E5.98834
G1 X121.189 Y79.574 E6.01972
G1 X121.443 Y80.536 E6.05075
G1 X121.594 Y81.516 E6.08166
G1 X121.638 Y82.345 E6.10755
G1 X121.656 Y117.686 E7.20953
G1 X121.606 Y118.554 E7.23664
G1 X121.442 Y119.543 E7.2679
G1 X121.179 Y120.507 E7.29906
G1 X120.819 Y121.43 E7.32995
G1 X120.36 Y122.33 E7.36145
G1 X119.805 Y123.173 E7.39292
G1 X119.172 Y123.953 E7.42425
G1 X118.451 Y124.665 E7.45584
G1 X117.68 Y125.286 E7.48671
G1 X116.83 Y125.836 E7.51828
G1 X115.93 Y126.289 E7.5497
G1 X114.991 Y126.648 E7.58104
G1 X114.013 Y126.905 E7.61257
G1 X113.044 Y127.055 E7.64315
G1 X112.033 Y127.111 E7.67472
G1 X111.166 Y127.061 E7.7018
G1 X78.344 Y123.463 E8.73137
G1 X78.344 Y76.537 E10.19458
G1 X111.184 Y72.938 E11.22471
G1 X112.06 Y72.889 E11.25207
G1 X113.078 Y72.948 E11.28387
G0 F7800 X112.412 Y79.07
G1 F720 X112.768 Y79.127 E11.29511
G1 X113.117 Y79.222 E11.30639
G1 X113.453 Y79.353 E11.31763
G1 X113.774 Y79.516 E11.32886
G1 X114.076 Y79.715 E11.34013
G1 X114.356 Y79.943 E11.35139
G1 X114.611 Y80.199 E11.36266
G1 X114.837 Y80.481 E11.37393
G1 X115.032 Y80.783 E11.38514
G1 X115.195 Y81.106 E11.39642
G1 X115.322 Y81.444 E11.40768
G1 X115.414 Y81.793 E11.41893
G1 X115.469 Y82.149 E11.43016
G1 X115.488 Y82.509 E11.44141
G1 X115.467 Y82.871 E11.45271
G1 X115.42 Y83.161 E11.46187
G1 X115.41 Y86.037 E11.55155
G1 X113.714 Y85.952 E11.6045
G1 X111.939 Y86.027 E11.6599
G1 X110.273 Y86.255 E11.71233
G1 X108.656 Y86.632 E11.7641
G1 X107.072 Y87.162 E11.81618
G1 X105.572 Y87.829 E11.86737
G1 X104.164 Y88.628 E11.91785
G1 X102.858 Y89.553 E11.96775
G1 X101.667 Y90.595 E12.0171
G1 X100.871 Y91.45 E12.05352
G1 X95.515 Y91.45 E12.22053
G1 X95.515 Y96.454 E12.37656
G1 X92.492 Y96.454 E12.47082
G1 X92.492 Y103.55 E12.69209
G1 X95.515 Y103.55 E12.78635
G1 X95.515 Y108.55 E12.94226
G1 X100.872 Y108.55 E13.10929
G1 X101.638 Y109.381 E13.14453
G1 X102.82 Y110.419 E13.19359
G1 X104.13 Y111.351 E13.24372
G1 X105.536 Y112.154 E13.2942
G1 X107.043 Y112.829 E13.34569
G1 X108.606 Y113.356 E13.39712
G1 X110.232 Y113.739 E13.44921
G1 X111.908 Y113.972 E13.50198
G1 X113.406 Y114.049 E13.54875
G1 X115.412 Y113.967 E13.61135
G1 X115.413 Y116.732 E13.69757
G1 X115.487 Y117.142 E13.71056
G1 X115.506 Y117.509 E13.72201
G1 X115.485 Y117.871 E13.73332
G1 X115.426 Y118.227 E13.74457
G1 X115.331 Y118.575 E13.75582
G1 X115.2 Y118.911 E13.76707
G1 X115.036 Y119.233 E13.77833
G1 X114.837 Y119.535 E13.78961
G1 X114.609 Y119.816 E13.8009
G1 X114.352 Y120.07 E13.81216
G1 X114.071 Y120.296 E13.82341
G1 X113.767 Y120.493 E13.8347
G1 X113.445 Y120.655 E13.84594
G1 X113.107 Y120.784 E13.85722
G1 X112.757 Y120.876 E13.86851
G1 X112.402 Y120.931 E13.87971
G1 X112.041 Y120.951 E13.89098
G1 X111.679 Y120.93 E13.90229
G1 X111.324 Y120.872 E13.9135
G1 X110.976 Y120.778 E13.92474
G1 X110.64 Y120.647 E13.93599
G1 X110.318 Y120.484 E13.94724
G1 X110.015 Y120.285 E13.95855
G1 X109.736 Y120.057 E13.96978
G1 X109.482 Y119.801 E13.98103
G1 X109.257 Y119.52 E13.99225
G1 X109.06 Y119.218 E14.00349
G1 X108.897 Y118.894 E14.0148
G1 X108.77 Y118.556 E14.02606
G1 X108.678 Y118.207 E14.03732
G1 X108.638 Y117.95 E14.04543
G1 X84.494 Y117.95 E14.79827
G1 X84.494 Y82.05 E15.91768
G1 X108.622 Y82.042 E16.67003
G1 X108.666 Y81.773 E16.67852
G1 X108.761 Y81.425 E16.68977
G1 X108.892 Y81.089 E16.70102
G1 X109.057 Y80.766 E16.71233
G1 X109.256 Y80.464 E16.7236
G1 X109.484 Y80.185 E16.73484
G1 X109.739 Y79.93 E16.74608
G1 X110.021 Y79.704 E16.75735
G1 X110.325 Y79.507 E16.76865
G1 X110.647 Y79.345 E16.77989
G1 X110.985 Y79.216 E16.79117
G1 X111.335 Y79.124 E16.80245
G1 X111.689 Y79.069 E16.81362
G1 X112.051 Y79.049 E16.82493
G1 X112.412 Y79.07 E16.8362
G0 F7800 X112.379 Y79.369
G1 F720 X112.705 Y79.421 E16.8465
G1 X113.023 Y79.507 E16.85677
G1 X113.33 Y79.627 E16.86705
G1 X113.623 Y79.776 E16.8773
G1 X113.899 Y79.957 E16.88759
G1 X114.155 Y80.166 E16.89789
G1 X114.387 Y80.399 E16.90815
G1 X114.593 Y80.656 E16.91842
G1 X114.771 Y80.932 E16.92866
G1 X114.92 Y81.227 E16.93896
G1 X115.036 Y81.535 E16.94922
G1 X115.12 Y81.854 E16.95951
G1 X115.17 Y82.18 E16.96979
G1 X115.187 Y82.508 E16.98004
G1 X115.168 Y82.838 E16.99034
G1 X115.12 Y83.137 E16.99979
G1 X115.111 Y85.722 E17.08039
G1 X113.705 Y85.651 E17.12429
G1 X111.917 Y85.728 E17.18009
G1 X110.219 Y85.96 E17.23353
G1 X108.568 Y86.344 E17.28638
G1 X106.968 Y86.88 E17.339
G1 X105.436 Y87.562 E17.39129
G1 X104.004 Y88.374 E17.44262
G1 X102.673 Y89.317 E17.49348
G1 X101.456 Y90.38 E17.54387
G1 X100.74 Y91.15 E17.57665
G1 X95.215 Y91.15 E17.74893
G1 X95.215 Y96.154 E17.90496
G1 X92.192 Y96.154 E17.99922
G1 X92.192 Y103.85 E18.23919
G1 X95.215 Y103.85 E18.33346
G1 X95.215 Y108.85 E18.48936
G1 X100.741 Y108.85 E18.66167
G1 X101.426 Y109.593 E18.69318
G1 X102.639 Y110.66 E18.74356
G1 X103.968 Y111.605 E18.7944
G1 X105.398 Y112.422 E18.84576
G1 X106.928 Y113.107 E18.89803
G1 X108.526 Y113.646 E18.95061
G1 X110.174 Y114.034 E19.00341
G1 X111.875 Y114.27 E19.05695
G1 X113.414 Y114.349 E19.10501
G1 X115.112 Y114.28 E19.15799
G1 X115.113 Y116.757 E19.23523
G1 X115.188 Y117.177 E19.24853
G1 X115.205 Y117.508 E19.25887
G1 X115.186 Y117.838 E19.26918
G1 X115.133 Y118.163 E19.27944
G1 X115.046 Y118.481 E19.28972
G1 X114.926 Y118.788 E19.3
G1 X114.776 Y119.082 E19.31029
G1 X114.595 Y119.358 E19.32058
G1 X114.386 Y119.614 E19.33089
G1 X114.152 Y119.846 E19.34116
G1 X113.895 Y120.053 E19.35145
G1 X113.618 Y120.232 E19.36174
G1 X113.324 Y120.38 E19.372
G1 X113.015 Y120.498 E19.38232
G1 X112.696 Y120.582 E19.3926
G1 X112.371 Y120.632 E19.40285
G1 X112.042 Y120.65 E19.41313
G1 X111.712 Y120.631 E19.42344
G1 X111.387 Y120.579 E19.4337
G1 X111.07 Y120.493 E19.44394
G1 X110.763 Y120.373 E19.45422
G1 X110.469 Y120.224 E19.4645
G1 X110.193 Y120.043 E19.47479
G1 X109.938 Y119.834 E19.48507
G1 X109.706 Y119.601 E19.49532
G1 X109.5 Y119.344 E19.50559
G1 X109.321 Y119.068 E19.51585
G1 X109.172 Y118.773 E19.52615
G1 X109.056 Y118.465 E19.53642
G1 X108.972 Y118.146 E19.5467
G1 X108.923 Y117.828 E19.55673
G1 X108.914 Y117.65 E19.56229
G1 X84.794 Y117.65 E20.31439
G1 X84.794 Y82.35 E21.41509
G1 X108.896 Y82.342 E22.16662
G1 X108.907 Y82.163 E22.17221
G1 X108.959 Y81.837 E22.18251
G1 X109.046 Y81.519 E22.19279
G1 X109.166 Y81.212 E22.20307
G1 X109.316 Y80.917 E22.21339
G1 X109.498 Y80.642 E22.22367
G1 X109.707 Y80.386 E22.23397
G1 X109.94 Y80.154 E22.24423
G1 X110.197 Y79.947 E22.25452
G1 X110.474 Y79.768 E22.2648
G1 X110.768 Y79.62 E22.27506
G1 X111.077 Y79.502 E22.28538
G1 X111.396 Y79.418 E22.29566
G1 X111.72 Y79.368 E22.30588
G1 X112.05 Y79.35 E22.31619
G1 X112.379 Y79.369 E22.32647
G1 F1800 E21.32647
G0 F7800 X112.321 Y79.916
G0 X112.25 Y80.032
G0 X112.051 Y80
G0 X111.79 Y80.014
G0 X111.531 Y80.055
G0 X111.279 Y80.122
G0 X111.036 Y80.217
G0 X110.803 Y80.335
G0 X110.583 Y80.478
G0 X110.38 Y80.643
G0 X110.199 Y80.824
G0 X110.027 Y81.036
G0 X109.884 Y81.257
G0 X109.766 Y81.49
G0 X109.673 Y81.734
G0 X109.606 Y81.987
G0 X109.565 Y82.245
G0 X109.552 Y82.506
G0 X109.567 Y82.768
G0 X109.608 Y83.025
G0 X109.676 Y83.279
G0 X109.771 Y83.524
G0 X109.89 Y83.755
G0 X109.959 Y83.825
G0 X108.845 Y85.669
G0 X108.391 Y85.719
G0 X106.732 Y86.274
G0 X105.147 Y86.98
G0 X103.653 Y87.827
G0 X102.268 Y88.808
G0 X101.005 Y89.912
G0 X100.465 Y90.517
G0 X94.624 Y90.559
G0 X94.624 Y95.563
G0 X91.601 Y95.563
G0 X91.601 Y104.441
G0 X94.624 Y104.441
G0 X94.661 Y109.155
G0 X94.665 Y109.15
G0 X94.665 Y109.15
G0 X94.915 Y109.15
; TYPE:WALL-OUTER
G1 F1800 E22.32647
G1 F720 X100.609 Y109.15 E22.50401
G1 X101.217 Y109.809 E22.53197
G1 X102.45 Y110.893 E22.58316
G1 X103.804 Y111.857 E22.63499
G1 X105.266 Y112.691 E22.68747
G1 X106.818 Y113.386 E22.7405
G1 X108.444 Y113.934 E22.794
G1 X110.125 Y114.331 E22.84786
G1 X111.844 Y114.569 E22.90197
G1 X113.411 Y114.649 E22.95089
G1 X114.812 Y114.592 E22.99462
G1 X114.813 Y116.786 E23.06303
G1 X114.89 Y117.213 E23.07656
G1 X114.905 Y117.507 E23.08574
G1 X114.887 Y117.808 E23.09514
G1 X114.84 Y118.094 E23.10418
G1 X114.759 Y118.39 E23.11374
G1 X114.654 Y118.66 E23.12278
G1 X114.513 Y118.938 E23.1325
G1 X114.358 Y119.174 E23.1413
G1 X114.169 Y119.406 E23.15063
G1 X113.948 Y119.625 E23.16033
G1 X113.723 Y119.806 E23.16934
G1 X113.464 Y119.974 E23.17896
G1 X113.201 Y120.106 E23.18814
G1 X112.925 Y120.212 E23.19736
G1 X112.633 Y120.288 E23.20677
G1 X112.344 Y120.333 E23.21589
G1 X112.043 Y120.35 E23.22529
G1 X111.741 Y120.332 E23.23472
G1 X111.453 Y120.286 E23.24381
G1 X111.163 Y120.207 E23.25319
G1 X110.887 Y120.1 E23.26242
G1 X110.612 Y119.96 E23.27204
G1 X110.374 Y119.804 E23.28091
G1 X110.14 Y119.612 E23.29035
G1 X109.931 Y119.402 E23.29959
G1 X109.745 Y119.17 E23.30886
G1 X109.577 Y118.911 E23.31849
G1 X109.447 Y118.652 E23.32752
G1 X109.342 Y118.374 E23.33679
G1 X109.266 Y118.083 E23.34617
G1 X109.222 Y117.802 E23.35504
G1 X109.199 Y117.35 E23.36915
G1 X85.094 Y117.35 E24.12078
G1 X85.094 Y82.65 E25.20277
G1 X109.18 Y82.642 E25.9538
G1 X109.206 Y82.188 E25.96798
G1 X109.251 Y81.909 E25.9768
G1 X109.334 Y81.606 E25.98659
G1 X109.439 Y81.336 E25.99562
G1 X109.577 Y81.067 E26.00505
G1 X109.741 Y80.819 E26.01432
G1 X109.929 Y80.588 E26.02361
G1 X110.139 Y80.379 E26.03285
G1 X110.371 Y80.192 E26.04214
G1 X110.628 Y80.026 E26.05168
G1 X110.891 Y79.894 E26.06086
G1 X111.167 Y79.788 E26.07007
G1 X111.459 Y79.712 E26.07948
G1 X111.747 Y79.667 E26.08857
G1 X112.049 Y79.65 E26.098
G1 X112.35 Y79.668 E26.10741
G1 X112.639 Y79.714 E26.11653
G1 X112.93 Y79.793 E26.12593
G1 X113.206 Y79.9 E26.13516
G1 X113.48 Y80.04 E26.14476
G1 X113.716 Y80.195 E26.15356
G1 X113.953 Y80.388 E26.16309
G1 X114.162 Y80.598 E26.17233
G1 X114.351 Y80.834 E26.18176
G1 X114.511 Y81.081 E26.19093
G1 X114.645 Y81.348 E26.20025
G1 X114.748 Y81.62 E26.20932
G1 X114.826 Y81.917 E26.21889
G1 X114.871 Y82.203 E26.22792
G1 X114.887 Y82.507 E26.23741
G1 X114.869 Y82.809 E26.24685
G1 X114.82 Y83.113 E26.25645
G1 X114.813 Y85.406 E26.32795
G1 X113.708 Y85.351 E26.36245
G1 X111.888 Y85.428 E26.41925
G1 X110.169 Y85.663 E26.47335
G1 X108.486 Y86.056 E26.52724
G1 X106.859 Y86.6 E26.58073
G1 X105.304 Y87.292 E26.6338
G1 X103.84 Y88.122 E26.68628
G1 X102.484 Y89.083 E26.7381
G1 X101.248 Y90.163 E26.78928
G1 X100.61 Y90.85 E26.81851
G1 X94.915 Y90.85 E26.99609
G1 X94.915 Y95.854 E27.15212
G1 X91.892 Y95.854 E27.24638
G1 X91.892 Y104.15 E27.50507
G1 X94.915 Y104.15 E27.59933
G1 X94.915 Y109.15 E27.75523
G0 F7800 X94.615 Y109.45
; TYPE:WALL-INNER
G1 F720 X100.478 Y109.45 E27.93805
G1 X101.007 Y110.024 E27.96239
G1 X102.263 Y111.128 E28.01453
G1 X103.642 Y112.11 E28.06732
G1 X105.13 Y112.959 E28.12074
G1 X106.709 Y113.666 E28.17468
G1 X108.361 Y114.223 E28.22904
G1 X110.07 Y114.626 E28.2838
G1 X111.816 Y114.868 E28.33876
G1 X113.41 Y114.949 E28.38853
G1 X114.512 Y114.905 E28.42291
G1 X114.513 Y116.813 E28.48241
G1 X114.592 Y117.25 E28.49626
G1 X114.605 Y117.505 E28.50422
G1 X114.589 Y117.769 E28.51246
G1 X114.546 Y118.034 E28.52084
G1 X114.474 Y118.297 E28.52934
G1 X114.381 Y118.536 E28.53733
G1 X114.254 Y118.784 E28.54602
G1 X114.111 Y119.002 E28.55415
G1 X113.944 Y119.207 E28.5624
G1 X113.75 Y119.399 E28.57091
G1 X113.544 Y119.564 E28.57914
G1 X113.314 Y119.713 E28.58768
G1 X113.087 Y119.828 E28.59562
G1 X112.827 Y119.927 E28.60429
G1 X112.577 Y119.993 E28.61236
G1 X112.301 Y120.036 E28.62106
G1 X112.044 Y120.05 E28.62909
G1 X111.777 Y120.034 E28.63743
G1 X111.514 Y119.992 E28.64574
G1 X111.256 Y119.922 E28.65407
G1 X111.011 Y119.826 E28.66228
G1 X110.77 Y119.704 E28.6707
G1 X110.548 Y119.559 E28.67897
G1 X110.341 Y119.389 E28.68732
G1 X110.153 Y119.2 E28.69563
G1 X109.987 Y118.992 E28.70393
G1 X109.843 Y118.771 E28.71215
G1 X109.723 Y118.533 E28.72047
G1 X109.628 Y118.281 E28.72886
G1 X109.561 Y118.026 E28.73708
G1 X109.519 Y117.757 E28.74557
G1 X109.484 Y117.05 E28.76765
G1 X85.394 Y117.05 E29.5188
G1 X85.394 Y82.95 E30.58209
G1 X109.463 Y82.942 E31.33259
G1 X109.504 Y82.228 E31.35489
G1 X109.546 Y81.967 E31.36314
G1 X109.618 Y81.703 E31.37167
G1 X109.711 Y81.464 E31.37967
G1 X109.835 Y81.221 E31.38817
G1 X109.986 Y80.993 E31.3967
G1 X110.153 Y80.788 E31.40495
G1 X110.337 Y80.605 E31.41304
G1 X110.548 Y80.436 E31.42147
G1 X110.778 Y80.287 E31.43001
G1 X111.007 Y80.171 E31.43802
G1 X111.265 Y80.073 E31.44662
G1 X111.516 Y80.007 E31.45471
G1 X111.79 Y79.964 E31.46336
G1 X112.048 Y79.95 E31.47142
G1 X112.314 Y79.966 E31.47973
G1 X112.579 Y80.008 E31.48809
G1 X112.837 Y80.078 E31.49643
G1 X113.082 Y80.174 E31.50464
G1 X113.322 Y80.296 E31.51303
G1 X113.543 Y80.441 E31.52127
G1 X113.753 Y80.612 E31.52972
G1 X113.94 Y80.8 E31.53798
G1 X114.104 Y81.005 E31.54617
G1 X114.25 Y81.231 E31.55456
G1 X114.369 Y81.467 E31.5628
G1 X114.464 Y81.719 E31.5712
G1 X114.531 Y81.973 E31.57939
G1 X114.573 Y82.243 E31.58791
G1 X114.587 Y82.505 E31.59609
G1 X114.571 Y82.772 E31.60443
G1 X114.52 Y83.088 E31.61441
G1 X114.514 Y85.091 E31.67687
G1 X113.709 Y85.051 E31.702
G1 X111.861 Y85.129 E31.75968
G1 X110.114 Y85.368 E31.81466
G1 X108.404 Y85.767 E31.86941
G1 X106.75 Y86.32 E31.92379
G1 X105.169 Y87.024 E31.97775
G1 X103.679 Y87.869 E32.03117
G1 X102.298 Y88.847 E32.08393
G1 X101.039 Y89.948 E32.13608
G1 X100.479 Y90.55 E32.16172
G1 X94.615 Y90.55 E32.34457
G1 X94.615 Y95.554 E32.5006
G1 X91.592 Y95.554 E32.59486
G1 X91.592 Y104.45 E32.87225
G1 X94.615 Y104.45 E32.96651
G1 X94.615 Y109.45 E33.12242
G0 F7800 X94.315 Y109.75
G1 F720 X100.347 Y109.75 E33.3105
G1 X100.797 Y110.239 E33.33123
G1 X102.077 Y111.364 E33.38436
G1 X103.481 Y112.363 E33.43809
G1 X104.994 Y113.227 E33.49242
G1 X106.599 Y113.945 E33.54725
G1 X108.279 Y114.512 E33.60253
G1 X110.015 Y114.921 E33.65815
G1 X110.837 Y115.035 E33.68402
G1 X110.676 Y115.117 E33.68966
G1 X110.435 Y115.274 E33.69863
G1 X110.211 Y115.455 E33.70761
G1 X110.012 Y115.654 E33.71638
G1 X109.822 Y115.888 E33.72578
G1 X109.666 Y116.132 E33.73481
G1 X109.536 Y116.386 E33.74371
G1 X109.409 Y116.75 E33.75573
G1 X85.694 Y116.75 E34.49519
G1 X85.694 Y83.25 E35.53977
G1 X109.407 Y83.242 E36.27917
G1 X109.542 Y83.627 E36.2919
G1 X109.674 Y83.881 E36.30082
G1 X109.83 Y84.122 E36.30977
G1 X110.014 Y84.348 E36.31886
G1 X110.216 Y84.549 E36.32775
G1 X110.441 Y84.731 E36.33677
G1 X110.684 Y84.887 E36.34577
G1 X110.84 Y84.966 E36.35123
G1 X110.06 Y85.073 E36.37578
G1 X108.322 Y85.478 E36.43142
G1 X106.641 Y86.04 E36.48669
G1 X105.034 Y86.756 E36.54155
G1 X103.518 Y87.615 E36.59588
G1 X102.112 Y88.611 E36.6496
G1 X100.83 Y89.732 E36.70271
G1 X100.348 Y90.25 E36.72477
G1 X94.315 Y90.25 E36.91289
G1 X94.315 Y95.254 E37.06892
G1 X91.292 Y95.254 E37.16318
G1 X91.292 Y104.75 E37.45928
G1 X94.315 Y104.75 E37.55354
G1 X94.315 Y109.75 E37.70945
G0 F7800 X107.155 Y117.099
G0 X109.478 Y117.055
G0 X109.57 Y117.77
G0 X109.607 Y118.011
G0 X109.69 Y118.551
G0 X109.995 Y118.725
G0 X110.199 Y119.178
G0 X110.384 Y119.361
G0 X110.589 Y119.527
G0 X110.809 Y119.668
G0 X111.042 Y119.786
G0 X111.286 Y119.879
G0 X111.537 Y119.946
G0 X111.796 Y119.987
G0 X112.057 Y120
G0 X112.061 Y119.908
G0 X112.043 Y119.899
G0 X112.043 Y119.899
G0 X112.056 Y119.65
; TYPE:WALL-OUTER
G1 F720 X112.281 Y119.637 E37.71647
G1 X112.504 Y119.602 E37.72351
G1 X112.721 Y119.543 E37.73052
G1 X112.932 Y119.462 E37.73757
G1 X113.13 Y119.359 E37.74453
G1 X113.319 Y119.236 E37.75156
G1 X113.49 Y119.097 E37.75843
G1 X113.649 Y118.939 E37.76542
G1 X113.79 Y118.763 E37.77245
G1 X113.913 Y118.575 E37.77946
G1 X114.015 Y118.374 E37.78649
G1 X114.096 Y118.164 E37.79351
G1 X114.154 Y117.946 E37.80054
G1 X114.189 Y117.725 E37.80752
G1 X114.201 Y117.516 E37.81404
G1 X114.189 Y117.274 E37.8216
G1 X114.154 Y117.053 E37.82858
G1 X114.096 Y116.835 E37.83561
G1 X114.015 Y116.625 E37.84263
G1 X113.913 Y116.425 E37.84963
G1 X113.791 Y116.236 E37.85664
G1 X113.649 Y116.06 E37.8637
G1 X113.49 Y115.902 E37.87068
G1 X113.315 Y115.76 E37.87771
G1 X113.126 Y115.637 E37.88474
G1 X112.926 Y115.535 E37.89174
G1 X112.715 Y115.454 E37.89879
G1 X112.498 Y115.396 E37.90579
G1 X112.275 Y115.361 E37.91283
G1 X112.051 Y115.35 E37.91983
G1 X111.827 Y115.361 E37.92682
G1 X111.604 Y115.396 E37.93386
G1 X111.387 Y115.454 E37.94086
G1 X111.178 Y115.535 E37.94785
G1 X110.977 Y115.637 E37.95488
G1 X110.789 Y115.76 E37.96188
G1 X110.613 Y115.901 E37.96892
G1 X110.458 Y116.056 E37.97575
G1 X110.309 Y116.24 E37.98313
G1 X110.188 Y116.43 E37.99016
G1 X110.086 Y116.63 E37.99716
G1 X110.006 Y116.84 E38.00417
G1 X109.948 Y117.058 E38.0112
G1 X109.914 Y117.28 E38.0182
G1 X109.902 Y117.505 E38.02523
G1 X109.915 Y117.73 E38.03226
G1 X109.95 Y117.952 E38.03926
G1 X110.009 Y118.17 E38.04631
G1 X110.09 Y118.38 E38.05332
G1 X110.193 Y118.58 E38.06034
G1 X110.316 Y118.768 E38.06734
G1 X110.459 Y118.943 E38.07439
G1 X110.618 Y119.101 E38.08138
G1 X110.793 Y119.243 E38.08841
G1 X110.982 Y119.364 E38.09541
G1 X111.183 Y119.466 E38.10243
G1 X111.393 Y119.546 E38.10944
G1 X111.609 Y119.604 E38.11641
G1 X111.832 Y119.638 E38.12345
G1 X112.056 Y119.65 E38.13044
G0 F7800 X112.057 Y119.951
; TYPE:WALL-INNER
G1 F720 X112.313 Y119.936 E38.13844
G1 X112.567 Y119.896 E38.14646
G1 X112.814 Y119.828 E38.15444
G1 X113.055 Y119.736 E38.16249
G1 X113.281 Y119.618 E38.17044
G1 X113.496 Y119.479 E38.17842
G1 X113.691 Y119.32 E38.18627
G1 X113.872 Y119.14 E38.19423
G1 X114.033 Y118.94 E38.20223
G1 X114.173 Y118.725 E38.21023
G1 X114.29 Y118.496 E38.21825
G1 X114.382 Y118.257 E38.22624
G1 X114.448 Y118.009 E38.23424
G1 X114.488 Y117.757 E38.24219
G1 X114.502 Y117.517 E38.24969
G1 X114.488 Y117.243 E38.25825
G1 X114.448 Y116.99 E38.26623
G1 X114.382 Y116.742 E38.27423
G1 X114.29 Y116.502 E38.28225
G1 X114.173 Y116.275 E38.29021
G1 X114.034 Y116.059 E38.29822
G1 X113.872 Y115.859 E38.30625
G1 X113.691 Y115.679 E38.31421
G1 X113.492 Y115.517 E38.32221
G1 X113.276 Y115.377 E38.33023
G1 X113.048 Y115.26 E38.33822
G1 X112.808 Y115.168 E38.34624
G1 X112.561 Y115.102 E38.35421
G1 X112.306 Y115.062 E38.36226
G1 X112.051 Y115.049 E38.37022
G1 X111.796 Y115.062 E38.37818
G1 X111.541 Y115.102 E38.38623
G1 X111.294 Y115.169 E38.39421
G1 X111.056 Y115.26 E38.40216
G1 X110.827 Y115.377 E38.41017
G1 X110.612 Y115.517 E38.41817
G1 X110.412 Y115.678 E38.42618
G1 X110.235 Y115.855 E38.43399
G1 X110.066 Y116.064 E38.44237
G1 X109.927 Y116.281 E38.4504
G1 X109.811 Y116.508 E38.45835
G1 X109.72 Y116.748 E38.46635
G1 X109.654 Y116.996 E38.47436
G1 X109.615 Y117.249 E38.48234
G1 X109.601 Y117.506 E38.49036
G1 X109.616 Y117.763 E38.49839
G1 X109.656 Y118.015 E38.50635
G1 X109.724 Y118.263 E38.51437
G1 X109.816 Y118.503 E38.52238
G1 X109.934 Y118.731 E38.53039
G1 X110.073 Y118.945 E38.53834
G1 X110.236 Y119.145 E38.54639
G1 X110.417 Y119.324 E38.55433
G1 X110.617 Y119.486 E38.56235
G1 X110.833 Y119.625 E38.57036
G1 X111.062 Y119.741 E38.57836
G1 X111.3 Y119.832 E38.58631
G1 X111.547 Y119.898 E38.59428
G1 X111.801 Y119.937 E38.60229
G1 X112.057 Y119.951 E38.61029
G1 F1800 E37.61029
G0 F7800 X112.056 Y119.999
G0 X112.318 Y119.985
G0 X112.576 Y119.944
G0 X112.829 Y119.876
G0 X113.074 Y119.781
G0 X113.306 Y119.662
G0 X113.525 Y119.519
G0 X113.724 Y119.357
G0 X113.908 Y119.172
G0 X114.073 Y118.969
G0 X114.216 Y118.749
G0 X114.334 Y118.516
G0 X114.429 Y118.272
G0 X114.496 Y118.018
G0 X114.537 Y117.762
G0 X114.551 Y117.516
G0 X114.537 Y117.239
G0 X114.496 Y116.981
G0 X114.429 Y116.727
G0 X114.334 Y116.483
G0 X114.216 Y116.251
G0 X114.073 Y116.031
G0 X113.908 Y115.827
G0 X113.724 Y115.642
G0 X113.521 Y115.477
G0 X113.3 Y115.334
G0 X113.068 Y115.216
G0 X112.823 Y115.121
G0 X112.571 Y115.054
G0 X112.311 Y115.013
G0 X112.054 Y115
G0 X112.054 Y114.929
G0 X111.812 Y114.918
G0 X110.062 Y114.674
G0 X108.348 Y114.271
G0 X106.691 Y113.712
G0 X105.108 Y113.003
G0 X103.616 Y112.151
G0 X102.233 Y111.167
G0 X100.973 Y110.06
G0 X100.463 Y109.483
G0 X94.624 Y109.441
G0 X94.624 Y104.441
G0 X91.601 Y104.441
G0 X91.601 Y95.563
G0 X94.624 Y95.563
G0 X94.624 Y90.559
G0 X100.465 Y90.517
G0 X101.005 Y89.912
G0 X102.268 Y88.808
G0 X103.653 Y87.827
G0 X105.147 Y86.98
G0 X106.732 Y86.274
G0 X108.391 Y85.719
G0 X110.106 Y85.32
G0 X111.857 Y85.08
G0 X112.042 Y85.07
G0 X112.042 Y84.999
G0 X112.042 Y84.599
G0 X112.043 Y84.899
G0 X112.043 Y84.899
G0 X112.056 Y84.65
; TYPE:WALL-OUTER
G1 F1800 E38.61029
G1 F720 X112.281 Y84.638 E38.61731
G1 X112.504 Y84.603 E38.62435
G1 X112.721 Y84.544 E38.63136
G1 X112.932 Y84.463 E38.63841
G1 X113.13 Y84.36 E38.64537
G1 X113.319 Y84.237 E38.6524
G1 X113.49 Y84.098 E38.65927
G1 X113.649 Y83.94 E38.66626
G1 X113.791 Y83.764 E38.67332
G1 X113.913 Y83.575 E38.68033
G1 X114.015 Y83.375 E38.68733
G1 X114.096 Y83.165 E38.69435
G1 X114.154 Y82.947 E38.70138
G1 X114.189 Y82.726 E38.70836
G1 X114.201 Y82.5 E38.71542
G1 X114.189 Y82.275 E38.72244
G1 X114.154 Y82.054 E38.72942
G1 X114.096 Y81.836 E38.73645
G1 X114.015 Y81.626 E38.74347
G1 X113.913 Y81.425 E38.7505
G1 X113.79 Y81.237 E38.7575
G1 X113.649 Y81.061 E38.76454
G1 X113.49 Y80.903 E38.77153
G1 X113.315 Y80.761 E38.77855
G1 X113.126 Y80.638 E38.78558
G1 X112.926 Y80.536 E38.79259
G1 X112.715 Y80.455 E38.79963
G1 X112.498 Y80.397 E38.80664
G1 X112.276 Y80.362 E38.81364
G1 X112.051 Y80.35 E38.82067
G1 X111.826 Y80.362 E38.8277
G1 X111.604 Y80.397 E38.8347
G1 X111.387 Y80.455 E38.84171
G1 X111.178 Y80.536 E38.8487
G1 X110.977 Y80.638 E38.85572
G1 X110.789 Y80.761 E38.86273
G1 X110.613 Y80.902 E38.86976
G1 X110.458 Y81.057 E38.8766
G1 X110.309 Y81.241 E38.88398
G1 X110.188 Y81.43 E38.89098
G1 X110.086 Y81.631 E38.89801
G1 X110.006 Y81.841 E38.90501
G1 X109.948 Y82.059 E38.91205
G1 X109.914 Y82.281 E38.91905
G1 X109.902 Y82.505 E38.92604
G1 X109.915 Y82.731 E38.9331
G1 X109.95 Y82.953 E38.94011
G1 X110.009 Y83.171 E38.94715
G1 X110.09 Y83.381 E38.95417
G1 X110.193 Y83.579 E38.96113
G1 X110.316 Y83.768 E38.96816
G1 X110.459 Y83.944 E38.97523
G1 X110.618 Y84.102 E38.98222
G1 X110.793 Y84.244 E38.98925
G1 X110.982 Y84.365 E38.99625
G1 X111.183 Y84.467 E39.00328
G1 X111.393 Y84.547 E39.01028
G1 X111.609 Y84.605 E39.01726
G1 X111.832 Y84.639 E39.02429
G1 X112.056 Y84.65 E39.03128
G0 F7800 X112.057 Y84.951
; TYPE:WALL-INNER
G1 F720 X112.312 Y84.937 E39.03925
G1 X112.567 Y84.897 E39.04729
G1 X112.814 Y84.829 E39.05528
G1 X113.055 Y84.737 E39.06333
G1 X113.281 Y84.619 E39.07128
G1 X113.496 Y84.48 E39.07926
G1 X113.691 Y84.321 E39.0871
G1 X113.872 Y84.141 E39.09506
G1 X114.034 Y83.941 E39.10309
G1 X114.173 Y83.725 E39.1111
G1 X114.29 Y83.498 E39.11906
G1 X114.382 Y83.258 E39.12708
G1 X114.448 Y83.01 E39.13508
G1 X114.488 Y82.757 E39.14307
G1 X114.502 Y82.5 E39.15109
G1 X114.488 Y82.243 E39.15912
G1 X114.448 Y81.991 E39.16707
G1 X114.382 Y81.743 E39.17508
G1 X114.29 Y81.504 E39.18306
G1 X114.173 Y81.275 E39.19108
G1 X114.033 Y81.06 E39.19908
G1 X113.872 Y80.86 E39.20708
G1 X113.691 Y80.68 E39.21504
G1 X113.492 Y80.518 E39.22305
G1 X113.276 Y80.378 E39.23107
G1 X113.048 Y80.261 E39.23906
G1 X112.808 Y80.169 E39.24708
G1 X112.561 Y80.103 E39.25505
G1 X112.307 Y80.063 E39.26307
G1 X112.051 Y80.049 E39.27106
G1 X111.795 Y80.063 E39.27906
G1 X111.541 Y80.103 E39.28707
G1 X111.294 Y80.17 E39.29505
G1 X111.056 Y80.261 E39.303
G1 X110.827 Y80.378 E39.31102
G1 X110.612 Y80.518 E39.31902
G1 X110.412 Y80.679 E39.32702
G1 X110.235 Y80.856 E39.33483
G1 X110.066 Y81.065 E39.34321
G1 X109.927 Y81.281 E39.35122
G1 X109.811 Y81.51 E39.35922
G1 X109.72 Y81.749 E39.3672
G1 X109.654 Y81.997 E39.3752
G1 X109.615 Y82.25 E39.38318
G1 X109.601 Y82.506 E39.39118
G1 X109.616 Y82.764 E39.39923
G1 X109.656 Y83.016 E39.40719
G1 X109.724 Y83.264 E39.41521
G1 X109.816 Y83.504 E39.42322
G1 X109.934 Y83.73 E39.43117
G1 X110.073 Y83.945 E39.43916
G1 X110.236 Y84.146 E39.44722
G1 X110.417 Y84.325 E39.45516
G1 X110.617 Y84.487 E39.46319
G1 X110.833 Y84.626 E39.4712
G1 X111.062 Y84.742 E39.4792
G1 X111.3 Y84.833 E39.48715
G1 X111.547 Y84.899 E39.49512
G1 X111.802 Y84.938 E39.50316
G1 X112.057 Y84.951 E39.51112
G0 F7800 X113.626 Y84.754
G0 X113.626 Y84.754
G1 F720 X113.893 Y84.544 E39.52172
G1 X114.095 Y84.342 E39.53062
G1 X114.216 Y84.192 E39.53663
G1 X114.215 Y84.775 E39.55481
G1 X113.626 Y84.754 E39.57319
G1 F1800 E38.57319
G0 F7800 X113.629 Y85.003
G0 X111.857 Y85.08
G0 X110.106 Y85.32
G0 X108.391 Y85.719
G0 X106.732 Y86.274
G0 X105.147 Y86.98
G0 X103.653 Y87.827
G0 X102.268 Y88.808
G0 X101.005 Y89.912
G0 X100.465 Y90.517
G0 X94.624 Y90.559
G0 X94.624 Y95.563
G0 X91.601 Y95.563
G0 X91.601 Y104.441
G0 X94.624 Y104.441
G0 X94.624 Y109.441
G0 X100.463 Y109.483
G0 X100.973 Y110.06
G0 X102.233 Y111.167
G0 X103.616 Y112.151
G0 X105.108 Y113.003
G0 X106.691 Y113.712
G0 X108.348 Y114.271
G0 X110.062 Y114.674
G0 X111.812 Y114.918
G0 X113.409 Y114.999
G0 X114.206 Y114.967
G0 X114.212 Y115.217
G0 X114.212 Y115.217
G1 F1800 E39.57319
G1 F720 X114.213 Y115.803 E39.59146
G1 X114.095 Y115.658 E39.59729
G1 X113.892 Y115.456 E39.60622
G1 X113.618 Y115.241 E39.61708
G1 X114.212 Y115.217 E39.63562
G0 F7800 X113.355 Y115.172
; TYPE:FILL
G1 F720 X113.224 Y115.162 E39.6373
G1 X113.051 Y115.101 E39.63964
G0 F7800 X113.052 Y115.081
G1 F720 X113.234 Y115.11 E39.64188
G0 F7800 X114.332 Y116.085
G1 F720 X114.362 Y116.257 E39.64401
G0 F7800 X114.005 Y116.101
G0 X113.724 Y115.642
G0 X113.521 Y115.477
G0 X113.3 Y115.334
G0 X113.068 Y115.216
G0 X112.823 Y115.121
G0 X112.571 Y115.054
G0 X112.311 Y115.013
G0 X111.72 Y115.113
G0 X111.357 Y114.956
G0 X111.357 Y114.956
G1 F720 X111.136 Y114.968 E39.64854
G0 F7800 X110.246 Y115.121
G1 F720 X110.103 Y115.199 E39.65411
G1 X110.261 Y115.207 E39.65827
G0 F7800 X110.279 Y114.703
G0 X110.062 Y114.674
G0 X108.348 Y114.271
G0 X106.691 Y113.712
G0 X105.108 Y113.003
G0 X103.616 Y112.151
G0 X102.233 Y111.167
G0 X100.973 Y110.06
G0 X100.463 Y109.483
G0 X94.624 Y109.441
G0 X94.624 Y104.441
G0 X91.601 Y104.441
G0 X91.601 Y95.563
G0 X94.624 Y95.563
G0 X94.624 Y90.559
G0 X100.465 Y90.517
G0 X101.005 Y89.912
G0 X102.268 Y88.808
G0 X103.653 Y87.827
G0 X105.147 Y86.98
G0 X106.732 Y86.274
G0 X108.391 Y85.719
G0 X110.106 Y85.32
G0 X111.36 Y85.149
G0 X111.365 Y85.045
G0 X111.365 Y85.045
G1 F720 X111.201 Y85.025 E39.66522
G1 X111.015 Y84.985 E39.66686
G0 F7800 X110.276 Y84.802
G1 F720 X110.123 Y84.804 E39.67135
G1 X110.252 Y84.88 E39.6746
G0 F7800 X113.04 Y84.903
G1 F720 X113.238 Y84.865 E39.68106
G1 X113.041 Y84.928 E39.68434
G0 F7800 X114.261 Y84.029
G0 X114.261 Y84.029
G1 F720 X114.351 Y83.768 E39.69181
G1 X114.335 Y83.914 E39.69373
G0 F7800 X113.957 Y83.994
G0 X113.908 Y84.173
G0 X113.724 Y84.358
G0 X113.525 Y84.52
G0 X113.306 Y84.663
G0 X113.074 Y84.782
G0 X112.829 Y84.877
G0 X112.576 Y84.945
G0 X112.317 Y84.986
G0 X112.057 Y85
G0 X111.798 Y84.988
G0 X111.537 Y84.947
G0 X111.286 Y84.88
G0 X110.92 Y84.644
G0 X109.896 Y84.864
G0 X109.896 Y84.864
; TYPE:BOTTOM-FILL
G1 F720 X108.514 Y83.482 E39.75467
G0 F7800 X108.938 Y83.482
G1 F720 X109.479 Y84.024 E39.77855
G0 F7800 X109.552 Y84.944
G1 F720 X108.089 Y83.482 E39.84304
G0 F7800 X107.666 Y83.483
G1 F720 X109.208 Y85.025 E39.91104
G0 F7800 X108.864 Y85.105
G1 F720 X107.241 Y83.483 E39.98259
G0 F7800 X106.817 Y83.483
G1 F720 X108.519 Y85.185 E40.05764
G0 F7800 X108.181 Y85.271
G1 F720 X106.393 Y83.483 E40.13649
G0 F7800 X105.969 Y83.483
G1 F720 X107.863 Y85.377 E40.22001
G0 F7800 X107.545 Y85.484
G1 F720 X105.545 Y83.483 E40.30822
G0 F7800 X105.121 Y83.483
G1 F720 X107.227 Y85.59 E40.40111
G0 F7800 X106.909 Y85.696
G1 F720 X104.697 Y83.483 E40.49868
G0 F7800 X104.272 Y83.483
G1 F720 X106.591 Y85.802 E40.60094
G0 F7800 X106.295 Y85.93
G1 F720 X103.848 Y83.483 E40.70885
G0 F7800 X103.424 Y83.483
G1 F720 X106.001 Y86.061 E40.82251
G0 F7800 X105.708 Y86.192
G1 F720 X103 Y83.484 E40.94192
G0 F7800 X102.576 Y83.484
G1 F720 X105.415 Y86.323 E41.06711
G0 F7800 X105.122 Y86.454
G1 F720 X102.152 Y83.484 E41.19808
G0 F7800 X101.727 Y83.484
G1 F720 X104.836 Y86.593 E41.33518
G0 F7800 X104.564 Y86.745
G1 F720 X101.303 Y83.484 E41.47898
G0 F7800 X100.88 Y83.485
G1 F720 X104.294 Y86.899 E41.62953
G0 F7800 X104.023 Y87.052
G1 F720 X100.455 Y83.485 E41.78684
G0 F7800 X100.031 Y83.485
G1 F720 X103.752 Y87.206 E41.95093
G0 F7800 X103.481 Y87.359
G1 F720 X99.607 Y83.485 E42.12176
G0 F7800 X99.183 Y83.485
G1 F720 X103.225 Y87.527 E42.3
G0 F7800 X102.977 Y87.703
G1 F720 X98.758 Y83.485 E42.48603
G0 F7800 X98.335 Y83.485
G1 F720 X102.728 Y87.879 E42.67977
G0 F7800 X102.48 Y88.055
G1 F720 X97.91 Y83.485 E42.88129
G0 F7800 X97.486 Y83.485
G1 F720 X102.232 Y88.231 E43.09057
G0 F7800 X101.983 Y88.407
G1 F720 X97.062 Y83.485 E43.3076
G0 F7800 X96.638 Y83.485
G1 F720 X101.755 Y88.603 E43.53327
G0 F7800 X101.529 Y88.801
G1 F720 X96.214 Y83.486 E43.76764
G0 F7800 X95.79 Y83.486
G1 F720 X101.302 Y88.999 E44.01073
G0 F7800 X101.076 Y89.197
G1 F720 X95.366 Y83.486 E44.26254
G0 F7800 X94.941 Y83.486
G1 F720 X100.849 Y89.394 E44.52307
G0 F7800 X100.627 Y89.596
G1 F720 X94.517 Y83.486 E44.7925
G0 F7800 X94.093 Y83.486
G1 F720 X100.423 Y89.816 E45.07164
G0 F7800 X100.192 Y90.01
G1 F720 X93.669 Y83.487 E45.35928
G0 F7800 X93.245 Y83.487
G1 F720 X99.768 Y90.01 E45.64693
G0 F7800 X99.344 Y90.01
G1 F720 X92.821 Y83.487 E45.93457
G0 F7800 X92.396 Y83.487
G1 F720 X98.919 Y90.01 E46.22222
G0 F7800 X98.495 Y90.01
G1 F720 X91.972 Y83.487 E46.50987
G0 F7800 X91.549 Y83.488
G1 F720 X98.071 Y90.01 E46.79747
G0 F7800 X97.647 Y90.01
G1 F720 X91.124 Y83.488 E47.08509
G0 F7800 X90.7 Y83.488
G1 F720 X97.222 Y90.01 E47.37269
G0 F7800 X96.797 Y90.009
G1 F720 X90.276 Y83.488 E47.66025
G0 F7800 X89.852 Y83.488
G1 F720 X96.373 Y90.009 E47.94781
G0 F7800 X95.949 Y90.009
G1 F720 X89.428 Y83.488 E48.23536
G0 F7800 X89.004 Y83.488
G1 F720 X95.525 Y90.009 E48.52292
G0 F7800 X95.1 Y90.009
G1 F720 X88.579 Y83.488 E48.81048
G0 F7800 X88.155 Y83.488
G1 F720 X94.676 Y90.009 E49.09804
G0 F7800 X94.252 Y90.009
G1 F720 X87.731 Y83.488 E49.38559
G0 F7800 X87.307 Y83.488
G1 F720 X94.074 Y90.255 E49.684
G0 F7800 X94.074 Y90.68
G1 F720 X86.883 Y83.489 E50.0011
G0 F7800 X86.459 Y83.489
G1 F720 X94.074 Y91.104 E50.3369
G0 F7800 X94.074 Y91.529
G1 F720 X86.035 Y83.489 E50.69142
G0 F7800 X85.933 Y83.811
G1 F720 X94.074 Y91.953 E51.05044
G0 F7800 X94.074 Y92.377
G1 F720 X85.933 Y84.236 E51.40943
G0 F7800 X85.933 Y84.66
G1 F720 X94.074 Y92.802 E51.76845
G0 F7800 X94.074 Y93.226
G1 F720 X85.933 Y85.084 E52.12747
G0 F7800 X85.933 Y85.509
G1 F720 X94.074 Y93.65 E52.48646
G0 F7800 X94.075 Y94.075
G1 F720 X85.933 Y85.933 E52.8455
G0 F7800 X85.933 Y86.357
G1 F720 X94.075 Y94.499 E53.20454
G0 F7800 X94.075 Y94.924
G1 F720 X85.933 Y86.781 E53.5636
G0 F7800 X85.933 Y87.206
G1 F720 X93.74 Y95.013 E53.90786
G0 F7800 X93.316 Y95.013
G1 F720 X85.933 Y87.63 E54.23343
G0 F7800 X85.933 Y88.054
G1 F720 X92.891 Y95.013 E54.54028
G0 F7800 X92.467 Y95.013
G1 F720 X85.933 Y88.478 E54.82844
G0 F7800 X85.933 Y88.903
G1 F720 X92.043 Y95.013 E55.09787
G0 F7800 X91.619 Y95.013
G1 F720 X85.933 Y89.327 E55.34861
G0 F7800 X85.933 Y89.751
G1 F720 X91.194 Y95.013 E55.58062
G0 F7800 X91.052 Y95.294
G1 F720 X85.933 Y90.175 E55.80636
G0 F7800 X85.933 Y90.6
G1 F720 X91.052 Y95.718 E56.03207
G0 F7800 X91.052 Y96.143
G1 F720 X85.933 Y91.024 E56.2578
G0 F7800 X85.933 Y91.448
G1 F720 X91.052 Y96.567 E56.48353
G0 F7800 X91.052 Y96.991
G1 F720 X85.933 Y91.872 E56.70927
G0 F7800 X85.933 Y92.297
G1 F720 X91.052 Y97.415 E56.93498
G0 F7800 X91.052 Y97.84
G1 F720 X85.933 Y92.721 E57.16071
G0 F7800 X85.933 Y93.145
G1 F720 X91.052 Y98.264 E57.38644
G0 F7800 X91.052 Y98.688
G1 F720 X85.933 Y93.57 E57.61216
G0 F7800 X85.933 Y93.994
G1 F720 X91.052 Y99.113 E57.83789
G0 F7800 X91.052 Y99.537
G1 F720 X85.933 Y94.418 E58.06362
G0 F7800 X85.933 Y94.842
G1 F720 X91.052 Y99.961 E58.28935
G0 F7800 X91.052 Y100.385
G1 F720 X85.933 Y95.267 E58.51507
G0 F7800 X85.933 Y95.691
G1 F720 X91.052 Y100.81 E58.7408
G0 F7800 X91.052 Y101.234
G1 F720 X85.933 Y96.115 E58.96653
G0 F7800 X85.933 Y96.539
G1 F720 X91.052 Y101.658 E59.19227
G0 F7800 X91.052 Y102.082
G1 F720 X85.933 Y96.964 E59.41798
G0 F7800 X85.933 Y97.388
G1 F720 X91.052 Y102.507 E59.64371
G0 F7800 X91.052 Y102.931
G1 F720 X85.933 Y97.812 E59.86944
G0 F7800 X85.933 Y98.236
G1 F720 X91.052 Y103.355 E60.09518
G0 F7800 X91.052 Y103.779
G1 F720 X85.933 Y98.661 E60.32089
G0 F7800 X85.933 Y99.085
G1 F720 X91.052 Y104.204 E60.54662
G0 F7800 X91.052 Y104.628
G1 F720 X85.933 Y99.509 E60.77235
G0 F7800 X85.933 Y99.933
G1 F720 X94.074 Y108.075 E61.13137
G0 F7800 X94.074 Y107.651
G1 F720 X91.412 Y104.989 E61.24876
G0 F7800 X91.836 Y104.989
G1 F720 X94.074 Y107.227 E61.34745
G0 F7800 X94.074 Y106.802
G1 F720 X92.261 Y104.989 E61.42739
G0 F7800 X92.686 Y104.989
G1 F720 X94.074 Y106.378 E61.48862
G0 F7800 X94.074 Y105.954
G1 F720 X93.11 Y104.989 E61.53116
G0 F7800 X93.534 Y104.989
G1 F720 X94.074 Y105.53 E61.55499
G0 F7800 X94.074 Y105.105
G1 F720 X93.958 Y104.989 E61.5601
G0 F7800 X94.074 Y108.499
G0 X94.074 Y108.499
G1 F720 X85.933 Y100.358 E61.9191
G0 F7800 X85.933 Y100.783
G1 F720 X94.074 Y108.924 E62.27809
G0 F7800 X94.074 Y109.348
G1 F720 X85.933 Y101.207 E62.63709
G0 F7800 X85.933 Y101.631
G1 F720 X94.074 Y109.772 E62.99608
G0 F7800 X94.291 Y109.989
G1 F720 X100.811 Y116.509 E63.2836
G0 F7800 X101.235 Y116.509
G1 F720 X94.715 Y109.989 E63.57111
G0 F7800 X95.139 Y109.989
G1 F720 X101.66 Y116.509 E63.85865
G0 F7800 X102.084 Y116.509
G1 F720 X95.564 Y109.989 E64.14616
G0 F7800 X95.988 Y109.989
G1 F720 X102.508 Y116.509 E64.43367
G0 F7800 X102.932 Y116.509
G1 F720 X96.412 Y109.989 E64.72119
G0 F7800 X96.836 Y109.989
G1 F720 X103.357 Y116.509 E65.00872
G0 F7800 X103.781 Y116.509
G1 F720 X97.261 Y109.989 E65.29623
G0 F7800 X97.685 Y109.989
G1 F720 X104.205 Y116.509 E65.58375
G0 F7800 X104.629 Y116.509
G1 F720 X98.109 Y109.989 E65.87126
G0 F7800 X98.533 Y109.989
G1 F720 X105.054 Y116.509 E66.1588
G0 F7800 X105.478 Y116.509
G1 F720 X98.958 Y109.989 E66.44631
G0 F7800 X99.382 Y109.989
G1 F720 X105.902 Y116.509 E66.73382
G0 F7800 X106.326 Y116.509
G1 F720 X99.806 Y109.989 E67.02134
G0 F7800 X100.23 Y109.989
G1 F720 X100.358 Y110.116 E67.02696
G0 F7800 X100.814 Y110.572
G1 F720 X106.751 Y116.509 E67.28876
G0 F7800 X107.175 Y116.509
G1 F720 X102.931 Y112.265 E67.47591
G0 F7800 X104.059 Y112.968
G1 F720 X107.599 Y116.509 E67.63204
G0 F7800 X108.023 Y116.509
G1 F720 X105.013 Y113.498 E67.76479
G0 F7800 X105.781 Y113.842
G1 F720 X108.448 Y116.509 E67.8824
G0 F7800 X108.872 Y116.509
G1 F720 X106.542 Y114.179 E67.98514
G0 F7800 X107.182 Y114.395
G1 F720 X109.253 Y116.466 E68.07647
G0 F7800 X109.378 Y116.166
G1 F720 X107.822 Y114.61 E68.14508
G0 F7800 X108.429 Y114.793
G1 F720 X109.532 Y115.896 E68.19372
G0 F7800 X109.708 Y115.648
G1 F720 X108.984 Y114.924 E68.22565
G0 F7800 X109.54 Y115.055
G1 F720 X109.904 Y115.42 E68.24172
G0 F7800 X100.387 Y116.509
G0 X100.387 Y116.509
G1 F720 X85.933 Y102.056 E68.87908
G0 F7800 X85.933 Y102.48
G1 F720 X99.962 Y116.509 E69.49772
G0 F7800 X99.538 Y116.509
G1 F720 X85.933 Y102.904 E70.09766
G0 F7800 X85.933 Y103.328
G1 F720 X99.114 Y116.509 E70.67891
G0 F7800 X98.69 Y116.509
G1 F720 X85.933 Y103.753 E71.24143
G0 F7800 X85.933 Y104.177
G1 F720 X98.265 Y116.509 E71.78524
G0 F7800 X97.841 Y116.509
G1 F720 X85.933 Y104.601 E72.31034
G0 F7800 X85.933 Y105.025
G1 F720 X97.417 Y116.509 E72.81676
G0 F7800 X96.993 Y116.509
G1 F720 X85.933 Y105.45 E73.30445
G0 F7800 X85.933 Y105.874
G1 F720 X96.568 Y116.509 E73.77342
G0 F7800 X96.144 Y116.509
G1 F720 X85.933 Y106.298 E74.2237
G0 F7800 X85.933 Y106.722
G1 F720 X95.72 Y116.509 E74.65528
G0 F7800 X95.296 Y116.509
G1 F720 X85.933 Y107.147 E75.06813
G0 F7800 X85.933 Y107.571
G1 F720 X94.871 Y116.509 E75.46228
G0 F7800 X94.447 Y116.509
G1 F720 X85.933 Y107.995 E75.83772
G0 F7800 X85.933 Y108.419
G1 F720 X94.023 Y116.509 E76.19446
G0 F7800 X93.599 Y116.509
G1 F720 X85.933 Y108.844 E76.53249
G0 F7800 X85.933 Y109.268
G1 F720 X93.174 Y116.509 E76.8518
G0 F7800 X92.75 Y116.509
G1 F720 X85.933 Y109.692 E77.15241
G0 F7800 X85.933 Y110.117
G1 F720 X92.326 Y116.509 E77.4343
G0 F7800 X91.901 Y116.509
G1 F720 X85.933 Y110.541 E77.69747
G0 F7800 X85.933 Y110.965
G1 F720 X91.477 Y116.509 E77.94194
G0 F7800 X91.053 Y116.509
G1 F720 X85.933 Y111.389 E78.16772
G0 F7800 X85.933 Y111.814
G1 F720 X90.629 Y116.509 E78.37478
G0 F7800 X90.204 Y116.509
G1 F720 X85.933 Y112.238 E78.56312
G0 F7800 X85.933 Y112.662
G1 F720 X89.78 Y116.509 E78.73276
G0 F7800 X89.356 Y116.509
G1 F720 X85.933 Y113.086 E78.8837
G0 F7800 X85.933 Y113.511
G1 F720 X88.932 Y116.509 E79.01593
G0 F7800 X88.507 Y116.509
G1 F720 X85.933 Y113.935 E79.12944
G0 F7800 X85.933 Y114.359
G1 F720 X88.083 Y116.509 E79.22424
G0 F7800 X87.659 Y116.509
G1 F720 X85.933 Y114.783 E79.30036
G0 F7800 X85.933 Y115.208
G1 F720 X87.235 Y116.509 E79.35775
G0 F7800 X86.81 Y116.509
G1 F720 X85.933 Y115.632 E79.39642
G0 F7800 X85.933 Y116.056
G1 F720 X86.386 Y116.509 E79.4164
G0 F7800 X85.962 Y116.509
G1 F720 X85.933 Y116.48 E79.41768
; Layer Change GCode
; LAYER:1
G4 P0
M106 S89
G0 F7800 X94.665 Y109.15 Z0.45
G0 X94.665 Y109.15
G0 X94.915 Y109.15
G0 X94.915 Y109.15
G0 X94.315 Y109.75
; TYPE:WALL-INNER
G1 F1800 X100.347 Y109.75 E79.56815
G1 X100.797 Y110.239 E79.58472
G1 X102.077 Y111.364 E79.62723
G1 X103.481 Y112.363 E79.67022
G1 X104.994 Y113.227 E79.71368
G1 X106.599 Y113.945 E79.75754
G1 X108.279 Y114.512 E79.80177
G1 X110.015 Y114.921 E79.84626
G1 X110.839 Y115.035 E79.86701
G1 X110.695 Y115.106 E79.87102
G1 X110.451 Y115.263 E79.87825
G1 X110.226 Y115.443 E79.88544
G1 X110.021 Y115.645 E79.89262
G1 X109.827 Y115.881 E79.90024
G1 X109.67 Y116.125 E79.90748
G1 X109.539 Y116.38 E79.91463
G1 X109.409 Y116.75 E79.92441
G1 X85.694 Y116.75 E80.51599
G1 X85.694 Y83.25 E81.35165
G1 X109.409 Y83.25 E81.94322
G1 X109.539 Y83.62 E81.953
G1 X109.67 Y83.875 E81.96015
G1 X109.826 Y84.117 E81.96734
G1 X110.008 Y84.342 E81.97455
G1 X110.211 Y84.545 E81.98172
G1 X110.435 Y84.726 E81.9889
G1 X110.676 Y84.883 E81.99607
G1 X110.837 Y84.965 E82.00058
G1 X110.015 Y85.079 E82.02128
G1 X108.279 Y85.488 E82.06577
G1 X106.599 Y86.055 E82.11
G1 X104.994 Y86.773 E82.15386
G1 X103.481 Y87.637 E82.19733
G1 X102.077 Y88.636 E82.24031
G1 X100.797 Y89.761 E82.28282
G1 X100.347 Y90.25 E82.2994
G1 X94.315 Y90.25 E82.44987
G1 X94.315 Y95.254 E82.57469
G1 X91.292 Y95.254 E82.6501
G1 X91.292 Y104.75 E82.88698
G1 X94.315 Y104.75 E82.96239
G1 X94.315 Y109.75 E83.08711
G0 F7800 X94.615 Y109.45
G1 F1800 X100.478 Y109.45 E83.23337
G1 X101.007 Y110.024 E83.25284
G1 X102.263 Y111.128 E83.29455
G1 X103.642 Y112.11 E83.33678
G1 X105.13 Y112.959 E83.37952
G1 X106.709 Y113.666 E83.42267
G1 X108.361 Y114.223 E83.46616
G1 X110.07 Y114.626 E83.50996
G1 X111.816 Y114.868 E83.55393
G1 X113.414 Y114.949 E83.59385
G1 X114.512 Y114.905 E83.62126
G1 X114.514 Y116.818 E83.66898
G1 X114.592 Y117.243 E83.67976
G1 X114.605 Y117.499 E83.68615
G1 X114.591 Y117.757 E83.6926
G1 X114.547 Y118.031 E83.69952
G1 X114.48 Y118.281 E83.70598
G1 X114.382 Y118.534 E83.71274
G1 X114.256 Y118.781 E83.71966
G1 X114.117 Y118.995 E83.72603
G1 X113.945 Y119.207 E83.73284
G1 X113.759 Y119.393 E83.7394
G1 X113.553 Y119.559 E83.746
G1 X113.321 Y119.71 E83.7529
G1 X113.089 Y119.827 E83.75938
G1 X112.838 Y119.924 E83.7661
G1 X112.573 Y119.995 E83.77294
G1 X112.317 Y120.035 E83.7794
G1 X112.05 Y120.05 E83.78607
G1 X111.782 Y120.035 E83.79277
G1 X111.527 Y119.995 E83.79921
G1 X111.263 Y119.924 E83.80603
G1 X111.012 Y119.827 E83.81274
G1 X110.774 Y119.706 E83.8194
G1 X110.556 Y119.565 E83.82588
G1 X110.345 Y119.393 E83.83267
G1 X110.16 Y119.208 E83.83919
G1 X109.988 Y118.995 E83.84602
G1 X109.847 Y118.777 E83.8525
G1 X109.724 Y118.537 E83.85923
G1 X109.631 Y118.292 E83.86576
G1 X109.561 Y118.031 E83.8725
G1 X109.519 Y117.757 E83.87942
G1 X109.484 Y117.05 E83.89708
G1 X85.394 Y117.05 E84.49801
G1 X85.394 Y82.95 E85.34863
G1 X109.464 Y82.95 E85.94906
G1 X109.503 Y82.233 E85.96697
G1 X109.544 Y81.971 E85.97359
G1 X109.612 Y81.719 E85.9801
G1 X109.71 Y81.466 E85.98687
G1 X109.833 Y81.225 E85.99362
G1 X109.98 Y81 E86.00032
G1 X110.148 Y80.793 E86.00697
G1 X110.334 Y80.607 E86.01353
G1 X110.539 Y80.441 E86.02011
G1 X110.771 Y80.29 E86.02702
G1 X111.003 Y80.173 E86.0335
G1 X111.254 Y80.076 E86.04021
G1 X111.519 Y80.005 E86.04706
G1 X111.774 Y79.965 E86.0535
G1 X112.042 Y79.95 E86.06019
G1 X112.309 Y79.965 E86.06686
G1 X112.565 Y80.005 E86.07333
G1 X112.83 Y80.076 E86.08017
G1 X113.081 Y80.173 E86.08688
G1 X113.318 Y80.293 E86.09351
G1 X113.536 Y80.435 E86.1
G1 X113.748 Y80.607 E86.10681
G1 X113.933 Y80.792 E86.11333
G1 X114.101 Y81 E86.12
G1 X114.246 Y81.225 E86.12668
G1 X114.368 Y81.463 E86.13335
G1 X114.461 Y81.708 E86.13989
G1 X114.533 Y81.977 E86.14684
G1 X114.573 Y82.233 E86.1533
G1 X114.587 Y82.499 E86.15994
G1 X114.573 Y82.757 E86.16639
G1 X114.519 Y83.089 E86.17478
G1 X114.513 Y85.091 E86.22472
G1 X113.733 Y85.052 E86.2442
G1 X111.818 Y85.131 E86.29201
G1 X110.07 Y85.374 E86.33604
G1 X108.361 Y85.777 E86.37984
G1 X106.709 Y86.334 E86.42332
G1 X105.13 Y87.041 E86.46648
G1 X103.642 Y87.89 E86.50922
G1 X102.263 Y88.872 E86.55145
G1 X101.007 Y89.976 E86.59316
G1 X100.478 Y90.55 E86.61263
G1 X94.615 Y90.55 E86.75889
G1 X94.615 Y95.554 E86.88371
G1 X91.592 Y95.554 E86.95912
G1 X91.592 Y104.45 E87.18103
G1 X94.615 Y104.45 E87.25644
G1 X94.615 Y109.45 E87.38117
G0 F7800 X94.915 Y109.15
; TYPE:WALL-OUTER
G1 F1260 X100.609 Y109.15 E87.5232
G1 X101.217 Y109.809 E87.54557
G1 X102.45 Y110.893 E87.58652
G1 X103.804 Y111.857 E87.62798
G1 X105.266 Y112.691 E87.66997
G1 X106.818 Y113.386 E87.71239
G1 X108.444 Y113.934 E87.75519
G1 X110.125 Y114.331 E87.79828
G1 X111.844 Y114.569 E87.84157
G1 X113.415 Y114.649 E87.88081
G1 X114.812 Y114.592 E87.91569
G1 X114.814 Y116.791 E87.97054
G1 X114.89 Y117.205 E87.98104
G1 X114.905 Y117.5 E87.98841
G1 X114.888 Y117.8 E87.9959
G1 X114.842 Y118.089 E88.0032
G1 X114.763 Y118.381 E88.01075
G1 X114.657 Y118.657 E88.01812
G1 X114.52 Y118.924 E88.02561
G1 X114.355 Y119.178 E88.03317
G1 X114.169 Y119.407 E88.04053
G1 X113.958 Y119.617 E88.04795
G1 X113.729 Y119.803 E88.05531
G1 X113.474 Y119.968 E88.06289
G1 X113.207 Y120.103 E88.07035
G1 X112.931 Y120.21 E88.07773
G1 X112.638 Y120.288 E88.0853
G1 X112.351 Y120.333 E88.09254
G1 X112.05 Y120.35 E88.10007
G1 X111.748 Y120.333 E88.10761
G1 X111.462 Y120.288 E88.11483
G1 X111.17 Y120.21 E88.12237
G1 X110.894 Y120.103 E88.12976
G1 X110.627 Y119.968 E88.13722
G1 X110.374 Y119.803 E88.14475
G1 X110.145 Y119.617 E88.15211
G1 X109.936 Y119.408 E88.15949
G1 X109.749 Y119.177 E88.1669
G1 X109.585 Y118.924 E88.17442
G1 X109.45 Y118.657 E88.18188
G1 X109.344 Y118.382 E88.18924
G1 X109.266 Y118.089 E88.1968
G1 X109.222 Y117.802 E88.20404
G1 X109.199 Y117.35 E88.21533
G1 X85.094 Y117.35 E88.81663
G1 X85.094 Y82.65 E89.68223
G1 X109.18 Y82.65 E90.28306
G1 X109.205 Y82.195 E90.29442
G1 X109.249 Y81.916 E90.30147
G1 X109.329 Y81.619 E90.30914
G1 X109.435 Y81.343 E90.31652
G1 X109.572 Y81.076 E90.324
G1 X109.738 Y80.822 E90.33157
G1 X109.924 Y80.593 E90.33893
G1 X110.134 Y80.383 E90.34634
G1 X110.363 Y80.197 E90.3537
G1 X110.618 Y80.032 E90.36128
G1 X110.885 Y79.897 E90.36874
G1 X111.161 Y79.79 E90.37612
G1 X111.454 Y79.712 E90.38369
G1 X111.74 Y79.667 E90.39091
G1 X112.042 Y79.65 E90.39845
G1 X112.343 Y79.667 E90.40597
G1 X112.63 Y79.712 E90.41322
G1 X112.923 Y79.79 E90.42079
G1 X113.199 Y79.896 E90.42816
G1 X113.465 Y80.032 E90.43561
G1 X113.719 Y80.197 E90.44317
G1 X113.948 Y80.383 E90.45053
G1 X114.157 Y80.592 E90.4579
G1 X114.347 Y80.827 E90.46544
G1 X114.503 Y81.068 E90.4726
G1 X114.642 Y81.343 E90.48029
G1 X114.748 Y81.618 E90.48764
G1 X114.827 Y81.916 E90.49533
G1 X114.871 Y82.195 E90.50237
G1 X114.887 Y82.5 E90.50999
G1 X114.87 Y82.8 E90.51749
G1 X114.819 Y83.114 E90.52542
G1 X114.812 Y85.406 E90.5826
G1 X113.732 Y85.352 E90.60957
G1 X111.845 Y85.43 E90.65668
G1 X110.125 Y85.669 E90.7
G1 X108.444 Y86.066 E90.74309
G1 X106.818 Y86.614 E90.78589
G1 X105.266 Y87.309 E90.82831
G1 X103.804 Y88.143 E90.8703
G1 X102.45 Y89.107 E90.91176
G1 X101.217 Y90.191 E90.95271
G1 X100.609 Y90.85 E90.97508
G1 X94.915 Y90.85 E91.11712
G1 X94.915 Y95.854 E91.24194
G1 X91.892 Y95.854 E91.31735
G1 X91.892 Y104.15 E91.52429
G1 X94.915 Y104.15 E91.5997
G1 X94.915 Y109.15 E91.72443
G1 F1800 E90.72443
G0 F7800 X94.665 Y109.15
G0 X94.573 Y109.119
G0 X94.624 Y109.441
G0 X100.463 Y109.483
G0 X100.973 Y110.06
G0 X102.233 Y111.167
G0 X103.616 Y112.151
G0 X105.108 Y113.003
G0 X106.691 Y113.712
G0 X108.348 Y114.271
G0 X110.062 Y114.674
G0 X111.812 Y114.918
G0 X112.209 Y114.788
G0 X113.617 Y115.242
G0 X113.617 Y115.242
; TYPE:WALL-INNER
G1 F1800 E91.72443
G1 X114.213 Y115.217 E91.73931
G1 X114.213 Y115.806 E91.754
G1 X114.107 Y115.673 E91.75824
G1 X113.906 Y115.469 E91.76539
G1 X113.617 Y115.242 E91.77456
G0 F7800 X113.506 Y115.527
G1 F1800 X113.291 Y115.386 E91.78097
G1 X113.065 Y115.269 E91.78732
G1 X112.825 Y115.174 E91.79376
G1 X112.578 Y115.107 E91.80014
G1 X112.298 Y115.06 E91.80722
G1 X111.823 Y115.059 E91.81907
G1 X111.558 Y115.1 E91.82576
G1 X111.311 Y115.164 E91.83213
G1 X111.073 Y115.254 E91.83847
G1 X110.843 Y115.368 E91.84488
G1 X110.626 Y115.507 E91.85131
G1 X110.426 Y115.667 E91.85769
G1 X110.243 Y115.847 E91.8641
G1 X110.07 Y116.058 E91.8709
G1 X109.93 Y116.275 E91.87735
G1 X109.813 Y116.502 E91.88372
G1 X109.721 Y116.742 E91.89013
G1 X109.655 Y116.99 E91.89653
G1 X109.615 Y117.243 E91.90292
G1 X109.601 Y117.5 E91.90934
G1 X109.615 Y117.757 E91.91576
G1 X109.655 Y118.009 E91.92212
G1 X109.721 Y118.257 E91.92853
G1 X109.813 Y118.496 E91.93491
G1 X109.93 Y118.725 E91.94133
G1 X110.07 Y118.94 E91.94773
G1 X110.231 Y119.14 E91.95413
G1 X110.412 Y119.321 E91.96052
G1 X110.612 Y119.482 E91.96692
G1 X110.827 Y119.622 E91.97332
G1 X111.056 Y119.739 E91.97974
G1 X111.294 Y119.83 E91.98609
G1 X111.541 Y119.897 E91.99248
G1 X111.795 Y119.937 E91.99889
G1 X112.051 Y119.951 E92.00529
G1 X112.307 Y119.937 E92.01168
G1 X112.561 Y119.897 E92.0181
G1 X112.808 Y119.831 E92.02448
G1 X113.048 Y119.739 E92.03089
G1 X113.278 Y119.622 E92.03732
G1 X113.514 Y119.466 E92.04438
G1 X113.854 Y119.159 E92.05581
G1 X114.023 Y118.954 E92.06244
G1 X114.164 Y118.74 E92.06883
G1 X114.281 Y118.513 E92.0752
G1 X114.376 Y118.274 E92.08161
G1 X114.443 Y118.026 E92.08802
G1 X114.486 Y117.774 E92.0944
G1 X114.501 Y117.528 E92.10055
G1 X114.49 Y117.261 E92.10721
G1 X114.45 Y117.008 E92.1136
G1 X114.387 Y116.759 E92.12001
G1 X114.296 Y116.52 E92.12639
G1 X114.182 Y116.291 E92.13277
G1 X114.043 Y116.074 E92.1392
G1 X113.883 Y115.873 E92.14561
G1 X113.703 Y115.691 E92.15199
G1 X113.506 Y115.527 E92.15839
G0 F7800 X113.519 Y115.483
G0 X113.534 Y115.487
G0 X113.736 Y115.654
G0 X113.92 Y115.84
G0 X114.083 Y116.045
G0 X114.225 Y116.267
G0 X114.341 Y116.5
G0 X114.433 Y116.744
G0 X114.499 Y116.998
G0 X114.539 Y117.257
G0 X114.55 Y117.529
G0 X114.534 Y117.779
G0 X114.491 Y118.036
G0 X114.422 Y118.29
G0 X114.326 Y118.532
G0 X114.206 Y118.765
G0 X114.063 Y118.982
G0 X113.889 Y119.194
G0 X113.544 Y119.505
G0 X113.302 Y119.665
G0 X113.068 Y119.783
G0 X112.823 Y119.878
G0 X112.571 Y119.945
G0 X112.312 Y119.986
G0 X112.006 Y119.988
G0 X112.037 Y119.899
G0 X112.037 Y119.899
G0 X112.051 Y119.65
; TYPE:WALL-OUTER
G1 F1260 X112.276 Y119.638 E92.16401
G1 X112.498 Y119.603 E92.16961
G1 X112.715 Y119.545 E92.17522
G1 X112.926 Y119.464 E92.18086
G1 X113.127 Y119.362 E92.18648
G1 X113.33 Y119.228 E92.19255
G1 X113.636 Y118.952 E92.20283
G1 X113.781 Y118.775 E92.20853
G1 X113.905 Y118.588 E92.21413
G1 X114.008 Y118.388 E92.21974
G1 X114.091 Y118.179 E92.22535
G1 X114.15 Y117.961 E92.23098
G1 X114.187 Y117.74 E92.23657
G1 X114.2 Y117.525 E92.24195
G1 X114.191 Y117.29 E92.24781
G1 X114.156 Y117.068 E92.25342
G1 X114.1 Y116.85 E92.25903
G1 X114.021 Y116.64 E92.26463
G1 X113.921 Y116.439 E92.27023
G1 X113.799 Y116.249 E92.27586
G1 X113.658 Y116.072 E92.28151
G1 X113.5 Y115.912 E92.28712
G1 X113.327 Y115.769 E92.29272
G1 X113.139 Y115.645 E92.29834
G1 X112.94 Y115.542 E92.30393
G1 X112.73 Y115.459 E92.30956
G1 X112.513 Y115.4 E92.31517
G1 X112.273 Y115.36 E92.32124
G1 X111.846 Y115.359 E92.33189
G1 X111.619 Y115.394 E92.33762
G1 X111.402 Y115.45 E92.34321
G1 X111.193 Y115.529 E92.34878
G1 X110.991 Y115.629 E92.3544
G1 X110.801 Y115.751 E92.36004
G1 X110.625 Y115.892 E92.36566
G1 X110.465 Y116.05 E92.37127
G1 X110.313 Y116.235 E92.37724
G1 X110.19 Y116.425 E92.38289
G1 X110.088 Y116.625 E92.38849
G1 X110.007 Y116.835 E92.39411
G1 X109.949 Y117.053 E92.39973
G1 X109.914 Y117.274 E92.40531
G1 X109.902 Y117.5 E92.41096
G1 X109.914 Y117.725 E92.41658
G1 X109.949 Y117.946 E92.42216
G1 X110.007 Y118.164 E92.42779
G1 X110.088 Y118.374 E92.4334
G1 X110.19 Y118.575 E92.43903
G1 X110.313 Y118.763 E92.44463
G1 X110.454 Y118.939 E92.45026
G1 X110.613 Y119.098 E92.45587
G1 X110.789 Y119.239 E92.46149
G1 X110.977 Y119.362 E92.46709
G1 X111.178 Y119.464 E92.47272
G1 X111.387 Y119.545 E92.47831
G1 X111.604 Y119.603 E92.48391
G1 X111.826 Y119.638 E92.48952
G1 X112.051 Y119.65 E92.49514
G1 F1800 E91.49514
G0 F7800 X112.037 Y119.899
G0 X112.032 Y119.999
G0 X112.312 Y119.986
G0 X112.571 Y119.945
G0 X112.823 Y119.878
G0 X113.068 Y119.783
G0 X113.302 Y119.665
G0 X113.544 Y119.505
G0 X113.889 Y119.194
G0 X114.063 Y118.982
G0 X114.206 Y118.765
G0 X114.326 Y118.532
G0 X114.422 Y118.29
G0 X114.491 Y118.036
G0 X114.534 Y117.779
G0 X114.55 Y117.529
G0 X114.539 Y117.257
G0 X114.499 Y116.998
G0 X114.433 Y116.744
G0 X114.341 Y116.5
G0 X114.225 Y116.267
G0 X114.083 Y116.045
G0 X113.92 Y115.84
G0 X113.736 Y115.654
G0 X113.534 Y115.487
G0 X113.316 Y115.344
G0 X113.085 Y115.224
G0 X112.841 Y115.128
G0 X112.587 Y115.059
G0 X112.301 Y115.011
G0 X112.257 Y115.009
G0 X112.26 Y114.94
G0 X111.812 Y114.918
G0 X110.062 Y114.674
G0 X108.348 Y114.271
G0 X106.691 Y113.712
G0 X105.108 Y113.003
G0 X103.616 Y112.151
G0 X102.233 Y111.167
G0 X100.973 Y110.06
G0 X100.463 Y109.483
G0 X94.624 Y109.441
G0 X94.624 Y104.441
G0 X91.601 Y104.441
G0 X91.601 Y95.563
G0 X94.624 Y95.563
G0 X94.624 Y90.559
G0 X100.463 Y90.517
G0 X100.973 Y89.94
G0 X102.233 Y88.833
G0 X103.616 Y87.849
G0 X105.108 Y86.997
G0 X106.691 Y86.288
G0 X108.348 Y85.729
G0 X110.062 Y85.326
G0 X111.814 Y85.082
G0 X113.609 Y85.006
G0 X113.621 Y84.756
G0 X113.621 Y84.756
; TYPE:WALL-INNER
G1 F1800 E92.49514
G1 X113.698 Y84.705 E92.49744
G1 X114.071 Y84.368 E92.50998
G1 X114.216 Y84.192 E92.51567
G1 X114.214 Y84.775 E92.53021
G1 X113.621 Y84.756 E92.54501
G0 F7800 X113.514 Y84.467
G1 F1800 X113.854 Y84.16 E92.55644
G1 X114.023 Y83.954 E92.56309
G1 X114.164 Y83.74 E92.56948
G1 X114.281 Y83.514 E92.57583
G1 X114.376 Y83.275 E92.58224
G1 X114.443 Y83.027 E92.58865
G1 X114.486 Y82.775 E92.59503
G1 X114.501 Y82.518 E92.60145
G1 X114.49 Y82.262 E92.60784
G1 X114.45 Y82.009 E92.61423
G1 X114.387 Y81.76 E92.62064
G1 X114.296 Y81.521 E92.62702
G1 X114.182 Y81.291 E92.63342
G1 X114.043 Y81.074 E92.63985
G1 X113.883 Y80.874 E92.64624
G1 X113.703 Y80.692 E92.65263
G1 X113.506 Y80.528 E92.65902
G1 X113.291 Y80.387 E92.66543
G1 X113.065 Y80.27 E92.67178
G1 X112.825 Y80.175 E92.67822
G1 X112.578 Y80.108 E92.6846
G1 X112.325 Y80.065 E92.69101
G1 X112.069 Y80.05 E92.6974
G1 X111.813 Y80.061 E92.70379
G1 X111.558 Y80.101 E92.71023
G1 X111.311 Y80.165 E92.7166
G1 X111.073 Y80.255 E92.72295
G1 X110.843 Y80.369 E92.72935
G1 X110.626 Y80.508 E92.73578
G1 X110.426 Y80.668 E92.74217
G1 X110.243 Y80.848 E92.74857
G1 X110.07 Y81.059 E92.75538
G1 X109.93 Y81.275 E92.7618
G1 X109.813 Y81.504 E92.76821
G1 X109.721 Y81.743 E92.7746
G1 X109.655 Y81.991 E92.781
G1 X109.615 Y82.243 E92.78737
G1 X109.601 Y82.5 E92.79379
G1 X109.615 Y82.757 E92.80021
G1 X109.655 Y83.01 E92.8066
G1 X109.721 Y83.258 E92.813
G1 X109.813 Y83.498 E92.81941
G1 X109.93 Y83.725 E92.82578
G1 X110.069 Y83.941 E92.83219
G1 X110.231 Y84.141 E92.83861
G1 X110.412 Y84.322 E92.84499
G1 X110.612 Y84.483 E92.8514
G1 X110.827 Y84.623 E92.8578
G1 X111.056 Y84.74 E92.86421
G1 X111.294 Y84.831 E92.87057
G1 X111.542 Y84.898 E92.87698
G1 X111.823 Y84.941 E92.88407
G1 X112.296 Y84.94 E92.89587
G1 X112.561 Y84.898 E92.90256
G1 X112.808 Y84.832 E92.90894
G1 X113.048 Y84.74 E92.91535
G1 X113.278 Y84.623 E92.92179
G1 X113.514 Y84.467 E92.92884
G0 F7800 X113.273 Y84.525
G0 X113.302 Y84.666
G0 X113.068 Y84.784
G0 X112.823 Y84.879
G0 X112.571 Y84.946
G0 X111.855 Y84.874
G0 X111.808 Y84.887
G0 X111.808 Y84.887
G0 X111.846 Y84.641
; TYPE:WALL-OUTER
G1 F1260 X112.272 Y84.64 E92.93947
G1 X112.498 Y84.604 E92.94518
G1 X112.715 Y84.546 E92.95078
G1 X112.926 Y84.465 E92.95642
G1 X113.127 Y84.363 E92.96204
G1 X113.33 Y84.229 E92.96811
G1 X113.636 Y83.953 E92.97839
G1 X113.781 Y83.776 E92.9841
G1 X113.905 Y83.588 E92.98972
G1 X114.008 Y83.389 E92.99531
G1 X114.091 Y83.18 E93.00092
G1 X114.15 Y82.962 E93.00655
G1 X114.187 Y82.741 E93.01214
G1 X114.2 Y82.516 E93.01776
G1 X114.191 Y82.291 E93.02338
G1 X114.156 Y82.069 E93.02898
G1 X114.1 Y81.851 E93.0346
G1 X114.021 Y81.641 E93.0402
G1 X113.921 Y81.439 E93.04582
G1 X113.799 Y81.249 E93.05145
G1 X113.658 Y81.073 E93.05708
G1 X113.5 Y80.913 E93.06268
G1 X113.327 Y80.77 E93.06828
G1 X113.139 Y80.646 E93.0739
G1 X112.94 Y80.543 E93.07949
G1 X112.73 Y80.46 E93.08512
G1 X112.513 Y80.401 E93.09073
G1 X112.291 Y80.364 E93.09635
G1 X112.067 Y80.351 E93.10195
G1 X111.842 Y80.36 E93.10756
G1 X111.619 Y80.395 E93.11319
G1 X111.402 Y80.451 E93.11878
G1 X111.193 Y80.53 E93.12436
G1 X110.991 Y80.63 E93.12998
G1 X110.801 Y80.752 E93.13561
G1 X110.625 Y80.893 E93.14124
G1 X110.465 Y81.051 E93.14685
G1 X110.313 Y81.236 E93.15282
G1 X110.19 Y81.425 E93.15844
G1 X110.088 Y81.626 E93.16407
G1 X110.007 Y81.836 E93.16968
G1 X109.949 Y82.054 E93.17531
G1 X109.914 Y82.275 E93.18089
G1 X109.902 Y82.5 E93.18651
G1 X109.914 Y82.726 E93.19216
G1 X109.949 Y82.947 E93.19774
G1 X110.007 Y83.165 E93.20337
G1 X110.088 Y83.375 E93.20898
G1 X110.19 Y83.575 E93.21458
G1 X110.312 Y83.764 E93.22019
G1 X110.454 Y83.94 E93.22583
G1 X110.613 Y84.099 E93.23144
G1 X110.789 Y84.24 E93.23707
G1 X110.977 Y84.363 E93.24267
G1 X111.178 Y84.465 E93.24829
G1 X111.387 Y84.546 E93.25389
G1 X111.604 Y84.604 E93.25949
G1 X111.846 Y84.641 E93.2656
G0 F7800 X111.358 Y85.043
; TYPE:FILL
G1 F3600 X111.195 Y85.023 E93.27114
G1 X111.01 Y84.983 E93.27245
G0 F7800 X110.246 Y84.878
G1 F3600 X110.103 Y84.799 E93.27689
G1 X110.146 Y84.748 E93.28024
G1 X109.864 Y84.872 E93.28792
G0 F7800 X109.82 Y84.492
G1 F3600 X109.311 Y85.001 E93.30588
G0 F7800 X108.759 Y85.129
G1 F3600 X109.631 Y84.257 E93.33664
G0 F7800 X109.464 Y84
G1 F3600 X108.205 Y85.258 E93.38104
G0 F7800 X107.565 Y85.475
G1 F3600 X109.32 Y83.72 E93.44295
G0 F7800 X109.125 Y83.49
G1 F3600 X106.924 Y85.691 E93.5206
G0 F7800 X106.239 Y85.952
G1 F3600 X108.701 Y83.49 E93.60745
G0 F7800 X108.277 Y83.49
G1 F3600 X105.472 Y86.295 E93.70641
G0 F7800 X104.653 Y86.689
G1 F3600 X107.852 Y83.49 E93.81926
G0 F7800 X107.428 Y83.49
G1 F3600 X103.663 Y87.255 E93.95208
G0 F7800 X102.342 Y88.152
G0 X102.342 Y88.152
G1 F3600 X107.004 Y83.49 E94.11654
G0 F7800 X106.58 Y83.49
G1 F3600 X100.06 Y90.009 E94.34654
G0 F7800 X99.636 Y90.009
G1 F3600 X106.155 Y83.49 E94.57651
G0 F7800 X105.731 Y83.49
G1 F3600 X99.212 Y90.009 E94.80649
G0 F7800 X98.787 Y90.009
G1 F3600 X105.307 Y83.49 E95.03648
G0 F7800 X104.883 Y83.49
G1 F3600 X98.363 Y90.009 E95.26647
G0 F7800 X97.939 Y90.009
G1 F3600 X104.458 Y83.49 E95.49645
G0 F7800 X104.034 Y83.49
G1 F3600 X97.514 Y90.009 E95.72644
G0 F7800 X97.09 Y90.009
G1 F3600 X103.61 Y83.49 E95.95643
G0 F7800 X103.185 Y83.49
G1 F3600 X96.666 Y90.009 E96.18641
G0 F7800 X96.242 Y90.009
G1 F3600 X102.761 Y83.49 E96.41639
G0 F7800 X102.337 Y83.49
G1 F3600 X95.817 Y90.009 E96.64638
G0 F7800 X95.393 Y90.009
G1 F3600 X101.913 Y83.49 E96.87637
G0 F7800 X101.488 Y83.49
G1 F3600 X94.969 Y90.009 E97.10635
G0 F7800 X94.545 Y90.009
G1 F3600 X101.064 Y83.49 E97.33632
G0 F7800 X100.64 Y83.49
G1 F3600 X94.12 Y90.009 E97.56631
G0 F7800 X94.074 Y90.056
G1 F3600 X85.933 Y98.197 E97.85351
G0 F7800 X85.933 Y98.621
G1 F3600 X94.074 Y90.48 E98.14071
G0 F7800 X94.074 Y90.904
G1 F3600 X85.933 Y99.045 E98.4279
G0 F7800 X85.933 Y99.47
G1 F3600 X94.074 Y91.328 E98.71512
G0 F7800 X94.074 Y91.752
G1 F3600 X85.933 Y99.894 E99.00233
G0 F7800 X85.933 Y100.317
G1 F3600 X91.052 Y95.199 E99.1829
G0 F7800 X91.238 Y95.013
G1 F3600 X94.074 Y92.177 E99.28295
G0 F7800 X94.074 Y92.601
G1 F3600 X91.662 Y95.013 E99.36804
G0 F7800 X92.087 Y95.013
G1 F3600 X94.074 Y93.025 E99.43815
G0 F7800 X94.074 Y93.449
G1 F3600 X92.511 Y95.013 E99.49331
G0 F7800 X92.935 Y95.013
G1 F3600 X94.075 Y93.873 E99.53352
G0 F7800 X94.075 Y94.297
G1 F3600 X93.36 Y95.013 E99.55876
G0 F7800 X93.784 Y95.013
G1 F3600 X94.075 Y94.721 E99.56905
G0 F7800 X91.052 Y95.624
G0 X91.052 Y95.624
G1 F3600 X85.933 Y100.742 E99.74962
G0 F7800 X85.933 Y101.166
G1 F3600 X91.052 Y96.048 E99.93019
G0 F7800 X91.052 Y96.472
G1 F3600 X85.933 Y101.59 E100.11075
G0 F7800 X85.933 Y102.015
G1 F3600 X91.052 Y96.896 E100.29134
G0 F7800 X91.052 Y97.321
G1 F3600 X85.933 Y102.439 E100.47191
G0 F7800 X85.933 Y102.863
G1 F3600 X91.052 Y97.745 E100.65248
G0 F7800 X91.052 Y98.169
G1 F3600 X85.933 Y103.287 E100.83305
G0 F7800 X85.933 Y103.712
G1 F3600 X91.052 Y98.594 E101.01362
G0 F7800 X91.052 Y99.018
G1 F3600 X85.933 Y104.136 E101.19419
G0 F7800 X85.933 Y104.56
G1 F3600 X91.052 Y99.442 E101.37475
G0 F7800 X91.052 Y99.866
G1 F3600 X85.933 Y104.984 E101.55532
G0 F7800 X85.933 Y105.409
G1 F3600 X91.052 Y100.291 E101.73589
G0 F7800 X91.052 Y100.715
G1 F3600 X85.933 Y105.833 E101.91646
G0 F7800 X85.933 Y106.257
G1 F3600 X91.052 Y101.139 E102.09703
G0 F7800 X91.052 Y101.563
G1 F3600 X85.933 Y106.681 E102.2776
G0 F7800 X85.933 Y107.106
G1 F3600 X91.052 Y101.988 E102.45817
G0 F7800 X91.052 Y102.412
G1 F3600 X85.933 Y107.53 E102.63874
G0 F7800 X85.933 Y107.954
G1 F3600 X91.052 Y102.836 E102.81931
G0 F7800 X91.052 Y103.26
G1 F3600 X85.933 Y108.378 E102.99987
G0 F7800 X85.933 Y108.803
G1 F3600 X91.052 Y103.685 E103.18044
G0 F7800 X91.052 Y104.109
G1 F3600 X85.933 Y109.227 E103.36101
G0 F7800 X85.933 Y109.651
G1 F3600 X91.052 Y104.533 E103.54158
G0 F7800 X91.052 Y104.957
G1 F3600 X85.933 Y110.076 E103.72217
G0 F7800 X85.933 Y110.5
G1 F3600 X91.445 Y104.989 E103.9166
G0 F7800 X91.869 Y104.989
G1 F3600 X85.933 Y110.924 E104.12599
G0 F7800 X85.933 Y111.348
G1 F3600 X92.293 Y104.989 E104.35034
G0 F7800 X92.717 Y104.989
G1 F3600 X85.933 Y111.773 E104.58966
G0 F7800 X85.933 Y112.197
G1 F3600 X93.141 Y104.989 E104.84395
G0 F7800 X93.565 Y104.989
G1 F3600 X85.933 Y112.621 E105.11319
G0 F7800 X85.933 Y113.045
G1 F3600 X93.99 Y104.989 E105.3974
G0 F7800 X94.074 Y105.329
G1 F3600 X85.933 Y113.47 E105.6846
G0 F7800 X85.933 Y113.894
G1 F3600 X94.074 Y105.753 E105.97179
G0 F7800 X94.074 Y106.177
G1 F3600 X85.933 Y114.318 E106.25899
G0 F7800 X85.933 Y114.742
G1 F3600 X94.074 Y106.602 E106.54617
G0 F7800 X94.074 Y107.026
G1 F3600 X85.933 Y115.167 E106.83336
G0 F7800 X85.933 Y115.591
G1 F3600 X94.074 Y107.45 E107.12056
G0 F7800 X94.074 Y107.874
G1 F3600 X85.933 Y116.015 E107.40775
G0 F7800 X85.933 Y116.439
G1 F3600 X94.074 Y108.299 E107.69493
G0 F7800 X94.074 Y108.723
G1 F3600 X86.288 Y116.509 E107.9696
G0 F7800 X86.713 Y116.509
G1 F3600 X94.074 Y109.147 E108.2293
G0 F7800 X94.074 Y109.571
G1 F3600 X87.137 Y116.509 E108.47404
G0 F7800 X87.561 Y116.509
G1 F3600 X94.081 Y109.989 E108.70405
G0 F7800 X94.506 Y109.989
G1 F3600 X87.986 Y116.509 E108.93406
G0 F7800 X88.41 Y116.509
G1 F3600 X94.93 Y109.989 E109.16407
G0 F7800 X95.354 Y109.989
G1 F3600 X88.834 Y116.509 E109.39408
G0 F7800 X89.258 Y116.509
G1 F3600 X95.779 Y109.989 E109.62411
G0 F7800 X96.203 Y109.989
G1 F3600 X89.683 Y116.509 E109.85412
G0 F7800 X90.107 Y116.509
G1 F3600 X96.627 Y109.989 E110.08413
G0 F7800 X97.051 Y109.989
G1 F3600 X90.531 Y116.509 E110.31414
G0 F7800 X90.955 Y116.509
G1 F3600 X97.476 Y109.989 E110.54417
G0 F7800 X97.9 Y109.989
G1 F3600 X91.38 Y116.509 E110.77418
G0 F7800 X91.804 Y116.509
G1 F3600 X98.324 Y109.989 E111.00419
G0 F7800 X98.748 Y109.989
G1 F3600 X92.228 Y116.509 E111.2342
G0 F7800 X92.652 Y116.509
G1 F3600 X99.173 Y109.989 E111.46423
G0 F7800 X99.597 Y109.989
G1 F3600 X93.077 Y116.509 E111.69424
G0 F7800 X93.501 Y116.509
G1 F3600 X100.021 Y109.989 E111.92425
G0 F7800 X100.339 Y110.095
G1 F3600 X93.925 Y116.509 E112.15052
G0 F7800 X94.349 Y116.509
G1 F3600 X100.542 Y110.316 E112.369
G0 F7800 X100.759 Y110.524
G1 F3600 X94.774 Y116.509 E112.58013
G0 F7800 X95.198 Y116.509
G1 F3600 X100.985 Y110.722 E112.78429
G0 F7800 X101.211 Y110.921
G1 F3600 X95.622 Y116.509 E112.98144
G0 F7800 X96.047 Y116.509
G1 F3600 X101.436 Y111.119 E113.17156
G0 F7800 X101.662 Y111.318
G1 F3600 X96.471 Y116.509 E113.35469
G0 F7800 X96.895 Y116.509
G1 F3600 X101.888 Y111.516 E113.53083
G0 F7800 X102.132 Y111.696
G1 F3600 X97.319 Y116.509 E113.70062
G0 F7800 X97.744 Y116.509
G1 F3600 X102.38 Y111.872 E113.86419
G0 F7800 X102.628 Y112.049
G1 F3600 X98.168 Y116.509 E114.02153
G0 F7800 X98.592 Y116.509
G1 F3600 X102.876 Y112.225 E114.17266
G0 F7800 X103.123 Y112.402
G1 F3600 X99.016 Y116.509 E114.31754
G0 F7800 X99.441 Y116.509
G1 F3600 X103.373 Y112.577 E114.45625
G0 F7800 X103.643 Y112.731
G1 F3600 X99.865 Y116.509 E114.58953
G0 F7800 X100.289 Y116.509
G1 F3600 X103.913 Y112.885 E114.71738
G0 F7800 X104.182 Y113.04
G1 F3600 X100.713 Y116.509 E114.83976
G0 F7800 X101.138 Y116.509
G1 F3600 X104.453 Y113.194 E114.9567
G0 F7800 X104.723 Y113.348
G1 F3600 X101.562 Y116.509 E115.06822
G0 F7800 X101.986 Y116.509
G1 F3600 X105.002 Y113.493 E115.17461
G0 F7800 X105.295 Y113.624
G1 F3600 X102.41 Y116.509 E115.27639
G0 F7800 X102.835 Y116.509
G1 F3600 X105.588 Y113.755 E115.37353
G0 F7800 X105.881 Y113.887
G1 F3600 X103.259 Y116.509 E115.46603
G0 F7800 X103.683 Y116.509
G1 F3600 X106.174 Y114.018 E115.5539
G0 F7800 X106.467 Y114.149
G1 F3600 X104.108 Y116.509 E115.63714
G0 F7800 X104.532 Y116.509
G1 F3600 X106.781 Y114.259 E115.7165
G0 F7800 X107.099 Y114.366
G1 F3600 X104.956 Y116.509 E115.7921
G0 F7800 X105.38 Y116.509
G1 F3600 X107.416 Y114.473 E115.86392
G0 F7800 X107.733 Y114.58
G1 F3600 X105.805 Y116.509 E115.93196
G0 F7800 X106.229 Y116.509
G1 F3600 X108.05 Y114.687 E115.99621
G0 F7800 X108.381 Y114.781
G1 F3600 X106.653 Y116.509 E116.05717
G0 F7800 X107.077 Y116.509
G1 F3600 X108.725 Y114.861 E116.11531
G0 F7800 X109.069 Y114.941
G1 F3600 X107.502 Y116.509 E116.17061
G0 F7800 X107.926 Y116.509
G1 F3600 X109.414 Y115.021 E116.2231
G0 F7800 X109.758 Y115.101
G1 F3600 X108.35 Y116.509 E116.27277
G0 F7800 X108.774 Y116.509
G1 F3600 X110.077 Y115.206 E116.31874
G0 F7800 X110.077 Y115.183
G1 F3600 X110.264 Y115.163 E116.3236
G1 X110.142 Y115.211 E116.32621
G0 F7800 X111.153 Y114.965
G1 F3600 X111.368 Y114.957 E116.32952
G0 F7800 X113.06 Y115.082
G1 F3600 X113.251 Y115.115 E116.33174
G0 F7800 X113.371 Y115.177
G1 F3600 X113.234 Y115.164 E116.3334
G1 X113.059 Y115.105 E116.33563
G0 F7800 X114.338 Y116.101
G0 X114.338 Y116.101
G1 F3600 X114.363 Y116.267 E116.33707
G0 F7800 X114.196 Y116.272
G0 X114.083 Y116.045
G0 X113.92 Y115.84
G0 X113.736 Y115.654
G0 X113.534 Y115.487
G0 X113.316 Y115.344
G0 X113.085 Y115.224
G0 X112.841 Y115.128
G0 X112.587 Y115.059
G0 X112.301 Y115.011
G0 X111.819 Y115.01
G0 X111.548 Y115.052
G0 X111.297 Y115.117
G0 X111.054 Y115.209
G0 X110.819 Y115.325
G0 X110.598 Y115.467
G0 X110.393 Y115.63
G0 X110.207 Y115.814
G0 X110.03 Y116.03
G0 X109.887 Y116.251
G0 X109.824 Y116.426
G0 X109.262 Y116.446
G0 X109.262 Y116.446
G1 F3600 X109.199 Y116.509 E116.33929
G1 F1800 E115.33929
G0 F7800 X103.38 Y111.822
G0 X103.616 Y112.151
G0 X102.233 Y111.167
G0 X100.973 Y110.06
G0 X100.463 Y109.483
G0 X94.624 Y109.441
G0 X94.624 Y104.441
G0 X91.601 Y104.441
G0 X91.585 Y102.325
G0 X85.933 Y97.773
G0 X85.933 Y97.773
G1 F1800 E116.33929
G1 F3600 X100.216 Y83.49 E116.84316
G0 F7800 X99.791 Y83.49
G1 F3600 X85.933 Y97.348 E117.33204
G0 F7800 X85.933 Y96.924
G1 F3600 X99.367 Y83.49 E117.80596
G0 F7800 X98.943 Y83.49
G1 F3600 X85.933 Y96.5 E118.26492
G0 F7800 X85.933 Y96.076
G1 F3600 X98.519 Y83.49 E118.70893
G0 F7800 X98.094 Y83.49
G1 F3600 X85.933 Y95.651 E119.13794
G0 F7800 X85.933 Y95.227
G1 F3600 X97.67 Y83.49 E119.55199
G0 F7800 X97.246 Y83.489
G1 F3600 X85.933 Y94.803 E119.95111
G0 F7800 X85.933 Y94.378
G1 F3600 X96.822 Y83.489 E120.33525
G0 F7800 X96.398 Y83.489
G1 F3600 X85.933 Y93.954 E120.70443
G0 F7800 X85.933 Y93.53
G1 F3600 X95.974 Y83.489 E121.05865
G0 F7800 X95.549 Y83.489
G1 F3600 X85.933 Y93.106 E121.3979
G0 F7800 X85.933 Y92.681
G1 F3600 X95.125 Y83.489 E121.72217
G0 F7800 X94.701 Y83.489
G1 F3600 X85.933 Y92.257 E122.03149
G0 F7800 X85.933 Y91.833
G1 F3600 X94.277 Y83.489 E122.32584
G0 F7800 X93.852 Y83.489
G1 F3600 X85.933 Y91.409 E122.60523
G0 F7800 X85.933 Y90.984
G1 F3600 X93.428 Y83.489 E122.86963
G0 F7800 X93.004 Y83.489
G1 F3600 X85.933 Y90.56 E123.11908
G0 F7800 X85.933 Y90.136
G1 F3600 X92.58 Y83.489 E123.35357
G0 F7800 X92.155 Y83.489
G1 F3600 X85.933 Y89.712 E123.57309
G0 F7800 X85.933 Y89.287
G1 F3600 X91.731 Y83.489 E123.77763
G0 F7800 X91.307 Y83.489
G1 F3600 X85.933 Y88.863 E123.96721
G0 F7800 X85.933 Y88.439
G1 F3600 X90.883 Y83.489 E124.14183
G0 F7800 X90.458 Y83.489
G1 F3600 X85.933 Y88.014 E124.30147
G0 F7800 X85.933 Y87.59
G1 F3600 X90.034 Y83.489 E124.44614
G0 F7800 X89.61 Y83.489
G1 F3600 X85.933 Y87.166 E124.57586
G0 F7800 X85.933 Y86.742
G1 F3600 X89.185 Y83.489 E124.6906
G0 F7800 X88.761 Y83.489
G1 F3600 X85.933 Y86.317 E124.79036
G0 F7800 X85.933 Y85.893
G1 F3600 X88.337 Y83.489 E124.87517
G0 F7800 X87.913 Y83.489
G1 F3600 X85.933 Y85.469 E124.94502
G0 F7800 X85.933 Y85.045
G1 F3600 X87.488 Y83.489 E124.99989
G0 F7800 X87.064 Y83.489
G1 F3600 X85.933 Y84.62 E125.03979
G0 F7800 X85.933 Y84.196
G1 F3600 X86.64 Y83.489 E125.06473
G0 F7800 X86.216 Y83.489
G1 F3600 X85.933 Y83.772 E125.07472
G0 F7800 X110.124 Y84.782
G0 X111.821 Y84.99
G0 X112.613 Y84.886
G0 X113.035 Y84.905
G0 X113.035 Y84.905
G1 F3600 X113.232 Y84.867 E125.07987
G1 X113.036 Y84.929 E125.0824
G0 F7800 X114.255 Y84.043
G0 X114.255 Y84.043
G1 F3600 X114.348 Y83.78 E125.08836
G1 X114.33 Y83.929 E125.09015
; Layer Change GCode
; LAYER:2
G1 F1800 E124.09015
G0 F7800 X113.445 Y85.062 Z0.65
G0 X111.814 Y85.082
G0 X110.062 Y85.326
G0 X108.348 Y85.729
G0 X106.691 Y86.288
G0 X105.108 Y86.997
G0 X103.616 Y87.849
G0 X102.233 Y88.833
G0 X100.973 Y89.94
G0 X100.463 Y90.517
G0 X94.624 Y90.559
G0 X94.624 Y95.563
G0 X91.601 Y95.563
G0 X91.601 Y104.441
G0 X94.624 Y104.441
G0 X94.642 Y109.178
G0 X94.665 Y109.15
G0 X94.665 Y109.15
G0 X94.915 Y109.15
G0 X94.915 Y109.15
G0 X94.315 Y109.75
; TYPE:WALL-INNER
G1 F1800 E125.09015
G1 X100.347 Y109.75 E125.24062
G1 X100.797 Y110.239 E125.2572
G1 X102.077 Y111.364 E125.2997
G1 X103.481 Y112.363 E125.34269
G1 X104.994 Y113.227 E125.38615
G1 X106.599 Y113.945 E125.43001
G1 X108.279 Y114.512 E125.47424
G1 X110.015 Y114.921 E125.51873
G1 X110.839 Y115.035 E125.53948
G1 X110.663 Y115.122 E125.54438
G1 X110.247 Y115.423 E125.55719
G1 X110.027 Y115.639 E125.56488
G1 X109.8 Y115.918 E125.57385
G1 X109.544 Y116.367 E125.58674
G1 X109.41 Y116.75 E125.59687
G1 X85.694 Y116.75 E126.18846
G1 X85.694 Y83.25 E127.02413
G1 X109.409 Y83.25 E127.6157
G1 X109.539 Y83.62 E127.62548
G1 X109.67 Y83.875 E127.63263
G1 X109.826 Y84.117 E127.63981
G1 X110.01 Y84.344 E127.6471
G1 X110.247 Y84.577 E127.65539
G1 X110.66 Y84.875 E127.6681
G1 X110.837 Y84.965 E127.67305
G1 X110.015 Y85.079 E127.69375
G1 X108.279 Y85.488 E127.73824
G1 X106.599 Y86.055 E127.78247
G1 X104.994 Y86.773 E127.82633
G1 X103.481 Y87.637 E127.8698
G1 X102.077 Y88.636 E127.91278
G1 X100.797 Y89.761 E127.95529
G1 X100.347 Y90.25 E127.97187
G1 X94.315 Y90.25 E128.12234
G1 X94.315 Y95.254 E128.24716
G1 X91.292 Y95.254 E128.32257
G1 X91.292 Y104.75 E128.55945
G1 X94.315 Y104.75 E128.63486
G1 X94.315 Y109.75 E128.75958
G0 F7800 X94.615 Y109.45
G1 F1800 X100.478 Y109.45 E128.90584
G1 X101.007 Y110.024 E128.92531
G1 X102.263 Y111.128 E128.96702
G1 X103.642 Y112.11 E129.00925
G1 X105.13 Y112.959 E129.05199
G1 X106.709 Y113.666 E129.09514
G1 X108.361 Y114.223 E129.13863
G1 X110.07 Y114.626 E129.18243
G1 X111.816 Y114.868 E129.2264
G1 X113.417 Y114.949 E129.26639
G1 X114.512 Y114.905 E129.29373
G1 X114.512 Y116.811 E129.34127
G1 X114.591 Y117.234 E129.35201
G1 X114.605 Y117.499 E129.35863
G1 X114.591 Y117.757 E129.36507
G1 X114.547 Y118.031 E129.372
G1 X114.48 Y118.281 E129.37845
G1 X114.382 Y118.534 E129.38522
G1 X114.256 Y118.781 E129.39214
G1 X114.117 Y118.995 E129.3985
G1 X113.945 Y119.207 E129.40531
G1 X113.759 Y119.393 E129.41187
G1 X113.553 Y119.559 E129.41847
G1 X113.321 Y119.71 E129.42538
G1 X113.089 Y119.827 E129.43186
G1 X112.838 Y119.924 E129.43857
G1 X112.573 Y119.995 E129.44542
G1 X112.317 Y120.035 E129.45188
G1 X112.05 Y120.05 E129.45855
G1 X111.782 Y120.035 E129.46525
G1 X111.527 Y119.995 E129.47168
G1 X111.263 Y119.924 E129.4785
G1 X111.012 Y119.827 E129.48522
G1 X110.774 Y119.706 E129.49188
G1 X110.556 Y119.565 E129.49835
G1 X110.345 Y119.393 E129.50514
G1 X110.16 Y119.208 E129.51167
G1 X109.988 Y118.995 E129.5185
G1 X109.847 Y118.777 E129.52498
G1 X109.724 Y118.537 E129.5317
G1 X109.631 Y118.292 E129.53824
G1 X109.561 Y118.031 E129.54498
G1 X109.519 Y117.757 E129.5519
G1 X109.484 Y117.05 E129.56955
G1 X85.394 Y117.05 E130.17048
G1 X85.394 Y82.95 E131.02111
G1 X109.464 Y82.95 E131.62154
G1 X109.503 Y82.233 E131.63945
G1 X109.544 Y81.971 E131.64606
G1 X109.612 Y81.719 E131.65258
G1 X109.71 Y81.466 E131.65934
G1 X109.833 Y81.225 E131.66609
G1 X109.98 Y81 E131.6728
G1 X110.148 Y80.793 E131.67945
G1 X110.334 Y80.607 E131.68601
G1 X110.539 Y80.441 E131.69259
G1 X110.771 Y80.29 E131.69949
G1 X111.003 Y80.173 E131.70598
G1 X111.254 Y80.076 E131.71269
G1 X111.519 Y80.005 E131.71953
G1 X111.774 Y79.965 E131.72597
G1 X112.042 Y79.95 E131.73267
G1 X112.309 Y79.965 E131.73934
G1 X112.565 Y80.005 E131.7458
G1 X112.83 Y80.076 E131.75264
G1 X113.081 Y80.173 E131.75936
G1 X113.318 Y80.293 E131.76598
G1 X113.536 Y80.435 E131.77247
G1 X113.748 Y80.607 E131.77928
G1 X113.933 Y80.792 E131.78581
G1 X114.101 Y81 E131.79248
G1 X114.246 Y81.225 E131.79916
G1 X114.368 Y81.463 E131.80583
G1 X114.461 Y81.708 E131.81237
G1 X114.533 Y81.977 E131.81931
G1 X114.573 Y82.233 E131.82578
G1 X114.587 Y82.499 E131.83242
G1 X114.572 Y82.764 E131.83904
G1 X114.519 Y83.09 E131.84728
G1 X114.513 Y85.091 E131.8972
G1 X113.747 Y85.053 E131.91633
G1 X111.818 Y85.131 E131.96449
G1 X110.07 Y85.374 E132.00851
G1 X108.361 Y85.777 E132.05231
G1 X106.709 Y86.334 E132.0958
G1 X105.13 Y87.041 E132.13895
G1 X103.642 Y87.89 E132.18169
G1 X102.263 Y88.872 E132.22392
G1 X101.007 Y89.976 E132.26563
G1 X100.478 Y90.55 E132.2851
G1 X94.615 Y90.55 E132.43136
G1 X94.615 Y95.554 E132.55618
G1 X91.592 Y95.554 E132.63159
G1 X91.592 Y104.45 E132.8535
G1 X94.615 Y104.45 E132.92891
G1 X94.615 Y109.45 E133.05364
G0 F7800 X94.915 Y109.15
; TYPE:WALL-OUTER
G1 F1260 X100.609 Y109.15 E133.19568
G1 X101.217 Y109.809 E133.21804
G1 X102.45 Y110.893 E133.259
G1 X103.804 Y111.857 E133.30046
G1 X105.266 Y112.691 E133.34244
G1 X106.818 Y113.386 E133.38486
G1 X108.444 Y113.934 E133.42767
G1 X110.125 Y114.331 E133.47075
G1 X111.844 Y114.569 E133.51404
G1 X113.418 Y114.649 E133.55336
G1 X114.812 Y114.592 E133.58816
G1 X114.812 Y116.784 E133.64284
G1 X114.889 Y117.198 E133.65334
G1 X114.905 Y117.5 E133.66089
G1 X114.888 Y117.8 E133.66838
G1 X114.842 Y118.089 E133.67568
G1 X114.763 Y118.381 E133.68323
G1 X114.657 Y118.657 E133.6906
G1 X114.52 Y118.924 E133.69809
G1 X114.355 Y119.178 E133.70564
G1 X114.169 Y119.407 E133.713
G1 X113.958 Y119.617 E133.72043
G1 X113.729 Y119.803 E133.72779
G1 X113.474 Y119.968 E133.73537
G1 X113.207 Y120.103 E133.74283
G1 X112.931 Y120.21 E133.75021
G1 X112.638 Y120.288 E133.75778
G1 X112.351 Y120.333 E133.76502
G1 X112.05 Y120.35 E133.77254
G1 X111.748 Y120.333 E133.78009
G1 X111.462 Y120.288 E133.78731
G1 X111.17 Y120.21 E133.79485
G1 X110.894 Y120.103 E133.80223
G1 X110.627 Y119.968 E133.8097
G1 X110.374 Y119.803 E133.81723
G1 X110.145 Y119.617 E133.82459
G1 X109.936 Y119.408 E133.83196
G1 X109.749 Y119.177 E133.83938
G1 X109.585 Y118.924 E133.8469
G1 X109.45 Y118.657 E133.85436
G1 X109.344 Y118.382 E133.86171
G1 X109.266 Y118.089 E133.86928
G1 X109.222 Y117.802 E133.87652
G1 X109.199 Y117.35 E133.88781
G1 X85.094 Y117.35 E134.48911
G1 X85.094 Y82.65 E135.35471
G1 X109.18 Y82.65 E135.95554
G1 X109.205 Y82.195 E135.9669
G1 X109.249 Y81.916 E135.97395
G1 X109.329 Y81.619 E135.98162
G1 X109.435 Y81.343 E135.989
G1 X109.572 Y81.076 E135.99648
G1 X109.738 Y80.822 E136.00405
G1 X109.924 Y80.593 E136.01141
G1 X110.134 Y80.383 E136.01882
G1 X110.363 Y80.197 E136.02618
G1 X110.618 Y80.032 E136.03375
G1 X110.885 Y79.897 E136.04122
G1 X111.161 Y79.79 E136.0486
G1 X111.454 Y79.712 E136.05617
G1 X111.74 Y79.667 E136.06339
G1 X112.042 Y79.65 E136.07093
G1 X112.343 Y79.667 E136.07845
G1 X112.63 Y79.712 E136.0857
G1 X112.923 Y79.79 E136.09326
G1 X113.199 Y79.896 E136.10064
G1 X113.465 Y80.032 E136.10809
G1 X113.719 Y80.197 E136.11565
G1 X113.948 Y80.383 E136.12301
G1 X114.157 Y80.592 E136.13038
G1 X114.347 Y80.827 E136.13792
G1 X114.503 Y81.068 E136.14508
G1 X114.642 Y81.343 E136.15277
G1 X114.748 Y81.618 E136.16012
G1 X114.827 Y81.916 E136.16781
G1 X114.871 Y82.195 E136.17485
G1 X114.887 Y82.5 E136.18247
G1 X114.87 Y82.8 E136.18997
G1 X114.819 Y83.115 E136.19793
G1 X114.812 Y85.406 E136.25508
G1 X113.746 Y85.353 E136.2817
G1 X111.845 Y85.43 E136.32916
G1 X110.125 Y85.669 E136.37248
G1 X108.444 Y86.066 E136.41556
G1 X106.818 Y86.614 E136.45837
G1 X105.266 Y87.309 E136.50079
G1 X103.804 Y88.143 E136.54277
G1 X102.45 Y89.107 E136.58423
G1 X101.217 Y90.191 E136.62519
G1 X100.609 Y90.85 E136.64755
G1 X94.915 Y90.85 E136.78959
G1 X94.915 Y95.854 E136.91442
G1 X91.892 Y95.854 E136.98983
G1 X91.892 Y104.15 E137.19677
G1 X94.915 Y104.15 E137.27218
G1 X94.915 Y109.15 E137.39691
G1 F1800 E136.39691
G0 F7800 X94.665 Y109.15
G0 X94.573 Y109.12
G0 X94.624 Y109.441
G0 X100.463 Y109.483
G0 X100.973 Y110.06
G0 X102.233 Y111.167
G0 X103.616 Y112.151
G0 X105.108 Y113.003
G0 X106.691 Y113.712
G0 X108.348 Y114.271
G0 X110.062 Y114.674
G0 X111.812 Y114.918
G0 X112.204 Y114.788
G0 X113.615 Y115.242
G0 X113.615 Y115.242
; TYPE:WALL-INNER
G1 F1800 E137.39691
G1 X114.212 Y115.217 E137.41181
G1 X114.212 Y115.805 E137.42648
G1 X114.115 Y115.682 E137.43039
G1 X113.914 Y115.477 E137.43755
G1 X113.615 Y115.242 E137.44703
G0 F7800 X113.514 Y115.534
G1 F1800 X113.3 Y115.393 E137.45343
G1 X113.074 Y115.273 E137.45981
G1 X112.835 Y115.178 E137.46623
G1 X112.587 Y115.109 E137.47265
G1 X112.299 Y115.06 E137.47993
G1 X111.833 Y115.059 E137.49156
G1 X111.569 Y115.097 E137.49821
G1 X111.321 Y115.161 E137.5046
G1 X111.081 Y115.25 E137.51099
G1 X110.819 Y115.38 E137.51828
G1 X110.441 Y115.653 E137.52991
G1 X110.249 Y115.841 E137.53662
G1 X110.049 Y116.088 E137.54454
G1 X109.816 Y116.494 E137.55622
G1 X109.711 Y116.778 E137.56378
G1 X109.615 Y117.232 E137.57535
G1 X109.601 Y117.5 E137.58204
G1 X109.615 Y117.757 E137.58847
G1 X109.655 Y118.009 E137.59483
G1 X109.721 Y118.257 E137.60123
G1 X109.813 Y118.496 E137.60762
G1 X109.93 Y118.725 E137.61404
G1 X110.07 Y118.94 E137.62044
G1 X110.232 Y119.141 E137.62687
G1 X110.441 Y119.346 E137.63418
G1 X110.817 Y119.617 E137.64574
G1 X111.056 Y119.739 E137.65243
G1 X111.294 Y119.83 E137.65879
G1 X111.541 Y119.897 E137.66517
G1 X111.795 Y119.937 E137.67159
G1 X112.051 Y119.951 E137.67798
G1 X112.307 Y119.937 E137.68438
G1 X112.561 Y119.897 E137.69079
G1 X112.808 Y119.831 E137.69717
G1 X113.048 Y119.739 E137.70358
G1 X113.279 Y119.621 E137.71005
G1 X113.522 Y119.459 E137.71734
G1 X113.847 Y119.166 E137.72825
G1 X114.016 Y118.962 E137.73486
G1 X114.157 Y118.75 E137.74121
G1 X114.277 Y118.523 E137.74762
G1 X114.372 Y118.282 E137.75408
G1 X114.45 Y118.001 E137.76135
G1 X114.501 Y117.548 E137.77273
G1 X114.488 Y117.234 E137.78057
G1 X114.392 Y116.778 E137.79219
G1 X114.287 Y116.494 E137.79974
G1 X114.056 Y116.09 E137.81135
G1 X113.89 Y115.881 E137.81801
G1 X113.71 Y115.698 E137.82441
G1 X113.514 Y115.534 E137.83079
G0 F7800 X113.528 Y115.491
G0 X113.543 Y115.495
G0 X113.744 Y115.661
G0 X113.927 Y115.848
G0 X114.096 Y116.062
G0 X114.332 Y116.474
G0 X114.44 Y116.764
G0 X114.537 Y117.229
G0 X114.55 Y117.55
G0 X114.498 Y118.009
G0 X114.419 Y118.297
G0 X114.322 Y118.543
G0 X114.199 Y118.775
G0 X114.055 Y118.991
G0 X113.882 Y119.2
G0 X113.552 Y119.499
G0 X113.303 Y119.663
G0 X113.068 Y119.783
G0 X112.823 Y119.878
G0 X112.571 Y119.945
G0 X112.312 Y119.986
G0 X112.006 Y119.987
G0 X112.037 Y119.899
G0 X112.037 Y119.899
G0 X112.051 Y119.65
; TYPE:WALL-OUTER
G1 F1260 X112.276 Y119.638 E137.83641
G1 X112.498 Y119.603 E137.84201
G1 X112.715 Y119.545 E137.84762
G1 X112.926 Y119.464 E137.85326
G1 X113.127 Y119.362 E137.85888
G1 X113.337 Y119.222 E137.86517
G1 X113.63 Y118.958 E137.87501
G1 X113.775 Y118.783 E137.88068
G1 X113.899 Y118.596 E137.88628
G1 X114.004 Y118.397 E137.89189
G1 X114.087 Y118.187 E137.89752
G1 X114.155 Y117.944 E137.90382
G1 X114.2 Y117.537 E137.91403
G1 X114.189 Y117.271 E137.92067
G1 X114.103 Y116.861 E137.93112
G1 X114.014 Y116.622 E137.93749
G1 X113.807 Y116.259 E137.94791
G1 X113.665 Y116.08 E137.95361
G1 X113.507 Y115.919 E137.95924
G1 X113.335 Y115.775 E137.96483
G1 X113.147 Y115.651 E137.97045
G1 X112.948 Y115.546 E137.97606
G1 X112.739 Y115.463 E137.98167
G1 X112.522 Y115.402 E137.98729
G1 X112.273 Y115.36 E137.99359
G1 X111.854 Y115.359 E138.00405
G1 X111.628 Y115.392 E138.00974
G1 X111.411 Y115.448 E138.01533
G1 X111.2 Y115.526 E138.02095
G1 X110.974 Y115.638 E138.02724
G1 X110.635 Y115.883 E138.03767
G1 X110.471 Y116.044 E138.0434
G1 X110.297 Y116.258 E138.05028
G1 X110.089 Y116.622 E138.06074
G1 X110 Y116.861 E138.0671
G1 X109.914 Y117.271 E138.07755
G1 X109.902 Y117.5 E138.08327
G1 X109.914 Y117.725 E138.08889
G1 X109.949 Y117.946 E138.09448
G1 X110.007 Y118.164 E138.1001
G1 X110.088 Y118.374 E138.10572
G1 X110.19 Y118.575 E138.11134
G1 X110.313 Y118.763 E138.11694
G1 X110.455 Y118.939 E138.12259
G1 X110.635 Y119.116 E138.12888
G1 X110.974 Y119.36 E138.1393
G1 X111.178 Y119.464 E138.14501
G1 X111.387 Y119.545 E138.15061
G1 X111.604 Y119.603 E138.15621
G1 X111.826 Y119.638 E138.16182
G1 X112.051 Y119.65 E138.16744
G1 F1800 E137.16744
G0 F7800 X112.037 Y119.899
G0 X112.031 Y119.998
G0 X112.312 Y119.986
G0 X112.571 Y119.945
G0 X112.823 Y119.878
G0 X113.068 Y119.783
G0 X113.303 Y119.663
G0 X113.552 Y119.499
G0 X113.882 Y119.2
G0 X114.055 Y118.991
G0 X114.199 Y118.775
G0 X114.322 Y118.543
G0 X114.419 Y118.297
G0 X114.498 Y118.009
G0 X114.55 Y117.55
G0 X114.537 Y117.229
G0 X114.44 Y116.764
G0 X114.332 Y116.474
G0 X114.096 Y116.062
G0 X113.927 Y115.848
G0 X113.744 Y115.661
G0 X113.543 Y115.495
G0 X113.325 Y115.351
G0 X113.095 Y115.228
G0 X112.85 Y115.131
G0 X112.597 Y115.061
G0 X112.303 Y115.011
G0 X112.255 Y115.008
G0 X112.258 Y114.939
G0 X111.812 Y114.918
G0 X110.062 Y114.674
G0 X108.348 Y114.271
G0 X106.691 Y113.712
G0 X105.108 Y113.003
G0 X103.616 Y112.151
G0 X102.233 Y111.167
G0 X100.973 Y110.06
G0 X100.463 Y109.483
G0 X94.624 Y109.441
G0 X94.624 Y104.441
G0 X91.601 Y104.441
G0 X91.601 Y95.563
G0 X94.624 Y95.563
G0 X94.624 Y90.559
G0 X100.463 Y90.517
G0 X100.973 Y89.94
G0 X102.233 Y88.833
G0 X103.616 Y87.849
G0 X105.108 Y86.997
G0 X106.691 Y86.288
G0 X108.348 Y85.729
G0 X110.062 Y85.326
G0 X111.814 Y85.082
G0 X113.603 Y85.007
G0 X113.616 Y84.757
G0 X113.616 Y84.757
; TYPE:WALL-INNER
G1 F1800 E138.16744
G1 X113.706 Y84.698 E138.17012
G1 X114.064 Y84.375 E138.18215
G1 X114.216 Y84.191 E138.1881
G1 X114.214 Y84.775 E138.20267
G1 X113.616 Y84.757 E138.21759
G0 F7800 X113.522 Y84.46
G1 F1800 X113.847 Y84.167 E138.22851
G1 X114.016 Y83.962 E138.23514
G1 X114.157 Y83.749 E138.24151
G1 X114.277 Y83.523 E138.24789
G1 X114.372 Y83.284 E138.25431
G1 X114.441 Y83.036 E138.26073
G1 X114.483 Y82.786 E138.26705
G1 X114.501 Y82.528 E138.2735
G1 X114.488 Y82.235 E138.28082
G1 X114.393 Y81.779 E138.29244
G1 X114.3 Y81.529 E138.29909
G1 X114.17 Y81.267 E138.30639
G1 X113.897 Y80.889 E138.31802
G1 X113.71 Y80.699 E138.32467
G1 X113.514 Y80.535 E138.33104
G1 X113.3 Y80.394 E138.33744
G1 X113.074 Y80.274 E138.34382
G1 X112.835 Y80.179 E138.35024
G1 X112.587 Y80.11 E138.35666
G1 X112.336 Y80.068 E138.36301
G1 X112.079 Y80.05 E138.36943
G1 X111.823 Y80.061 E138.37582
G1 X111.569 Y80.098 E138.38223
G1 X111.321 Y80.162 E138.38862
G1 X111.081 Y80.251 E138.395
G1 X110.819 Y80.381 E138.4023
G1 X110.439 Y80.655 E138.41398
G1 X110.207 Y80.887 E138.42217
G1 X109.935 Y81.265 E138.43378
G1 X109.812 Y81.506 E138.44053
G1 X109.711 Y81.779 E138.4478
G1 X109.615 Y82.233 E138.45937
G1 X109.601 Y82.5 E138.46604
G1 X109.615 Y82.757 E138.47246
G1 X109.655 Y83.01 E138.47885
G1 X109.721 Y83.258 E138.48525
G1 X109.813 Y83.498 E138.49166
G1 X109.93 Y83.725 E138.49803
G1 X110.069 Y83.941 E138.50444
G1 X110.232 Y84.142 E138.5109
G1 X110.441 Y84.347 E138.5182
G1 X110.817 Y84.618 E138.52976
G1 X111.056 Y84.74 E138.53646
G1 X111.294 Y84.831 E138.54281
G1 X111.543 Y84.898 E138.54924
G1 X111.832 Y84.941 E138.55653
G1 X112.296 Y84.94 E138.56811
G1 X112.561 Y84.898 E138.5748
G1 X112.808 Y84.832 E138.58118
G1 X113.048 Y84.74 E138.58759
G1 X113.279 Y84.622 E138.59406
G1 X113.522 Y84.46 E138.60134
G0 F7800 X113.282 Y84.519
G0 X113.303 Y84.664
G0 X113.068 Y84.784
G0 X112.823 Y84.879
G0 X112.571 Y84.946
G0 X111.877 Y84.872
G0 X111.819 Y84.888
G0 X111.819 Y84.888
G0 X111.854 Y84.641
; TYPE:WALL-OUTER
G1 F1260 X112.272 Y84.64 E138.61177
G1 X112.498 Y84.604 E138.61748
G1 X112.715 Y84.546 E138.62308
G1 X112.926 Y84.465 E138.62872
G1 X113.127 Y84.363 E138.63434
G1 X113.337 Y84.223 E138.64064
G1 X113.63 Y83.959 E138.65048
G1 X113.775 Y83.783 E138.65617
G1 X113.899 Y83.596 E138.66176
G1 X114.004 Y83.397 E138.66738
G1 X114.087 Y83.188 E138.67299
G1 X114.148 Y82.971 E138.67861
G1 X114.185 Y82.751 E138.68417
G1 X114.2 Y82.525 E138.68982
G1 X114.189 Y82.272 E138.69614
G1 X114.104 Y81.862 E138.70659
G1 X114.024 Y81.648 E138.71228
G1 X113.912 Y81.422 E138.71858
G1 X113.667 Y81.083 E138.72901
G1 X113.507 Y80.92 E138.73471
G1 X113.335 Y80.776 E138.7403
G1 X113.147 Y80.652 E138.74592
G1 X112.948 Y80.547 E138.75153
G1 X112.739 Y80.464 E138.75714
G1 X112.522 Y80.403 E138.76277
G1 X112.301 Y80.366 E138.76836
G1 X112.076 Y80.351 E138.77398
G1 X111.851 Y80.36 E138.7796
G1 X111.628 Y80.393 E138.78522
G1 X111.411 Y80.449 E138.79081
G1 X111.2 Y80.527 E138.79642
G1 X110.974 Y80.639 E138.80272
G1 X110.634 Y80.884 E138.81317
G1 X110.436 Y81.082 E138.82015
G1 X110.192 Y81.422 E138.83059
G1 X110.087 Y81.627 E138.83634
G1 X110 Y81.862 E138.84259
G1 X109.914 Y82.272 E138.85304
G1 X109.902 Y82.5 E138.85874
G1 X109.914 Y82.726 E138.86438
G1 X109.949 Y82.947 E138.86996
G1 X110.007 Y83.165 E138.87559
G1 X110.088 Y83.375 E138.8812
G1 X110.19 Y83.575 E138.88681
G1 X110.312 Y83.764 E138.89242
G1 X110.455 Y83.94 E138.89807
G1 X110.635 Y84.117 E138.90437
G1 X110.974 Y84.361 E138.91479
G1 X111.178 Y84.465 E138.9205
G1 X111.387 Y84.546 E138.92609
G1 X111.604 Y84.604 E138.9317
G1 X111.854 Y84.641 E138.938
G0 F7800 X111.359 Y85.043
; TYPE:FILL
G1 F3600 X111.136 Y85.032 E138.9417
G0 F7800 X111.254 Y85.015
G1 F3600 X111.01 Y84.983 E138.94339
G0 F7800 X110.29 Y84.889
G1 F3600 X110.071 Y84.813 E138.94771
G0 F7800 X110.068 Y84.811
G1 F3600 X110.167 Y84.8 E138.94944
G0 F7800 X109.897 Y84.865
G1 F3600 X108.521 Y83.49 E138.99797
G0 F7800 X108.097 Y83.49
G1 F3600 X109.552 Y84.945 E139.0493
G0 F7800 X109.208 Y85.025
G1 F3600 X107.673 Y83.49 E139.10345
G0 F7800 X107.249 Y83.49
G1 F3600 X108.864 Y85.105 E139.16042
G0 F7800 X108.519 Y85.185
G1 F3600 X106.824 Y83.49 E139.22022
G0 F7800 X106.4 Y83.49
G1 F3600 X108.178 Y85.267 E139.28292
G0 F7800 X107.861 Y85.375
G1 F3600 X105.976 Y83.49 E139.34942
G0 F7800 X105.551 Y83.49
G1 F3600 X107.543 Y85.482 E139.41969
G0 F7800 X107.227 Y85.589
G1 F3600 X105.127 Y83.49 E139.49376
G0 F7800 X104.703 Y83.49
G1 F3600 X106.909 Y85.696 E139.57158
G0 F7800 X106.592 Y85.803
G1 F3600 X104.279 Y83.49 E139.65318
G0 F7800 X103.854 Y83.49
G1 F3600 X106.292 Y85.928 E139.73919
G0 F7800 X105.999 Y86.059
G1 F3600 X103.43 Y83.49 E139.82981
G0 F7800 X103.006 Y83.49
G1 F3600 X105.706 Y86.19 E139.92506
G0 F7800 X105.413 Y86.321
G1 F3600 X102.582 Y83.49 E140.02494
G0 F7800 X102.157 Y83.49
G1 F3600 X105.119 Y86.452 E140.12943
G0 F7800 X104.831 Y86.588
G1 F3600 X101.733 Y83.49 E140.23872
G0 F7800 X101.309 Y83.49
G1 F3600 X104.561 Y86.742 E140.35344
G0 F7800 X104.291 Y86.896
G1 F3600 X100.885 Y83.49 E140.4736
G0 F7800 X100.46 Y83.49
G1 F3600 X104.021 Y87.051 E140.59922
G0 F7800 X103.751 Y87.205
G1 F3600 X100.036 Y83.49 E140.73028
G0 F7800 X99.612 Y83.49
G1 F3600 X103.481 Y87.359 E140.86677
G0 F7800 X103.223 Y87.525
G1 F3600 X99.187 Y83.49 E141.00913
G0 F7800 X98.763 Y83.49
G1 F3600 X102.975 Y87.701 E141.1577
G0 F7800 X102.727 Y87.878
G1 F3600 X98.339 Y83.49 E141.3125
G0 F7800 X97.915 Y83.49
G1 F3600 X102.479 Y88.054 E141.47351
G0 F7800 X102.231 Y88.23
G1 F3600 X97.49 Y83.489 E141.64076
G0 F7800 X97.065 Y83.489
G1 F3600 X101.983 Y88.407 E141.81426
G0 F7800 X101.752 Y88.6
G1 F3600 X96.641 Y83.489 E141.99456
G0 F7800 X96.217 Y83.489
G1 F3600 X101.527 Y88.799 E142.18189
G0 F7800 X101.301 Y88.997
G1 F3600 X95.793 Y83.489 E142.37619
G0 F7800 X95.368 Y83.489
G1 F3600 X101.075 Y89.195 E142.57751
G0 F7800 X100.849 Y89.394
G1 F3600 X94.944 Y83.489 E142.78582
G0 F7800 X94.52 Y83.489
G1 F3600 X100.624 Y89.593 E143.00116
G0 F7800 X100.42 Y89.813
G1 F3600 X94.096 Y83.489 E143.22425
G0 F7800 X93.671 Y83.489
G1 F3600 X100.192 Y90.009 E143.45428
G0 F7800 X99.767 Y90.009
G1 F3600 X93.247 Y83.489 E143.68429
G0 F7800 X92.823 Y83.489
G1 F3600 X99.343 Y90.009 E143.9143
G0 F7800 X98.919 Y90.009
G1 F3600 X92.399 Y83.489 E144.14431
G0 F7800 X91.974 Y83.489
G1 F3600 X98.495 Y90.009 E144.37434
G0 F7800 X98.07 Y90.009
G1 F3600 X91.55 Y83.489 E144.60435
G0 F7800 X91.126 Y83.489
G1 F3600 X97.646 Y90.009 E144.83436
G0 F7800 X97.222 Y90.009
G1 F3600 X90.702 Y83.489 E145.06437
G0 F7800 X90.277 Y83.489
G1 F3600 X96.797 Y90.009 E145.29438
G0 F7800 X96.373 Y90.009
G1 F3600 X89.853 Y83.489 E145.52439
G0 F7800 X89.429 Y83.489
G1 F3600 X95.949 Y90.009 E145.7544
G0 F7800 X95.525 Y90.009
G1 F3600 X89.004 Y83.489 E145.98443
G0 F7800 X88.58 Y83.489
G1 F3600 X95.1 Y90.009 E146.21444
G0 F7800 X94.676 Y90.009
G1 F3600 X88.156 Y83.489 E146.44445
G0 F7800 X87.732 Y83.489
G1 F3600 X94.252 Y90.009 E146.67446
G0 F7800 X94.074 Y90.255
G1 F3600 X87.307 Y83.489 E146.91317
G0 F7800 X86.883 Y83.489
G1 F3600 X94.074 Y90.68 E147.16685
G0 F7800 X94.074 Y91.104
G1 F3600 X86.459 Y83.489 E147.43549
G0 F7800 X86.035 Y83.489
G1 F3600 X94.074 Y91.529 E147.71911
G0 F7800 X94.074 Y91.953
G1 F3600 X85.933 Y83.811 E148.00632
G0 F7800 X85.933 Y84.236
G1 F3600 X94.074 Y92.377 E148.29352
G0 F7800 X94.074 Y92.802
G1 F3600 X85.933 Y84.66 E148.58073
G0 F7800 X85.933 Y85.084
G1 F3600 X94.074 Y93.226 E148.86794
G0 F7800 X94.074 Y93.65
G1 F3600 X85.933 Y85.509 E149.15514
G0 F7800 X85.933 Y85.933
G1 F3600 X94.075 Y94.075 E149.44237
G0 F7800 X94.075 Y94.499
G1 F3600 X85.933 Y86.357 E149.7296
G0 F7800 X85.933 Y86.781
G1 F3600 X94.075 Y94.924 E150.01685
G0 F7800 X93.74 Y95.013
G1 F3600 X85.933 Y87.206 E150.29226
G0 F7800 X85.933 Y87.63
G1 F3600 X93.316 Y95.013 E150.55272
G0 F7800 X92.891 Y95.013
G1 F3600 X85.933 Y88.054 E150.7982
G0 F7800 X85.933 Y88.478
G1 F3600 X92.467 Y95.013 E151.02872
G0 F7800 X92.043 Y95.013
G1 F3600 X85.933 Y88.903 E151.24427
G0 F7800 X85.933 Y89.327
G1 F3600 X91.619 Y95.013 E151.44486
G0 F7800 X91.194 Y95.013
G1 F3600 X85.933 Y89.751 E151.63047
G0 F7800 X85.933 Y90.175
G1 F3600 X91.052 Y95.294 E151.81106
G0 F7800 X91.052 Y95.718
G1 F3600 X85.933 Y90.6 E151.99163
G0 F7800 X85.933 Y91.024
G1 F3600 X91.052 Y96.143 E152.17221
G0 F7800 X91.052 Y96.567
G1 F3600 X85.933 Y91.448 E152.3528
G0 F7800 X85.933 Y91.872
G1 F3600 X91.052 Y96.991 E152.53339
G0 F7800 X91.052 Y97.415
G1 F3600 X85.933 Y92.297 E152.71395
G0 F7800 X85.933 Y92.721
G1 F3600 X91.052 Y97.84 E152.89454
G0 F7800 X91.052 Y98.264
G1 F3600 X85.933 Y93.145 E153.07513
G0 F7800 X85.933 Y93.57
G1 F3600 X91.052 Y98.688 E153.2557
G0 F7800 X91.052 Y99.113
G1 F3600 X85.933 Y93.994 E153.43628
G0 F7800 X85.933 Y94.418
G1 F3600 X91.052 Y99.537 E153.61687
G0 F7800 X91.052 Y99.961
G1 F3600 X85.933 Y94.842 E153.79746
G0 F7800 X85.933 Y95.267
G1 F3600 X91.052 Y100.385 E153.97802
G0 F7800 X91.052 Y100.81
G1 F3600 X85.933 Y95.691 E154.15861
G0 F7800 X85.933 Y96.115
G1 F3600 X91.052 Y101.234 E154.3392
G0 F7800 X91.052 Y101.658
G1 F3600 X85.933 Y96.539 E154.51978
G0 F7800 X85.933 Y96.964
G1 F3600 X91.052 Y102.082 E154.70035
G0 F7800 X91.052 Y102.507
G1 F3600 X85.933 Y97.388 E154.88094
G0 F7800 X85.933 Y97.812
G1 F3600 X91.052 Y102.931 E155.06153
G0 F7800 X91.052 Y103.355
G1 F3600 X85.933 Y98.236 E155.24211
G0 F7800 X85.933 Y98.661
G1 F3600 X91.052 Y103.779 E155.42268
G0 F7800 X91.052 Y104.204
G1 F3600 X85.933 Y99.085 E155.60327
G0 F7800 X85.933 Y99.509
G1 F3600 X91.052 Y104.628 E155.78386
G0 F7800 X91.412 Y104.989
G1 F3600 X94.074 Y107.651 E155.87776
G0 F7800 X94.074 Y107.227
G1 F3600 X91.836 Y104.989 E155.95672
G0 F7800 X92.261 Y104.989
G1 F3600 X94.074 Y106.802 E156.02067
G0 F7800 X94.074 Y106.378
G1 F3600 X92.686 Y104.989 E156.06966
G0 F7800 X93.11 Y104.989
G1 F3600 X94.074 Y105.954 E156.10368
G0 F7800 X94.074 Y105.53
G1 F3600 X93.534 Y104.989 E156.12275
G0 F7800 X93.958 Y104.989
G1 F3600 X94.074 Y105.105 E156.12684
G0 F7800 X94.074 Y108.075
G1 F3600 X85.933 Y99.933 E156.41406
G0 F7800 X85.933 Y100.358
G1 F3600 X94.074 Y108.499 E156.70125
G0 F7800 X94.074 Y108.924
G1 F3600 X85.933 Y100.783 E156.98845
G0 F7800 X85.933 Y101.207
G1 F3600 X94.074 Y109.348 E157.27564
G0 F7800 X94.074 Y109.772
G1 F3600 X85.933 Y101.631 E157.56284
G0 F7800 X85.933 Y102.056
G1 F3600 X100.387 Y116.509 E158.07273
G0 F7800 X100.811 Y116.509
G1 F3600 X94.291 Y109.989 E158.30274
G0 F7800 X94.715 Y109.989
G1 F3600 X101.235 Y116.509 E158.53275
G0 F7800 X101.66 Y116.509
G1 F3600 X95.139 Y109.989 E158.76277
G0 F7800 X95.564 Y109.989
G1 F3600 X102.084 Y116.509 E158.99279
G0 F7800 X102.508 Y116.509
G1 F3600 X95.988 Y109.989 E159.2228
G0 F7800 X96.412 Y109.989
G1 F3600 X102.932 Y116.509 E159.45281
G0 F7800 X103.357 Y116.509
G1 F3600 X96.836 Y109.989 E159.68283
G0 F7800 X97.261 Y109.989
G1 F3600 X103.781 Y116.509 E159.91285
G0 F7800 X104.205 Y116.509
G1 F3600 X97.685 Y109.989 E160.14286
G0 F7800 X98.109 Y109.989
G1 F3600 X104.629 Y116.509 E160.37287
G0 F7800 X105.054 Y116.509
G1 F3600 X98.533 Y109.989 E160.60289
G0 F7800 X98.958 Y109.989
G1 F3600 X105.478 Y116.509 E160.83291
G0 F7800 X105.902 Y116.509
G1 F3600 X99.382 Y109.989 E161.06292
G0 F7800 X99.806 Y109.989
G1 F3600 X106.326 Y116.509 E161.29293
G0 F7800 X106.751 Y116.509
G1 F3600 X100.814 Y110.572 E161.50237
G0 F7800 X100.358 Y110.116
G1 F3600 X100.23 Y109.989 E161.50687
G0 F7800 X102.931 Y112.265
G0 X102.931 Y112.265
G1 F3600 X107.175 Y116.509 E161.65659
G0 F7800 X107.599 Y116.509
G1 F3600 X104.059 Y112.968 E161.78149
G0 F7800 X105.013 Y113.498
G1 F3600 X108.023 Y116.509 E161.88769
G0 F7800 X108.448 Y116.509
G1 F3600 X105.781 Y113.842 E161.98178
G0 F7800 X106.542 Y114.179
G1 F3600 X108.872 Y116.509 E162.06397
G0 F7800 X109.255 Y116.467
G1 F3600 X107.182 Y114.395 E162.13709
G0 F7800 X107.822 Y114.61
G1 F3600 X109.38 Y116.168 E162.19205
G0 F7800 X109.534 Y115.898
G1 F3600 X108.428 Y114.792 E162.23107
G0 F7800 X108.98 Y114.92
G1 F3600 X109.709 Y115.649 E162.25678
G0 F7800 X109.905 Y115.421
G1 F3600 X109.532 Y115.048 E162.26994
G0 F7800 X110.071 Y115.186
G1 F3600 X110.29 Y115.111 E162.27427
G0 F7800 X111.163 Y114.965
G1 F3600 X111.373 Y114.958 E162.27733
G0 F7800 X113.066 Y115.081
G1 F3600 X113.261 Y115.117 E162.27977
G0 F7800 X113.381 Y115.181
G1 F3600 X113.24 Y115.165 E162.28161
G1 X113.064 Y115.107 E162.28402
G0 F7800 X112.412 Y115.176
G0 X112.303 Y115.011
G0 X111.831 Y115.01
G0 X110.788 Y115.35
G0 X99.962 Y116.509
G0 X99.962 Y116.509
G1 F3600 X85.933 Y102.48 E162.77893
G0 F7800 X85.933 Y102.904
G1 F3600 X99.538 Y116.509 E163.25888
G0 F7800 X99.114 Y116.509
G1 F3600 X85.933 Y103.328 E163.72388
G0 F7800 X85.933 Y103.753
G1 F3600 X98.69 Y116.509 E164.1739
G0 F7800 X98.265 Y116.509
G1 F3600 X85.933 Y104.177 E164.60894
G0 F7800 X85.933 Y104.601
G1 F3600 X97.841 Y116.509 E165.02903
G0 F7800 X97.417 Y116.509
G1 F3600 X85.933 Y105.025 E165.43416
G0 F7800 X85.933 Y105.45
G1 F3600 X96.993 Y116.509 E165.82431
G0 F7800 X96.568 Y116.509
G1 F3600 X85.933 Y105.874 E166.19949
G0 F7800 X85.933 Y106.298
G1 F3600 X96.144 Y116.509 E166.55971
G0 F7800 X95.72 Y116.509
G1 F3600 X85.933 Y106.722 E166.90497
G0 F7800 X85.933 Y107.147
G1 F3600 X95.296 Y116.509 E167.23526
G0 F7800 X94.871 Y116.509
G1 F3600 X85.933 Y107.571 E167.55057
G0 F7800 X85.933 Y107.995
G1 F3600 X94.447 Y116.509 E167.85093
G0 F7800 X94.023 Y116.509
G1 F3600 X85.933 Y108.419 E168.13632
G0 F7800 X85.933 Y108.844
G1 F3600 X93.599 Y116.509 E168.40674
G0 F7800 X93.174 Y116.509
G1 F3600 X85.933 Y109.268 E168.66219
G0 F7800 X85.933 Y109.692
G1 F3600 X92.75 Y116.509 E168.90268
G0 F7800 X92.326 Y116.509
G1 F3600 X85.933 Y110.117 E169.12819
G0 F7800 X85.933 Y110.541
G1 F3600 X91.901 Y116.509 E169.33873
G0 F7800 X91.477 Y116.509
G1 F3600 X85.933 Y110.965 E169.53431
G0 F7800 X85.933 Y111.389
G1 F3600 X91.053 Y116.509 E169.71493
G0 F7800 X90.629 Y116.509
G1 F3600 X85.933 Y111.814 E169.88057
G0 F7800 X85.933 Y112.238
G1 F3600 X90.204 Y116.509 E170.03125
G0 F7800 X89.78 Y116.509
G1 F3600 X85.933 Y112.662 E170.16696
G0 F7800 X85.933 Y113.086
G1 F3600 X89.356 Y116.509 E170.28771
G0 F7800 X88.932 Y116.509
G1 F3600 X85.933 Y113.511 E170.39349
G0 F7800 X85.933 Y113.935
G1 F3600 X88.507 Y116.509 E170.4843
G0 F7800 X88.083 Y116.509
G1 F3600 X85.933 Y114.359 E170.56015
G0 F7800 X85.933 Y114.783
G1 F3600 X87.659 Y116.509 E170.62104
G0 F7800 X87.235 Y116.509
G1 F3600 X85.933 Y115.208 E170.66695
G0 F7800 X85.933 Y115.632
G1 F3600 X86.81 Y116.509 E170.69789
G0 F7800 X86.386 Y116.509
G1 F3600 X85.933 Y116.056 E170.71387
G0 F7800 X85.933 Y116.48
G1 F3600 X85.962 Y116.509 E170.71489
G1 F1800 E169.71489
G0 F7800 X94.648 Y104.51
G0 X94.624 Y104.441
G0 X91.601 Y104.441
G0 X91.601 Y95.563
G0 X94.624 Y95.563
G0 X94.624 Y90.559
G0 X100.463 Y90.517
G0 X100.973 Y89.94
G0 X102.233 Y88.833
G0 X103.616 Y87.849
G0 X105.108 Y86.997
G0 X106.691 Y86.288
G0 X108.128 Y85.889
G0 X109.479 Y84.024
G0 X109.479 Y84.024
G1 F1800 E170.71489
G1 F3600 X108.946 Y83.49 E170.73371
G0 F7800 X110.048 Y83.871
G0 X110.409 Y84.384
G0 X110.792 Y84.66
G0 X111.036 Y84.784
G0 X111.28 Y84.879
G0 X111.534 Y84.946
G0 X111.829 Y84.99
G0 X112.299 Y84.989
G0 X112.571 Y84.946
G0 X112.752 Y84.806
G0 X113.034 Y84.905
G0 X113.034 Y84.905
G1 F3600 X113.233 Y84.839 E170.73648
G0 F7800 X113.235 Y84.897
G1 F3600 X113.035 Y84.93 E170.73903
G0 F7800 X114.252 Y84.052
G0 X114.252 Y84.052
G1 F3600 X114.326 Y83.826 E170.74063
G0 F7800 X114.367 Y83.75
G1 F3600 X114.326 Y83.939 E170.74308
; Layer Change GCode
; LAYER:3
G0 F7800 X113.451 Y85.058 Z0.85
G0 X111.814 Y85.082
G0 X110.062 Y85.326
G0 X108.348 Y85.729
G0 X106.691 Y86.288
G0 X105.108 Y86.997
G0 X103.616 Y87.849
G0 X102.233 Y88.833
G0 X100.973 Y89.94
G0 X100.463 Y90.517
G0 X94.624 Y90.559
G0 X94.624 Y95.563
G0 X91.601 Y95.563
G0 X91.601 Y104.441
G0 X94.624 Y104.441
G0 X94.641 Y109.178
G0 X94.665 Y109.15
G0 X94.665 Y109.15
G0 X94.915 Y109.15
G0 X94.915 Y109.15
G0 X94.315 Y109.75
; TYPE:WALL-INNER
G1 F1800 X100.347 Y109.75 E170.89354
G1 X100.797 Y110.239 E170.91012
G1 X102.077 Y111.364 E170.95263
G1 X103.481 Y112.363 E170.99562
G1 X104.994 Y113.227 E171.03908
G1 X106.599 Y113.945 E171.08294
G1 X108.279 Y114.512 E171.12717
G1 X110.015 Y114.921 E171.17166
G1 X110.839 Y115.035 E171.19241
G1 X110.665 Y115.121 E171.19725
G1 X110.255 Y115.417 E171.20987
G1 X110.033 Y115.632 E171.21757
G1 X109.796 Y115.925 E171.22697
G1 X109.543 Y116.368 E171.2397
G1 X109.409 Y116.75 E171.2498
G1 X85.694 Y116.75 E171.84137
G1 X85.694 Y83.25 E172.67703
G1 X109.411 Y83.25 E173.26866
G1 X109.43 Y83.339 E173.27093
G1 X109.563 Y83.672 E173.27987
G1 X109.815 Y84.104 E173.29235
G1 X110.011 Y84.345 E173.3001
G1 X110.254 Y84.583 E173.30858
G1 X110.661 Y84.875 E173.32108
G1 X110.837 Y84.965 E173.32601
G1 X110.015 Y85.079 E173.34671
G1 X108.279 Y85.488 E173.3912
G1 X106.599 Y86.055 E173.43543
G1 X104.994 Y86.773 E173.47929
G1 X103.481 Y87.637 E173.52275
G1 X102.077 Y88.636 E173.56573
G1 X100.797 Y89.761 E173.60824
G1 X100.347 Y90.25 E173.62482
G1 X94.315 Y90.25 E173.77529
G1 X94.315 Y95.254 E173.90012
G1 X91.292 Y95.254 E173.97552
G1 X91.292 Y104.75 E174.2124
G1 X94.315 Y104.75 E174.28781
G1 X94.315 Y109.75 E174.41254
G0 F7800 X94.615 Y109.45
G1 F1800 X100.478 Y109.45 E174.55879
G1 X101.007 Y110.024 E174.57826
G1 X102.263 Y111.128 E174.61998
G1 X103.642 Y112.11 E174.66221
G1 X105.13 Y112.959 E174.70494
G1 X106.709 Y113.666 E174.7481
G1 X108.361 Y114.223 E174.79159
G1 X110.07 Y114.626 E174.83539
G1 X111.816 Y114.868 E174.87936
G1 X113.408 Y114.949 E174.91912
G1 X114.512 Y114.905 E174.94668
G1 X114.512 Y116.811 E174.99423
G1 X114.591 Y117.238 E175.00506
G1 X114.605 Y117.499 E175.01158
G1 X114.59 Y117.763 E175.01818
G1 X114.547 Y118.031 E175.02495
G1 X114.48 Y118.281 E175.0314
G1 X114.382 Y118.534 E175.03817
G1 X114.256 Y118.781 E175.04509
G1 X114.117 Y118.995 E175.05145
G1 X113.945 Y119.207 E175.05826
G1 X113.759 Y119.393 E175.06483
G1 X113.553 Y119.559 E175.07143
G1 X113.321 Y119.71 E175.07833
G1 X113.089 Y119.827 E175.08481
G1 X112.838 Y119.924 E175.09152
G1 X112.573 Y119.995 E175.09837
G1 X112.317 Y120.035 E175.10483
G1 X112.05 Y120.05 E175.1115
G1 X111.782 Y120.035 E175.1182
G1 X111.527 Y119.995 E175.12464
G1 X111.263 Y119.924 E175.13146
G1 X111.012 Y119.827 E175.13817
G1 X110.774 Y119.706 E175.14483
G1 X110.556 Y119.565 E175.15131
G1 X110.345 Y119.393 E175.1581
G1 X110.16 Y119.208 E175.16462
G1 X109.988 Y118.995 E175.17145
G1 X109.847 Y118.777 E175.17793
G1 X109.724 Y118.537 E175.18466
G1 X109.631 Y118.292 E175.19119
G1 X109.561 Y118.031 E175.19793
G1 X109.52 Y117.76 E175.20477
G1 X109.484 Y117.05 E175.2225
G1 X85.394 Y117.05 E175.82343
G1 X85.394 Y82.95 E176.67406
G1 X109.464 Y82.95 E177.27449
G1 X109.503 Y82.233 E177.2924
G1 X109.544 Y81.971 E177.29902
G1 X109.612 Y81.719 E177.30553
G1 X109.71 Y81.466 E177.31229
G1 X109.833 Y81.225 E177.31904
G1 X109.98 Y81 E177.32575
G1 X110.148 Y80.793 E177.3324
G1 X110.334 Y80.607 E177.33896
G1 X110.539 Y80.441 E177.34554
G1 X110.771 Y80.29 E177.35245
G1 X111.003 Y80.173 E177.35893
G1 X111.254 Y80.076 E177.36564
G1 X111.519 Y80.005 E177.37248
G1 X111.774 Y79.965 E177.37892
G1 X112.042 Y79.95 E177.38562
G1 X112.309 Y79.965 E177.39229
G1 X112.565 Y80.005 E177.39875
G1 X112.83 Y80.076 E177.4056
G1 X113.081 Y80.173 E177.41231
G1 X113.318 Y80.293 E177.41893
G1 X113.536 Y80.435 E177.42542
G1 X113.748 Y80.607 E177.43223
G1 X113.933 Y80.792 E177.43876
G1 X114.101 Y81 E177.44543
