; Generated with MatterSlice 1.0
; filamentDiameter = 1.75
; extrusionWidth = 0.3
; firstLayerExtrusionWidth = 0.3
; layerThickness = 0.2
; firstLayerThickness = 0.25
; automatic settings before start_gcode
G21 ; set units to millimeters
M107 ; fan off
M190 S80 ; wait for bed temperature to be reached
M104 T0 S210 ; start heating extruder 1
T0 ; set the active extruder to 0
; settings from start_gcode
G28 ; home all axes
G1 Z5 F5000 ; lift nozzle
; automatic settings after start_gcode
M109 T0 S210 ; wait for extruder 1 to reach temperature
T0 ; set the active extruder to 0
G90 ; use absolute coordinates
G92 E0 ; reset the expected extruder position
M82 ; use absolute distance for extrusion
; Layer count: 100
; Layer Change GCode
; LAYER:0
G4 P0
M107
G0 F7800 X139.4 Y85.906 Z0.25
; TYPE:SKIRT
G1 F1800 E0
G1 F720 X127.735 Y124.4 E1.2542
G1 X72.265 Y124.4 E2.98383
G1 X60.6 Y85.906 E4.23803
G1 X60.6 Y75.6 E4.55938
G1 X139.4 Y75.6 E7.01647
G1 X139.4 Y85.906 E7.33783
G0 F7800 X139.1 Y85.861
G1 F720 X127.513 Y124.1 E8.58371
G1 X72.487 Y124.1 E10.2995
G1 X60.9 Y85.861 E11.54538
G1 X60.9 Y75.9 E11.85598
G1 X139.1 Y75.9 E14.29436
G1 X139.1 Y85.861 E14.60496
G0 F7800 X132.95 Y84.95
G1 F720 X122.95 Y84.95 E14.91677
G1 X122.95 Y117.95 E15.94576
G1 X105.55 Y117.95 E16.48831
G1 X105.55 Y112.777 E16.64961
G1 X106.782 Y112.13 E16.69301
G1 X107.696 Y111.551 E16.72674
G1 X108.571 Y110.894 E16.76086
G1 X109.381 Y110.176 E16.79461
G1 X110.15 Y109.375 E16.82924
G1 X110.833 Y108.537 E16.86294
G1 X111.451 Y107.642 E16.89686
G1 X111.998 Y106.695 E16.93096
G1 X112.468 Y105.702 E16.96522
G1 X112.857 Y104.675 E16.99946
G1 X113.156 Y103.64 E17.03305
G1 X113.374 Y102.569 E17.06713
G1 X113.557 Y101.062 E17.11447
G1 X114.382 Y101.091 E17.14021
G1 X114.436 Y102.152 E17.17333
G1 X117.5 Y103.921 E17.28365
G1 X120.55 Y102.16 E17.39347
G1 X120.55 Y98.639 E17.50326
G1 X117.5 Y96.878 E17.61308
G1 X114.439 Y98.645 E17.72329
G1 X114.389 Y99.779 E17.75868
G1 X113.559 Y99.809 E17.78458
G1 X113.381 Y98.269 E17.83292
G1 X113.176 Y97.236 E17.86575
G1 X112.886 Y96.212 E17.89894
G1 X112.518 Y95.216 E17.93205
G1 X112.068 Y94.241 E17.96553
G1 X111.554 Y93.323 E17.99834
G1 X110.961 Y92.435 E18.03163
G1 X110.295 Y91.59 E18.06518
G1 X109.58 Y90.817 E18.09801
G1 X108.806 Y90.102 E18.13087
G1 X107.96 Y89.436 E18.16444
G1 X107.074 Y88.844 E18.19767
G1 X106.157 Y88.33 E18.23045
G1 X105.182 Y87.88 E18.26393
G1 X104.186 Y87.513 E18.29703
G1 X103.161 Y87.223 E18.33025
G1 X102.125 Y87.018 E18.36318
G1 X101.066 Y86.892 E18.39643
G1 X100.007 Y86.851 E18.42948
G1 X98.926 Y86.893 E18.46321
G1 X97.868 Y87.019 E18.49643
G1 X96.832 Y87.225 E18.52937
G1 X95.807 Y87.515 E18.56258
G1 X94.816 Y87.881 E18.59552
G1 X93.832 Y88.335 E18.62932
G1 X92.919 Y88.847 E18.66195
G1 X92.032 Y89.441 E18.69524
G1 X91.19 Y90.105 E18.72868
G1 X90.421 Y90.816 E18.76133
G1 X89.693 Y91.604 E18.79479
G1 X89.033 Y92.443 E18.82807
G1 X88.448 Y93.32 E18.86094
G1 X87.923 Y94.256 E18.89441
G1 X87.478 Y95.222 E18.92757
G1 X87.111 Y96.218 E18.96067
G1 X86.822 Y97.244 E18.99391
G1 X86.617 Y98.281 E19.02687
G1 X86.441 Y99.764 E19.07343
G1 X85.613 Y99.735 E19.09927
G1 X85.562 Y98.646 E19.13326
G1 X82.5 Y96.878 E19.24351
G1 X79.45 Y98.639 E19.35333
G1 X79.45 Y102.16 E19.46312
G1 X82.5 Y103.921 E19.57293
G1 X85.55 Y102.16 E19.68275
G1 X85.55 Y100.038 E19.74892
G1 X86.431 Y100.019 E19.7764
G1 X86.492 Y101.449 E19.82103
G1 X86.626 Y102.576 E19.85641
G1 X86.844 Y103.644 E19.8904
G1 X87.148 Y104.691 E19.9244
G1 X87.534 Y105.709 E19.95835
G1 X88.004 Y106.701 E19.99257
G1 X88.552 Y107.649 E20.02672
G1 X89.171 Y108.544 E20.06065
G1 X89.855 Y109.381 E20.09435
G1 X90.624 Y110.182 E20.12898
G1 X91.434 Y110.899 E20.16271
G1 X92.314 Y111.558 E20.19699
G1 X93.231 Y112.138 E20.23082
G1 X94.45 Y112.777 E20.27374
G1 X94.45 Y117.95 E20.43504
G1 X77.05 Y117.95 E20.97759
G1 X77.05 Y84.95 E22.00658
G1 X67.05 Y84.95 E22.31839
G1 X67.05 Y82.05 E22.40882
G1 X132.95 Y82.05 E24.46367
G1 X132.95 Y84.95 E24.5541
G0 F7800 X132.65 Y84.65
G1 F720 X122.65 Y84.65 E24.86591
G1 X122.65 Y117.65 E25.8949
G1 X105.85 Y117.65 E26.41874
G1 X105.85 Y112.958 E26.56505
G1 X106.926 Y112.394 E26.60293
G1 X107.868 Y111.797 E26.6377
G1 X108.764 Y111.124 E26.67265
G1 X109.593 Y110.389 E26.70719
G1 X110.368 Y109.583 E26.74206
G1 X111.077 Y108.713 E26.77705
G1 X111.706 Y107.801 E26.8116
G1 X112.264 Y106.835 E26.84638
G1 X112.745 Y105.819 E26.88143
G1 X113.138 Y104.781 E26.91604
G1 X113.448 Y103.708 E26.95087
G1 X113.671 Y102.616 E26.98562
G1 X113.822 Y101.371 E27.02473
G1 X114.097 Y101.381 E27.03331
G1 X114.146 Y102.331 E27.06297
G1 X117.5 Y104.268 E27.18374
G1 X120.85 Y102.333 E27.30437
G1 X120.85 Y98.466 E27.42495
G1 X117.5 Y96.531 E27.54558
G1 X114.146 Y98.468 E27.66635
G1 X114.102 Y99.489 E27.69821
G1 X113.825 Y99.499 E27.70686
G1 X113.678 Y98.225 E27.74685
G1 X113.466 Y97.158 E27.78077
G1 X113.173 Y96.124 E27.81428
G1 X112.792 Y95.093 E27.84855
G1 X112.342 Y94.116 E27.88209
G1 X111.81 Y93.167 E27.91601
G1 X111.207 Y92.263 E27.9499
G1 X110.526 Y91.399 E27.9842
G1 X109.792 Y90.605 E28.01792
G1 X108.998 Y89.871 E28.05163
G1 X108.134 Y89.191 E28.08592
G1 X107.234 Y88.59 E28.11966
G1 X106.286 Y88.058 E28.15356
G1 X105.305 Y87.606 E28.18724
G1 X104.274 Y87.226 E28.2215
G1 X103.234 Y86.932 E28.2552
G1 X102.17 Y86.721 E28.28902
G1 X101.087 Y86.593 E28.32303
G1 X100.007 Y86.55 E28.35673
G1 X98.905 Y86.594 E28.39112
G1 X97.823 Y86.722 E28.42509
G1 X96.759 Y86.934 E28.45892
G1 X95.719 Y87.228 E28.49262
G1 X94.688 Y87.609 E28.52689
G1 X93.708 Y88.061 E28.56055
G1 X92.759 Y88.593 E28.59447
G1 X91.859 Y89.195 E28.62823
G1 X90.996 Y89.876 E28.66251
G1 X90.203 Y90.609 E28.69618
G1 X89.468 Y91.405 E28.72997
G1 X88.788 Y92.269 E28.76425
G1 X88.185 Y93.173 E28.79813
G1 X87.654 Y94.122 E28.83204
G1 X87.204 Y95.099 E28.86558
G1 X86.824 Y96.13 E28.89984
G1 X86.532 Y97.166 E28.93341
G1 X86.32 Y98.234 E28.96736
G1 X86.176 Y99.455 E29.00569
G1 X85.9 Y99.445 E29.01431
G1 X85.854 Y98.468 E29.0448
G1 X82.5 Y96.531 E29.16557
G1 X79.15 Y98.466 E29.28621
G1 X79.15 Y102.333 E29.40678
G1 X82.5 Y104.268 E29.52741
G1 X85.85 Y102.333 E29.64805
G1 X85.85 Y100.331 E29.71047
G1 X86.144 Y100.325 E29.71964
G1 X86.192 Y101.464 E29.75519
G1 X86.329 Y102.621 E29.79152
G1 X86.551 Y103.713 E29.82626
G1 X86.863 Y104.785 E29.86108
G1 X87.257 Y105.826 E29.89578
G1 X87.737 Y106.838 E29.93071
G1 X88.299 Y107.811 E29.96574
G1 X88.926 Y108.719 E30.00015
G1 X89.636 Y109.587 E30.03512
G1 X90.414 Y110.397 E30.07014
G1 X91.241 Y111.129 E30.10458
G1 X92.137 Y111.801 E30.1395
G1 X93.08 Y112.397 E30.17428
G1 X94.15 Y112.958 E30.21196
G1 X94.15 Y117.65 E30.35826
G1 X77.35 Y117.65 E30.88211
G1 X77.35 Y84.65 E31.91109
G1 X67.35 Y84.65 E32.2229
G1 X67.35 Y82.35 E32.29462
G1 X132.65 Y82.35 E34.33077
G1 X132.65 Y84.65 E34.40248
G1 F1800 E33.40248
G0 F7800 X132.1 Y84.19
G0 X128.951 Y84.198
G0 X132.059 Y84.059
G0 X132.059 Y82.941
G0 X67.941 Y82.941
G0 X67.941 Y84.059
G0 X77.941 Y84.059
G0 X77.599 Y84.35
G0 X77.9 Y84.35
G0 X77.9 Y84.35
G0 X77.65 Y84.35
; TYPE:WALL-OUTER
G1 F1800 E34.40248
G1 F720 X67.65 Y84.35 E34.7143
G1 X67.65 Y82.65 E34.76731
G1 X132.35 Y82.65 E36.78474
G1 X132.35 Y84.35 E36.83775
G1 X122.35 Y84.35 E37.14956
G1 X122.35 Y117.35 E38.17855
G1 X106.15 Y117.35 E38.68369
G1 X106.15 Y113.14 E38.81496
G1 X107.074 Y112.655 E38.8475
G1 X108.037 Y112.045 E38.88304
G1 X108.949 Y111.36 E38.91861
G1 X109.803 Y110.603 E38.95419
G1 X110.592 Y109.782 E38.9897
G1 X111.313 Y108.898 E39.02527
G1 X111.961 Y107.959 E39.06084
G1 X112.531 Y106.972 E39.09638
G1 X113.019 Y105.942 E39.13192
G1 X113.423 Y104.874 E39.16753
G1 X113.74 Y103.779 E39.20307
G1 X113.977 Y102.58 E39.24118
G1 X117.5 Y104.614 E39.36803
G1 X121.15 Y102.507 E39.49944
G1 X121.15 Y98.292 E39.63087
G1 X117.5 Y96.185 E39.76229
G1 X113.979 Y98.218 E39.88906
G1 X113.759 Y97.094 E39.92477
G1 X113.457 Y96.026 E39.95938
G1 X113.072 Y94.984 E39.99402
G1 X112.607 Y93.975 E40.02866
G1 X112.063 Y93.006 E40.06331
G1 X111.446 Y92.082 E40.09796
G1 X110.758 Y91.209 E40.13262
G1 X110.004 Y90.393 E40.16726
G1 X109.188 Y89.639 E40.2019
G1 X108.315 Y88.951 E40.23656
G1 X107.391 Y88.335 E40.27119
G1 X106.423 Y87.791 E40.30581
G1 X105.414 Y87.326 E40.34045
G1 X104.372 Y86.942 E40.37508
G1 X103.303 Y86.64 E40.40972
G1 X102.213 Y86.424 E40.44437
G1 X101.11 Y86.293 E40.479
G1 X100.007 Y86.25 E40.51342
G1 X98.882 Y86.294 E40.54853
G1 X97.779 Y86.425 E40.58316
G1 X96.69 Y86.642 E40.61779
G1 X95.621 Y86.944 E40.65242
G1 X94.578 Y87.329 E40.68709
G1 X93.571 Y87.794 E40.72168
G1 X92.602 Y88.338 E40.75633
G1 X91.678 Y88.956 E40.79099
G1 X90.805 Y89.644 E40.82565
G1 X89.99 Y90.398 E40.86027
G1 X89.236 Y91.215 E40.89493
G1 X88.548 Y92.088 E40.92959
G1 X87.932 Y93.012 E40.96422
G1 X87.389 Y93.981 E40.99886
G1 X86.924 Y94.99 E41.0335
G1 X86.54 Y96.032 E41.06812
G1 X86.239 Y97.102 E41.10278
G1 X86.02 Y98.217 E41.13822
G1 X82.5 Y96.185 E41.26495
G1 X78.85 Y98.292 E41.39636
G1 X78.85 Y102.507 E41.52779
G1 X82.5 Y104.614 E41.65921
G1 X86.022 Y102.581 E41.78601
G1 X86.26 Y103.787 E41.82434
G1 X86.579 Y104.882 E41.8599
G1 X86.983 Y105.949 E41.89548
G1 X87.471 Y106.978 E41.93099
G1 X88.042 Y107.966 E41.96657
G1 X88.69 Y108.904 E42.00212
G1 X89.412 Y109.787 E42.03769
G1 X90.202 Y110.609 E42.07323
G1 X91.056 Y111.365 E42.1088
G1 X91.968 Y112.049 E42.14435
G1 X92.932 Y112.658 E42.1799
G1 X93.85 Y113.14 E42.21223
G1 X93.85 Y117.35 E42.3435
G1 X77.65 Y117.35 E42.84864
G1 X77.65 Y84.35 E43.87763
G0 F7800 X77.95 Y84.05
; TYPE:WALL-INNER
G1 F720 X67.95 Y84.05 E44.18944
G1 X67.95 Y82.95 E44.22374
G1 X132.05 Y82.95 E46.22247
G1 X132.05 Y84.05 E46.25677
G1 X122.05 Y84.05 E46.56858
G1 X122.05 Y117.05 E47.59757
G1 X106.45 Y117.05 E48.084
G1 X106.45 Y113.321 E48.20027
G1 X107.224 Y112.915 E48.22752
G1 X108.208 Y112.292 E48.26384
G1 X109.139 Y111.593 E48.30014
G1 X110.011 Y110.82 E48.33648
G1 X110.817 Y109.981 E48.37275
G1 X111.553 Y109.078 E48.40908
G1 X112.215 Y108.12 E48.44539
G1 X112.797 Y107.111 E48.48171
G1 X113.295 Y106.059 E48.518
G1 X113.708 Y104.969 E48.55435
G1 X114.031 Y103.851 E48.59063
G1 X114.194 Y103.052 E48.61606
G1 X117.5 Y104.961 E48.7351
G1 X121.45 Y102.68 E48.87733
G1 X121.45 Y98.119 E49.01954
G1 X117.5 Y95.838 E49.16177
G1 X114.194 Y97.747 E49.28081
G1 X114.051 Y97.024 E49.30379
G1 X113.742 Y95.933 E49.33915
G1 X113.349 Y94.869 E49.37451
G1 X112.874 Y93.838 E49.40991
G1 X112.319 Y92.849 E49.44527
G1 X111.689 Y91.905 E49.48066
G1 X110.986 Y91.014 E49.51605
G1 X110.216 Y90.181 E49.55142
G1 X109.383 Y89.41 E49.58681
G1 X108.491 Y88.708 E49.62221
G1 X107.548 Y88.079 E49.65755
G1 X106.56 Y87.524 E49.69289
G1 X105.529 Y87.049 E49.72828
G1 X104.465 Y86.657 E49.76364
G1 X103.373 Y86.348 E49.79903
G1 X102.26 Y86.127 E49.83441
G1 X101.133 Y85.994 E49.86979
G1 X100.007 Y85.95 E49.90493
G1 X98.859 Y85.995 E49.94076
G1 X97.732 Y86.128 E49.97614
G1 X96.62 Y86.35 E50.0115
G1 X95.528 Y86.659 E50.04689
G1 X94.463 Y87.052 E50.08228
G1 X93.434 Y87.527 E50.11762
G1 X92.445 Y88.082 E50.15298
G1 X91.501 Y88.713 E50.18839
G1 X90.61 Y89.416 E50.22378
G1 X89.777 Y90.186 E50.25915
G1 X89.007 Y91.02 E50.29454
G1 X88.305 Y91.912 E50.32994
G1 X87.676 Y92.855 E50.36528
G1 X87.122 Y93.845 E50.40066
G1 X86.647 Y94.875 E50.43603
G1 X86.255 Y95.939 E50.47138
G1 X85.947 Y97.032 E50.50679
G1 X85.805 Y97.747 E50.52952
G1 X82.5 Y95.838 E50.64853
G1 X78.55 Y98.119 E50.79076
G1 X78.55 Y102.68 E50.93298
G1 X82.5 Y104.961 E51.0752
G1 X85.804 Y103.053 E51.19417
G1 X85.969 Y103.859 E51.21983
G1 X86.294 Y104.977 E51.25613
G1 X86.707 Y106.066 E51.29245
G1 X87.205 Y107.117 E51.32871
G1 X87.788 Y108.127 E51.36507
G1 X88.45 Y109.085 E51.40138
G1 X89.187 Y109.986 E51.43768
G1 X89.994 Y110.826 E51.474
G1 X90.866 Y111.598 E51.51032
G1 X91.797 Y112.296 E51.5466
G1 X92.782 Y112.918 E51.58292
G1 X93.55 Y113.321 E51.60997
G1 X93.55 Y117.05 E51.72624
G1 X77.95 Y117.05 E52.21267
G1 X77.95 Y84.05 E53.24166
G0 F7800 X78.25 Y83.75
G1 F720 X68.25 Y83.75 E53.55347
G1 X68.25 Y83.25 E53.56906
G1 X131.75 Y83.25 E55.54908
G1 X131.75 Y83.75 E55.56467
G1 X121.75 Y83.75 E55.87648
G1 X121.75 Y97.946 E56.31913
G1 X117.5 Y95.492 E56.47216
G1 X114.407 Y97.278 E56.58353
G1 X114.343 Y96.954 E56.59383
G1 X114.028 Y95.84 E56.62992
G1 X113.626 Y94.754 E56.66603
G1 X113.142 Y93.702 E56.70214
G1 X112.575 Y92.692 E56.73826
G1 X111.932 Y91.729 E56.77436
G1 X111.215 Y90.819 E56.81049
G1 X110.429 Y89.968 E56.84661
G1 X109.578 Y89.182 E56.88273
G1 X108.668 Y88.465 E56.91886
G1 X107.705 Y87.823 E56.95495
G1 X106.696 Y87.256 E56.99103
G1 X105.644 Y86.771 E57.02716
G1 X104.558 Y86.371 E57.06324
G1 X103.443 Y86.056 E57.09937
G1 X102.307 Y85.831 E57.13548
G1 X101.157 Y85.695 E57.17159
G1 X100.007 Y85.649 E57.20748
G1 X98.835 Y85.696 E57.24405
G1 X97.685 Y85.832 E57.28016
G1 X96.549 Y86.058 E57.31628
G1 X95.435 Y86.373 E57.35237
G1 X94.348 Y86.775 E57.38851
G1 X93.298 Y87.259 E57.42456
G1 X92.288 Y87.826 E57.46068
G1 X91.325 Y88.47 E57.4968
G1 X90.415 Y89.187 E57.53293
G1 X89.565 Y89.973 E57.56903
G1 X88.779 Y90.825 E57.60517
G1 X88.062 Y91.735 E57.6413
G1 X87.42 Y92.698 E57.67738
G1 X86.854 Y93.708 E57.71349
G1 X86.369 Y94.76 E57.74961
G1 X85.969 Y95.846 E57.78569
G1 X85.655 Y96.962 E57.82184
G1 X85.592 Y97.278 E57.83189
G1 X82.5 Y95.492 E57.94323
G1 X78.25 Y97.946 E58.09626
G1 X78.25 Y83.75 E58.53891
G0 F7800 X78.25 Y102.853
G0 X78.25 Y102.853
G1 F720 X82.5 Y105.307 E58.69193
G1 X85.594 Y103.521 E58.80333
G1 X85.677 Y103.931 E58.81637
G1 X86.009 Y105.072 E58.85343
G1 X86.43 Y106.184 E58.8905
G1 X86.939 Y107.257 E58.92753
G1 X87.535 Y108.287 E58.96464
G1 X88.21 Y109.265 E59.00169
G1 X88.962 Y110.185 E59.03874
G1 X89.786 Y111.042 E59.07581
G1 X90.677 Y111.831 E59.11292
G1 X91.627 Y112.543 E59.14994
G1 X92.632 Y113.178 E59.18701
G1 X93.25 Y113.502 E59.20877
G1 X93.25 Y116.75 E59.31005
G1 X78.25 Y116.75 E59.77777
G1 X78.25 Y102.853 E60.21109
G1 F1800 E59.21109
G0 F7800 X80.613 Y103.735
G0 X82.5 Y104.987
G0 X85.828 Y103
G0 X85.921 Y103.87
G0 X86.247 Y104.992
G0 X86.661 Y106.086
G0 X87.161 Y107.14
G0 X87.746 Y108.153
G0 X88.411 Y109.115
G0 X89.15 Y110.018
G0 X89.96 Y110.862
G0 X90.835 Y111.637
G0 X91.77 Y112.336
G0 X92.758 Y112.961
G0 X93.529 Y113.333
G0 X93.559 Y117.059
G0 X77.941 Y117.059
G0 X77.941 Y84.059
G0 X67.941 Y84.059
G0 X67.941 Y82.941
G0 X132.059 Y82.941
G0 X132.059 Y84.059
G0 X122.059 Y84.059
G0 X122.059 Y117.059
G0 X106.441 Y117.059
G0 X106.487 Y113.403
G0 X106.75 Y113.502
G0 X106.75 Y113.502
G1 F1800 E60.21109
G1 F720 X107.375 Y113.175 E60.23309
G1 X108.379 Y112.539 E60.27015
G1 X109.329 Y111.826 E60.30718
G1 X110.219 Y111.036 E60.34429
G1 X111.042 Y110.18 E60.38132
G1 X111.793 Y109.259 E60.41837
G1 X112.468 Y108.28 E60.45545
G1 X113.063 Y107.251 E60.49252
G1 X113.572 Y106.177 E60.52958
G1 X113.993 Y105.064 E60.56668
G1 X114.323 Y103.922 E60.60375
G1 X114.405 Y103.52 E60.61654
G1 X117.5 Y105.307 E60.72798
G1 X121.75 Y102.853 E60.881
G1 X121.75 Y116.75 E61.31433
G1 X106.75 Y116.75 E61.78205
G1 X106.75 Y113.502 E61.88333
G0 F7800 X121.75 Y102.766
G0 X121.75 Y102.766
; TYPE:FILL
G1 F720 X121.75 Y98.033 E62.03091
G0 F7800 X121.6 Y83.5
G0 X121.6 Y83.5
G1 F720 X131.6 Y83.5 E62.23879
G0 F7800 X78.4 Y83.5
G0 X78.4 Y83.5
G1 F720 X68.4 Y83.5 E62.44666
G1 F1800 E61.44666
G0 F7800 X68.762 Y84.035
G0 X77.941 Y84.059
G0 X77.912 Y97.534
G0 X78.25 Y98.033
G0 X78.25 Y98.033
G1 F1800 E62.44666
G1 F720 X78.25 Y102.766 E62.59424
G0 F7800 X78.49 Y103.521
; TYPE:BOTTOM-FILL
G1 F720 X91.478 Y116.509 E63.16698
G0 F7800 X91.054 Y116.509
G1 F720 X78.49 Y103.946 E63.72099
G0 F7800 X78.49 Y104.37
G1 F720 X90.629 Y116.509 E64.25629
G0 F7800 X90.205 Y116.509
G1 F720 X78.49 Y104.794 E64.77288
G0 F7800 X78.49 Y105.218
G1 F720 X89.781 Y116.509 E65.27078
G0 F7800 X89.357 Y116.509
G1 F720 X78.49 Y105.643 E65.74997
G0 F7800 X78.49 Y106.067
G1 F720 X88.932 Y116.509 E66.21043
G0 F7800 X88.508 Y116.509
G1 F720 X78.49 Y106.491 E66.65219
G0 F7800 X78.49 Y106.915
G1 F720 X88.084 Y116.509 E67.07526
G0 F7800 X87.66 Y116.509
G1 F720 X78.49 Y107.34 E67.47961
G0 F7800 X78.49 Y107.764
G1 F720 X87.235 Y116.509 E67.86524
G0 F7800 X86.811 Y116.509
G1 F720 X78.49 Y108.188 E68.23217
G0 F7800 X78.49 Y108.613
G1 F720 X86.387 Y116.509 E68.58038
G0 F7800 X85.962 Y116.509
G1 F720 X78.49 Y109.037 E68.90988
G0 F7800 X78.49 Y109.461
G1 F720 X85.538 Y116.509 E69.22067
G0 F7800 X85.113 Y116.509
G1 F720 X78.49 Y109.885 E69.51275
G0 F7800 X78.489 Y110.309
G1 F720 X84.689 Y116.509 E69.78615
G0 F7800 X84.265 Y116.509
G1 F720 X78.489 Y110.733 E70.04086
G0 F7800 X78.489 Y111.157
G1 F720 X83.84 Y116.509 E70.27684
G0 F7800 X83.416 Y116.509
G1 F720 X78.489 Y111.582 E70.49411
G0 F7800 X78.489 Y112.006
G1 F720 X82.992 Y116.509 E70.69268
G0 F7800 X82.568 Y116.509
G1 F720 X78.489 Y112.43 E70.87255
G0 F7800 X78.489 Y112.854
G1 F720 X82.143 Y116.509 E71.0337
G0 F7800 X81.719 Y116.509
G1 F720 X78.489 Y113.279 E71.17614
G0 F7800 X78.489 Y113.703
G1 F720 X81.295 Y116.509 E71.29987
G0 F7800 X80.871 Y116.509
G1 F720 X78.489 Y114.127 E71.40491
G0 F7800 X78.489 Y114.552
G1 F720 X80.446 Y116.509 E71.49121
G0 F7800 X80.022 Y116.509
G1 F720 X78.489 Y114.976 E71.55881
G0 F7800 X78.489 Y115.4
G1 F720 X79.598 Y116.509 E71.60772
G0 F7800 X79.174 Y116.509
G1 F720 X78.489 Y115.824 E71.63792
G0 F7800 X78.489 Y116.249
G1 F720 X78.749 Y116.509 E71.64939
G0 F7800 X82.609 Y105.52
G0 X82.609 Y105.52
G1 F720 X93.009 Y115.92 E72.108
G0 F7800 X93.009 Y116.344
G1 F720 X81.904 Y105.239 E72.5977
G0 F7800 X82.878 Y105.364
G1 F720 X93.009 Y115.495 E73.04445
G0 F7800 X93.009 Y115.071
G1 F720 X83.147 Y105.209 E73.47933
G0 F7800 X83.416 Y105.054
G1 F720 X93.009 Y114.647 E73.90236
G0 F7800 X93.009 Y114.223
G1 F720 X91.588 Y112.801 E73.96504
G0 F7800 X92.69 Y113.479
G1 F720 X93.009 Y113.798 E73.97911
G0 F7800 X92.751 Y116.509
G0 X92.751 Y116.509
G1 F720 X80.901 Y104.66 E74.50163
G0 F7800 X79.898 Y104.081
G1 F720 X92.326 Y116.509 E75.04967
G0 F7800 X91.902 Y116.509
G1 F720 X78.894 Y103.502 E75.62327
G0 F7800 X81.491 Y104.259
G0 X82.5 Y104.987
G0 X82.959 Y104.687
G0 X83.686 Y104.899
G0 X83.686 Y104.899
G1 F720 X87.62 Y108.833 E75.79675
G0 F7800 X86.926 Y107.715
G1 F720 X83.954 Y104.743 E75.9278
G0 F7800 X84.224 Y104.588
G1 F720 X86.474 Y106.839 E76.02704
G0 F7800 X86.13 Y106.07
G1 F720 X84.492 Y104.433 E76.09925
G0 F7800 X84.762 Y104.278
G1 F720 X85.872 Y105.388 E76.1482
G0 F7800 X85.668 Y104.76
G1 F720 X85.031 Y104.122 E76.17631
G0 F7800 X85.3 Y103.968
G1 F720 X85.494 Y104.162 E76.18487
G1 F1800 E75.18487
G0 F7800 X85.484 Y103.264
G0 X82.5 Y104.987
G0 X78.527 Y102.693
G0 X78.527 Y98.106
G0 X82.5 Y95.812
G0 X85.431 Y97.505
G0 X85.427 Y96.882
G0 X85.427 Y96.882
G1 F1800 E76.18487
G1 F720 X78.49 Y89.945 E76.49077
G0 F7800 X78.49 Y89.521
G1 F720 X85.521 Y96.551 E76.80079
G0 F7800 X85.613 Y96.22
G1 F720 X78.49 Y89.096 E77.11492
G0 F7800 X78.49 Y88.672
G1 F720 X85.706 Y95.889 E77.43315
G0 F7800 X85.813 Y95.571
G1 F720 X78.49 Y88.248 E77.75607
G0 F7800 X78.49 Y87.824
G1 F720 X85.927 Y95.261 E78.08402
G0 F7800 X86.042 Y94.951
G1 F720 X78.49 Y87.399 E78.41704
G0 F7800 X78.49 Y86.975
G1 F720 X86.158 Y94.643 E78.75518
G0 F7800 X86.291 Y94.352
G1 F720 X78.49 Y86.551 E79.09918
G0 F7800 X78.49 Y86.127
G1 F720 X86.425 Y94.062 E79.44909
G0 F7800 X86.559 Y93.772
G1 F720 X78.49 Y85.702 E79.80493
G0 F7800 X78.49 Y85.278
G1 F720 X86.701 Y93.489 E80.16701
G0 F7800 X86.853 Y93.217
G1 F720 X78.49 Y84.854 E80.5358
G0 F7800 X78.49 Y84.429
G1 F720 X87.005 Y92.945 E80.91131
G0 F7800 X87.157 Y92.673
G1 F720 X78.49 Y84.005 E81.29352
G0 F7800 X78.49 Y83.581
G1 F720 X87.321 Y92.412 E81.68294
G0 F7800 X87.491 Y92.157
G1 F720 X78.822 Y83.489 E82.0652
G0 F7800 X79.246 Y83.489
G1 F720 X87.66 Y91.903 E82.43623
G0 F7800 X87.83 Y91.648
G1 F720 X79.671 Y83.489 E82.79602
G0 F7800 X80.095 Y83.489
G1 F720 X88.013 Y91.407 E83.14518
G0 F7800 X88.2 Y91.17
G1 F720 X80.519 Y83.489 E83.48389
G0 F7800 X80.943 Y83.489
G1 F720 X88.387 Y90.933 E83.81215
G0 F7800 X88.575 Y90.696
G1 F720 X81.368 Y83.489 E84.12996
G0 F7800 X81.792 Y83.489
G1 F720 X88.776 Y90.473 E84.43793
G0 F7800 X88.98 Y90.252
G1 F720 X82.216 Y83.489 E84.73618
G0 F7800 X82.64 Y83.489
G1 F720 X89.183 Y90.032 E85.02471
G0 F7800 X89.386 Y89.811
G1 F720 X83.065 Y83.489 E85.30347
G0 F7800 X83.489 Y83.489
G1 F720 X89.606 Y89.606 E85.57321
G0 F7800 X89.827 Y89.403
G1 F720 X83.913 Y83.489 E85.834
G0 F7800 X84.338 Y83.489
G1 F720 X90.047 Y89.199 E86.08577
G0 F7800 X90.268 Y88.995
G1 F720 X84.762 Y83.489 E86.32857
G0 F7800 X85.186 Y83.489
G1 F720 X90.506 Y88.809 E86.56317
G0 F7800 X90.743 Y88.621
G1 F720 X85.61 Y83.489 E86.7895
G0 F7800 X86.035 Y83.489
G1 F720 X90.98 Y88.435 E87.00758
G0 F7800 X91.22 Y88.25
G1 F720 X86.459 Y83.489 E87.21753
G0 F7800 X86.883 Y83.489
G1 F720 X91.474 Y88.08 E87.41998
G0 F7800 X91.728 Y87.91
G1 F720 X87.307 Y83.489 E87.61493
G0 F7800 X87.732 Y83.489
G1 F720 X91.983 Y87.74 E87.80239
G0 F7800 X92.242 Y87.575
G1 F720 X88.156 Y83.489 E87.98257
G0 F7800 X88.58 Y83.489
G1 F720 X92.514 Y87.423 E88.15605
G0 F7800 X92.785 Y87.27
G1 F720 X89.004 Y83.489 E88.32278
G0 F7800 X89.429 Y83.489
G1 F720 X93.057 Y87.117 E88.48276
G0 F7800 X93.338 Y86.974
G1 F720 X89.853 Y83.489 E88.63644
G0 F7800 X90.277 Y83.489
G1 F720 X93.629 Y86.841 E88.78425
G0 F7800 X93.92 Y86.707
G1 F720 X90.702 Y83.489 E88.92616
G0 F7800 X91.126 Y83.489
G1 F720 X94.21 Y86.573 E89.06215
G0 F7800 X94.517 Y86.456
G1 F720 X91.55 Y83.489 E89.19299
G0 F7800 X91.974 Y83.489
G1 F720 X94.827 Y86.341 E89.31878
G0 F7800 X95.136 Y86.227
G1 F720 X92.399 Y83.489 E89.43949
G0 F7800 X92.823 Y83.489
G1 F720 X95.453 Y86.119 E89.55547
G0 F7800 X95.783 Y86.025
G1 F720 X93.247 Y83.489 E89.6673
G0 F7800 X93.671 Y83.489
G1 F720 X96.113 Y85.931 E89.77498
G0 F7800 X96.444 Y85.837
G1 F720 X94.096 Y83.489 E89.87852
G0 F7800 X94.52 Y83.489
G1 F720 X96.795 Y85.764 E89.97884
G0 F7800 X97.148 Y85.693
G1 F720 X94.944 Y83.489 E90.07603
G0 F7800 X95.368 Y83.489
G1 F720 X97.502 Y85.623 E90.17014
G0 F7800 X97.872 Y85.568
G1 F720 X95.793 Y83.489 E90.26182
G0 F7800 X96.217 Y83.489
G1 F720 X98.251 Y85.523 E90.35151
G0 F7800 X98.631 Y85.479
G1 F720 X96.641 Y83.489 E90.43926
G0 F7800 X97.065 Y83.489
G1 F720 X99.025 Y85.448 E90.52567
G0 F7800 X99.432 Y85.431
G1 F720 X97.49 Y83.489 E90.61131
G0 F7800 X97.914 Y83.489
G1 F720 X99.84 Y85.415 E90.69624
G0 F7800 X100.268 Y85.419
G1 F720 X98.338 Y83.489 E90.78135
G0 F7800 X98.763 Y83.489
G1 F720 X100.71 Y85.436 E90.8672
G0 F7800 X101.153 Y85.455
G1 F720 X99.187 Y83.489 E90.9539
G0 F7800 X99.611 Y83.489
G1 F720 X101.631 Y85.509 E91.04297
G0 F7800 X102.112 Y85.566
G1 F720 X100.035 Y83.489 E91.13456
G0 F7800 X100.46 Y83.489
G1 F720 X102.618 Y85.647 E91.22973
G0 F7800 X103.147 Y85.752
G1 F720 X100.884 Y83.489 E91.32952
G0 F7800 X101.308 Y83.489
G1 F720 X103.697 Y85.878 E91.43487
G0 F7800 X104.289 Y86.045
G1 F720 X101.732 Y83.489 E91.5476
G0 F7800 X102.157 Y83.489
G1 F720 X104.914 Y86.246 E91.66918
G0 F7800 X105.587 Y86.495
G1 F720 X102.581 Y83.489 E91.80173
G0 F7800 X103.005 Y83.489
G1 F720 X106.347 Y86.831 E91.9491
G0 F7800 X107.21 Y87.269
G1 F720 X103.429 Y83.489 E92.11581
G0 F7800 X103.854 Y83.489
G1 F720 X108.287 Y87.923 E92.31132
G0 F7800 X110.464 Y89.675
G0 X110.464 Y89.675
G1 F720 X104.278 Y83.489 E92.5841
G0 F7800 X104.702 Y83.489
G1 F720 X116.82 Y95.607 E93.11847
G0 F7800 X116.551 Y95.762
G1 F720 X110.718 Y89.929 E93.37569
G0 F7800 X112.473 Y92.109
G0 X112.473 Y92.109
G1 F720 X116.282 Y95.917 E93.54363
G0 F7800 X116.013 Y96.073
G1 F720 X113.127 Y93.187 E93.6709
G0 F7800 X113.563 Y94.047
G1 F720 X115.744 Y96.228 E93.76707
G0 F7800 X115.475 Y96.383
G1 F720 X113.901 Y94.809 E93.83648
G0 F7800 X114.15 Y95.482
G1 F720 X115.206 Y96.538 E93.88305
G0 F7800 X114.937 Y96.694
G1 F720 X114.351 Y96.108 E93.90889
G0 F7800 X114.519 Y96.7
G1 F720 X114.667 Y96.848 E93.91542
G0 F7800 X117.089 Y95.451
G0 X117.089 Y95.451
G1 F720 X105.126 Y83.489 E94.44293
G0 F7800 X105.551 Y83.489
G1 F720 X117.358 Y95.296 E94.96358
G0 F7800 X117.977 Y95.491
G1 F720 X105.975 Y83.489 E95.49284
G0 F7800 X106.399 Y83.489
G1 F720 X118.98 Y96.07 E96.04762
G0 F7800 X119.983 Y96.649
G1 F720 X106.824 Y83.489 E96.62792
G0 F7800 X107.248 Y83.489
G1 F720 X120.987 Y97.228 E97.23377
G0 F7800 X121.509 Y97.326
G1 F720 X107.672 Y83.489 E97.84394
G0 F7800 X108.096 Y83.489
G1 F720 X121.509 Y96.901 E98.43539
G0 F7800 X121.509 Y96.477
G1 F720 X108.521 Y83.489 E99.00813
G0 F7800 X108.945 Y83.489
G1 F720 X121.509 Y96.053 E99.56216
G0 F7800 X121.509 Y95.629
G1 F720 X109.369 Y83.489 E100.0975
G0 F7800 X109.793 Y83.489
G1 F720 X121.509 Y95.204 E100.61412
G0 F7800 X121.509 Y94.78
G1 F720 X110.218 Y83.489 E101.11202
G0 F7800 X110.642 Y83.489
G1 F720 X121.509 Y94.356 E101.59123
G0 F7800 X121.509 Y93.932
G1 F720 X111.066 Y83.489 E102.05173
G0 F7800 X111.49 Y83.489
G1 F720 X121.509 Y93.507 E102.49352
G0 F7800 X121.509 Y93.083
G1 F720 X111.915 Y83.489 E102.91659
G0 F7800 X112.339 Y83.489
G1 F720 X121.509 Y92.659 E103.32096
G0 F7800 X121.509 Y92.235
G1 F720 X112.763 Y83.489 E103.70663
G0 F7800 X113.187 Y83.489
G1 F720 X121.509 Y91.81 E104.07359
G0 F7800 X121.509 Y91.386
G1 F720 X113.612 Y83.489 E104.42182
G0 F7800 X114.036 Y83.489
G1 F720 X121.509 Y90.962 E104.75136
G0 F7800 X121.509 Y90.537
G1 F720 X114.46 Y83.489 E105.06218
G0 F7800 X114.885 Y83.489
G1 F720 X121.509 Y90.113 E105.35428
G0 F7800 X121.509 Y89.689
G1 F720 X115.309 Y83.489 E105.62768
G0 F7800 X115.733 Y83.489
G1 F720 X121.509 Y89.265 E105.88238
G0 F7800 X121.509 Y88.84
G1 F720 X116.157 Y83.489 E106.11837
G0 F7800 X116.582 Y83.489
G1 F720 X121.509 Y88.416 E106.33564
G0 F7800 X121.509 Y87.992
G1 F720 X117.006 Y83.489 E106.53421
G0 F7800 X117.43 Y83.489
G1 F720 X121.509 Y87.568 E106.71408
G0 F7800 X121.509 Y87.143
G1 F720 X117.854 Y83.489 E106.87523
G0 F7800 X118.279 Y83.489
G1 F720 X121.509 Y86.719 E107.01766
G0 F7800 X121.509 Y86.295
G1 F720 X118.703 Y83.489 E107.1414
G0 F7800 X119.127 Y83.489
G1 F720 X121.509 Y85.871 E107.24644
G0 F7800 X121.509 Y85.446
G1 F720 X119.551 Y83.489 E107.33276
G0 F7800 X119.976 Y83.489
G1 F720 X121.509 Y85.022 E107.40036
G0 F7800 X121.509 Y84.598
G1 F720 X120.4 Y83.489 E107.44927
G0 F7800 X120.824 Y83.489
G1 F720 X121.509 Y84.173 E107.47945
G0 F7800 X121.509 Y83.749
G1 F720 X121.249 Y83.489 E107.49092
G0 F7800 X121.242 Y97.973
G0 X121.473 Y98.106
G0 X121.473 Y102.693
G0 X121.24 Y102.827
G0 X121.241 Y103.422
G0 X121.241 Y103.422
G1 F720 X121.509 Y103.69 E107.50273
G0 F7800 X121.509 Y104.114
G1 F720 X120.973 Y103.578 E107.52637
G0 F7800 X120.703 Y103.733
G1 F720 X121.509 Y104.538 E107.56189
G0 F7800 X121.509 Y104.962
G1 F720 X120.435 Y103.888 E107.60925
G0 F7800 X120.166 Y104.044
G1 F720 X121.509 Y105.387 E107.66847
G0 F7800 X121.509 Y105.811
G1 F720 X119.897 Y104.199 E107.73956
G0 F7800 X119.628 Y104.354
G1 F720 X121.509 Y106.235 E107.8225
G0 F7800 X121.509 Y106.659
G1 F720 X119.359 Y104.51 E107.91729
G0 F7800 X119.09 Y104.665
G1 F720 X121.509 Y107.084 E108.02396
G0 F7800 X121.509 Y107.508
G1 F720 X118.821 Y104.82 E108.14249
G0 F7800 X118.552 Y104.976
G1 F720 X121.509 Y107.932 E108.27287
G0 F7800 X121.509 Y108.357
G1 F720 X118.283 Y105.131 E108.41512
G0 F7800 X118.014 Y105.286
G1 F720 X121.509 Y108.781 E108.56924
G0 F7800 X121.509 Y109.205
G1 F720 X117.746 Y105.442 E108.73518
G0 F7800 X117.415 Y105.536
G1 F720 X121.509 Y109.629 E108.91569
G0 F7800 X121.509 Y110.054
G1 F720 X116.411 Y104.956 E109.1405
G0 F7800 X115.406 Y104.376
G1 F720 X121.509 Y110.478 E109.4096
G0 F7800 X121.509 Y110.902
G1 F720 X114.56 Y103.953 E109.71603
G0 F7800 X114.467 Y104.284
G1 F720 X121.509 Y111.326 E110.02657
G0 F7800 X121.509 Y111.751
G1 F720 X114.372 Y104.614 E110.34129
G0 F7800 X114.276 Y104.943
G1 F720 X121.509 Y112.175 E110.66022
G0 F7800 X121.509 Y112.599
G1 F720 X114.173 Y105.264 E110.98369
G0 F7800 X114.057 Y105.571
G1 F720 X121.509 Y113.023 E111.31231
G0 F7800 X121.509 Y113.448
G1 F720 X113.94 Y105.879 E111.64608
G0 F7800 X113.824 Y106.187
G1 F720 X121.509 Y113.872 E111.98496
G0 F7800 X121.509 Y114.296
G1 F720 X113.693 Y106.481 E112.3296
G0 F7800 X113.557 Y106.768
G1 F720 X121.509 Y114.721 E112.68029
G0 F7800 X121.509 Y115.145
G1 F720 X113.42 Y107.056 E113.03699
G0 F7800 X113.284 Y107.344
G1 F720 X121.509 Y115.569 E113.39969
G0 F7800 X121.509 Y115.993
G1 F720 X113.13 Y107.614 E113.76918
G0 F7800 X112.974 Y107.883
G1 F720 X121.509 Y116.418 E114.14555
G0 F7800 X121.176 Y116.509
G1 F720 X112.818 Y108.151 E114.51411
G0 F7800 X112.662 Y108.419
G1 F720 X120.752 Y116.509 E114.87086
G0 F7800 X120.328 Y116.509
G1 F720 X112.489 Y108.67 E115.21653
G0 F7800 X112.316 Y108.922
G1 F720 X119.904 Y116.509 E115.55112
G0 F7800 X119.479 Y116.509
G1 F720 X112.142 Y109.173 E115.87464
G0 F7800 X111.968 Y109.422
G1 F720 X119.055 Y116.509 E116.18716
G0 F7800 X118.631 Y116.509
G1 F720 X111.777 Y109.655 E116.4894
G0 F7800 X111.587 Y109.89
G1 F720 X118.207 Y116.509 E116.7813
G0 F7800 X117.782 Y116.509
G1 F720 X111.396 Y110.124 E117.06288
G0 F7800 X111.204 Y110.356
G1 F720 X117.358 Y116.509 E117.33423
G0 F7800 X116.934 Y116.509
G1 F720 X110.996 Y110.572 E117.59606
G0 F7800 X110.788 Y110.788
G1 F720 X116.509 Y116.509 E117.84834
G0 F7800 X116.085 Y116.509
G1 F720 X110.58 Y111.005 E118.09107
G0 F7800 X110.371 Y111.22
G1 F720 X115.661 Y116.509 E118.32432
G0 F7800 X115.237 Y116.509
G1 F720 X110.146 Y111.419 E118.5488
G0 F7800 X109.922 Y111.619
G1 F720 X114.812 Y116.509 E118.76443
G0 F7800 X114.388 Y116.509
G1 F720 X109.697 Y111.819 E118.97127
G0 F7800 X109.472 Y112.018
G1 F720 X113.963 Y116.509 E119.16931
G0 F7800 X113.539 Y116.509
G1 F720 X109.23 Y112.2 E119.35933
G0 F7800 X108.987 Y112.381
G1 F720 X113.115 Y116.509 E119.54136
G0 F7800 X112.69 Y116.509
G1 F720 X108.745 Y112.563 E119.71534
G0 F7800 X108.502 Y112.744
G1 F720 X112.266 Y116.509 E119.88135
G0 F7800 X111.842 Y116.509
G1 F720 X108.241 Y112.908 E120.04014
G0 F7800 X107.982 Y113.073
G1 F720 X111.418 Y116.509 E120.19166
G0 F7800 X110.993 Y116.509
G1 F720 X107.722 Y113.238 E120.3359
G0 F7800 X107.46 Y113.4
G1 F720 X110.569 Y116.509 E120.473
G0 F7800 X110.145 Y116.509
G1 F720 X107.182 Y113.546 E120.60366
G0 F7800 X106.99 Y113.778
G1 F720 X109.721 Y116.509 E120.72409
G0 F7800 X109.296 Y116.509
G1 F720 X106.99 Y114.202 E120.8258
G0 F7800 X106.99 Y114.626
G1 F720 X108.872 Y116.509 E120.90881
G0 F7800 X108.448 Y116.509
G1 F720 X106.99 Y115.051 E120.9731
G0 F7800 X106.99 Y115.475
G1 F720 X108.023 Y116.509 E121.01868
G0 F7800 X107.599 Y116.509
G1 F720 X106.99 Y115.899 E121.04556
G0 F7800 X106.99 Y116.324
G1 F720 X107.175 Y116.509 E121.05371
G1 F1800 E120.05371
G0 F7800 X106.45 Y115.864
G0 X106.441 Y117.059
G0 X122.059 Y117.059
G0 X122.059 Y84.059
G0 X132.059 Y84.059
G0 X132.059 Y82.941
G0 X67.941 Y82.941
G0 X67.941 Y84.059
G0 X77.941 Y84.059
G0 X77.941 Y117.059
G0 X93.559 Y117.059
G0 X93.529 Y113.333
G0 X92.758 Y112.961
G0 X91.77 Y112.336
G0 X90.835 Y111.637
G0 X89.96 Y110.862
G0 X89.15 Y110.018
G0 X88.411 Y109.115
G0 X87.746 Y108.153
G0 X87.161 Y107.14
G0 X86.661 Y106.086
G0 X86.247 Y104.992
G0 X85.921 Y103.87
G0 X85.828 Y103
G0 X82.5 Y104.987
G0 X78.527 Y102.693
G0 X78.527 Y98.106
G0 X82.5 Y95.812
G0 X85.829 Y97.799
G0 X85.82 Y97.547
G0 X84.477 Y96.356
G0 X84.477 Y96.356
G1 F1800 E121.05371
G1 F720 X78.49 Y90.369 E121.31772
G0 F7800 X78.489 Y90.793
G1 F720 X83.471 Y95.775 E121.53742
G0 F7800 X82.491 Y95.218
G1 F720 X78.489 Y91.217 E121.71387
G0 F7800 X78.489 Y91.641
G1 F720 X82.222 Y95.374 E121.87848
G0 F7800 X81.952 Y95.529
G1 F720 X78.489 Y92.066 E122.03119
G0 F7800 X78.489 Y92.49
G1 F720 X81.684 Y95.684 E122.17206
G0 F7800 X81.415 Y95.84
G1 F720 X78.489 Y92.914 E122.30109
G0 F7800 X78.489 Y93.338
G1 F720 X81.146 Y95.995 E122.41826
G0 F7800 X80.877 Y96.15
G1 F720 X78.489 Y93.763 E122.52354
G0 F7800 X78.489 Y94.187
G1 F720 X80.608 Y96.305 E122.61696
G0 F7800 X80.339 Y96.461
G1 F720 X78.489 Y94.611 E122.69854
G0 F7800 X78.489 Y95.035
G1 F720 X80.07 Y96.616 E122.76825
G0 F7800 X79.801 Y96.771
G1 F720 X78.489 Y95.46 E122.82609
G0 F7800 X78.489 Y95.884
G1 F720 X79.532 Y96.927 E122.87208
G0 F7800 X79.263 Y97.082
G1 F720 X78.489 Y96.308 E122.90621
G0 F7800 X78.489 Y96.732
G1 F720 X78.994 Y97.237 E122.92848
G0 F7800 X78.725 Y97.392
G1 F720 X78.489 Y97.157 E122.93887
G0 F7800 X78.121 Y98.062
; TYPE:TOP-FILL
G1 F720 X78.249 Y98.402 E122.95042
G1 X78.249 Y98.826 E122.96228
G1 X78.249 Y99.25 E122.97413
G1 X78.249 Y99.675 E122.98601
G1 X78.249 Y100.099 E122.99787
G1 X78.249 Y100.523 E123.00972
G1 X78.249 Y100.947 E123.02158
G1 X78.249 Y101.372 E123.03342
G1 X78.249 Y101.796 E123.04527
G1 X78.249 Y102.22 E123.05713
G1 X78.254 Y102.649 E123.06899
G1 X78.114 Y102.722 E123.07391
G1 F1800 E122.07391
G0 F7800 X78.715 Y102.718
G0 X82.5 Y104.987
G0 X85.828 Y103
G0 X85.921 Y103.87
G0 X86.247 Y104.992
G0 X86.661 Y106.086
G0 X87.161 Y107.14
G0 X87.746 Y108.153
G0 X88.411 Y109.115
G0 X89.15 Y110.018
G0 X89.96 Y110.862
G0 X90.835 Y111.637
G0 X91.77 Y112.336
G0 X92.758 Y112.961
G0 X93.529 Y113.333
G0 X93.559 Y117.059
G0 X77.941 Y117.059
G0 X77.941 Y84.059
G0 X67.941 Y84.059
G0 X67.941 Y82.941
G0 X132.059 Y82.941
G0 X132.059 Y84.059
G0 X122.059 Y84.059
G0 X122.059 Y117.059
G0 X106.441 Y117.059
G0 X106.471 Y113.334
G0 X107.249 Y112.958
G0 X108.236 Y112.332
G0 X109.17 Y111.632
G0 X110.045 Y110.856
G0 X110.854 Y110.013
G0 X111.593 Y109.108
G0 X112.257 Y108.145
G0 X112.841 Y107.133
G0 X113.341 Y106.079
G0 X113.755 Y104.985
G0 X114.08 Y103.862
G0 X114.171 Y102.999
G0 X117.5 Y104.987
G0 X121.623 Y102.52
G0 X121.613 Y102.521
G0 X121.613 Y102.521
G1 F1800 E123.07391
G1 F720 X121.821 Y102.517 E123.08033
G1 X121.748 Y102.02 E123.09218
G1 X121.748 Y101.596 E123.10404
G1 X121.748 Y101.172 E123.11589
G1 X121.748 Y100.747 E123.12778
G1 X121.748 Y100.323 E123.13963
G1 X121.748 Y99.899 E123.15149
G1 X121.748 Y99.475 E123.16334
G1 X121.748 Y99.05 E123.17522
G1 X121.748 Y98.626 E123.18708
G1 X121.727 Y98.181 E123.19893
G1 X121.883 Y98.125 E123.2041
; Layer Change GCode
; LAYER:1
G4 P0
M106 S89
G1 F1800 E122.2041
G0 F7800 X120.495 Y97.69 Z0.45
G0 X117.5 Y95.812
G0 X114.169 Y97.8
G0 X114.102 Y97.032
G0 X113.794 Y95.935
G0 X113.401 Y94.866
G0 X112.927 Y93.832
G0 X112.37 Y92.838
G0 X111.74 Y91.891
G0 X111.035 Y90.996
G0 X110.264 Y90.159
G0 X109.429 Y89.386
G0 X108.535 Y88.679
G0 X107.589 Y88.047
G0 X106.598 Y87.489
G0 X105.564 Y87.011
G0 X104.498 Y86.616
G0 X103.402 Y86.305
G0 X102.286 Y86.083
G0 X101.156 Y85.947
G0 X100.019 Y85.901
G0 X98.863 Y85.945
G0 X97.731 Y86.078
G0 X96.616 Y86.3
G0 X95.52 Y86.609
G0 X94.452 Y87.004
G0 X93.419 Y87.478
G0 X92.425 Y88.036
G0 X91.598 Y88.639
G0 X77.9 Y84.35
G0 X77.9 Y84.35
G0 X77.65 Y84.35
G0 X77.65 Y84.35
G0 X78.25 Y83.75
; TYPE:WALL-INNER
G1 F1800 E123.2041
G1 X68.25 Y83.75 E123.45355
G1 X68.25 Y83.25 E123.46602
G1 X131.75 Y83.25 E125.05004
G1 X131.75 Y83.75 E125.06251
G1 X121.75 Y83.75 E125.31196
G1 X121.75 Y97.946 E125.66608
G1 X117.5 Y95.492 E125.7885
G1 X114.406 Y97.279 E125.87763
G1 X114.346 Y96.974 E125.88538
G1 X114.032 Y95.857 E125.91433
G1 X113.633 Y94.77 E125.94321
G1 X113.15 Y93.718 E125.97209
G1 X112.584 Y92.707 E126.00099
G1 X111.943 Y91.744 E126.02985
G1 X111.226 Y90.833 E126.05877
G1 X110.441 Y89.982 E126.08765
G1 X109.592 Y89.195 E126.11653
G1 X108.683 Y88.476 E126.14544
G1 X107.721 Y87.833 E126.1743
G1 X106.712 Y87.266 E126.20317
G1 X105.661 Y86.779 E126.23207
G1 X104.576 Y86.377 E126.26093
G1 X103.462 Y86.061 E126.28982
G1 X102.326 Y85.835 E126.31871
G1 X101.177 Y85.697 E126.34758
G1 X100.02 Y85.65 E126.37646
G1 X98.843 Y85.695 E126.40584
G1 X97.692 Y85.831 E126.43476
G1 X96.557 Y86.056 E126.46362
G1 X95.442 Y86.371 E126.49252
G1 X94.356 Y86.771 E126.52139
G1 X93.304 Y87.255 E126.55028
G1 X92.294 Y87.822 E126.57917
G1 X91.332 Y88.465 E126.60804
G1 X90.422 Y89.182 E126.63694
G1 X89.571 Y89.967 E126.66582
G1 X88.785 Y90.818 E126.69471
G1 X88.068 Y91.728 E126.72361
G1 X87.425 Y92.69 E126.75248
G1 X86.858 Y93.7 E126.78137
G1 X86.373 Y94.751 E126.81024
G1 X85.972 Y95.837 E126.83912
G1 X85.657 Y96.951 E126.868
G1 X85.592 Y97.278 E126.87632
G1 X82.5 Y95.492 E126.96539
G1 X78.25 Y97.946 E127.08781
G1 X78.25 Y83.75 E127.44193
G0 F7800 X77.95 Y84.05
G1 F1800 X67.95 Y84.05 E127.69138
G1 X67.95 Y82.95 E127.71882
G1 X132.05 Y82.95 E129.3178
G1 X132.05 Y84.05 E129.34524
G1 X122.05 Y84.05 E129.59469
G1 X122.05 Y117.05 E130.41788
G1 X106.45 Y117.05 E130.80703
G1 X106.45 Y113.321 E130.90005
G1 X107.206 Y112.924 E130.92135
G1 X108.191 Y112.303 E130.95039
G1 X109.124 Y111.604 E130.97947
G1 X109.998 Y110.832 E131.00856
G1 X110.806 Y109.992 E131.03764
G1 X111.544 Y109.091 E131.06669
G1 X112.207 Y108.132 E131.09577
G1 X112.791 Y107.123 E131.12485
G1 X113.291 Y106.071 E131.15391
G1 X113.705 Y104.98 E131.18302
G1 X114.029 Y103.861 E131.21208
G1 X114.195 Y103.052 E131.23268
G1 X117.5 Y104.961 E131.32789
G1 X121.45 Y102.68 E131.44167
G1 X121.45 Y98.119 E131.55545
G1 X117.5 Y95.838 E131.66923
G1 X114.193 Y97.748 E131.76449
G1 X114.054 Y97.043 E131.78242
G1 X113.746 Y95.949 E131.81077
G1 X113.355 Y94.884 E131.83907
G1 X112.882 Y93.854 E131.86734
G1 X112.328 Y92.864 E131.89564
G1 X111.7 Y91.92 E131.92392
G1 X110.998 Y91.028 E131.95224
G1 X110.229 Y90.194 E131.98054
G1 X109.397 Y89.423 E132.00883
G1 X108.506 Y88.719 E132.03716
G1 X107.564 Y88.089 E132.06543
G1 X106.575 Y87.533 E132.09373
G1 X105.546 Y87.056 E132.12202
G1 X104.483 Y86.663 E132.15029
G1 X103.392 Y86.353 E132.17859
G1 X102.279 Y86.131 E132.2069
G1 X101.153 Y85.996 E132.23519
G1 X100.02 Y85.951 E132.26347
G1 X98.866 Y85.994 E132.29228
G1 X97.739 Y86.127 E132.32059
G1 X96.627 Y86.348 E132.34887
G1 X95.535 Y86.657 E132.37718
G1 X94.471 Y87.049 E132.40546
G1 X93.441 Y87.523 E132.43375
G1 X92.451 Y88.078 E132.46206
G1 X91.508 Y88.708 E132.49035
G1 X90.617 Y89.41 E132.51864
G1 X89.784 Y90.179 E132.54692
G1 X89.014 Y91.013 E132.57524
G1 X88.311 Y91.904 E132.60355
G1 X87.681 Y92.847 E132.63184
G1 X87.126 Y93.836 E132.66013
G1 X86.65 Y94.866 E132.68843
G1 X86.258 Y95.93 E132.71672
G1 X85.949 Y97.022 E132.74503
G1 X85.805 Y97.747 E132.76347
G1 X82.5 Y95.838 E132.85868
G1 X78.55 Y98.119 E132.97246
G1 X78.55 Y102.68 E133.08623
G1 X82.5 Y104.961 E133.20001
G1 X85.806 Y103.052 E133.29524
G1 X85.965 Y103.839 E133.31527
G1 X86.288 Y104.958 E133.34433
G1 X86.699 Y106.05 E133.37343
G1 X87.198 Y107.103 E133.4025
G1 X87.78 Y108.113 E133.43158
G1 X88.442 Y109.073 E133.46067
G1 X89.178 Y109.977 E133.48974
G1 X89.985 Y110.817 E133.5188
G1 X90.857 Y111.591 E133.54789
G1 X91.789 Y112.291 E133.57696
G1 X92.775 Y112.914 E133.60606
G1 X93.55 Y113.321 E133.62789
G1 X93.55 Y117.05 E133.72091
G1 X77.95 Y117.05 E134.11006
G1 X77.95 Y84.05 E134.93325
G0 F7800 X77.65 Y84.35
; TYPE:WALL-OUTER
G1 F1260 X67.65 Y84.35 E135.1827
G1 X67.65 Y82.65 E135.2251
G1 X132.35 Y82.65 E136.83905
G1 X132.35 Y84.35 E136.88146
G1 X122.35 Y84.35 E137.13091
G1 X122.35 Y117.35 E137.9541
G1 X106.15 Y117.35 E138.35821
G1 X106.15 Y113.14 E138.46323
G1 X107.056 Y112.664 E138.48876
G1 X108.021 Y112.056 E138.51721
G1 X108.935 Y111.371 E138.5457
G1 X109.79 Y110.615 E138.57417
G1 X110.581 Y109.793 E138.60263
G1 X111.304 Y108.91 E138.63109
G1 X111.954 Y107.971 E138.65958
G1 X112.525 Y106.983 E138.68805
G1 X113.015 Y105.953 E138.7165
G1 X113.42 Y104.885 E138.74499
G1 X113.738 Y103.789 E138.77346
G1 X113.976 Y102.58 E138.8042
G1 X117.5 Y104.614 E138.9057
G1 X121.15 Y102.507 E139.01083
G1 X121.15 Y98.292 E139.11597
G1 X117.5 Y96.185 E139.2211
G1 X113.978 Y98.219 E139.32256
G1 X113.762 Y97.113 E139.35067
G1 X113.461 Y96.042 E139.37842
G1 X113.078 Y94.999 E139.40614
G1 X112.615 Y93.99 E139.43383
G1 X112.072 Y93.021 E139.46154
G1 X111.457 Y92.096 E139.48925
G1 X110.769 Y91.223 E139.51697
G1 X110.016 Y90.406 E139.54469
G1 X109.202 Y89.651 E139.57238
G1 X108.329 Y88.962 E139.60013
G1 X107.407 Y88.345 E139.6278
G1 X106.438 Y87.8 E139.65553
G1 X105.431 Y87.333 E139.68322
G1 X104.39 Y86.948 E139.71091
G1 X103.321 Y86.645 E139.73863
G1 X102.232 Y86.428 E139.76633
G1 X101.129 Y86.295 E139.79404
G1 X100.019 Y86.251 E139.82175
G1 X98.889 Y86.293 E139.84996
G1 X97.786 Y86.424 E139.87767
G1 X96.697 Y86.64 E139.90536
G1 X95.628 Y86.942 E139.93307
G1 X94.586 Y87.326 E139.96077
G1 X93.577 Y87.79 E139.98847
G1 X92.608 Y88.334 E140.0162
G1 X91.685 Y88.951 E140.04389
G1 X90.812 Y89.639 E140.07162
G1 X89.996 Y90.392 E140.09931
G1 X89.242 Y91.208 E140.12703
G1 X88.554 Y92.081 E140.15476
G1 X87.937 Y93.004 E140.18245
G1 X87.393 Y93.973 E140.21017
G1 X86.927 Y94.981 E140.23787
G1 X86.543 Y96.023 E140.26558
G1 X86.241 Y97.092 E140.29329
G1 X86.02 Y98.218 E140.32191
G1 X82.5 Y96.185 E140.42331
G1 X78.85 Y98.292 E140.52844
G1 X78.85 Y102.507 E140.63358
G1 X82.5 Y104.614 E140.73871
G1 X86.023 Y102.58 E140.84019
G1 X86.256 Y103.768 E140.87039
G1 X86.573 Y104.863 E140.89883
G1 X86.976 Y105.933 E140.92735
G1 X87.464 Y106.964 E140.9558
G1 X88.034 Y107.953 E140.98428
G1 X88.682 Y108.893 E141.01276
G1 X89.403 Y109.778 E141.04123
G1 X90.193 Y110.6 E141.06967
G1 X91.047 Y111.358 E141.09816
G1 X91.96 Y112.044 E141.12664
G1 X92.925 Y112.654 E141.15512
G1 X93.85 Y113.14 E141.18119
G1 X93.85 Y117.35 E141.28621
G1 X77.65 Y117.35 E141.69032
G1 X77.65 Y84.35 E142.5135
G0 F7800 X77.9 Y84.35
G0 X78.25 Y102.853
G0 X78.25 Y102.853
; TYPE:WALL-INNER
G1 F1800 X82.5 Y105.307 E142.63593
G1 X85.594 Y103.52 E142.72505
G1 X85.673 Y103.91 E142.73498
G1 X86.003 Y105.053 E142.76466
G1 X86.423 Y106.167 E142.79436
G1 X86.932 Y107.242 E142.82403
G1 X87.526 Y108.274 E142.85373
G1 X88.202 Y109.253 E142.88341
G1 X88.953 Y110.176 E142.91309
G1 X89.777 Y111.033 E142.94275
G1 X90.667 Y111.823 E142.97243
G1 X91.619 Y112.538 E143.00213
G1 X92.625 Y113.174 E143.03182
G1 X93.25 Y113.502 E143.04943
G1 X93.25 Y116.75 E143.13045
G1 X78.25 Y116.75 E143.50463
G1 X78.25 Y102.853 E143.85129
G1 F1800 E142.85129
G0 F7800 X80.613 Y103.735
G0 X82.5 Y104.987
G0 X85.829 Y103
G0 X85.916 Y103.85
G0 X86.241 Y104.974
G0 X86.654 Y106.069
G0 X87.154 Y107.125
G0 X87.738 Y108.139
G0 X88.402 Y109.103
G0 X89.141 Y110.009
G0 X89.951 Y110.852
G0 X90.826 Y111.629
G0 X91.761 Y112.331
G0 X92.75 Y112.957
G0 X93.529 Y113.333
G0 X93.559 Y117.059
G0 X77.941 Y117.059
G0 X77.941 Y84.059
G0 X67.941 Y84.059
G0 X67.941 Y82.941
G0 X132.059 Y82.941
G0 X132.059 Y84.059
G0 X122.059 Y84.059
G0 X122.059 Y117.059
G0 X106.441 Y117.059
G0 X106.488 Y113.403
G0 X106.75 Y113.502
G0 X106.75 Y113.502
G1 F1800 E143.85129
G1 X107.356 Y113.184 E143.86836
G1 X108.361 Y112.55 E143.898
G1 X109.314 Y111.837 E143.92769
G1 X110.206 Y111.049 E143.95738
G1 X111.03 Y110.191 E143.98705
G1 X111.783 Y109.272 E144.01669
G1 X112.461 Y108.293 E144.0464
G1 X113.056 Y107.262 E144.07609
G1 X113.567 Y106.189 E144.10574
G1 X113.99 Y105.075 E144.13546
G1 X114.321 Y103.933 E144.16512
G1 X114.405 Y103.52 E144.17564
G1 X117.5 Y105.307 E144.26479
G1 X121.75 Y102.853 E144.38721
G1 X121.75 Y116.75 E144.73387
G1 X106.75 Y116.75 E145.10805
G1 X106.75 Y113.502 E145.18907
G0 F7800 X106.989 Y114.052
; TYPE:FILL
G1 F3600 X107.949 Y113.091 E145.22295
G0 F7800 X106.989 Y114.476
G0 X106.989 Y114.476
G1 F3600 X109.378 Y112.087 E145.30723
G0 F7800 X111.635 Y109.83
G0 X111.635 Y109.83
G1 F3600 X116.473 Y104.992 E145.4779
G0 F7800 X116.742 Y105.147
G1 F3600 X106.989 Y114.9 E145.82197
G0 F7800 X106.99 Y115.324
G1 F3600 X117.011 Y105.303 E146.17548
G0 F7800 X117.28 Y105.457
G1 F3600 X106.99 Y115.748 E146.53851
G0 F7800 X106.99 Y116.172
G1 F3600 X117.686 Y105.476 E146.91584
G0 F7800 X118.69 Y104.896
G1 F3600 X107.077 Y116.509 E147.32552
G0 F7800 X107.502 Y116.509
G1 F3600 X119.694 Y104.316 E147.75564
G0 F7800 X120.698 Y103.736
G1 F3600 X107.926 Y116.509 E148.20623
G0 F7800 X108.35 Y116.509
G1 F3600 X121.509 Y103.35 E148.67045
G0 F7800 X121.509 Y103.774
G1 F3600 X108.774 Y116.509 E149.11971
G0 F7800 X109.199 Y116.509
G1 F3600 X121.509 Y104.199 E149.55398
G0 F7800 X121.509 Y104.623
G1 F3600 X109.623 Y116.509 E149.97329
G0 F7800 X110.047 Y116.509
G1 F3600 X121.509 Y105.047 E150.37764
G0 F7800 X121.509 Y105.472
G1 F3600 X110.471 Y116.509 E150.76702
G0 F7800 X110.896 Y116.509
G1 F3600 X121.509 Y105.896 E151.14142
G0 F7800 X121.509 Y106.32
G1 F3600 X111.32 Y116.509 E151.50087
G0 F7800 X111.744 Y116.509
G1 F3600 X121.509 Y106.744 E151.84535
G0 F7800 X121.509 Y107.169
G1 F3600 X112.169 Y116.509 E152.17485
G0 F7800 X112.593 Y116.509
G1 F3600 X121.509 Y107.593 E152.48938
G0 F7800 X121.509 Y108.017
G1 F3600 X113.017 Y116.509 E152.78896
G0 F7800 X113.441 Y116.509
G1 F3600 X121.509 Y108.441 E153.07358
G0 F7800 X121.509 Y108.866
G1 F3600 X113.866 Y116.509 E153.34321
G0 F7800 X114.289 Y116.509
G1 F3600 X121.509 Y109.29 E153.5979
G0 F7800 X121.509 Y109.714
G1 F3600 X114.713 Y116.509 E153.83762
G0 F7800 X115.138 Y116.509
G1 F3600 X121.509 Y110.138 E154.06238
G0 F7800 X121.509 Y110.563
G1 F3600 X115.562 Y116.509 E154.27216
G0 F7800 X115.986 Y116.509
G1 F3600 X121.509 Y110.987 E154.46698
G0 F7800 X121.509 Y111.411
G1 F3600 X116.41 Y116.509 E154.64684
G0 F7800 X116.835 Y116.509
G1 F3600 X121.509 Y111.836 E154.81171
G0 F7800 X121.509 Y112.26
G1 F3600 X117.259 Y116.509 E154.96163
G0 F7800 X117.683 Y116.509
G1 F3600 X121.509 Y112.684 E155.09658
G0 F7800 X121.509 Y113.108
G1 F3600 X118.108 Y116.509 E155.21656
G0 F7800 X118.532 Y116.509
G1 F3600 X121.509 Y113.533 E155.32156
G0 F7800 X121.509 Y113.957
G1 F3600 X118.956 Y116.509 E155.41161
G0 F7800 X119.38 Y116.509
G1 F3600 X121.509 Y114.381 E155.4867
G0 F7800 X121.509 Y114.805
G1 F3600 X119.805 Y116.509 E155.54681
G0 F7800 X120.229 Y116.509
G1 F3600 X121.509 Y115.23 E155.59195
G0 F7800 X121.509 Y115.654
G1 F3600 X120.653 Y116.509 E155.62213
G0 F7800 X121.077 Y116.509
G1 F3600 X121.509 Y116.078 E155.63735
G0 F7800 X121.509 Y116.502
G1 F3600 X121.502 Y116.509 E155.6376
G0 F7800 X112.724 Y108.317
G0 X112.724 Y108.317
G1 F3600 X116.204 Y104.837 E155.76037
G0 F7800 X115.935 Y104.681
G1 F3600 X113.291 Y107.326 E155.85366
G0 F7800 X113.675 Y106.517
G1 F3600 X115.666 Y104.526 E155.9239
G0 F7800 X115.397 Y104.371
G1 F3600 X113.971 Y105.797 E155.9742
G0 F7800 X114.227 Y105.117
G1 F3600 X115.128 Y104.216 E156.00599
G0 F7800 X114.859 Y104.06
G1 F3600 X114.399 Y104.52 E156.02221
G0 F7800 X114.571 Y103.924
G1 F3600 X114.59 Y103.905 E156.02288
G1 F1800 E155.02288
G0 F7800 X114.584 Y103.301
G0 X117.5 Y104.987
G0 X121.473 Y102.693
G0 X121.473 Y98.106
G0 X117.5 Y95.812
G0 X114.537 Y97.519
G0 X114.531 Y96.752
G0 X114.531 Y96.752
G1 F1800 E156.02288
G1 F3600 X121.509 Y89.774 E156.26905
G0 F7800 X121.509 Y89.35
G1 F3600 X114.438 Y96.42 E156.51848
G0 F7800 X114.345 Y96.089
G1 F3600 X121.509 Y88.925 E156.77121
G0 F7800 X121.509 Y88.501
G1 F3600 X114.251 Y95.759 E157.02726
G0 F7800 X114.136 Y95.449
G1 F3600 X121.509 Y88.077 E157.28734
G0 F7800 X121.509 Y87.652
G1 F3600 X114.023 Y95.139 E157.55145
G0 F7800 X113.909 Y94.828
G1 F3600 X121.509 Y87.228 E157.81956
G0 F7800 X121.509 Y86.804
G1 F3600 X113.784 Y94.528 E158.09206
G0 F7800 X113.651 Y94.237
G1 F3600 X121.509 Y86.38 E158.36926
G0 F7800 X121.509 Y85.955
G1 F3600 X113.518 Y93.946 E158.65116
G0 F7800 X113.384 Y93.656
G1 F3600 X121.509 Y85.531 E158.93779
G0 F7800 X121.509 Y85.107
G1 F3600 X113.236 Y93.38 E159.22964
G0 F7800 X113.084 Y93.108
G1 F3600 X121.509 Y84.683 E159.52686
G0 F7800 X121.509 Y84.258
G1 F3600 X112.931 Y92.836 E159.82947
G0 F7800 X112.777 Y92.565
G1 F3600 X121.509 Y83.834 E160.1375
G0 F7800 X121.6 Y83.5
G1 F3600 X131.6 Y83.5 E160.3038
G0 F7800 X121.43 Y83.489
G0 X121.43 Y83.489
G1 F3600 X112.608 Y92.311 E160.61502
G0 F7800 X112.438 Y92.056
G1 F3600 X121.005 Y83.489 E160.91724
G0 F7800 X120.581 Y83.489
G1 F3600 X112.268 Y91.802 E161.21051
G0 F7800 X112.096 Y91.55
G1 F3600 X120.157 Y83.489 E161.49488
G0 F7800 X119.732 Y83.489
G1 F3600 X111.908 Y91.313 E161.77089
G0 F7800 X111.722 Y91.076
G1 F3600 X119.308 Y83.489 E162.03853
G0 F7800 X118.884 Y83.489
G1 F3600 X111.535 Y90.838 E162.29778
G0 F7800 X111.343 Y90.606
G1 F3600 X118.46 Y83.489 E162.54885
G0 F7800 X118.035 Y83.489
G1 F3600 X111.139 Y90.385 E162.79213
G0 F7800 X110.935 Y90.165
G1 F3600 X117.611 Y83.489 E163.02764
G0 F7800 X117.187 Y83.489
G1 F3600 X110.732 Y89.943 E163.25534
G0 F7800 X110.522 Y89.73
G1 F3600 X116.763 Y83.489 E163.47551
G0 F7800 X116.338 Y83.489
G1 F3600 X110.302 Y89.526 E163.68847
G0 F7800 X110.081 Y89.322
G1 F3600 X115.914 Y83.489 E163.89424
G0 F7800 X115.49 Y83.489
G1 F3600 X109.861 Y89.118 E164.09282
G0 F7800 X109.633 Y88.922
G1 F3600 X115.066 Y83.489 E164.28448
G0 F7800 X114.641 Y83.489
G1 F3600 X109.396 Y88.734 E164.46951
G0 F7800 X109.159 Y88.547
G1 F3600 X114.217 Y83.489 E164.64795
G0 F7800 X113.793 Y83.489
G1 F3600 X108.923 Y88.359 E164.81975
G0 F7800 X108.676 Y88.181
G1 F3600 X113.369 Y83.489 E164.98529
G0 F7800 X112.944 Y83.489
G1 F3600 X108.422 Y88.012 E165.14483
G0 F7800 X108.167 Y87.842
G1 F3600 X112.52 Y83.489 E165.2984
G0 F7800 X112.096 Y83.489
G1 F3600 X107.912 Y87.672 E165.44598
G0 F7800 X107.645 Y87.515
G1 F3600 X111.671 Y83.489 E165.58801
G0 F7800 X111.247 Y83.489
G1 F3600 X107.374 Y87.363 E165.72466
G0 F7800 X107.102 Y87.21
G1 F3600 X110.823 Y83.489 E165.85593
G0 F7800 X110.399 Y83.489
G1 F3600 X106.831 Y87.057 E165.9818
G0 F7800 X106.541 Y86.922
G1 F3600 X109.974 Y83.489 E166.10291
G0 F7800 X109.55 Y83.489
G1 F3600 X106.251 Y86.788 E166.21929
G0 F7800 X105.962 Y86.653
G1 F3600 X109.126 Y83.489 E166.33091
G0 F7800 X108.702 Y83.489
G1 F3600 X105.666 Y86.525 E166.43801
G0 F7800 X105.356 Y86.41
G1 F3600 X108.277 Y83.489 E166.54106
G0 F7800 X107.853 Y83.489
G1 F3600 X105.047 Y86.296 E166.64006
G0 F7800 X104.737 Y86.181
G1 F3600 X107.429 Y83.489 E166.73503
G0 F7800 X107.005 Y83.489
G1 F3600 X104.412 Y86.081 E166.82649
G0 F7800 X104.082 Y85.987
G1 F3600 X106.58 Y83.489 E166.91461
G0 F7800 X106.156 Y83.489
G1 F3600 X103.751 Y85.894 E166.99945
G0 F7800 X103.414 Y85.807
G1 F3600 X105.732 Y83.489 E167.08123
G0 F7800 X105.307 Y83.489
G1 F3600 X103.06 Y85.736 E167.1605
G0 F7800 X102.706 Y85.666
G1 F3600 X104.883 Y83.489 E167.2373
G0 F7800 X104.459 Y83.489
G1 F3600 X102.351 Y85.597 E167.31166
G0 F7800 X101.973 Y85.551
G1 F3600 X104.035 Y83.489 E167.3844
G0 F7800 X103.61 Y83.489
G1 F3600 X101.594 Y85.505 E167.45552
G0 F7800 X101.215 Y85.46
G1 F3600 X103.186 Y83.489 E167.52506
G0 F7800 X102.762 Y83.489
G1 F3600 X100.81 Y85.441 E167.59392
G0 F7800 X100.402 Y85.425
G1 F3600 X102.338 Y83.489 E167.66222
G0 F7800 X101.913 Y83.489
G1 F3600 X99.992 Y85.41 E167.72998
G0 F7800 X99.551 Y85.427
G1 F3600 X101.489 Y83.489 E167.79835
G0 F7800 X101.065 Y83.489
G1 F3600 X99.109 Y85.445 E167.86736
G0 F7800 X98.654 Y85.475
G1 F3600 X100.641 Y83.489 E167.93744
G0 F7800 X100.216 Y83.489
G1 F3600 X98.173 Y85.532 E168.00951
G0 F7800 X97.693 Y85.588
G1 F3600 X99.792 Y83.489 E168.08356
G0 F7800 X99.368 Y83.489
G1 F3600 X97.167 Y85.69 E168.1612
G0 F7800 X96.638 Y85.795
G1 F3600 X98.944 Y83.489 E168.24255
G0 F7800 X98.519 Y83.489
G1 F3600 X96.063 Y85.946 E168.32921
G0 F7800 X95.472 Y86.112
G1 F3600 X98.095 Y83.489 E168.42175
G0 F7800 X97.671 Y83.489
G1 F3600 X94.814 Y86.346 E168.52253
G0 F7800 X94.12 Y86.615
G1 F3600 X97.246 Y83.489 E168.63281
G0 F7800 X96.822 Y83.489
G1 F3600 X93.333 Y86.978 E168.7559
G0 F7800 X92.404 Y87.483
G1 F3600 X96.398 Y83.489 E168.89679
G0 F7800 X95.974 Y83.489
G1 F3600 X91.196 Y88.266 E169.06533
G0 F7800 X87.866 Y91.597
G0 X87.866 Y91.597
G1 F3600 X83.609 Y95.854 E169.21551
G0 F7800 X83.877 Y96.01
G1 F3600 X87.087 Y92.8 E169.32875
G0 F7800 X86.577 Y93.734
G1 F3600 X84.146 Y96.165 E169.41451
G0 F7800 X84.415 Y96.32
G1 F3600 X86.213 Y94.522 E169.47794
G0 F7800 X85.946 Y95.214
G1 F3600 X84.684 Y96.476 E169.52246
G0 F7800 X84.953 Y96.631
G1 F3600 X85.713 Y95.871 E169.54927
G0 F7800 X85.546 Y96.462
G1 F3600 X85.221 Y96.787 E169.56074
G0 F7800 X83.34 Y95.699
G0 X83.34 Y95.699
G1 F3600 X95.549 Y83.489 E169.99146
G0 F7800 X95.125 Y83.489
G1 F3600 X83.07 Y95.544 E170.41673
G0 F7800 X82.802 Y95.388
G1 F3600 X94.701 Y83.489 E170.8365
G0 F7800 X94.277 Y83.489
G1 F3600 X82.533 Y95.233 E171.25081
G0 F7800 X81.62 Y95.721
G1 F3600 X93.852 Y83.489 E171.68232
G0 F7800 X93.428 Y83.489
G1 F3600 X80.617 Y96.3 E172.13426
G0 F7800 X79.613 Y96.88
G1 F3600 X93.004 Y83.489 E172.60667
G0 F7800 X92.58 Y83.489
G1 F3600 X78.609 Y97.459 E173.09952
G0 F7800 X78.489 Y97.155
G1 F3600 X92.155 Y83.489 E173.58162
G0 F7800 X91.731 Y83.489
G1 F3600 X78.489 Y96.731 E174.04877
G0 F7800 X78.489 Y96.307
G1 F3600 X91.307 Y83.489 E174.50096
G0 F7800 X90.883 Y83.489
G1 F3600 X78.489 Y95.882 E174.93817
G0 F7800 X78.489 Y95.458
G1 F3600 X90.458 Y83.489 E175.36041
G0 F7800 X90.034 Y83.489
G1 F3600 X78.489 Y95.034 E175.76769
G0 F7800 X78.489 Y94.61
G1 F3600 X89.61 Y83.489 E176.16001
G0 F7800 X89.185 Y83.489
G1 F3600 X78.489 Y94.185 E176.53734
G0 F7800 X78.489 Y93.761
G1 F3600 X88.761 Y83.489 E176.89972
G0 F7800 X88.337 Y83.489
G1 F3600 X78.489 Y93.337 E177.24713
G0 F7800 X78.489 Y92.913
G1 F3600 X87.913 Y83.489 E177.57959
G0 F7800 X87.488 Y83.489
G1 F3600 X78.489 Y92.488 E177.89705
G0 F7800 X78.489 Y92.064
G1 F3600 X87.064 Y83.489 E178.19956
G0 F7800 X86.64 Y83.489
G1 F3600 X78.489 Y91.64 E178.48711
G0 F7800 X78.489 Y91.216
G1 F3600 X86.216 Y83.489 E178.7597
G0 F7800 X85.791 Y83.489
G1 F3600 X78.489 Y90.791 E179.0173
G0 F7800 X78.49 Y90.366
G1 F3600 X85.367 Y83.489 E179.2599
G0 F7800 X84.943 Y83.489
G1 F3600 X78.49 Y89.942 E179.48755
G0 F7800 X78.49 Y89.518
G1 F3600 X84.519 Y83.489 E179.70024
G0 F7800 X84.094 Y83.489
G1 F3600 X78.49 Y89.094 E179.89795
G0 F7800 X78.49 Y88.669
G1 F3600 X83.67 Y83.489 E180.08069
G0 F7800 X83.246 Y83.489
G1 F3600 X78.49 Y88.245 E180.24847
G0 F7800 X78.49 Y87.821
G1 F3600 X82.822 Y83.489 E180.40129
G0 F7800 X82.397 Y83.489
G1 F3600 X78.49 Y87.396 E180.53912
G0 F7800 X78.49 Y86.972
G1 F3600 X81.973 Y83.489 E180.662
G0 F7800 X81.549 Y83.489
G1 F3600 X78.49 Y86.548 E180.76991
G0 F7800 X78.49 Y86.124
G1 F3600 X81.124 Y83.489 E180.86285
G0 F7800 X80.7 Y83.489
G1 F3600 X78.49 Y85.699 E180.94081
G0 F7800 X78.49 Y85.275
G1 F3600 X80.276 Y83.489 E181.00382
G0 F7800 X79.852 Y83.489
G1 F3600 X78.49 Y84.851 E181.05187
G0 F7800 X78.49 Y84.427
G1 F3600 X79.427 Y83.489 E181.08494
G0 F7800 X79.003 Y83.489
G1 F3600 X78.49 Y84.002 E181.10304
G0 F7800 X78.49 Y83.578
G1 F3600 X78.579 Y83.489 E181.10618
G0 F7800 X78.4 Y83.5
G1 F3600 X68.4 Y83.5 E181.27248
G1 F1800 E180.27248
G0 F7800 X68.762 Y84.035
G0 X77.941 Y84.059
G0 X77.912 Y97.534
G0 X78.25 Y98.033
G0 X78.25 Y98.033
G1 F1800 E181.27248
G1 F3600 X78.25 Y102.766 E181.39054
G0 F7800 X78.648 Y103.36
G1 F3600 X78.49 Y103.519 E181.39614
G0 F7800 X78.49 Y103.943
G1 F3600 X78.918 Y103.515 E181.41123
G0 F7800 X79.186 Y103.671
G1 F3600 X78.49 Y104.367 E181.43579
G0 F7800 X78.49 Y104.791
G1 F3600 X79.456 Y103.825 E181.46987
G0 F7800 X79.724 Y103.981
G1 F3600 X78.49 Y105.216 E181.51342
G0 F7800 X78.49 Y105.64
G1 F3600 X79.994 Y104.136 E181.56647
G0 F7800 X80.262 Y104.291
G1 F3600 X78.49 Y106.064 E181.629
G0 F7800 X78.49 Y106.488
G1 F3600 X80.531 Y104.447 E181.701
G0 F7800 X80.801 Y104.602
G1 F3600 X78.49 Y106.913 E181.78253
G0 F7800 X78.49 Y107.337
G1 F3600 X81.069 Y104.757 E181.87353
G0 F7800 X81.339 Y104.912
G1 F3600 X78.49 Y107.761 E181.97404
G0 F7800 X78.49 Y108.185
G1 F3600 X81.607 Y105.068 E182.084
G0 F7800 X81.877 Y105.223
G1 F3600 X78.49 Y108.61 E182.20348
G0 F7800 X78.49 Y109.034
G1 F3600 X82.146 Y105.378 E182.33246
G0 F7800 X82.415 Y105.533
G1 F3600 X78.49 Y109.458 E182.47092
G0 F7800 X78.49 Y109.882
G1 F3600 X83.185 Y105.187 E182.63655
G0 F7800 X84.188 Y104.608
G1 F3600 X78.489 Y110.307 E182.8376
G0 F7800 X78.489 Y110.732
G1 F3600 X85.191 Y104.03 E183.07403
G0 F7800 X85.492 Y104.153
G1 F3600 X78.489 Y111.156 E183.32108
G0 F7800 X78.489 Y111.58
G1 F3600 X85.588 Y104.482 E183.5715
G0 F7800 X85.682 Y104.811
G1 F3600 X78.489 Y112.005 E183.82527
G0 F7800 X78.489 Y112.429
G1 F3600 X85.779 Y105.139 E184.08244
G0 F7800 X85.895 Y105.448
G1 F3600 X78.489 Y112.853 E184.34369
G0 F7800 X78.489 Y113.277
G1 F3600 X86.011 Y105.755 E184.60905
G0 F7800 X86.127 Y106.063
G1 F3600 X78.489 Y113.702 E184.87852
G0 F7800 X78.489 Y114.126
G1 F3600 X86.251 Y106.364 E185.15235
G0 F7800 X86.387 Y106.652
G1 F3600 X78.489 Y114.55 E185.43097
G0 F7800 X78.489 Y114.974
G1 F3600 X86.524 Y106.94 E185.71441
G0 F7800 X86.66 Y107.228
G1 F3600 X78.489 Y115.399 E186.00266
G0 F7800 X78.489 Y115.823
G1 F3600 X86.807 Y107.505 E186.2961
G0 F7800 X86.962 Y107.774
G1 F3600 X78.489 Y116.247 E186.59501
G0 F7800 X78.652 Y116.509
G1 F3600 X87.117 Y108.043 E186.89365
G0 F7800 X87.272 Y108.313
G1 F3600 X79.076 Y116.509 E187.18279
G0 F7800 X79.5 Y116.509
G1 F3600 X87.439 Y108.57 E187.46286
G0 F7800 X87.612 Y108.821
G1 F3600 X79.924 Y116.509 E187.73407
G0 F7800 X80.349 Y116.509
G1 F3600 X87.786 Y109.071 E187.99645
G0 F7800 X87.959 Y109.322
G1 F3600 X80.773 Y116.509 E188.24997
G0 F7800 X81.197 Y116.509
G1 F3600 X88.145 Y109.561 E188.49508
G0 F7800 X88.335 Y109.796
G1 F3600 X81.622 Y116.509 E188.7319
G0 F7800 X82.046 Y116.509
G1 F3600 X88.525 Y110.03 E188.96047
G0 F7800 X88.716 Y110.263
G1 F3600 X82.47 Y116.509 E189.18081
G0 F7800 X82.894 Y116.509
G1 F3600 X88.918 Y110.485 E189.39333
G0 F7800 X89.126 Y110.701
G1 F3600 X83.319 Y116.509 E189.5982
G0 F7800 X83.743 Y116.509
G1 F3600 X89.335 Y110.917 E189.79547
G0 F7800 X89.543 Y111.133
G1 F3600 X84.167 Y116.509 E189.98513
G0 F7800 X84.591 Y116.509
G1 F3600 X89.762 Y111.338 E190.16755
G0 F7800 X89.987 Y111.538
G1 F3600 X85.016 Y116.509 E190.34291
G0 F7800 X85.44 Y116.509
G1 F3600 X90.211 Y111.738 E190.51122
G0 F7800 X90.436 Y111.937
G1 F3600 X85.863 Y116.509 E190.67253
G0 F7800 X86.288 Y116.509
G1 F3600 X90.671 Y112.126 E190.82715
G0 F7800 X90.914 Y112.308
G1 F3600 X86.712 Y116.509 E190.97537
G0 F7800 X87.136 Y116.509
G1 F3600 X91.156 Y112.49 E191.11717
G0 F7800 X91.399 Y112.671
G1 F3600 X87.561 Y116.509 E191.25257
G0 F7800 X87.985 Y116.509
G1 F3600 X91.653 Y112.842 E191.38195
G0 F7800 X91.912 Y113.006
G1 F3600 X88.409 Y116.509 E191.50552
G0 F7800 X88.833 Y116.509
G1 F3600 X92.172 Y113.171 E191.6233
G0 F7800 X92.432 Y113.335
G1 F3600 X89.258 Y116.509 E191.73527
G0 F7800 X89.682 Y116.509
G1 F3600 X92.705 Y113.486 E191.84192
G0 F7800 X92.983 Y113.632
G1 F3600 X90.106 Y116.509 E191.94341
G0 F7800 X90.53 Y116.509
G1 F3600 X93.009 Y114.03 E192.03086
G0 F7800 X93.009 Y114.455
G1 F3600 X90.955 Y116.509 E192.10332
G0 F7800 X91.379 Y116.509
G1 F3600 X93.009 Y114.879 E192.16083
G0 F7800 X93.009 Y115.303
G1 F3600 X91.803 Y116.509 E192.20337
G0 F7800 X92.227 Y116.509
G1 F3600 X93.009 Y115.727 E192.23096
G0 F7800 X93.009 Y116.152
G1 F3600 X92.652 Y116.509 E192.24355
G1 F1800 E191.24355
G0 F7800 X93.55 Y115.711
G0 X93.559 Y117.059
G0 X77.941 Y117.059
G0 X77.941 Y84.059
G0 X67.941 Y84.059
G0 X67.941 Y82.941
G0 X132.059 Y82.941
G0 X132.059 Y84.059
G0 X122.059 Y84.059
G0 X122.059 Y117.059
G0 X106.441 Y117.059
G0 X106.471 Y113.333
G0 X107.23 Y112.967
G0 X108.219 Y112.343
G0 X109.156 Y111.643
G0 X110.032 Y110.868
G0 X110.843 Y110.024
G0 X111.583 Y109.121
G0 X112.249 Y108.159
G0 X112.835 Y107.145
G0 X113.337 Y106.09
G0 X113.752 Y104.995
G0 X114.078 Y103.872
G0 X114.172 Y103
G0 X117.5 Y104.987
G0 X121.473 Y102.693
G0 X121.473 Y98.106
G0 X117.5 Y95.812
G0 X114.169 Y97.8
G0 X114.154 Y97.441
G0 X115.116 Y96.59
G0 X115.116 Y96.59
G1 F1800 E192.24355
G1 F3600 X121.509 Y90.198 E192.46906
G0 F7800 X121.509 Y90.622
G1 F3600 X116.12 Y96.011 E192.65918
G0 F7800 X117.124 Y95.431
G1 F3600 X121.509 Y91.047 E192.81385
G0 F7800 X121.509 Y91.471
G1 F3600 X117.667 Y95.313 E192.94939
G0 F7800 X117.936 Y95.467
G1 F3600 X121.509 Y91.895 E193.07542
G0 F7800 X121.509 Y92.319
G1 F3600 X118.205 Y95.623 E193.19198
G0 F7800 X118.475 Y95.778
G1 F3600 X121.509 Y92.744 E193.29901
G0 F7800 X121.509 Y93.168
G1 F3600 X118.743 Y95.933 E193.39657
G0 F7800 X119.013 Y96.088
G1 F3600 X121.509 Y93.592 E193.48462
G0 F7800 X121.509 Y94.016
G1 F3600 X119.281 Y96.244 E193.56322
G0 F7800 X119.55 Y96.399
G1 F3600 X121.509 Y94.441 E193.63231
G0 F7800 X121.509 Y94.865
G1 F3600 X119.819 Y96.554 E193.69191
G0 F7800 X120.088 Y96.71
G1 F3600 X121.509 Y95.289 E193.74204
G0 F7800 X121.509 Y95.713
G1 F3600 X120.358 Y96.865 E193.78266
G0 F7800 X120.626 Y97.02
G1 F3600 X121.509 Y96.138 E193.8138
G0 F7800 X121.509 Y96.562
G1 F3600 X120.896 Y97.175 E193.83542
G0 F7800 X121.164 Y97.331
G1 F3600 X121.509 Y96.986 E193.84759
G0 F7800 X121.509 Y97.411
G1 F3600 X121.433 Y97.486 E193.85026
G0 F7800 X121.75 Y98.033
G1 F3600 X121.75 Y102.766 E193.96832
G0 F7800 X121.759 Y102.667
; TYPE:TOP-FILL
G1 F3000 X121.748 Y102.444 E193.97346
G1 X121.748 Y102.02 E193.98295
G1 X121.748 Y101.596 E193.99243
G1 X121.748 Y101.172 E194.00192
G1 X121.748 Y100.747 E194.01142
G1 X121.748 Y100.323 E194.02091
G1 X121.748 Y99.899 E194.03039
G1 X121.748 Y99.475 E194.03987
G1 X121.748 Y99.05 E194.04938
G1 X121.748 Y98.626 E194.05886
G1 X121.727 Y98.181 E194.06835
G1 X121.883 Y98.125 E194.07248
G1 F1800 E193.07248
G0 F7800 X121.499 Y98.126
G0 X121.473 Y102.693
G0 X117.5 Y104.987
G0 X114.172 Y103
G0 X114.078 Y103.872
G0 X113.752 Y104.995
G0 X113.337 Y106.09
G0 X112.835 Y107.145
G0 X112.249 Y108.159
G0 X111.583 Y109.121
G0 X110.843 Y110.024
G0 X110.032 Y110.868
G0 X109.156 Y111.643
G0 X108.219 Y112.343
G0 X107.23 Y112.967
G0 X106.471 Y113.333
G0 X106.441 Y117.059
G0 X122.059 Y117.059
G0 X122.059 Y84.059
G0 X132.059 Y84.059
G0 X132.059 Y82.941
G0 X67.941 Y82.941
G0 X67.941 Y84.059
G0 X77.941 Y84.059
G0 X77.941 Y117.059
G0 X93.559 Y117.059
G0 X93.529 Y113.333
G0 X92.75 Y112.957
G0 X91.761 Y112.331
G0 X90.826 Y111.629
G0 X89.951 Y110.852
G0 X89.141 Y110.009
G0 X88.402 Y109.103
G0 X87.738 Y108.139
G0 X87.154 Y107.125
G0 X86.654 Y106.069
G0 X86.241 Y104.974
G0 X85.916 Y103.85
G0 X85.829 Y103
G0 X82.5 Y104.987
G0 X78.527 Y102.693
G0 X78.499 Y98.324
G0 X78.384 Y98.325
G0 X78.384 Y98.325
G1 F1800 E194.07248
G1 F3000 X78.117 Y98.27 E194.08175
G1 X78.249 Y98.826 E194.09126
G1 X78.249 Y99.25 E194.10074
G1 X78.249 Y99.675 E194.11025
G1 X78.249 Y100.099 E194.11973
G1 X78.249 Y100.523 E194.12921
G1 X78.249 Y100.947 E194.1387
G1 X78.249 Y101.372 E194.14817
G1 X78.249 Y101.796 E194.15765
G1 X78.249 Y102.22 E194.16714
G1 X78.254 Y102.649 E194.17662
G1 X78.114 Y102.722 E194.18056
; Layer Change GCode
; LAYER:2
G0 F7800 X77.9 Y84.35 Z0.65
G0 X77.9 Y84.35
G0 X77.65 Y84.35
G0 X77.65 Y84.35
G0 X78.25 Y83.75
; TYPE:WALL-INNER
G1 F1800 X68.25 Y83.75 E194.43001
G1 X68.25 Y83.25 E194.44249
G1 X131.75 Y83.25 E196.0265
G1 X131.75 Y83.75 E196.03897
G1 X121.75 Y83.75 E196.28842
G1 X121.75 Y97.946 E196.64254
G1 X117.5 Y95.492 E196.76497
G1 X114.406 Y97.279 E196.85409
G1 X114.348 Y96.984 E196.86159
G1 X114.035 Y95.866 E196.89055
G1 X113.636 Y94.778 E196.91946
G1 X113.153 Y93.726 E196.94834
G1 X112.589 Y92.716 E196.97719
G1 X111.948 Y91.752 E197.00607
G1 X111.233 Y90.841 E197.03496
G1 X110.449 Y89.989 E197.06384
G1 X109.6 Y89.202 E197.09272
G1 X108.691 Y88.483 E197.12163
G1 X107.73 Y87.839 E197.15049
G1 X106.721 Y87.27 E197.17939
G1 X105.67 Y86.784 E197.20827
G1 X104.587 Y86.382 E197.23709
G1 X103.473 Y86.065 E197.26598
G1 X102.338 Y85.837 E197.29486
G1 X101.187 Y85.698 E197.32378
G1 X100.031 Y85.65 E197.35264
G1 X98.843 Y85.695 E197.38229
G1 X97.693 Y85.831 E197.41118
G1 X96.557 Y86.056 E197.44007
G1 X95.442 Y86.371 E197.46897
G1 X94.357 Y86.77 E197.49781
G1 X93.305 Y87.255 E197.52671
G1 X92.295 Y87.822 E197.5556
G1 X91.333 Y88.464 E197.58445
G1 X90.423 Y89.181 E197.61335
G1 X89.572 Y89.966 E197.64223
G1 X88.786 Y90.816 E197.67111
G1 X88.069 Y91.726 E197.70001
G1 X87.426 Y92.689 E197.72889
G1 X86.86 Y93.698 E197.75775
G1 X86.374 Y94.749 E197.78664
G1 X85.973 Y95.835 E197.81552
G1 X85.658 Y96.948 E197.84437
G1 X85.593 Y97.278 E197.85276
G1 X82.5 Y95.492 E197.94185
G1 X78.25 Y97.946 E198.06428
G1 X78.25 Y83.75 E198.4184
G0 F7800 X77.95 Y84.05
G1 F1800 X67.95 Y84.05 E198.66785
G1 X67.95 Y82.95 E198.69529
G1 X132.05 Y82.95 E200.29427
G1 X132.05 Y84.05 E200.32171
G1 X122.05 Y84.05 E200.57116
G1 X122.05 Y117.05 E201.39435
G1 X106.45 Y117.05 E201.78349
G1 X106.45 Y113.321 E201.87651
G1 X107.196 Y112.929 E201.89753
G1 X108.182 Y112.308 E201.9266
G1 X109.117 Y111.61 E201.95571
G1 X109.992 Y110.837 E201.98483
G1 X110.801 Y109.998 E202.0139
G1 X111.54 Y109.096 E202.04299
G1 X112.204 Y108.136 E202.07211
G1 X112.789 Y107.127 E202.1012
G1 X113.289 Y106.074 E202.13028
G1 X113.704 Y104.983 E202.1594
G1 X114.029 Y103.862 E202.18851
G1 X114.195 Y103.052 E202.20914
G1 X117.5 Y104.961 E202.30435
G1 X121.45 Y102.68 E202.41813
G1 X121.45 Y98.119 E202.5319
G1 X117.5 Y95.838 E202.64569
G1 X114.193 Y97.748 E202.74095
G1 X114.056 Y97.054 E202.7586
G1 X113.75 Y95.959 E202.78696
G1 X113.358 Y94.892 E202.81531
G1 X112.886 Y93.862 E202.84358
G1 X112.332 Y92.872 E202.87188
G1 X111.705 Y91.928 E202.90014
G1 X111.004 Y91.035 E202.92846
G1 X110.236 Y90.201 E202.95675
G1 X109.404 Y89.43 E202.98504
G1 X108.514 Y88.725 E203.01336
G1 X107.573 Y88.094 E203.04163
G1 X106.584 Y87.537 E203.06994
G1 X105.555 Y87.061 E203.09822
G1 X104.493 Y86.667 E203.12648
G1 X103.402 Y86.356 E203.15478
G1 X102.29 Y86.133 E203.18307
G1 X101.163 Y85.997 E203.21139
G1 X100.031 Y85.951 E203.23965
G1 X98.866 Y85.994 E203.26873
G1 X97.74 Y86.127 E203.29701
G1 X96.627 Y86.348 E203.32532
G1 X95.535 Y86.657 E203.35363
G1 X94.472 Y87.048 E203.38188
G1 X93.441 Y87.523 E203.4102
G1 X92.452 Y88.078 E203.43849
G1 X91.509 Y88.707 E203.46676
G1 X90.618 Y89.409 E203.49506
G1 X89.785 Y90.178 E203.52334
G1 X89.015 Y91.011 E203.55164
G1 X88.312 Y91.902 E203.57995
G1 X87.682 Y92.846 E203.60826
G1 X87.127 Y93.834 E203.63653
G1 X86.651 Y94.864 E203.66483
G1 X86.259 Y95.928 E203.69312
G1 X85.95 Y97.019 E203.7214
G1 X85.805 Y97.747 E203.73992
G1 X82.5 Y95.838 E203.83513
G1 X78.55 Y98.119 E203.94891
G1 X78.55 Y102.68 E204.06268
G1 X82.5 Y104.961 E204.17646
G1 X85.806 Y103.052 E204.27169
G1 X85.962 Y103.828 E204.29144
G1 X86.285 Y104.948 E204.32052
G1 X86.696 Y106.042 E204.34967
G1 X87.195 Y107.096 E204.37876
G1 X87.776 Y108.107 E204.40785
G1 X88.439 Y109.068 E204.43697
G1 X89.175 Y109.972 E204.46605
G1 X89.982 Y110.814 E204.49514
G1 X90.855 Y111.589 E204.52426
G1 X91.788 Y112.29 E204.55337
G1 X92.774 Y112.914 E204.58248
G1 X93.55 Y113.321 E204.60434
G1 X93.55 Y117.05 E204.69736
G1 X77.95 Y117.05 E205.0865
G1 X77.95 Y84.05 E205.90969
G0 F7800 X77.65 Y84.35
; TYPE:WALL-OUTER
G1 F1260 X67.65 Y84.35 E206.15914
G1 X67.65 Y82.65 E206.20155
G1 X132.35 Y82.65 E207.8155
G1 X132.35 Y84.35 E207.8579
G1 X122.35 Y84.35 E208.10735
G1 X122.35 Y117.35 E208.93054
G1 X106.15 Y117.35 E209.33465
G1 X106.15 Y113.14 E209.43967
G1 X107.046 Y112.669 E209.46492
G1 X108.012 Y112.061 E209.4934
G1 X108.928 Y111.377 E209.52191
G1 X109.784 Y110.62 E209.55042
G1 X110.576 Y109.799 E209.57887
G1 X111.3 Y108.915 E209.60738
G1 X111.951 Y107.975 E209.6359
G1 X112.523 Y106.987 E209.66438
G1 X113.013 Y105.956 E209.69285
G1 X113.419 Y104.888 E209.72136
G1 X113.738 Y103.79 E209.74988
G1 X113.977 Y102.58 E209.78064
G1 X117.5 Y104.614 E209.88212
G1 X121.15 Y102.507 E209.98725
G1 X121.15 Y98.292 E210.0924
G1 X117.5 Y96.185 E210.19753
G1 X113.979 Y98.217 E210.29894
G1 X113.764 Y97.123 E210.32675
G1 X113.464 Y96.051 E210.35452
G1 X113.081 Y95.007 E210.38226
G1 X112.618 Y93.998 E210.40995
G1 X112.076 Y93.029 E210.43764
G1 X111.462 Y92.104 E210.46534
G1 X110.775 Y91.23 E210.49307
G1 X110.023 Y90.413 E210.52077
G1 X109.209 Y89.658 E210.54846
G1 X108.337 Y88.968 E210.5762
G1 X107.416 Y88.35 E210.60387
G1 X106.447 Y87.804 E210.63162
G1 X105.44 Y87.338 E210.65929
G1 X104.4 Y86.952 E210.68697
G1 X103.331 Y86.648 E210.71469
G1 X102.243 Y86.43 E210.74237
G1 X101.139 Y86.296 E210.77011
G1 X100.03 Y86.251 E210.7978
G1 X98.889 Y86.293 E210.82628
G1 X97.787 Y86.424 E210.85396
G1 X96.697 Y86.64 E210.88168
G1 X95.628 Y86.942 E210.90939
G1 X94.587 Y87.325 E210.93706
G1 X93.578 Y87.79 E210.96478
G1 X92.609 Y88.334 E210.9925
G1 X91.686 Y88.95 E211.02018
G1 X90.813 Y89.638 E211.0479
G1 X89.997 Y90.391 E211.0756
G1 X89.243 Y91.206 E211.1033
G1 X88.555 Y92.079 E211.13102
G1 X87.938 Y93.003 E211.15874
G1 X87.394 Y93.971 E211.18644
G1 X86.928 Y94.979 E211.21414
G1 X86.544 Y96.021 E211.24184
G1 X86.242 Y97.089 E211.26953
G1 X86.021 Y98.217 E211.2982
G1 X82.5 Y96.185 E211.39961
G1 X78.85 Y98.292 E211.50474
G1 X78.85 Y102.507 E211.60988
G1 X82.5 Y104.614 E211.71502
G1 X86.022 Y102.581 E211.81646
G1 X86.254 Y103.757 E211.84636
G1 X86.57 Y104.853 E211.87481
G1 X86.973 Y105.925 E211.90338
G1 X87.461 Y106.957 E211.93186
G1 X88.03 Y107.947 E211.96034
G1 X88.679 Y108.888 E211.98886
G1 X89.4 Y109.773 E212.01733
G1 X90.19 Y110.597 E212.04581
G1 X91.045 Y111.356 E212.07433
G1 X91.959 Y112.043 E212.10285
G1 X92.924 Y112.654 E212.13134
G1 X93.85 Y113.14 E212.15743
G1 X93.85 Y117.35 E212.26245
G1 X77.65 Y117.35 E212.66656
G1 X77.65 Y84.35 E213.48974
G0 F7800 X77.9 Y84.35
G0 X78.25 Y102.853
G0 X78.25 Y102.853
; TYPE:WALL-INNER
G1 F1800 X82.5 Y105.307 E213.61217
G1 X85.595 Y103.52 E213.70132
G1 X85.671 Y103.899 E213.71096
G1 X86 Y105.042 E213.74063
G1 X86.42 Y106.159 E213.7704
G1 X86.929 Y107.235 E213.80009
G1 X87.522 Y108.267 E213.82978
G1 X88.198 Y109.248 E213.8595
G1 X88.95 Y110.171 E213.8892
G1 X89.774 Y111.03 E213.91889
G1 X90.665 Y111.821 E213.94861
G1 X91.617 Y112.537 E213.97832
G1 X92.624 Y113.174 E214.00805
G1 X93.25 Y113.502 E214.02568
G1 X93.25 Y116.75 E214.1067
G1 X78.25 Y116.75 E214.48088
G1 X78.25 Y102.853 E214.82754
G1 F1800 E213.82754
G0 F7800 X80.613 Y103.735
G0 X82.5 Y104.987
G0 X85.83 Y102.999
G0 X85.914 Y103.839
G0 X86.238 Y104.962
G0 X86.651 Y106.06
G0 X87.151 Y107.118
G0 X87.734 Y108.133
G0 X88.399 Y109.097
G0 X89.138 Y110.005
G0 X89.948 Y110.849
G0 X90.824 Y111.627
G0 X91.76 Y112.33
G0 X92.749 Y112.957
G0 X93.529 Y113.334
G0 X93.559 Y117.059
G0 X77.941 Y117.059
G0 X77.941 Y84.059
G0 X67.941 Y84.059
G0 X67.941 Y82.941
G0 X132.059 Y82.941
G0 X132.059 Y84.059
G0 X122.059 Y84.059
G0 X122.059 Y117.059
G0 X106.441 Y117.059
G0 X106.488 Y113.403
G0 X106.75 Y113.502
G0 X106.75 Y113.502
G1 F1800 E214.82754
G1 X107.346 Y113.189 E214.84433
G1 X108.352 Y112.556 E214.87398
G1 X109.306 Y111.843 E214.90369
G1 X110.199 Y111.054 E214.93342
G1 X111.025 Y110.198 E214.96309
G1 X111.779 Y109.277 E214.99278
G1 X112.458 Y108.297 E215.02252
G1 X113.054 Y107.266 E215.05223
G1 X113.565 Y106.192 E215.0819
G1 X113.989 Y105.078 E215.11163
G1 X114.321 Y103.934 E215.14134
G1 X114.406 Y103.52 E215.15189
G1 X117.5 Y105.307 E215.24102
G1 X121.75 Y102.853 E215.36344
G1 X121.75 Y116.75 E215.7101
G1 X106.75 Y116.75 E216.08427
G1 X106.75 Y113.502 E216.1653
G0 F7800 X106.989 Y113.777
; TYPE:FILL
G1 F3600 X109.721 Y116.509 E216.26167
G0 F7800 X110.145 Y116.509
G1 F3600 X107.181 Y113.545 E216.36624
G0 F7800 X107.459 Y113.399
G1 F3600 X110.569 Y116.509 E216.47595
G0 F7800 X110.993 Y116.509
G1 F3600 X107.72 Y113.236 E216.59142
G0 F7800 X107.981 Y113.072
G1 F3600 X111.418 Y116.509 E216.71267
G0 F7800 X111.842 Y116.509
G1 F3600 X108.241 Y112.908 E216.8397
G0 F7800 X108.501 Y112.743
G1 F3600 X112.266 Y116.509 E216.97254
G0 F7800 X112.69 Y116.509
G1 F3600 X108.743 Y112.562 E217.11178
G0 F7800 X108.987 Y112.381
G1 F3600 X113.115 Y116.509 E217.25741
G0 F7800 X113.539 Y116.509
G1 F3600 X109.229 Y112.199 E217.40945
G0 F7800 X109.47 Y112.016
G1 F3600 X113.963 Y116.509 E217.56796
G0 F7800 X114.388 Y116.509
G1 F3600 X109.696 Y111.817 E217.73348
G0 F7800 X109.921 Y111.618
G1 F3600 X114.812 Y116.509 E217.90602
G0 F7800 X115.237 Y116.509
G1 F3600 X110.146 Y111.419 E218.0856
G0 F7800 X110.371 Y111.22
G1 F3600 X115.661 Y116.509 E218.2722
G0 F7800 X116.085 Y116.509
G1 F3600 X110.579 Y111.003 E218.46644
G0 F7800 X110.788 Y110.788
G1 F3600 X116.509 Y116.509 E218.66827
G0 F7800 X116.934 Y116.509
G1 F3600 X110.995 Y110.571 E218.87776
G0 F7800 X111.204 Y110.356
G1 F3600 X117.358 Y116.509 E219.09484
G0 F7800 X117.782 Y116.509
G1 F3600 X111.395 Y110.122 E219.32016
G0 F7800 X111.587 Y109.89
G1 F3600 X118.207 Y116.509 E219.55368
G0 F7800 X118.631 Y116.509
G1 F3600 X111.778 Y109.656 E219.79544
G0 F7800 X111.968 Y109.423
G1 F3600 X119.055 Y116.509 E220.04544
G0 F7800 X119.479 Y116.509
G1 F3600 X112.142 Y109.173 E220.30425
G0 F7800 X112.316 Y108.922
G1 F3600 X119.904 Y116.509 E220.57192
G0 F7800 X120.328 Y116.509
G1 F3600 X112.49 Y108.671 E220.84843
G0 F7800 X112.663 Y108.42
G1 F3600 X120.752 Y116.509 E221.13379
G0 F7800 X121.176 Y116.509
G1 F3600 X112.818 Y108.151 E221.42864
G0 F7800 X112.973 Y107.882
G1 F3600 X121.509 Y116.418 E221.72977
G0 F7800 X121.509 Y115.993
G1 F3600 X113.129 Y107.613 E222.0254
G0 F7800 X113.282 Y107.343
G1 F3600 X121.509 Y115.569 E222.31561
G0 F7800 X121.509 Y115.145
G1 F3600 X113.419 Y107.055 E222.60101
G0 F7800 X113.556 Y106.768
G1 F3600 X121.509 Y114.721 E222.88157
G0 F7800 X121.509 Y114.296
G1 F3600 X113.692 Y106.48 E223.15732
G0 F7800 X113.822 Y106.186
G1 F3600 X121.509 Y113.872 E223.42848
G0 F7800 X121.509 Y113.448
G1 F3600 X113.94 Y105.879 E223.6955
G0 F7800 X114.057 Y105.571
G1 F3600 X121.509 Y113.023 E223.95839
G0 F7800 X121.509 Y112.599
G1 F3600 X114.174 Y105.264 E224.21715
G0 F7800 X114.276 Y104.943
G1 F3600 X121.509 Y112.175 E224.4723
G0 F7800 X121.509 Y111.751
G1 F3600 X114.372 Y104.614 E224.72407
G0 F7800 X114.467 Y104.285
G1 F3600 X121.509 Y111.326 E224.97248
G0 F7800 X121.509 Y110.902
G1 F3600 X114.562 Y103.956 E225.21754
G0 F7800 X115.406 Y104.376
G1 F3600 X121.509 Y110.478 E225.43282
G0 F7800 X121.509 Y110.054
G1 F3600 X116.41 Y104.955 E225.6127
G0 F7800 X117.415 Y105.536
G1 F3600 X121.509 Y109.629 E225.75711
G0 F7800 X121.509 Y109.205
G1 F3600 X117.746 Y105.442 E225.88986
G0 F7800 X118.014 Y105.286
G1 F3600 X121.509 Y108.781 E226.01315
G0 F7800 X121.509 Y108.357
G1 F3600 X118.283 Y105.131 E226.12696
G0 F7800 X118.552 Y104.976
G1 F3600 X121.509 Y107.932 E226.23126
G0 F7800 X121.509 Y107.508
G1 F3600 X118.821 Y104.82 E226.32609
G0 F7800 X119.09 Y104.665
G1 F3600 X121.509 Y107.084 E226.41142
G0 F7800 X121.509 Y106.659
G1 F3600 X119.359 Y104.51 E226.48725
G0 F7800 X119.628 Y104.354
G1 F3600 X121.509 Y106.235 E226.55361
G0 F7800 X121.509 Y105.811
G1 F3600 X119.897 Y104.199 E226.61048
G0 F7800 X120.166 Y104.044
G1 F3600 X121.509 Y105.387 E226.65785
G0 F7800 X121.509 Y104.962
G1 F3600 X120.435 Y103.888 E226.69574
G0 F7800 X120.703 Y103.733
G1 F3600 X121.509 Y104.538 E226.72416
G0 F7800 X121.509 Y104.114
G1 F3600 X120.973 Y103.578 E226.74307
G0 F7800 X121.241 Y103.422
G1 F3600 X121.509 Y103.69 E226.75252
G0 F7800 X121.75 Y102.766
G1 F3600 X121.75 Y98.033 E226.87059
G0 F7800 X121.509 Y97.326
G1 F3600 X107.672 Y83.489 E227.35872
G0 F7800 X107.248 Y83.489
G1 F3600 X120.987 Y97.228 E227.84341
G0 F7800 X121.509 Y96.901
G1 F3600 X108.096 Y83.489 E228.31657
G0 F7800 X108.521 Y83.489
G1 F3600 X121.509 Y96.477 E228.77475
G0 F7800 X121.509 Y96.053
G1 F3600 X108.945 Y83.489 E229.21798
G0 F7800 X109.369 Y83.489
G1 F3600 X121.509 Y95.629 E229.64625
G0 F7800 X121.509 Y95.204
G1 F3600 X109.793 Y83.489 E230.05955
G0 F7800 X110.218 Y83.489
G1 F3600 X121.509 Y94.78 E230.45787
G0 F7800 X121.509 Y94.356
G1 F3600 X110.642 Y83.489 E230.84123
G0 F7800 X111.066 Y83.489
G1 F3600 X121.509 Y93.932 E231.20964
G0 F7800 X121.509 Y93.507
G1 F3600 X111.49 Y83.489 E231.56307
G0 F7800 X111.915 Y83.489
G1 F3600 X121.509 Y93.083 E231.90152
G0 F7800 X121.509 Y92.659
G1 F3600 X112.339 Y83.489 E232.22502
G0 F7800 X112.763 Y83.489
G1 F3600 X121.509 Y92.235 E232.53356
G0 F7800 X121.509 Y91.81
G1 F3600 X113.187 Y83.489 E232.82712
G0 F7800 X113.612 Y83.489
G1 F3600 X121.509 Y91.386 E233.10571
G0 F7800 X121.509 Y90.962
G1 F3600 X114.036 Y83.489 E233.36934
G0 F7800 X114.46 Y83.489
G1 F3600 X121.509 Y90.537 E233.61799
G0 F7800 X121.509 Y90.113
G1 F3600 X114.885 Y83.489 E233.85167
G0 F7800 X115.309 Y83.489
G1 F3600 X121.509 Y89.689 E234.0704
G0 F7800 X121.509 Y89.265
G1 F3600 X115.733 Y83.489 E234.27416
G0 F7800 X116.157 Y83.489
G1 F3600 X121.509 Y88.84 E234.46295
G0 F7800 X121.509 Y88.416
G1 F3600 X116.582 Y83.489 E234.63676
G0 F7800 X117.006 Y83.489
G1 F3600 X121.509 Y87.992 E234.79562
G0 F7800 X121.509 Y87.568
G1 F3600 X117.43 Y83.489 E234.93951
G0 F7800 X117.854 Y83.489
G1 F3600 X121.509 Y87.143 E235.06844
G0 F7800 X121.509 Y86.719
G1 F3600 X118.279 Y83.489 E235.18238
G0 F7800 X118.703 Y83.489
G1 F3600 X121.509 Y86.295 E235.28137
G0 F7800 X121.509 Y85.871
G1 F3600 X119.127 Y83.489 E235.3654
G0 F7800 X119.551 Y83.489
G1 F3600 X121.509 Y85.446 E235.43446
G0 F7800 X121.509 Y85.022
G1 F3600 X119.976 Y83.489 E235.48854
G0 F7800 X120.4 Y83.489
G1 F3600 X121.509 Y84.598 E235.52766
G0 F7800 X121.509 Y84.173
G1 F3600 X120.824 Y83.489 E235.55181
G0 F7800 X121.249 Y83.489
G1 F3600 X121.509 Y83.749 E235.56098
G0 F7800 X121.6 Y83.5
G1 F3600 X131.6 Y83.5 E235.72729
G1 F1800 E234.72729
G0 F7800 X131.113 Y84.049
G0 X122.059 Y84.059
G0 X122.067 Y94.289
G0 X119.983 Y96.649
G0 X119.983 Y96.649
G1 F1800 E235.72729
G1 F3600 X106.824 Y83.489 E236.19152
G0 F7800 X106.399 Y83.489
G1 F3600 X118.98 Y96.07 E236.63535
G0 F7800 X117.977 Y95.491
G1 F3600 X105.975 Y83.489 E237.05875
G0 F7800 X105.551 Y83.489
G1 F3600 X117.358 Y95.296 E237.47528
G0 F7800 X117.089 Y95.452
G1 F3600 X105.126 Y83.489 E237.8973
G0 F7800 X104.702 Y83.489
G1 F3600 X116.82 Y95.607 E238.3248
G0 F7800 X116.551 Y95.762
G1 F3600 X110.731 Y89.942 E238.53012
G0 F7800 X110.482 Y89.693
G1 F3600 X104.278 Y83.489 E238.74898
G0 F7800 X103.854 Y83.489
G1 F3600 X108.29 Y87.925 E238.90547
G0 F7800 X107.21 Y87.27
G1 F3600 X103.429 Y83.489 E239.03886
G0 F7800 X103.005 Y83.489
G1 F3600 X106.349 Y86.833 E239.15682
G0 F7800 X105.59 Y86.498
G1 F3600 X102.581 Y83.489 E239.26297
G0 F7800 X102.157 Y83.489
G1 F3600 X104.916 Y86.249 E239.36032
G0 F7800 X104.293 Y86.049
G1 F3600 X101.732 Y83.489 E239.45065
G0 F7800 X101.308 Y83.489
G1 F3600 X103.699 Y85.88 E239.535
G0 F7800 X103.15 Y85.755
G1 F3600 X100.884 Y83.489 E239.61494
G0 F7800 X100.46 Y83.489
G1 F3600 X102.62 Y85.649 E239.69114
G0 F7800 X102.115 Y85.569
G1 F3600 X100.035 Y83.489 E239.76452
G0 F7800 X99.611 Y83.489
G1 F3600 X101.633 Y85.511 E239.83585
G0 F7800 X101.154 Y85.456
G1 F3600 X99.187 Y83.489 E239.90524
G0 F7800 X98.763 Y83.489
G1 F3600 X100.711 Y85.438 E239.97398
G0 F7800 X100.269 Y85.419
G1 F3600 X98.338 Y83.489 E240.04208
G0 F7800 X97.914 Y83.489
G1 F3600 X99.842 Y85.417 E240.1101
G0 F7800 X99.433 Y85.432
G1 F3600 X97.49 Y83.489 E240.17864
G0 F7800 X97.065 Y83.489
G1 F3600 X99.024 Y85.448 E240.24775
G0 F7800 X98.63 Y85.478
G1 F3600 X96.641 Y83.489 E240.31792
G0 F7800 X96.217 Y83.489
G1 F3600 X98.251 Y85.523 E240.38967
G0 F7800 X97.872 Y85.568
G1 F3600 X95.793 Y83.489 E240.46302
G0 F7800 X95.368 Y83.489
G1 F3600 X97.502 Y85.623 E240.5383
G0 F7800 X97.148 Y85.693
G1 F3600 X94.944 Y83.489 E240.61605
G0 F7800 X94.52 Y83.489
G1 F3600 X96.795 Y85.764 E240.69631
G0 F7800 X96.445 Y85.838
G1 F3600 X94.096 Y83.489 E240.77918
G0 F7800 X93.671 Y83.489
G1 F3600 X96.114 Y85.931 E240.86534
G0 F7800 X95.783 Y86.025
G1 F3600 X93.247 Y83.489 E240.95481
G0 F7800 X92.823 Y83.489
G1 F3600 X95.452 Y86.118 E241.04755
G0 F7800 X95.136 Y86.226
G1 F3600 X92.399 Y83.489 E241.14411
G0 F7800 X91.974 Y83.489
G1 F3600 X94.826 Y86.341 E241.24472
G0 F7800 X94.516 Y86.455
G1 F3600 X91.55 Y83.489 E241.34935
G0 F7800 X91.126 Y83.489
G1 F3600 X94.209 Y86.573 E241.45813
G0 F7800 X93.919 Y86.706
G1 F3600 X90.702 Y83.489 E241.57162
G0 F7800 X90.277 Y83.489
G1 F3600 X93.629 Y86.841 E241.68987
G0 F7800 X93.338 Y86.974
G1 F3600 X89.853 Y83.489 E241.81281
G0 F7800 X89.429 Y83.489
G1 F3600 X93.058 Y87.118 E241.94083
G0 F7800 X92.785 Y87.27
G1 F3600 X89.004 Y83.489 E242.07422
G0 F7800 X88.58 Y83.489
G1 F3600 X92.514 Y87.423 E242.213
G0 F7800 X92.242 Y87.575
G1 F3600 X88.156 Y83.489 E242.35715
G0 F7800 X87.732 Y83.489
G1 F3600 X91.983 Y87.74 E242.50711
G0 F7800 X91.729 Y87.911
G1 F3600 X87.307 Y83.489 E242.66311
G0 F7800 X86.883 Y83.489
G1 F3600 X91.474 Y88.08 E242.82507
G0 F7800 X91.22 Y88.25
G1 F3600 X86.459 Y83.489 E242.99303
G0 F7800 X86.035 Y83.489
G1 F3600 X90.981 Y88.435 E243.16751
G0 F7800 X90.743 Y88.622
G1 F3600 X85.61 Y83.489 E243.34859
G0 F7800 X85.186 Y83.489
G1 F3600 X90.506 Y88.809 E243.53627
G0 F7800 X90.269 Y88.996
G1 F3600 X84.762 Y83.489 E243.73054
G0 F7800 X84.338 Y83.489
G1 F3600 X90.048 Y89.2 E243.932
G0 F7800 X89.828 Y89.403
G1 F3600 X83.913 Y83.489 E244.14065
G0 F7800 X83.489 Y83.489
G1 F3600 X89.606 Y89.606 E244.35644
G0 F7800 X89.387 Y89.811
G1 F3600 X83.065 Y83.489 E244.57947
G0 F7800 X82.64 Y83.489
G1 F3600 X89.183 Y90.032 E244.81029
G0 F7800 X88.979 Y90.252
G1 F3600 X82.216 Y83.489 E245.04887
G0 F7800 X81.792 Y83.489
G1 F3600 X88.775 Y90.472 E245.29521
G0 F7800 X88.574 Y90.695
G1 F3600 X81.368 Y83.489 E245.54943
G0 F7800 X80.943 Y83.489
G1 F3600 X88.387 Y90.933 E245.81203
G0 F7800 X88.2 Y91.17
G1 F3600 X80.519 Y83.489 E246.083
G0 F7800 X80.095 Y83.489
G1 F3600 X88.013 Y91.407 E246.36233
G0 F7800 X87.831 Y91.649
G1 F3600 X79.671 Y83.489 E246.6502
G0 F7800 X79.246 Y83.489
G1 F3600 X87.661 Y91.904 E246.94706
G0 F7800 X87.491 Y92.157
G1 F3600 X78.822 Y83.489 E247.25286
G0 F7800 X78.49 Y83.581
G1 F3600 X87.321 Y92.412 E247.5644
G0 F7800 X87.158 Y92.674
G1 F3600 X78.49 Y84.005 E247.8702
G0 F7800 X78.49 Y84.429
G1 F3600 X87.005 Y92.945 E248.17061
G0 F7800 X86.853 Y93.217
G1 F3600 X78.49 Y84.854 E248.46564
G0 F7800 X78.49 Y85.278
G1 F3600 X86.701 Y93.489 E248.7553
G0 F7800 X86.56 Y93.772
G1 F3600 X78.49 Y85.702 E249.04
G0 F7800 X78.49 Y86.127
G1 F3600 X86.426 Y94.062 E249.31994
G0 F7800 X86.292 Y94.353
G1 F3600 X78.49 Y86.551 E249.59518
G0 F7800 X78.49 Y86.975
G1 F3600 X86.158 Y94.643 E249.86569
G0 F7800 X86.042 Y94.952
G1 F3600 X78.49 Y87.399 E250.13212
G0 F7800 X78.49 Y87.824
G1 F3600 X85.928 Y95.262 E250.39452
G0 F7800 X85.814 Y95.572
G1 F3600 X78.49 Y88.248 E250.65289
G0 F7800 X78.49 Y88.672
G1 F3600 X85.708 Y95.89 E250.90753
G0 F7800 X85.614 Y96.22
G1 F3600 X78.49 Y89.096 E251.15884
G0 F7800 X78.49 Y89.521
G1 F3600 X85.521 Y96.551 E251.40686
G0 F7800 X85.426 Y96.882
G1 F3600 X78.49 Y89.945 E251.65157
G0 F7800 X78.49 Y90.369
G1 F3600 X84.472 Y96.351 E251.8626
G0 F7800 X83.469 Y95.773
G1 F3600 X78.489 Y90.793 E252.03828
G0 F7800 X78.489 Y91.217
G1 F3600 X82.491 Y95.218 E252.17945
G0 F7800 X82.222 Y95.374
G1 F3600 X78.489 Y91.641 E252.31114
G0 F7800 X78.489 Y92.066
G1 F3600 X81.952 Y95.529 E252.4333
G0 F7800 X81.684 Y95.684
G1 F3600 X78.489 Y92.49 E252.546
G0 F7800 X78.489 Y92.914
G1 F3600 X81.415 Y95.84 E252.64922
G0 F7800 X81.146 Y95.995
G1 F3600 X78.489 Y93.338 E252.74295
G0 F7800 X78.489 Y93.763
G1 F3600 X80.877 Y96.15 E252.82718
G0 F7800 X80.608 Y96.305
G1 F3600 X78.489 Y94.187 E252.90192
G0 F7800 X78.489 Y94.611
G1 F3600 X80.339 Y96.461 E252.96718
G0 F7800 X80.07 Y96.616
G1 F3600 X78.489 Y95.035 E253.02295
G0 F7800 X78.489 Y95.46
G1 F3600 X79.801 Y96.771 E253.06922
G0 F7800 X79.532 Y96.927
G1 F3600 X78.489 Y95.884 E253.10602
G0 F7800 X78.489 Y96.308
G1 F3600 X79.263 Y97.082 E253.13332
G0 F7800 X78.994 Y97.237
G1 F3600 X78.489 Y96.732 E253.15114
G0 F7800 X78.489 Y97.157
G1 F3600 X78.725 Y97.392 E253.15944
G0 F7800 X78.25 Y98.033
G1 F3600 X78.25 Y102.766 E253.27751
G0 F7800 X78.49 Y103.521
G1 F3600 X91.478 Y116.509 E253.7357
G0 F7800 X91.054 Y116.509
G1 F3600 X78.49 Y103.946 E254.17891
G0 F7800 X78.49 Y104.37
G1 F3600 X90.629 Y116.509 E254.60714
G0 F7800 X90.205 Y116.509
G1 F3600 X78.49 Y104.794 E255.02042
G0 F7800 X78.49 Y105.218
G1 F3600 X89.781 Y116.509 E255.41874
G0 F7800 X89.357 Y116.509
G1 F3600 X78.49 Y105.643 E255.80209
G0 F7800 X78.49 Y106.067
G1 F3600 X88.932 Y116.509 E256.17046
G0 F7800 X88.508 Y116.509
G1 F3600 X78.49 Y106.491 E256.52387
G0 F7800 X78.49 Y106.915
G1 F3600 X88.084 Y116.509 E256.86232
G0 F7800 X87.66 Y116.509
G1 F3600 X78.49 Y107.34 E257.1858
G0 F7800 X78.49 Y107.764
G1 F3600 X87.235 Y116.509 E257.4943
G0 F7800 X86.811 Y116.509
G1 F3600 X78.49 Y108.188 E257.78785
G0 F7800 X78.49 Y108.613
G1 F3600 X86.387 Y116.509 E258.06642
G0 F7800 X85.962 Y116.509
G1 F3600 X78.49 Y109.037 E258.33002
G0 F7800 X78.49 Y109.461
G1 F3600 X85.538 Y116.509 E258.57865
G0 F7800 X85.113 Y116.509
G1 F3600 X78.49 Y109.885 E258.81232
G0 F7800 X78.489 Y110.309
G1 F3600 X84.689 Y116.509 E259.03104
G0 F7800 X84.265 Y116.509
G1 F3600 X78.489 Y110.733 E259.2348
G0 F7800 X78.489 Y111.157
G1 F3600 X83.84 Y116.509 E259.42359
G0 F7800 X83.416 Y116.509
G1 F3600 X78.489 Y111.582 E259.5974
G0 F7800 X78.489 Y112.006
G1 F3600 X82.992 Y116.509 E259.75626
G0 F7800 X82.568 Y116.509
G1 F3600 X78.489 Y112.43 E259.90016
G0 F7800 X78.489 Y112.854
G1 F3600 X82.143 Y116.509 E260.02908
G0 F7800 X81.719 Y116.509
G1 F3600 X78.489 Y113.279 E260.14303
G0 F7800 X78.489 Y113.703
G1 F3600 X81.295 Y116.509 E260.24201
G0 F7800 X80.871 Y116.509
G1 F3600 X78.489 Y114.127 E260.32605
G0 F7800 X78.489 Y114.552
G1 F3600 X80.446 Y116.509 E260.39508
G0 F7800 X80.022 Y116.509
G1 F3600 X78.489 Y114.976 E260.44917
G0 F7800 X78.489 Y115.4
G1 F3600 X79.598 Y116.509 E260.48829
G0 F7800 X79.174 Y116.509
G1 F3600 X78.489 Y115.824 E260.51245
G0 F7800 X78.489 Y116.249
G1 F3600 X78.749 Y116.509 E260.52163
G0 F7800 X82.609 Y105.52
G0 X82.609 Y105.52
G1 F3600 X93.009 Y115.92 E260.88851
G0 F7800 X93.009 Y116.344
G1 F3600 X81.904 Y105.239 E261.28027
G0 F7800 X82.878 Y105.364
G1 F3600 X93.009 Y115.495 E261.63767
G0 F7800 X93.009 Y115.071
G1 F3600 X83.147 Y105.209 E261.98558
G0 F7800 X83.416 Y105.054
G1 F3600 X93.009 Y114.647 E262.324
G0 F7800 X93.009 Y114.223
G1 F3600 X91.589 Y112.802 E262.37411
G0 F7800 X92.691 Y113.48
G1 F3600 X93.009 Y113.798 E262.38533
G0 F7800 X92.751 Y116.509
G0 X92.751 Y116.509
G1 F3600 X80.901 Y104.66 E262.80335
G0 F7800 X79.898 Y104.081
G1 F3600 X92.326 Y116.509 E263.24178
G0 F7800 X91.902 Y116.509
G1 F3600 X78.894 Y103.502 E263.70066
G0 F7800 X81.487 Y104.257
G0 X82.5 Y104.987
G0 X82.96 Y104.686
G0 X83.685 Y104.898
G0 X83.685 Y104.898
G1 F3600 X87.624 Y108.837 E263.83962
G0 F7800 X86.932 Y107.721
G1 F3600 X83.954 Y104.743 E263.94467
G0 F7800 X84.223 Y104.588
G1 F3600 X86.479 Y106.844 E264.02426
G0 F7800 X86.131 Y106.072
G1 F3600 X84.492 Y104.433 E264.08208
G0 F7800 X84.761 Y104.277
G1 F3600 X85.876 Y105.392 E264.12142
G0 F7800 X85.67 Y104.762
G1 F3600 X85.03 Y104.122 E264.14399
G0 F7800 X85.299 Y103.967
G1 F3600 X85.498 Y104.166 E264.15101
G1 F1800 E263.15101
G0 F7800 X85.567 Y103.206
G0 X82.5 Y104.987
G0 X78.527 Y102.693
G0 X78.527 Y98.106
G0 X82.5 Y95.812
G0 X85.959 Y97.8
G0 X85.953 Y97.89
G0 X85.953 Y97.89
G0 X86.055 Y98.732
G1 F1800 E264.15101
G1 F3600 X86.075 Y98.387 E264.15963
G0 F7800 X85.953 Y97.89
G0 X86.027 Y98.032
G0 X85.842 Y97.678
G0 X78.4 Y83.5
G0 X78.4 Y83.5
G1 F3600 X68.4 Y83.5 E264.32593
G1 F1800 E263.32593
G0 F7800 X71.787 Y84.161
G0 X67.941 Y84.059
G0 X67.941 Y82.941
G0 X132.059 Y82.941
G0 X132.059 Y84.059
G0 X122.059 Y84.059
G0 X122.059 Y117.059
G0 X106.441 Y117.059
G0 X106.471 Y113.333
G0 X107.22 Y112.972
G0 X108.21 Y112.349
G0 X109.148 Y111.649
G0 X110.026 Y110.873
G0 X110.837 Y110.031
G0 X111.579 Y109.126
G0 X112.246 Y108.163
G0 X112.833 Y107.15
G0 X113.334 Y106.093
G0 X113.751 Y104.998
G0 X114.077 Y103.873
G0 X114.171 Y103
G0 X117.5 Y104.987
G0 X121.473 Y102.693
G0 X121.473 Y98.106
G0 X117.5 Y95.812
G0 X114.169 Y97.801
G0 X114.104 Y97.042
G0 X113.797 Y95.944
G0 X113.404 Y94.874
G0 X112.93 Y93.84
G0 X112.374 Y92.847
G0 X111.745 Y91.899
G0 X111.702 Y91.954
G0 X112.47 Y92.105
G0 X112.47 Y92.105
G1 F1800 E264.32593
G1 F3600 X116.283 Y95.918 E264.46045
G0 F7800 X116.013 Y96.073
G1 F3600 X113.125 Y93.184 E264.56235
G0 F7800 X113.564 Y94.048
G1 F3600 X115.744 Y96.228 E264.63925
G0 F7800 X115.475 Y96.383
G1 F3600 X113.903 Y94.811 E264.69471
G0 F7800 X114.148 Y95.481
G1 F3600 X115.206 Y96.539 E264.73203
G0 F7800 X114.938 Y96.694
G1 F3600 X114.351 Y96.107 E264.75274
G0 F7800 X114.515 Y96.696
G1 F3600 X114.668 Y96.849 E264.75814
G0 F7800 X114.279 Y97.733
G0 X114.119 Y98.099
G0 X114.184 Y97.955
G0 X114.184 Y97.955
G0 X113.925 Y98.388
G1 F3600 X113.945 Y98.732 E264.76673
G1 F1800 E263.76673
G0 F7800 X114.046 Y97.891
G0 X114.045 Y97.805
G0 X117.5 Y95.812
G0 X121.473 Y98.106
G0 X121.473 Y102.693
G0 X117.5 Y104.987
G0 X114.046 Y102.993
G0 X114.047 Y102.909
G0 X114.047 Y102.909
G0 X113.944 Y102.067
G1 F1800 E264.76673
G1 F3600 X113.923 Y102.411 E264.77533
G0 F7800 X114.047 Y102.909
G0 X106.989 Y114.201
G0 X106.989 Y114.201
G1 F3600 X109.296 Y116.509 E264.85673
G0 F7800 X108.872 Y116.509
G1 F3600 X106.989 Y114.626 E264.92316
G0 F7800 X106.989 Y115.05
G1 F3600 X108.448 Y116.509 E264.97463
G0 F7800 X108.023 Y116.509
G1 F3600 X106.99 Y115.475 E265.01109
G0 F7800 X106.99 Y115.899
G1 F3600 X107.599 Y116.509 E265.03259
G0 F7800 X107.175 Y116.509
G1 F3600 X106.99 Y116.324 E265.03912
G0 F7800 X121.613 Y102.521
G0 X121.613 Y102.521
; TYPE:TOP-FILL
G1 F3000 X121.759 Y102.667 E265.04427
G0 F7800 X121.883 Y102.367
G1 F3000 X121.613 Y102.097 E265.0538
G0 F7800 X121.883 Y101.943
G1 F3000 X121.613 Y101.673 E265.06332
G0 F7800 X121.883 Y101.519
G1 F3000 X121.613 Y101.249 E265.07285
G0 F7800 X121.883 Y101.095
G1 F3000 X121.613 Y100.824 E265.08239
G0 F7800 X121.883 Y100.67
G1 F3000 X121.613 Y100.4 E265.09191
G0 F7800 X121.883 Y100.246
G1 F3000 X121.613 Y99.976 E265.10144
G0 F7800 X121.883 Y99.822
G1 F3000 X121.613 Y99.552 E265.11096
G0 F7800 X121.883 Y99.398
G1 F3000 X121.613 Y99.127 E265.12051
G0 F7800 X121.883 Y98.973
G1 F3000 X121.613 Y98.703 E265.13003
G0 F7800 X121.883 Y98.549
G1 F3000 X121.613 Y98.279 E265.13956
G0 F7800 X121.842 Y98.083
G1 F3000 X121.883 Y98.125 E265.14102
G1 F1800 E264.14102
G0 F7800 X121.499 Y98.126
G0 X121.473 Y102.693
G0 X117.5 Y104.987
G0 X114.171 Y103
G0 X114.077 Y103.873
G0 X113.751 Y104.998
G0 X113.334 Y106.093
G0 X112.833 Y107.15
G0 X112.246 Y108.163
G0 X111.579 Y109.126
G0 X110.837 Y110.031
G0 X110.026 Y110.873
G0 X109.148 Y111.649
G0 X108.21 Y112.349
G0 X107.22 Y112.972
G0 X106.471 Y113.333
G0 X106.441 Y117.059
G0 X122.059 Y117.059
G0 X122.059 Y84.059
G0 X132.059 Y84.059
G0 X132.059 Y82.941
G0 X67.941 Y82.941
G0 X67.941 Y84.059
G0 X77.941 Y84.059
G0 X77.941 Y117.059
G0 X93.559 Y117.059
G0 X93.529 Y113.334
G0 X92.749 Y112.957
G0 X91.76 Y112.33
G0 X90.824 Y111.627
G0 X89.948 Y110.849
G0 X89.138 Y110.005
G0 X88.399 Y109.097
G0 X87.734 Y108.133
G0 X87.151 Y107.118
G0 X86.651 Y106.06
G0 X86.238 Y104.962
G0 X85.914 Y103.839
G0 X85.83 Y102.999
G0 X82.5 Y104.987
G0 X78.527 Y102.693
G0 X78.499 Y98.324
G0 X78.384 Y98.325
G0 X78.384 Y98.325
G1 F1800 E265.14102
G1 F3000 X78.121 Y98.062 E265.1503
G0 F7800 X78.114 Y98.479
G1 F3000 X78.384 Y98.749 E265.15982
G0 F7800 X78.114 Y98.903
G1 F3000 X78.384 Y99.173 E265.16935
G0 F7800 X78.114 Y99.327
G1 F3000 X78.384 Y99.598 E265.17889
G0 F7800 X78.114 Y99.752
G1 F3000 X78.384 Y100.022 E265.18842
G0 F7800 X78.114 Y100.176
G1 F3000 X78.384 Y100.446 E265.19794
G0 F7800 X78.114 Y100.6
G1 F3000 X78.384 Y100.87 E265.20747
G0 F7800 X78.114 Y101.025
G1 F3000 X78.384 Y101.295 E265.21699
G0 F7800 X78.114 Y101.449
G1 F3000 X78.384 Y101.719 E265.22652
G0 F7800 X78.114 Y101.873
G1 F3000 X78.384 Y102.143 E265.23604
G0 F7800 X78.114 Y102.297
G1 F3000 X78.384 Y102.567 E265.24557
G0 F7800 X78.125 Y102.732
G1 F3000 X78.114 Y102.722 E265.24594
; Layer Change GCode
; LAYER:3
G0 F7800 X77.9 Y84.35 Z0.85
G0 X77.9 Y84.35
G0 X77.65 Y84.35
G0 X77.65 Y84.35
G0 X78.25 Y83.75
; TYPE:WALL-INNER
G1 F1800 X68.25 Y83.75 E265.49539
G1 X68.25 Y83.25 E265.50786
G1 X131.75 Y83.25 E267.09187
G1 X131.75 Y83.75 E267.10435
G1 X121.75 Y83.75 E267.3538
G1 X121.75 Y97.946 E267.70792
G1 X117.5 Y95.492 E267.83034
G1 X114.406 Y97.279 E267.91947
G1 X114.35 Y96.994 E267.92671
G1 X114.038 Y95.876 E267.95567
G1 X113.64 Y94.787 E267.98459
G1 X113.157 Y93.735 E268.01347
G1 X112.594 Y92.723 E268.04235
G1 X111.953 Y91.759 E268.07123
G1 X111.239 Y90.848 E268.1001
G1 X110.455 Y89.997 E268.12897
G1 X109.608 Y89.209 E268.15783
G1 X108.7 Y88.489 E268.18673
G1 X107.739 Y87.844 E268.2156
G1 X106.731 Y87.275 E268.24448
G1 X105.681 Y86.788 E268.27335
G1 X104.596 Y86.385 E268.30222
G1 X103.483 Y86.068 E268.33109
G1 X102.348 Y85.839 E268.35997
G1 X101.199 Y85.7 E268.38885
G1 X100.043 Y85.651 E268.41771
G1 X98.844 Y85.695 E268.44764
G1 X97.693 Y85.831 E268.47655
G1 X96.558 Y86.056 E268.50541
G1 X95.443 Y86.37 E268.53431
G1 X94.357 Y86.771 E268.56319
G1 X93.306 Y87.255 E268.59205
G1 X92.296 Y87.821 E268.62093
G1 X91.333 Y88.464 E268.64982
G1 X90.424 Y89.18 E268.67868
G1 X89.573 Y89.965 E268.70756
G1 X88.787 Y90.815 E268.73644
G1 X88.07 Y91.725 E268.76534
G1 X87.427 Y92.686 E268.79418
G1 X86.86 Y93.696 E268.82308
G1 X86.375 Y94.748 E268.85197
G1 X85.974 Y95.832 E268.8808
G1 X85.658 Y96.946 E268.90969
G1 X85.592 Y97.277 E268.91811
G1 X82.5 Y95.492 E269.00717
G1 X78.25 Y97.946 E269.12959
G1 X78.25 Y83.75 E269.48371
G0 F7800 X77.95 Y84.05
G1 F1800 X67.95 Y84.05 E269.73316
G1 X67.95 Y82.95 E269.7606
G1 X132.05 Y82.95 E271.35958
G1 X132.05 Y84.05 E271.38702
G1 X122.05 Y84.05 E271.63647
G1 X122.05 Y117.05 E272.45966
G1 X106.45 Y117.05 E272.84881
G1 X106.45 Y113.321 E272.94183
G1 X107.186 Y112.935 E272.96256
G1 X108.173 Y112.314 E272.99165
G1 X109.109 Y111.616 E273.02077
G1 X109.985 Y110.844 E273.0499
G1 X110.795 Y110.003 E273.07903
G1 X111.535 Y109.101 E273.10813
G1 X112.201 Y108.141 E273.13727
G1 X112.787 Y107.131 E273.1664
G1 X113.288 Y106.077 E273.19551
G1 X113.703 Y104.985 E273.22465
G1 X114.029 Y103.864 E273.25378
G1 X114.195 Y103.052 E273.27445
G1 X117.5 Y104.961 E273.36966
G1 X121.45 Y102.68 E273.48344
G1 X121.45 Y98.119 E273.59722
G1 X117.5 Y95.838 E273.711
G1 X114.192 Y97.748 E273.80628
G1 X114.058 Y97.063 E273.8237
G1 X113.753 Y95.968 E273.85205
G1 X113.362 Y94.902 E273.88037
G1 X112.89 Y93.87 E273.90868
G1 X112.338 Y92.88 E273.93696
G1 X111.71 Y91.935 E273.96526
G1 X111.01 Y91.042 E273.99356
G1 X110.242 Y90.208 E274.02185
G1 X109.412 Y89.436 E274.05012
G1 X108.523 Y88.731 E274.07842
G1 X107.581 Y88.1 E274.10671
G1 X106.594 Y87.542 E274.13499
G1 X105.565 Y87.065 E274.16328
G1 X104.502 Y86.67 E274.19157
G1 X103.412 Y86.359 E274.21985
G1 X102.301 Y86.135 E274.24812
G1 X101.175 Y85.999 E274.27641
G1 X100.042 Y85.952 E274.3047
G1 X98.867 Y85.994 E274.33403
G1 X97.74 Y86.127 E274.36234
G1 X96.628 Y86.348 E274.39062
G1 X95.536 Y86.656 E274.41892
G1 X94.472 Y87.048 E274.44721
G1 X93.442 Y87.523 E274.4755
G1 X92.453 Y88.077 E274.50378
G1 X91.509 Y88.707 E274.53209
G1 X90.619 Y89.408 E274.56035
G1 X89.786 Y90.177 E274.58863
G1 X89.016 Y91.01 E274.61693
G1 X88.313 Y91.901 E274.64524
G1 X87.683 Y92.843 E274.67351
G1 X87.127 Y93.832 E274.70181
G1 X86.652 Y94.863 E274.73012
G1 X86.26 Y95.925 E274.75836
G1 X85.95 Y97.017 E274.78668
G1 X85.805 Y97.746 E274.80522
G1 X82.5 Y95.838 E274.90042
G1 X78.55 Y98.119 E275.0142
G1 X78.55 Y102.68 E275.12797
G1 X82.5 Y104.961 E275.24176
G1 X85.806 Y103.052 E275.33699
G1 X85.96 Y103.816 E275.35643
G1 X86.281 Y104.937 E275.38551
G1 X86.693 Y106.032 E275.4147
G1 X87.191 Y107.088 E275.44382
G1 X87.773 Y108.101 E275.47297
G1 X88.435 Y109.063 E275.5021
G1 X89.172 Y109.968 E275.53121
G1 X89.98 Y110.811 E275.56034
G1 X90.853 Y111.587 E275.58947
G1 X91.786 Y112.289 E275.6186
G1 X92.773 Y112.913 E275.64773
G1 X93.55 Y113.321 E275.66962
G1 X93.55 Y117.05 E275.76264
G1 X77.95 Y117.05 E276.15179
G1 X77.95 Y84.05 E276.97497
G0 F7800 X77.65 Y84.35
; TYPE:WALL-OUTER
G1 F1260 X67.65 Y84.35 E277.22442
G1 X67.65 Y82.65 E277.26683
G1 X132.35 Y82.65 E278.88078
G1 X132.35 Y84.35 E278.92319
G1 X122.35 Y84.35 E279.17264
G1 X122.35 Y117.35 E279.99583
G1 X106.15 Y117.35 E280.39994
G1 X106.15 Y113.14 E280.50495
G1 X107.036 Y112.675 E280.52992
G1 X108.003 Y112.067 E280.55841
G1 X108.92 Y111.383 E280.58695
G1 X109.778 Y110.627 E280.61547
G1 X110.571 Y109.804 E280.64398
G1 X111.296 Y108.92 E280.6725
G1 X111.948 Y107.98 E280.70104
G1 X112.521 Y106.991 E280.72955
G1 X113.012 Y105.959 E280.75806
G1 X113.418 Y104.89 E280.78658
G1 X113.738 Y103.792 E280.81511
G1 X113.977 Y102.58 E280.84593
G1 X117.5 Y104.614 E280.9474
G1 X121.15 Y102.507 E281.05254
G1 X121.15 Y98.292 E281.15768
G1 X117.5 Y96.185 E281.26281
G1 X113.978 Y98.218 E281.36425
G1 X113.766 Y97.132 E281.39185
G1 X113.467 Y96.06 E281.41962
G1 X113.085 Y95.016 E281.44735
G1 X112.622 Y94.006 E281.47506
G1 X112.081 Y93.036 E281.50277
G1 X111.467 Y92.111 E281.53046
G1 X110.781 Y91.237 E281.55818
G1 X110.029 Y90.42 E281.58588
G1 X109.217 Y89.664 E281.61355
G1 X108.346 Y88.974 E281.64127
G1 X107.424 Y88.355 E281.66897
G1 X106.457 Y87.809 E281.69668
G1 X105.45 Y87.342 E281.72437
G1 X104.409 Y86.955 E281.75207
G1 X103.341 Y86.651 E281.77977
G1 X102.253 Y86.432 E281.80745
G1 X101.15 Y86.298 E281.83517
G1 X100.041 Y86.252 E281.86286
G1 X98.89 Y86.293 E281.89159
G1 X97.787 Y86.424 E281.9193
G1 X96.698 Y86.64 E281.94699
G1 X95.629 Y86.941 E281.97469
G1 X94.587 Y87.325 E282.0024
G1 X93.579 Y87.79 E282.03009
G1 X92.61 Y88.333 E282.0578
G1 X91.686 Y88.95 E282.08551
G1 X90.814 Y89.637 E282.1132
G1 X89.998 Y90.39 E282.1409
G1 X89.244 Y91.205 E282.1686
G1 X88.556 Y92.078 E282.19632
G1 X87.939 Y93 E282.224
G1 X87.394 Y93.969 E282.25173
G1 X86.929 Y94.978 E282.27944
G1 X86.545 Y96.018 E282.3071
G1 X86.242 Y97.087 E282.33482
G1 X86.02 Y98.217 E282.36354
G1 X82.5 Y96.185 E282.46493
G1 X78.85 Y98.292 E282.57006
G1 X78.85 Y102.507 E282.6752
G1 X82.5 Y104.614 E282.78034
G1 X86.022 Y102.581 E282.88178
G1 X86.252 Y103.745 E282.91138
G1 X86.566 Y104.843 E282.93986
G1 X86.97 Y105.915 E282.96844
G1 X87.457 Y106.949 E282.99695
G1 X88.027 Y107.941 E283.02549
G1 X88.675 Y108.883 E283.05401
G1 X89.397 Y109.769 E283.08252
G1 X90.188 Y110.595 E283.11105
G1 X91.043 Y111.354 E283.13957
G1 X91.957 Y112.042 E283.16811
G1 X92.923 Y112.653 E283.19662
G1 X93.85 Y113.14 E283.22274
G1 X93.85 Y117.35 E283.32776
G1 X77.65 Y117.35 E283.73187
G1 X77.65 Y84.35 E284.55506
G0 F7800 X77.9 Y84.35
G0 X78.25 Y102.853
G0 X78.25 Y102.853
; TYPE:WALL-INNER
G1 F1800 X82.5 Y105.307 E284.67748
G1 X85.595 Y103.52 E284.76663
G1 X85.669 Y103.887 E284.77597
G1 X85.996 Y105.032 E284.80567
G1 X86.417 Y106.149 E284.83545
G1 X86.925 Y107.227 E284.86518
G1 X87.519 Y108.261 E284.89492
G1 X88.194 Y109.243 E284.92465
G1 X88.947 Y110.167 E284.95438
G1 X89.771 Y111.028 E284.98411
G1 X90.663 Y111.819 E285.01385
G1 X91.615 Y112.536 E285.04358
G1 X92.623 Y113.173 E285.07333
G1 X93.25 Y113.502 E285.09099
G1 X93.25 Y116.75 E285.17201
G1 X78.25 Y116.75 E285.54619
G1 X78.25 Y102.853 E285.89285
G1 F1800 E284.89285
G0 F7800 X80.613 Y103.735
G0 X82.5 Y104.987
G0 X85.831 Y102.998
G0 X85.912 Y103.828
G0 X86.235 Y104.952
G0 X86.647 Y106.051
G0 X87.147 Y107.111
G0 X87.731 Y108.127
G0 X88.395 Y109.092
G0 X89.135 Y110.001
G0 X89.946 Y110.847
G0 X90.822 Y111.624
G0 X91.758 Y112.329
G0 X92.749 Y112.956
G0 X93.529 Y113.333
G0 X93.559 Y117.059
G0 X77.941 Y117.059
G0 X77.941 Y84.059
G0 X67.941 Y84.059
G0 X67.941 Y82.941
G0 X132.059 Y82.941
G0 X132.059 Y84.059
G0 X122.059 Y84.059
G0 X122.059 Y117.059
G0 X106.441 Y117.059
G0 X106.487 Y113.403
G0 X106.75 Y113.502
G0 X106.75 Y113.502
G1 F1800 E285.89285
G1 X107.335 Y113.196 E285.90932
G1 X108.343 Y112.562 E285.93902
G1 X109.298 Y111.849 E285.96875
G1 X110.193 Y111.061 E285.9985
G1 X111.02 Y110.203 E286.02822
G1 X111.775 Y109.282 E286.05793
G1 X112.455 Y108.302 E286.08769
G1 X113.052 Y107.271 E286.11741
G1 X113.564 Y106.195 E286.14713
G1 X113.988 Y105.08 E286.17689
G1 X114.321 Y103.936 E286.20661
G1 X114.406 Y103.52 E286.2172
G1 X117.5 Y105.307 E286.30633
G1 X121.75 Y102.853 E286.42875
G1 X121.75 Y116.75 E286.77541
G1 X106.75 Y116.75 E287.14959
G1 X106.75 Y113.502 E287.23061
G0 F7800 X106.99 Y114.051
; TYPE:FILL
G1 F3600 X107.948 Y113.093 E287.26441
G0 F7800 X106.99 Y114.475
G0 X106.99 Y114.475
G1 F3600 X109.379 Y112.086 E287.34868
G0 F7800 X111.635 Y109.829
G0 X111.635 Y109.829
G1 F3600 X116.473 Y104.991 E287.51936
G0 F7800 X116.204 Y104.837
G1 F3600 X112.719 Y108.321 E287.64228
G0 F7800 X113.29 Y107.326
G1 F3600 X115.935 Y104.681 E287.73559
G0 F7800 X115.667 Y104.525
G1 F3600 X113.676 Y106.516 E287.80583
G0 F7800 X113.972 Y105.796
G1 F3600 X115.397 Y104.371 E287.8561
G0 F7800 X115.129 Y104.215
G1 F3600 X114.226 Y105.118 E287.88796
G0 F7800 X114.399 Y104.52
G1 F3600 X114.86 Y104.059 E287.90422
G0 F7800 X114.59 Y103.905
G1 F3600 X114.571 Y103.924 E287.90489
G0 F7800 X116.742 Y105.147
G0 X116.742 Y105.147
G1 F3600 X106.99 Y114.899 E288.24892
G0 F7800 X106.99 Y115.324
G1 F3600 X117.011 Y105.303 E288.60244
G0 F7800 X117.28 Y105.457
G1 F3600 X106.99 Y115.748 E288.96546
G0 F7800 X106.99 Y116.172
G1 F3600 X117.686 Y105.476 E289.34279
G0 F7800 X118.69 Y104.896
G1 F3600 X107.077 Y116.509 E289.75247
G0 F7800 X107.502 Y116.509
G1 F3600 X119.694 Y104.316 E290.18259
G0 F7800 X120.698 Y103.736
G1 F3600 X107.926 Y116.509 E290.63318
G0 F7800 X108.35 Y116.509
G1 F3600 X121.509 Y103.35 E291.0974
G0 F7800 X121.509 Y103.774
G1 F3600 X108.774 Y116.509 E291.54666
G0 F7800 X109.199 Y116.509
G1 F3600 X121.509 Y104.199 E291.98093
G0 F7800 X121.509 Y104.623
G1 F3600 X109.623 Y116.509 E292.40024
G0 F7800 X110.047 Y116.509
G1 F3600 X121.509 Y105.047 E292.80459
G0 F7800 X121.509 Y105.472
G1 F3600 X110.471 Y116.509 E293.19397
G0 F7800 X110.896 Y116.509
G1 F3600 X121.509 Y105.896 E293.56837
G0 F7800 X121.509 Y106.32
G1 F3600 X111.32 Y116.509 E293.92782
G0 F7800 X111.744 Y116.509
G1 F3600 X121.509 Y106.744 E294.2723
G0 F7800 X121.509 Y107.169
G1 F3600 X112.169 Y116.509 E294.6018
G0 F7800 X112.593 Y116.509
