; Generated with MatterSlice 1.0
; filamentDiameter = 1.75
; extrusionWidth = 0.3
; firstLayerExtrusionWidth = 0.3
; layerThickness = 0.2
; firstLayerThickness = 0.25
; automatic settings before start_gcode
G21 ; set units to millimeters
M107 ; fan off
M190 S80 ; wait for bed temperature to be reached
M104 T0 S210 ; start heating extruder 1
T0 ; set the active extruder to 0
; settings from start_gcode
G28 ; home all axes
G1 Z5 F5000 ; lift nozzle
; automatic settings after start_gcode
M109 T0 S210 ; wait for extruder 1 to reach temperature
T0 ; set the active extruder to 0
G90 ; use absolute coordinates
G92 E0 ; reset the expected extruder position
M82 ; use absolute distance for extrusion
; Layer count: 100
; Layer Change GCode
; LAYER:0
G4 P0
M107
G0 F7800 X131.275 Y127.275 Z0.25
; TYPE:SKIRT
G1 F1800 E0
G1 F720 X68.725 Y127.275 E1.9504
G1 X68.725 Y101.988 E2.73888
G1 X68.811 Y99.819 E2.80656
G1 X69.081 Y97.527 E2.87853
G1 X69.533 Y95.259 E2.95064
G1 X70.16 Y93.039 E3.02257
G1 X70.958 Y90.873 E3.09454
G1 X71.926 Y88.777 E3.16653
G1 X73.053 Y86.762 E3.23852
G1 X74.337 Y84.841 E3.31057
G1 X75.767 Y83.026 E3.38262
G1 X77.334 Y81.334 E3.45453
G1 X79.026 Y79.767 E3.52644
G1 X80.841 Y78.337 E3.59849
G1 X82.762 Y77.053 E3.67054
G1 X84.777 Y75.926 E3.74253
G1 X86.873 Y74.958 E3.81452
G1 X89.039 Y74.16 E3.88649
G1 X91.259 Y73.533 E3.95842
G1 X93.527 Y73.081 E4.03053
G1 X95.819 Y72.811 E4.10249
G1 X97.988 Y72.725 E4.17018
G1 X131.275 Y72.725 E5.20811
G1 X131.275 Y127.275 E6.90906
G0 F7800 X130.975 Y126.975
G1 F720 X69.025 Y126.975 E8.84075
G1 X69.025 Y101.994 E9.61969
G1 X69.11 Y99.842 E9.68684
G1 X69.378 Y97.574 E9.75805
G1 X69.825 Y95.329 E9.82943
G1 X70.446 Y93.132 E9.90062
G1 X71.236 Y90.988 E9.97187
G1 X72.193 Y88.913 E10.04312
G1 X73.309 Y86.919 E10.11437
G1 X74.58 Y85.017 E10.1857
G1 X75.995 Y83.221 E10.25699
G1 X77.546 Y81.546 E10.32817
G1 X79.221 Y79.995 E10.39936
G1 X81.017 Y78.58 E10.47065
G1 X82.919 Y77.309 E10.54198
G1 X84.913 Y76.193 E10.61323
G1 X86.988 Y75.236 E10.68448
G1 X89.132 Y74.446 E10.75573
G1 X91.329 Y73.825 E10.82692
G1 X93.574 Y73.378 E10.89829
G1 X95.842 Y73.11 E10.96951
G1 X97.994 Y73.025 E11.03666
G1 X130.975 Y73.025 E12.06505
G1 X130.975 Y126.975 E13.74729
G0 F7800 X124.825 Y120.825
G1 F720 X75.175 Y120.825 E15.29544
G1 X75.175 Y102.116 E15.87882
G1 X75.246 Y100.325 E15.93471
G1 X75.457 Y98.536 E15.99088
G1 X75.809 Y96.768 E16.04709
G1 X76.299 Y95.034 E16.10327
G1 X76.922 Y93.343 E16.15947
G1 X77.677 Y91.707 E16.21565
G1 X78.557 Y90.134 E16.27185
G1 X79.559 Y88.635 E16.32807
G1 X80.674 Y87.22 E16.38425
G1 X81.898 Y85.898 E16.44042
G1 X83.22 Y84.674 E16.4966
G1 X84.635 Y83.559 E16.55277
G1 X86.134 Y82.557 E16.609
G1 X87.707 Y81.677 E16.6652
G1 X89.343 Y80.922 E16.72138
G1 X91.034 Y80.299 E16.77757
G1 X92.768 Y79.809 E16.83376
G1 X94.536 Y79.457 E16.88997
G1 X96.325 Y79.246 E16.94614
G1 X98.116 Y79.175 E17.00203
G1 X124.825 Y79.175 E17.83485
G1 X124.825 Y120.825 E19.13356
G0 F7800 X124.525 Y120.525
G1 F720 X75.475 Y120.525 E20.663
G1 X75.475 Y102.122 E21.23683
G1 X75.545 Y100.348 E21.29219
G1 X75.754 Y98.583 E21.34761
G1 X76.101 Y96.838 E21.40309
G1 X76.584 Y95.127 E21.45853
G1 X77.199 Y93.458 E21.51399
G1 X77.944 Y91.843 E21.56945
G1 X78.813 Y90.291 E21.62491
G1 X79.802 Y88.812 E21.68039
G1 X80.902 Y87.415 E21.73583
G1 X82.11 Y86.11 E21.79128
G1 X83.415 Y84.902 E21.84673
G1 X84.812 Y83.802 E21.90217
G1 X86.291 Y82.813 E21.95765
G1 X87.843 Y81.944 E22.01311
G1 X89.458 Y81.199 E22.06857
G1 X91.127 Y80.584 E22.12403
G1 X92.838 Y80.101 E22.17947
G1 X94.583 Y79.754 E22.23495
G1 X96.348 Y79.545 E22.29037
G1 X98.122 Y79.475 E22.34573
G1 X124.525 Y79.475 E23.16901
G1 X124.525 Y120.525 E24.449
G1 F1800 E23.449
G0 F7800 X123.975 Y120.065
G0 X75.935 Y119.975
G0 X75.935 Y119.975
G0 X75.775 Y120.225
; TYPE:WALL-OUTER
G1 F1800 E24.449
G1 F720 X75.775 Y102.131 E25.0132
G1 X75.845 Y100.366 E25.06828
G1 X76.051 Y98.624 E25.12297
G1 X76.394 Y96.902 E25.17772
G1 X76.868 Y95.225 E25.23206
G1 X77.479 Y93.567 E25.28716
G1 X78.209 Y91.984 E25.34152
G1 X79.066 Y90.452 E25.39625
G1 X80.041 Y88.993 E25.45097
G1 X81.134 Y87.606 E25.50603
G1 X82.322 Y86.322 E25.56058
G1 X83.606 Y85.134 E25.61512
G1 X84.993 Y84.041 E25.67019
G1 X86.448 Y83.068 E25.72476
G1 X87.98 Y82.211 E25.7795
G1 X89.567 Y81.479 E25.834
G1 X91.225 Y80.868 E25.88909
G1 X92.907 Y80.393 E25.94359
G1 X94.626 Y80.051 E25.99824
G1 X96.371 Y79.845 E26.05303
G1 X98.131 Y79.775 E26.10795
G1 X124.225 Y79.775 E26.9216
G1 X124.225 Y120.225 E28.18289
G1 X75.775 Y120.225 E29.69363
G0 F7800 X76.075 Y119.925
; TYPE:WALL-INNER
G1 F720 X76.075 Y102.143 E30.24809
G1 X76.144 Y100.392 E30.30273
G1 X76.348 Y98.671 E30.35677
G1 X76.684 Y96.98 E30.41053
G1 X77.155 Y95.313 E30.46455
G1 X77.751 Y93.695 E30.51831
G1 X78.481 Y92.114 E30.57261
G1 X79.329 Y90.599 E30.62675
G1 X80.287 Y89.165 E30.68052
G1 X81.358 Y87.806 E30.73447
G1 X82.534 Y86.534 E30.78849
G1 X83.806 Y85.358 E30.84251
G1 X85.165 Y84.287 E30.89646
G1 X86.599 Y83.329 E30.95023
G1 X88.114 Y82.481 E31.00437
G1 X89.695 Y81.751 E31.05867
G1 X91.313 Y81.155 E31.11244
G1 X92.98 Y80.684 E31.16645
G1 X94.671 Y80.348 E31.22021
G1 X96.392 Y80.144 E31.27425
G1 X98.143 Y80.075 E31.32889
G1 X123.925 Y80.075 E32.13281
G1 X123.925 Y119.925 E33.37538
G1 X76.075 Y119.925 E34.86741
G0 F7800 X76.375 Y119.625
G1 F720 X76.375 Y102.125 E35.41309
G1 X76.443 Y100.426 E35.46611
G1 X76.643 Y98.725 E35.51951
G1 X76.977 Y97.048 E35.57283
G1 X77.442 Y95.403 E35.62613
G1 X78.033 Y93.8 E35.67941
G1 X78.749 Y92.246 E35.73276
G1 X79.574 Y90.773 E35.7854
G1 X80.536 Y89.334 E35.83937
G1 X81.584 Y88.003 E35.8922
G1 X82.747 Y86.747 E35.94557
G1 X84.003 Y85.584 E35.99895
G1 X85.334 Y84.536 E36.05177
G1 X86.773 Y83.574 E36.10574
G1 X88.246 Y82.749 E36.15839
G1 X89.8 Y82.033 E36.21174
G1 X91.403 Y81.442 E36.26501
G1 X93.048 Y80.977 E36.31831
G1 X94.725 Y80.643 E36.37163
G1 X96.426 Y80.443 E36.42504
G1 X98.13 Y80.375 E36.47821
G1 X123.625 Y80.375 E37.27318
G1 X123.625 Y119.625 E38.49705
G1 X76.375 Y119.625 E39.97037
G0 F7800 X80.566 Y105.693
G0 X80.681 Y105.31
G0 X80.595 Y105.598
G0 X80.595 Y105.598
G0 X80.625 Y105.351
; TYPE:WALL-OUTER
G1 F720 X81.428 Y105.249 E39.99561
G1 X82.18 Y104.951 E40.02083
G1 X82.833 Y104.476 E40.04601
G1 X83.35 Y103.853 E40.07126
G1 X83.694 Y103.122 E40.09645
G1 X83.845 Y102.327 E40.12168
G1 X83.795 Y101.521 E40.14686
G1 X83.545 Y100.752 E40.17207
G1 X83.111 Y100.069 E40.19731
G1 X82.522 Y99.516 E40.2225
G1 X81.814 Y99.125 E40.24772
G1 X81.03 Y98.925 E40.27295
G1 X80.221 Y98.925 E40.29817
G1 X79.437 Y99.125 E40.3234
G1 X78.729 Y99.516 E40.34862
G1 X78.14 Y100.069 E40.37381
G1 X77.706 Y100.752 E40.39905
G1 X77.456 Y101.521 E40.42426
G1 X77.406 Y102.327 E40.44944
G1 X77.557 Y103.122 E40.47467
G1 X77.901 Y103.853 E40.49986
G1 X78.416 Y104.476 E40.52507
G1 X79.071 Y104.951 E40.5503
G1 X79.823 Y105.249 E40.57552
G1 X80.625 Y105.351 E40.60073
G0 F7800 X80.625 Y105.654
; TYPE:WALL-INNER
G1 F720 X81.503 Y105.542 E40.62833
G1 X82.326 Y105.216 E40.65593
G1 X83.04 Y104.697 E40.68345
G1 X83.605 Y104.015 E40.71107
G1 X83.981 Y103.215 E40.73863
G1 X84.147 Y102.346 E40.76622
G1 X84.092 Y101.464 E40.79377
G1 X83.818 Y100.623 E40.82135
G1 X83.344 Y99.876 E40.84894
G1 X82.7 Y99.271 E40.87649
G1 X81.925 Y98.844 E40.90408
G1 X81.068 Y98.625 E40.93166
G1 X80.183 Y98.625 E40.95926
G1 X79.326 Y98.844 E40.98684
G1 X78.551 Y99.271 E41.01443
G1 X77.907 Y99.876 E41.04198
G1 X77.433 Y100.623 E41.06957
G1 X77.159 Y101.464 E41.09715
G1 X77.104 Y102.346 E41.1247
G1 X77.27 Y103.215 E41.15229
G1 X77.646 Y104.015 E41.17985
G1 X78.209 Y104.697 E41.20743
G1 X78.926 Y105.216 E41.23503
G1 X79.748 Y105.542 E41.2626
G1 X80.625 Y105.654 E41.29017
G0 F7800 X80.625 Y105.956
G1 F720 X81.578 Y105.835 E41.32013
G1 X82.471 Y105.481 E41.35008
G1 X83.247 Y104.917 E41.37999
G1 X83.86 Y104.177 E41.40995
G1 X84.269 Y103.308 E41.4399
G1 X84.448 Y102.365 E41.46983
G1 X84.389 Y101.408 E41.49973
G1 X84.092 Y100.494 E41.52969
G1 X83.577 Y99.683 E41.55965
G1 X82.877 Y99.027 E41.58956
G1 X82.036 Y98.563 E41.61951
G1 X81.105 Y98.325 E41.64948
G1 X80.146 Y98.325 E41.67938
G1 X79.215 Y98.563 E41.70934
G1 X78.374 Y99.027 E41.73929
G1 X77.674 Y99.683 E41.76921
G1 X77.159 Y100.494 E41.79916
G1 X76.862 Y101.408 E41.82913
G1 X76.803 Y102.365 E41.85903
G1 X76.982 Y103.308 E41.88896
G1 X77.391 Y104.177 E41.9189
G1 X78.002 Y104.917 E41.94883
G1 X78.78 Y105.481 E41.97879
G1 X79.673 Y105.835 E42.00874
G1 X80.625 Y105.956 E42.03867
G0 F7800 X92.467 Y113.081
G0 X92.686 Y113.688
G0 X93.51 Y114.678
G0 X94.511 Y115.489
G0 X95.653 Y116.088
G0 X96.885 Y116.454
G0 X98.125 Y116.576
G0 X98.138 Y116.494
G0 X98.102 Y116.473
G0 X98.102 Y116.473
G0 X98.125 Y116.226
; TYPE:WALL-OUTER
G1 F720 X99.339 Y116.106 E42.07671
G1 X100.507 Y115.751 E42.11477
G1 X101.584 Y115.176 E42.15284
G1 X102.527 Y114.402 E42.19088
G1 X103.301 Y113.459 E42.22892
G1 X103.876 Y112.382 E42.26699
G1 X104.231 Y111.214 E42.30505
G1 X104.351 Y110 E42.34309
G1 X104.231 Y108.785 E42.38116
G1 X103.876 Y107.617 E42.41923
G1 X103.301 Y106.54 E42.4573
G1 X102.527 Y105.597 E42.49534
G1 X101.584 Y104.823 E42.53338
G1 X100.507 Y104.248 E42.57144
G1 X99.339 Y103.893 E42.60951
G1 X98.084 Y103.778 E42.64881
G1 X96.91 Y103.893 E42.68559
G1 X95.706 Y104.267 E42.7249
G1 X94.633 Y104.849 E42.76296
G1 X93.697 Y105.63 E42.80097
G1 X92.929 Y106.577 E42.83899
G1 X92.361 Y107.658 E42.87707
G1 X92.015 Y108.827 E42.91508
G1 X91.903 Y110.042 E42.95313
G1 X92.031 Y111.255 E42.99116
G1 X92.393 Y112.419 E43.02917
G1 X92.975 Y113.492 E43.06724
G1 X93.756 Y114.428 E43.10525
G1 X94.703 Y115.196 E43.14327
G1 X95.784 Y115.764 E43.18134
G1 X96.952 Y116.11 E43.21933
G1 X98.125 Y116.226 E43.25608
G0 F7800 X98.125 Y116.527
; TYPE:WALL-INNER
G1 F720 X99.398 Y116.401 E43.29597
G1 X100.622 Y116.03 E43.33585
G1 X101.751 Y115.427 E43.37576
G1 X102.74 Y114.615 E43.41566
G1 X103.552 Y113.626 E43.45556
G1 X104.155 Y112.497 E43.49547
G1 X104.526 Y111.273 E43.53535
G1 X104.652 Y110 E43.57524
G1 X104.526 Y108.726 E43.61516
G1 X104.155 Y107.502 E43.65504
G1 X103.552 Y106.373 E43.69495
G1 X102.74 Y105.384 E43.73485
G1 X101.751 Y104.572 E43.77475
G1 X100.622 Y103.969 E43.81466
G1 X99.397 Y103.597 E43.85458
G1 X98.083 Y103.477 E43.89572
G1 X96.85 Y103.598 E43.93436
G1 X95.589 Y103.989 E43.97552
G1 X94.464 Y104.6 E44.01544
G1 X93.482 Y105.418 E44.05529
G1 X92.677 Y106.411 E44.09515
G1 X92.082 Y107.545 E44.13508
G1 X91.719 Y108.77 E44.17492
G1 X91.602 Y110.044 E44.21481
G1 X91.736 Y111.316 E44.2547
G1 X92.115 Y112.536 E44.29453
G1 X92.726 Y113.661 E44.33445
G1 X93.544 Y114.643 E44.3743
G1 X94.537 Y115.448 E44.41416
G1 X95.671 Y116.043 E44.45409
G1 X96.894 Y116.406 E44.49387
G1 X98.125 Y116.527 E44.53244
G0 F7800 X98.125 Y116.829
G1 F720 X99.457 Y116.697 E44.57418
G1 X100.737 Y116.308 E44.61589
G1 X101.919 Y115.678 E44.65766
G1 X102.953 Y114.828 E44.69939
G1 X103.803 Y113.794 E44.74113
G1 X104.433 Y112.612 E44.7829
G1 X104.822 Y111.332 E44.82461
G1 X104.954 Y110 E44.86635
G1 X104.822 Y108.667 E44.90812
G1 X104.433 Y107.387 E44.94983
G1 X103.803 Y106.205 E44.9916
G1 X102.953 Y105.171 E45.03333
G1 X101.919 Y104.321 E45.07507
G1 X100.737 Y103.691 E45.11683
G1 X99.455 Y103.301 E45.15862
G1 X98.082 Y103.176 E45.20161
G1 X96.791 Y103.302 E45.24205
G1 X95.472 Y103.712 E45.28512
G1 X94.295 Y104.35 E45.32687
G1 X93.267 Y105.207 E45.3686
G1 X92.426 Y106.245 E45.41026
G1 X91.803 Y107.431 E45.45203
G1 X91.423 Y108.713 E45.49372
G1 X91.3 Y110.046 E45.53546
G1 X91.441 Y111.377 E45.5772
G1 X91.838 Y112.653 E45.61887
G1 X92.476 Y113.83 E45.66061
G1 X93.333 Y114.858 E45.70235
G1 X94.371 Y115.699 E45.744
G1 X95.557 Y116.322 E45.78577
G1 X96.836 Y116.701 E45.82737
G1 X98.125 Y116.829 E45.86776
G1 F1800 E44.86776
G0 F7800 X98.787 Y116.403
G0 X99.407 Y116.45
G0 X100.64 Y116.075
G0 X101.778 Y115.468
G0 X102.774 Y114.649
G0 X103.593 Y113.653
G0 X103.692 Y113.249
G0 X115.595 Y105.598
G0 X115.595 Y105.598
G0 X115.625 Y105.351
; TYPE:WALL-OUTER
G1 F1800 E45.86776
G1 F720 X116.427 Y105.249 E45.89297
G1 X117.179 Y104.951 E45.91819
G1 X117.834 Y104.476 E45.94342
G1 X118.349 Y103.853 E45.96862
G1 X118.693 Y103.122 E45.99382
G1 X118.844 Y102.327 E46.01905
G1 X118.794 Y101.521 E46.04423
G1 X118.544 Y100.752 E46.06944
G1 X118.11 Y100.069 E46.09468
G1 X117.521 Y99.516 E46.11987
G1 X116.813 Y99.125 E46.14509
G1 X116.029 Y98.925 E46.17032
G1 X115.22 Y98.925 E46.19554
G1 X114.436 Y99.125 E46.22077
G1 X113.728 Y99.516 E46.24599
G1 X113.139 Y100.069 E46.27118
G1 X112.705 Y100.752 E46.29641
G1 X112.455 Y101.521 E46.32163
G1 X112.405 Y102.327 E46.34681
G1 X112.556 Y103.122 E46.37204
G1 X112.9 Y103.853 E46.39723
G1 X113.417 Y104.476 E46.42248
G1 X114.07 Y104.951 E46.44765
G1 X114.822 Y105.249 E46.47288
G1 X115.625 Y105.351 E46.49812
G0 F7800 X115.625 Y105.654
; TYPE:WALL-INNER
G1 F720 X116.502 Y105.542 E46.52568
G1 X117.324 Y105.216 E46.55326
G1 X118.041 Y104.697 E46.58086
G1 X118.604 Y104.015 E46.60843
G1 X118.98 Y103.215 E46.636
G1 X119.146 Y102.346 E46.66358
G1 X119.091 Y101.464 E46.69114
G1 X118.817 Y100.623 E46.71872
G1 X118.343 Y99.876 E46.7463
G1 X117.699 Y99.271 E46.77386
G1 X116.924 Y98.844 E46.80145
G1 X116.067 Y98.625 E46.82903
G1 X115.182 Y98.625 E46.85662
G1 X114.325 Y98.844 E46.88421
G1 X113.55 Y99.271 E46.9118
G1 X112.906 Y99.876 E46.93935
G1 X112.432 Y100.623 E46.96693
G1 X112.158 Y101.464 E46.99451
G1 X112.103 Y102.346 E47.02207
G1 X112.269 Y103.215 E47.04966
G1 X112.645 Y104.015 E47.07722
G1 X113.21 Y104.697 E47.10483
G1 X113.924 Y105.216 E47.13236
G1 X114.747 Y105.542 E47.15996
G1 X115.625 Y105.654 E47.18756
G0 F7800 X115.625 Y105.956
G1 F720 X116.577 Y105.835 E47.21748
G1 X117.47 Y105.481 E47.24744
G1 X118.248 Y104.917 E47.2774
G1 X118.859 Y104.177 E47.30732
G1 X119.268 Y103.308 E47.33727
G1 X119.447 Y102.365 E47.3672
G1 X119.388 Y101.408 E47.3971
G1 X119.091 Y100.494 E47.42706
G1 X118.576 Y99.683 E47.45702
G1 X117.876 Y99.027 E47.48693
G1 X117.035 Y98.563 E47.51688
G1 X116.104 Y98.325 E47.54685
G1 X115.145 Y98.325 E47.57675
G1 X114.214 Y98.563 E47.60671
G1 X113.373 Y99.027 E47.63666
G1 X112.673 Y99.683 E47.66658
G1 X112.158 Y100.494 E47.69653
G1 X111.861 Y101.408 E47.7265
G1 X111.802 Y102.365 E47.7564
G1 X111.981 Y103.308 E47.78632
G1 X112.39 Y104.177 E47.81627
G1 X113.003 Y104.917 E47.84624
G1 X113.779 Y105.481 E47.87615
G1 X114.672 Y105.835 E47.9061
G1 X115.625 Y105.956 E47.93606
G1 F1800 E46.93606
G0 F7800 X101.818 Y104.688
G0 X100.64 Y103.924
G0 X99.406 Y103.549
G0 X98.083 Y103.428
G0 X96.841 Y103.549
G0 X95.571 Y103.944
G0 X95.456 Y104.105
G0 X84.059 Y103.059
G0 X84.028 Y103.229
G0 X83.645 Y104.041
G0 X83.073 Y104.731
G0 X82.349 Y105.259
G0 X81.514 Y105.589
G0 X80.625 Y105.702
G0 X79.737 Y105.589
G0 X78.902 Y105.259
G0 X78.177 Y104.731
G0 X77.606 Y104.041
G0 X77.223 Y103.229
G0 X77.074 Y102.418
G0 X76.588 Y102.375
G0 X76.588 Y102.375
; TYPE:FILL
G1 F1800 E47.93606
G1 F720 X76.596 Y102.13 E47.93967
G1 X76.634 Y101.376 E47.95082
G0 F7800 X76.732 Y100.915
; TYPE:BOTTOM-FILL
G1 F720 X76.764 Y100.735 E47.95374
G1 X76.833 Y100.38 E47.96167
G1 X76.749 Y99.871 E47.97304
G1 X77.149 Y100.059 E47.98682
G0 F7800 X77.314 Y99.8
G1 F720 X76.817 Y99.303 E48.00874
G0 F7800 X76.861 Y98.923
G1 F720 X77.479 Y99.541 E48.03599
G0 F7800 X77.695 Y99.332
G1 F720 X76.921 Y98.558 E48.07012
G0 F7800 X76.991 Y98.204
G1 F720 X77.914 Y99.127 E48.11082
G0 F7800 X78.133 Y98.922
G1 F720 X77.061 Y97.85 E48.1581
G0 F7800 X77.131 Y97.496
G1 F720 X78.382 Y98.747 E48.21326
G0 F7800 X78.656 Y98.596
G1 F720 X77.201 Y97.142 E48.2774
G0 F7800 X77.293 Y96.809
G1 F720 X78.93 Y98.446 E48.34959
G0 F7800 X79.221 Y98.313
G1 F720 X77.387 Y96.479 E48.43046
G0 F7800 X77.481 Y96.148
G1 F720 X79.559 Y98.227 E48.52212
G0 F7800 X79.896 Y98.14
G1 F720 X77.574 Y95.817 E48.62453
G0 F7800 X77.667 Y95.486
G1 F720 X80.265 Y98.084 E48.7391
G0 F7800 X80.689 Y98.084
G1 F720 X77.781 Y95.175 E48.86735
G0 F7800 X77.894 Y94.865
G1 F720 X81.113 Y98.084 E49.0093
G0 F7800 X81.676 Y98.222
G1 F720 X78.009 Y94.555 E49.17101
G0 F7800 X78.123 Y94.246
G1 F720 X82.327 Y98.449 E49.35637
G0 F7800 X84.331 Y100.453
G0 X84.331 Y100.453
G1 F720 X91.496 Y107.618 E49.67232
G0 F7800 X91.6 Y107.298
G1 F720 X78.237 Y93.935 E50.26159
G0 F7800 X78.369 Y93.642
G1 F720 X91.747 Y107.02 E50.85153
G0 F7800 X91.892 Y106.742
G1 F720 X78.502 Y93.352 E51.44199
G0 F7800 X78.636 Y93.061
G1 F720 X92.039 Y106.464 E52.03302
G0 F7800 X92.184 Y106.185
G1 F720 X78.77 Y92.77 E52.62456
G0 F7800 X78.903 Y92.48
G1 F720 X92.363 Y105.94 E53.21811
G0 F7800 X92.553 Y105.706
G1 F720 X79.048 Y92.201 E53.81364
G0 F7800 X79.201 Y91.929
G1 F720 X92.743 Y105.471 E54.4108
G0 F7800 X92.933 Y105.237
G1 F720 X79.353 Y91.657 E55.00964
G0 F7800 X79.506 Y91.385
G1 F720 X93.129 Y105.008 E55.61038
G0 F7800 X93.36 Y104.815
G1 F720 X79.658 Y91.113 E56.2146
G0 F7800 X79.813 Y90.844
G1 F720 X93.591 Y104.622 E56.82217
G0 F7800 X93.823 Y104.429
G1 F720 X79.983 Y90.59 E57.43245
G0 F7800 X80.154 Y90.336
G1 F720 X94.054 Y104.236 E58.0454
G0 F7800 X94.31 Y104.068
G1 F720 X80.323 Y90.081 E58.66219
G0 F7800 X80.493 Y89.827
G1 F720 X94.585 Y103.919 E59.2836
G0 F7800 X94.86 Y103.77
G1 F720 X80.663 Y89.573 E59.90965
G0 F7800 X80.844 Y89.33
G1 F720 X95.135 Y103.62 E60.53982
G0 F7800 X95.415 Y103.476
G1 F720 X81.031 Y89.092 E61.17411
G0 F7800 X81.218 Y88.855
G1 F720 X95.739 Y103.376 E61.81445
G0 F7800 X96.063 Y103.275
G1 F720 X81.405 Y88.618 E62.4608
G0 F7800 X81.592 Y88.38
G1 F720 X96.387 Y103.175 E63.11322
G0 F7800 X96.71 Y103.074
G1 F720 X81.779 Y88.143 E63.77163
G0 F7800 X81.984 Y87.923
G1 F720 X97.092 Y103.031 E64.43785
G0 F7800 X97.478 Y102.994
G1 F720 X82.187 Y87.703 E65.11214
G0 F7800 X82.392 Y87.483
G1 F720 X97.865 Y102.956 E65.79445
G0 F7800 X98.287 Y102.954
G1 F720 X82.595 Y87.262 E66.48643
G0 F7800 X82.8 Y87.042
G1 F720 X98.753 Y102.996 E67.18993
G0 F7800 X99.22 Y103.038
G1 F720 X83.01 Y86.829 E67.90472
G0 F7800 X83.23 Y86.624
G1 F720 X99.742 Y103.136 E68.63285
G0 F7800 X100.351 Y103.321
G1 F720 X83.451 Y86.421 E69.3781
G0 F7800 X83.671 Y86.217
G1 F720 X101.027 Y103.572 E70.14342
G0 F7800 X101.935 Y104.057
G1 F720 X83.891 Y86.013 E70.93911
G0 F7800 X84.112 Y85.809
G1 F720 X117.688 Y119.385 E72.41972
G0 F7800 X118.112 Y119.385
G1 F720 X84.346 Y85.619 E73.9087
G0 F7800 X84.583 Y85.431
G1 F720 X118.536 Y119.385 E75.40595
G0 F7800 X118.96 Y119.385
G1 F720 X84.82 Y85.245 E76.91143
G0 F7800 X85.058 Y85.058
G1 F720 X119.385 Y119.385 E78.42515
G0 F7800 X119.809 Y119.385
G1 F720 X85.296 Y84.871 E79.9471
G0 F7800 X85.536 Y84.688
G1 F720 X120.233 Y119.385 E81.47713
G0 F7800 X120.657 Y119.385
G1 F720 X85.791 Y84.518 E83.01465
G0 F7800 X86.045 Y84.348
G1 F720 X121.082 Y119.385 E84.55968
G0 F7800 X121.506 Y119.385
G1 F720 X86.299 Y84.178 E86.1122
G0 F7800 X86.554 Y84.008
G1 F720 X121.93 Y119.385 E87.67221
G0 F7800 X122.354 Y119.385
G1 F720 X86.808 Y83.838 E89.23971
G0 F7800 X87.074 Y83.68
G1 F720 X122.779 Y119.385 E90.81419
G0 F7800 X123.203 Y119.385
G1 F720 X87.346 Y83.527 E92.39541
G0 F7800 X87.618 Y83.375
G1 F720 X123.384 Y119.141 E93.97258
G0 F7800 X123.384 Y118.717
G1 F720 X87.889 Y83.222 E95.53781
G0 F7800 X88.162 Y83.07
G1 F720 X123.384 Y118.293 E97.09102
G0 F7800 X123.384 Y117.869
G1 F720 X88.438 Y82.923 E98.63204
G0 F7800 X88.729 Y82.789
G1 F720 X123.384 Y117.444 E100.16023
G0 F7800 X123.384 Y117.02
G1 F720 X89.019 Y82.655 E101.67562
G0 F7800 X89.31 Y82.522
G1 F720 X123.384 Y116.596 E103.17819
G0 F7800 X123.384 Y116.171
G1 F720 X89.601 Y82.388 E104.66792
G0 F7800 X89.891 Y82.254
G1 F720 X123.384 Y115.747 E106.14487
G0 F7800 X123.384 Y115.323
G1 F720 X113.815 Y105.754 E106.56683
G0 F7800 X114.517 Y106.032
G1 F720 X123.384 Y114.899 E106.95784
G0 F7800 X123.384 Y114.474
G1 F720 X115.031 Y106.121 E107.32619
G0 F7800 X115.517 Y106.183
G1 F720 X123.384 Y114.05 E107.6731
G0 F7800 X123.384 Y113.626
G1 F720 X115.918 Y106.16 E108.00233
G0 F7800 X116.294 Y106.111
G1 F720 X123.384 Y113.202 E108.315
G0 F7800 X123.384 Y112.777
G1 F720 X116.664 Y106.058 E108.61131
G0 F7800 X116.968 Y105.937
G1 F720 X123.384 Y112.353 E108.89424
G0 F7800 X123.384 Y111.929
G1 F720 X117.272 Y105.817 E109.16376
G0 F7800 X117.576 Y105.696
G1 F720 X123.384 Y111.505 E109.41989
G0 F7800 X123.384 Y111.08
G1 F720 X117.823 Y105.52 E109.6651
G0 F7800 X118.069 Y105.341
G1 F720 X123.384 Y110.656 E109.89947
G0 F7800 X123.384 Y110.232
G1 F720 X118.315 Y105.163 E110.123
G0 F7800 X118.528 Y104.952
G1 F720 X123.384 Y109.808 E110.33714
G0 F7800 X123.384 Y109.383
G1 F720 X118.721 Y104.72 E110.54276
G0 F7800 X118.913 Y104.488
G1 F720 X123.384 Y108.959 E110.73992
G0 F7800 X123.384 Y108.535
G1 F720 X119.093 Y104.243 E110.92916
G0 F7800 X119.228 Y103.955
G1 F720 X123.384 Y108.11 E111.11241
G0 F7800 X123.384 Y107.686
G1 F720 X119.363 Y103.666 E111.2897
G0 F7800 X119.498 Y103.376
G1 F720 X123.384 Y107.262 E111.46106
G0 F7800 X123.384 Y106.838
G1 F720 X119.566 Y103.02 E111.62943
G0 F7800 X119.634 Y102.664
G1 F720 X123.384 Y106.413 E111.79477
G0 F7800 X123.384 Y105.989
G1 F720 X119.682 Y102.287 E111.95802
G0 F7800 X119.654 Y101.835
G1 F720 X123.384 Y105.565 E112.1225
G0 F7800 X123.384 Y105.141
G1 F720 X119.626 Y101.382 E112.28824
G0 F7800 X119.429 Y100.762
G1 F720 X123.384 Y104.716 E112.46262
G0 F7800 X123.384 Y104.292
G1 F720 X119.007 Y99.915 E112.65563
G0 F7800 X117.807 Y98.715
G0 X117.807 Y98.715
G1 F720 X99.707 Y80.615 E113.45379
G0 F7800 X100.131 Y80.615
G1 F720 X123.384 Y103.868 E114.47918
G0 F7800 X123.384 Y103.444
G1 F720 X100.555 Y80.615 E115.48587
G0 F7800 X100.979 Y80.615
G1 F720 X123.384 Y103.019 E116.47385
G0 F7800 X123.384 Y102.595
G1 F720 X101.404 Y80.615 E117.4431
G0 F7800 X101.828 Y80.615
G1 F720 X123.384 Y102.171 E118.39366
G0 F7800 X123.384 Y101.747
G1 F720 X102.252 Y80.615 E119.32552
G0 F7800 X102.676 Y80.615
G1 F720 X123.384 Y101.322 E120.23866
G0 F7800 X123.384 Y100.898
G1 F720 X103.101 Y80.615 E121.13308
G0 F7800 X103.525 Y80.615
G1 F720 X123.384 Y100.474 E122.00881
G0 F7800 X123.384 Y100.049
G1 F720 X103.949 Y80.615 E122.86581
G0 F7800 X104.373 Y80.615
G1 F720 X123.383 Y99.624 E123.70408
G0 F7800 X123.383 Y99.2
G1 F720 X104.798 Y80.615 E124.52362
G0 F7800 X105.222 Y80.615
G1 F720 X123.383 Y98.776 E125.32447
G0 F7800 X123.383 Y98.352
G1 F720 X105.646 Y80.615 E126.10662
G0 F7800 X106.07 Y80.615
G1 F720 X123.383 Y97.927 E126.87005
G0 F7800 X123.383 Y97.503
G1 F720 X106.495 Y80.615 E127.61477
G0 F7800 X106.919 Y80.615
G1 F720 X123.383 Y97.079 E128.34078
G0 F7800 X123.383 Y96.655
G1 F720 X107.343 Y80.615 E129.0481
G0 F7800 X107.768 Y80.615
G1 F720 X123.383 Y96.23 E129.73668
G0 F7800 X123.383 Y95.806
G1 F720 X108.192 Y80.615 E130.40655
G0 F7800 X108.616 Y80.615
G1 F720 X123.383 Y95.382 E131.05774
G0 F7800 X123.383 Y94.958
G1 F720 X109.04 Y80.615 E131.69022
G0 F7800 X109.465 Y80.615
G1 F720 X123.383 Y94.533 E132.30397
G0 F7800 X123.383 Y94.109
G1 F720 X109.889 Y80.615 E132.89901
G0 F7800 X110.313 Y80.615
G1 F720 X123.383 Y93.685 E133.47536
G0 F7800 X123.383 Y93.261
G1 F720 X110.737 Y80.615 E134.03301
G0 F7800 X111.162 Y80.615
G1 F720 X123.383 Y92.836 E134.57193
G0 F7800 X123.383 Y92.412
G1 F720 X111.586 Y80.615 E135.09214
G0 F7800 X112.01 Y80.615
G1 F720 X123.383 Y91.988 E135.59366
G0 F7800 X123.383 Y91.563
G1 F720 X112.434 Y80.615 E136.07645
G0 F7800 X112.859 Y80.615
G1 F720 X123.383 Y91.139 E136.54053
G0 F7800 X123.383 Y90.715
G1 F720 X113.283 Y80.615 E136.98591
G0 F7800 X113.707 Y80.615
G1 F720 X123.383 Y90.291 E137.4126
G0 F7800 X123.383 Y89.866
G1 F720 X114.131 Y80.615 E137.82056
G0 F7800 X114.556 Y80.615
G1 F720 X123.383 Y89.442 E138.20981
G0 F7800 X123.383 Y89.018
G1 F720 X114.98 Y80.615 E138.58035
G0 F7800 X115.404 Y80.615
G1 F720 X123.383 Y88.594 E138.9322
G0 F7800 X123.383 Y88.169
G1 F720 X115.829 Y80.615 E139.26531
G0 F7800 X116.253 Y80.615
G1 F720 X123.383 Y87.745 E139.57973
G0 F7800 X123.383 Y87.321
G1 F720 X116.677 Y80.615 E139.87544
G0 F7800 X117.101 Y80.615
G1 F720 X123.383 Y86.897 E140.15246
G0 F7800 X123.383 Y86.472
G1 F720 X117.526 Y80.615 E140.41074
G0 F7800 X117.95 Y80.615
G1 F720 X123.383 Y86.048 E140.65032
G0 F7800 X123.383 Y85.624
G1 F720 X118.374 Y80.615 E140.8712
G0 F7800 X118.798 Y80.615
G1 F720 X123.383 Y85.2 E141.07339
G0 F7800 X123.383 Y84.775
G1 F720 X119.223 Y80.615 E141.25683
G0 F7800 X119.647 Y80.615
G1 F720 X123.383 Y84.351 E141.42158
G0 F7800 X123.383 Y83.927
G1 F720 X120.071 Y80.615 E141.56763
G0 F7800 X120.495 Y80.615
G1 F720 X123.383 Y83.502 E141.69496
G0 F7800 X123.383 Y83.078
G1 F720 X120.92 Y80.615 E141.80357
G0 F7800 X121.344 Y80.615
G1 F720 X123.383 Y82.654 E141.89348
G0 F7800 X123.383 Y82.23
G1 F720 X121.768 Y80.615 E141.9647
G0 F7800 X122.193 Y80.615
G1 F720 X123.383 Y81.805 E142.01717
G0 F7800 X123.383 Y81.381
G1 F720 X122.617 Y80.615 E142.05095
G0 F7800 X123.041 Y80.615
G1 F720 X123.383 Y80.957 E142.06603
G0 F7800 X116.965 Y98.297
G0 X116.965 Y98.297
G1 F720 X99.282 Y80.615 E142.84578
G0 F7800 X98.858 Y80.615
G1 F720 X116.395 Y98.152 E143.61911
G0 F7800 X115.903 Y98.084
G1 F720 X98.434 Y80.615 E144.38944
G0 F7800 X98.014 Y80.62
G1 F720 X115.479 Y98.084 E145.15958
G0 F7800 X115.067 Y98.096
G1 F720 X97.606 Y80.636 E145.92954
G0 F7800 X97.198 Y80.652
G1 F720 X114.729 Y98.183 E146.7026
G0 F7800 X114.392 Y98.27
G1 F720 X96.79 Y80.668 E147.4788
G0 F7800 X96.387 Y80.689
G1 F720 X114.067 Y98.369 E148.25844
G0 F7800 X113.794 Y98.521
G1 F720 X96.007 Y80.733 E149.04282
G0 F7800 X95.627 Y80.778
G1 F720 X113.521 Y98.671 E149.83187
G0 F7800 X113.247 Y98.822
G1 F720 X95.248 Y80.823 E150.62557
G0 F7800 X94.868 Y80.868
G1 F720 X113.024 Y99.023 E151.42618
G0 F7800 X112.805 Y99.229
G1 F720 X94.507 Y80.931 E152.23307
G0 F7800 X94.153 Y81.001
G1 F720 X112.586 Y99.434 E153.04591
G0 F7800 X112.396 Y99.668
G1 F720 X93.799 Y81.071 E153.86598
G0 F7800 X93.445 Y81.141
G1 F720 X112.231 Y99.928 E154.69441
G0 F7800 X112.067 Y100.187
G1 F720 X93.093 Y81.214 E155.53109
G0 F7800 X92.762 Y81.307
G1 F720 X111.915 Y100.46 E156.37568
G0 F7800 X111.811 Y100.781
G1 F720 X92.431 Y81.4 E157.23031
G0 F7800 X92.101 Y81.494
G1 F720 X111.708 Y101.101 E158.09492
G0 F7800 X111.618 Y101.436
G1 F720 X91.77 Y81.588 E158.97016
G0 F7800 X91.44 Y81.682
G1 F720 X111.593 Y101.835 E159.85885
G0 F7800 X111.568 Y102.234
G1 F720 X91.131 Y81.797 E160.76006
G0 F7800 X90.821 Y81.911
G1 F720 X111.623 Y102.713 E161.67737
G0 F7800 X111.722 Y103.237
G1 F720 X90.511 Y82.025 E162.61274
G0 F7800 X90.201 Y82.14
G1 F720 X112.022 Y103.961 E163.57498
G0 F7800 X104.55 Y107.096
G0 X104.55 Y107.096
G1 F720 X116.839 Y119.385 E164.11689
G0 F7800 X116.415 Y119.385
G1 F720 X104.801 Y107.771 E164.62903
G0 F7800 X104.986 Y108.381
G1 F720 X115.99 Y119.385 E165.11428
G0 F7800 X115.566 Y119.385
G1 F720 X105.086 Y108.905 E165.57642
G0 F7800 X105.132 Y109.375
G1 F720 X115.142 Y119.385 E166.01783
G0 F7800 X114.718 Y119.385
G1 F720 X105.179 Y109.846 E166.43847
G0 F7800 X105.168 Y110.259
G1 F720 X114.293 Y119.385 E166.84088
G0 F7800 X113.869 Y119.385
G1 F720 X105.13 Y110.645 E167.22627
G0 F7800 X105.092 Y111.032
G1 F720 X113.445 Y119.385 E167.59461
G0 F7800 X113.021 Y119.385
G1 F720 X105.048 Y111.412 E167.9462
G0 F7800 X104.949 Y111.737
G1 F720 X112.596 Y119.385 E168.28343
G0 F7800 X112.172 Y119.385
G1 F720 X104.851 Y112.063 E168.60629
G0 F7800 X104.752 Y112.388
G1 F720 X111.748 Y119.385 E168.91481
G0 F7800 X111.323 Y119.384
G1 F720 X104.651 Y112.712 E169.20903
G0 F7800 X104.504 Y112.989
G1 F720 X110.899 Y119.384 E169.49103
G0 F7800 X110.474 Y119.384
G1 F720 X104.356 Y113.265 E169.76084
G0 F7800 X104.209 Y113.542
G1 F720 X110.05 Y119.384 E170.01843
G0 F7800 X109.626 Y119.384
G1 F720 X104.061 Y113.819 E170.26383
G0 F7800 X103.887 Y114.069
G1 F720 X109.202 Y119.384 E170.49821
G0 F7800 X108.777 Y119.384
G1 F720 X103.695 Y114.302 E170.72231
G0 F7800 X103.504 Y114.535
G1 F720 X108.353 Y119.384 E170.93613
G0 F7800 X107.929 Y119.384
G1 F720 X103.313 Y114.768 E171.13969
G0 F7800 X103.121 Y115.001
G1 F720 X107.504 Y119.384 E171.33296
G0 F7800 X107.08 Y119.384
G1 F720 X102.888 Y115.191 E171.51784
G0 F7800 X102.655 Y115.383
G1 F720 X106.656 Y119.384 E171.69427
G0 F7800 X106.232 Y119.384
G1 F720 X102.423 Y115.575 E171.86224
G0 F7800 X102.189 Y115.766
G1 F720 X105.807 Y119.384 E172.02178
G0 F7800 X105.383 Y119.384
G1 F720 X101.938 Y115.939 E172.1737
G0 F7800 X101.662 Y116.087
G1 F720 X104.959 Y119.384 E172.31909
G0 F7800 X104.535 Y119.384
G1 F720 X101.384 Y116.234 E172.45801
G0 F7800 X101.108 Y116.381
G1 F720 X104.11 Y119.384 E172.59042
G0 F7800 X103.686 Y119.384
G1 F720 X100.832 Y116.529 E172.71629
G0 F7800 X100.506 Y116.628
G1 F720 X103.262 Y119.384 E172.83782
G0 F7800 X102.838 Y119.384
G1 F720 X100.181 Y116.727 E172.95499
G0 F7800 X99.856 Y116.826
G1 F720 X102.413 Y119.384 E173.06777
G0 F7800 X101.989 Y119.384
G1 F720 X99.53 Y116.925 E173.1762
G0 F7800 X99.148 Y116.967
G1 F720 X101.565 Y119.384 E173.28279
G0 F7800 X101.141 Y119.384
G1 F720 X98.762 Y117.005 E173.38769
G0 F7800 X98.376 Y117.043
G1 F720 X100.716 Y119.384 E173.4909
G0 F7800 X100.292 Y119.384
G1 F720 X97.96 Y117.052 E173.59374
G0 F7800 X97.489 Y117.005
G1 F720 X99.868 Y119.384 E173.69864
G0 F7800 X99.443 Y119.384
G1 F720 X97.019 Y116.959 E173.80556
G0 F7800 X96.48 Y116.845
G1 F720 X99.019 Y119.384 E173.91752
G0 F7800 X98.595 Y119.384
G1 F720 X95.876 Y116.665 E174.03742
G0 F7800 X95.182 Y116.395
G1 F720 X98.171 Y119.384 E174.16923
G0 F7800 X97.746 Y119.384
G1 F720 X94.289 Y115.927 E174.32167
G0 F7800 X92.215 Y113.852
G0 X92.215 Y113.852
G1 F720 X83.431 Y105.068 E174.70902
G0 F7800 X83.624 Y104.837
G1 F720 X91.712 Y112.925 E175.06568
G0 F7800 X91.46 Y112.248
G1 F720 X83.816 Y104.605 E175.40273
G0 F7800 X84.009 Y104.373
G1 F720 X91.269 Y111.634 E175.7229
G0 F7800 X91.172 Y111.112
G1 F720 X84.161 Y104.101 E176.03206
G0 F7800 X84.296 Y103.812
G1 F720 X91.122 Y110.638 E176.33307
G0 F7800 X91.073 Y110.165
G1 F720 X84.432 Y103.523 E176.62594
G0 F7800 X84.533 Y103.2
G1 F720 X91.086 Y109.754 E176.91493
G0 F7800 X91.122 Y109.365
G1 F720 X84.601 Y102.844 E177.20249
G0 F7800 X84.669 Y102.488
G1 F720 X91.157 Y108.976 E177.48859
G0 F7800 X91.205 Y108.6
G1 F720 X84.67 Y102.065 E177.77677
G0 F7800 X84.642 Y101.612
G1 F720 X91.303 Y108.273 E178.0705
G0 F7800 X91.399 Y107.946
G1 F720 X84.535 Y101.081 E178.3732
G0 F7800 X83.978 Y102.807
G0 X84.028 Y103.229
G0 X83.739 Y103.548
G0 X83.191 Y105.252
G0 X83.191 Y105.252
G1 F720 X97.322 Y119.384 E178.99636
G0 F7800 X96.898 Y119.384
G1 F720 X82.945 Y105.431 E179.61165
G0 F7800 X82.7 Y105.61
G1 F720 X96.474 Y119.384 E180.21904
G0 F7800 X96.049 Y119.384
G1 F720 X82.423 Y105.757 E180.81993
G0 F7800 X82.119 Y105.877
G1 F720 X95.625 Y119.384 E181.41553
G0 F7800 X95.201 Y119.384
G1 F720 X81.815 Y105.998 E182.00581
G0 F7800 X81.48 Y106.087
G1 F720 X94.777 Y119.384 E182.59217
G0 F7800 X94.352 Y119.384
G1 F720 X81.104 Y106.136 E183.17637
G0 F7800 X80.728 Y106.184
G1 F720 X93.928 Y119.384 E183.75845
G0 F7800 X93.504 Y119.384
G1 F720 X80.272 Y106.152 E184.34195
G0 F7800 X79.785 Y106.09
G1 F720 X93.08 Y119.384 E184.9282
G0 F7800 X92.655 Y119.384
G1 F720 X79.161 Y105.889 E185.52327
G0 F7800 X78.21 Y105.363
G1 F720 X92.231 Y119.384 E186.14155
G0 F7800 X91.807 Y119.384
G1 F720 X76.615 Y104.192 E186.81148
G0 F7800 X76.615 Y104.616
G1 F720 X91.382 Y119.384 E187.46268
G0 F7800 X90.958 Y119.384
G1 F720 X76.615 Y105.04 E188.09519
G0 F7800 X76.615 Y105.464
G1 F720 X90.534 Y119.384 E188.709
G0 F7800 X90.11 Y119.384
G1 F720 X76.615 Y105.889 E189.30409
G0 F7800 X76.615 Y106.313
G1 F720 X89.685 Y119.384 E189.88046
G0 F7800 X89.261 Y119.384
G1 F720 X76.615 Y106.737 E190.43813
G0 F7800 X76.615 Y107.162
G1 F720 X88.837 Y119.384 E190.97709
G0 F7800 X88.413 Y119.384
G1 F720 X76.615 Y107.586 E191.49735
G0 F7800 X76.615 Y108.01
G1 F720 X87.988 Y119.383 E191.99886
G0 F7800 X87.563 Y119.383
G1 F720 X76.615 Y108.434 E192.48166
G0 F7800 X76.615 Y108.859
G1 F720 X87.139 Y119.383 E192.94574
G0 F7800 X86.715 Y119.383
G1 F720 X76.615 Y109.283 E193.39112
G0 F7800 X76.615 Y109.707
G1 F720 X86.291 Y119.383 E193.8178
G0 F7800 X85.866 Y119.383
G1 F720 X76.615 Y110.131 E194.22577
G0 F7800 X76.615 Y110.556
G1 F720 X85.442 Y119.383 E194.61501
G0 F7800 X85.018 Y119.383
G1 F720 X76.615 Y110.98 E194.98556
G0 F7800 X76.615 Y111.404
G1 F720 X84.594 Y119.383 E195.33741
G0 F7800 X84.169 Y119.383
G1 F720 X76.615 Y111.828 E195.67054
G0 F7800 X76.615 Y112.253
G1 F720 X83.745 Y119.383 E195.98496
G0 F7800 X83.321 Y119.383
G1 F720 X76.615 Y112.677 E196.28067
G0 F7800 X76.615 Y113.101
G1 F720 X82.896 Y119.383 E196.55767
G0 F7800 X82.472 Y119.383
G1 F720 X76.615 Y113.525 E196.81597
G0 F7800 X76.615 Y113.95
G1 F720 X82.048 Y119.383 E197.05555
G0 F7800 X81.624 Y119.383
G1 F720 X76.615 Y114.374 E197.27643
G0 F7800 X76.615 Y114.798
G1 F720 X81.199 Y119.383 E197.47859
G0 F7800 X80.775 Y119.383
G1 F720 X76.615 Y115.223 E197.66204
G0 F7800 X76.615 Y115.647
G1 F720 X80.351 Y119.383 E197.82678
G0 F7800 X79.927 Y119.383
G1 F720 X76.615 Y116.071 E197.97283
G0 F7800 X76.615 Y116.495
G1 F720 X79.502 Y119.383 E198.10016
G0 F7800 X79.078 Y119.383
G1 F720 X76.615 Y116.92 E198.20877
G0 F7800 X76.615 Y117.344
G1 F720 X78.654 Y119.383 E198.29869
G0 F7800 X78.23 Y119.383
G1 F720 X76.615 Y117.768 E198.3699
G0 F7800 X76.615 Y118.192
G1 F720 X77.805 Y119.383 E198.4224
G0 F7800 X77.381 Y119.383
G1 F720 X76.615 Y118.617 E198.45618
G0 F7800 X76.615 Y119.041
G1 F720 X76.957 Y119.383 E198.47126
G0 F7800 X77.344 Y104.496
G0 X77.344 Y104.496
G1 F720 X76.615 Y103.767 E198.50341
G0 F7800 X76.839 Y103.568
G1 F720 X76.615 Y103.343 E198.51331
G1 F1800 E197.51331
G0 F7800 X77.34 Y103.417
G0 X77.606 Y104.041
G0 X78.177 Y104.731
G0 X78.902 Y105.259
G0 X79.737 Y105.589
G0 X80.625 Y105.702
G0 X81.514 Y105.589
G0 X82.349 Y105.259
G0 X83.073 Y104.731
G0 X83.584 Y104.064
G0 X93.842 Y105.127
G0 X94.437 Y104.56
G0 X95.571 Y103.944
G0 X96.841 Y103.549
G0 X98.083 Y103.428
G0 X99.406 Y103.549
G0 X100.64 Y103.924
G0 X101.778 Y104.531
G0 X102.774 Y105.35
G0 X103.324 Y106.109
G0 X104.066 Y106.187
G0 X104.066 Y106.187
G1 F1800 E198.51331
G1 F720 X117.263 Y119.385 E199.09528
; Layer Change GCode
; LAYER:1
G4 P0
M106 S89
G0 F7800 X76.124 Y119.971 Z0.45
G0 X75.724 Y119.977
G0 X75.935 Y119.975
G0 X75.935 Y119.975
G0 X75.775 Y120.225
G0 X75.775 Y120.225
G0 X76.375 Y119.625
; TYPE:WALL-INNER
G1 F1800 X76.375 Y102.125 E199.53182
G1 X76.443 Y100.426 E199.57424
G1 X76.643 Y98.725 E199.61696
G1 X76.977 Y97.048 E199.65961
G1 X77.442 Y95.403 E199.70226
G1 X78.033 Y93.8 E199.74487
G1 X78.749 Y92.246 E199.78756
G1 X79.574 Y90.773 E199.82967
G1 X80.536 Y89.334 E199.87285
G1 X81.584 Y88.003 E199.91511
G1 X82.747 Y86.747 E199.95781
G1 X84.003 Y85.584 E200.00051
G1 X85.334 Y84.536 E200.04277
G1 X86.773 Y83.574 E200.08595
G1 X88.246 Y82.749 E200.12806
G1 X89.8 Y82.033 E200.17074
G1 X91.403 Y81.442 E200.21336
G1 X93.048 Y80.977 E200.256
G1 X94.725 Y80.643 E200.29866
G1 X96.426 Y80.443 E200.34138
G1 X98.13 Y80.375 E200.38392
G1 X123.625 Y80.375 E201.0199
G1 X123.625 Y119.625 E201.99899
G1 X76.375 Y119.625 E203.17765
G0 F7800 X76.075 Y119.925
G1 F1800 X76.075 Y102.143 E203.62122
G1 X76.144 Y100.392 E203.66493
G1 X76.348 Y98.671 E203.70817
G1 X76.684 Y96.98 E203.75117
G1 X77.155 Y95.313 E203.79438
G1 X77.751 Y93.695 E203.8374
G1 X78.481 Y92.114 E203.88084
G1 X79.329 Y90.599 E203.92414
G1 X80.287 Y89.165 E203.96716
G1 X81.358 Y87.806 E204.01033
G1 X82.534 Y86.534 E204.05354
G1 X83.806 Y85.358 E204.09675
G1 X85.165 Y84.287 E204.13991
G1 X86.599 Y83.329 E204.18293
G1 X88.114 Y82.481 E204.22624
G1 X89.695 Y81.751 E204.26968
G1 X91.313 Y81.155 E204.3127
G1 X92.98 Y80.684 E204.35591
G1 X94.671 Y80.348 E204.39891
G1 X96.392 Y80.144 E204.44214
G1 X98.143 Y80.075 E204.48586
G1 X123.925 Y80.075 E205.12899
G1 X123.925 Y119.925 E206.12305
G1 X76.075 Y119.925 E207.31668
G0 F7800 X75.775 Y120.225
; TYPE:WALL-OUTER
G1 F1260 X75.775 Y102.131 E207.76803
G1 X75.845 Y100.366 E207.8121
G1 X76.051 Y98.624 E207.85585
G1 X76.394 Y96.902 E207.89965
G1 X76.868 Y95.225 E207.94312
G1 X77.479 Y93.567 E207.9872
G1 X78.209 Y91.984 E208.03069
G1 X79.066 Y90.452 E208.07448
G1 X80.041 Y88.993 E208.11825
G1 X81.134 Y87.606 E208.1623
G1 X82.322 Y86.322 E208.20594
G1 X83.606 Y85.134 E208.24957
G1 X84.993 Y84.041 E208.29362
G1 X86.448 Y83.068 E208.33729
G1 X87.98 Y82.211 E208.38108
G1 X89.567 Y81.479 E208.42467
G1 X91.225 Y80.868 E208.46875
G1 X92.907 Y80.393 E208.51235
G1 X94.626 Y80.051 E208.55607
G1 X96.371 Y79.845 E208.5999
G1 X98.131 Y79.775 E208.64384
G1 X124.225 Y79.775 E209.29476
G1 X124.225 Y120.225 E210.30379
G1 X75.775 Y120.225 E211.51238
G0 F7800 X75.935 Y119.975
G0 X79.673 Y105.835
G0 X79.673 Y105.835
; TYPE:WALL-INNER
G1 F1800 X80.625 Y105.956 E211.53631
G1 X81.578 Y105.835 E211.56028
G1 X82.471 Y105.481 E211.58424
G1 X83.247 Y104.917 E211.60817
G1 X83.86 Y104.177 E211.63214
G1 X84.269 Y103.308 E211.6561
G1 X84.448 Y102.365 E211.68004
G1 X84.389 Y101.408 E211.70396
G1 X84.092 Y100.494 E211.72793
G1 X83.577 Y99.683 E211.7519
G1 X82.877 Y99.027 E211.77583
G1 X82.036 Y98.563 E211.79979
G1 X81.105 Y98.325 E211.82376
G1 X80.146 Y98.325 E211.84768
G1 X79.215 Y98.563 E211.87165
G1 X78.374 Y99.027 E211.89561
G1 X77.674 Y99.683 E211.91954
G1 X77.159 Y100.494 E211.94351
G1 X76.862 Y101.408 E211.96748
G1 X76.803 Y102.365 E211.9914
G1 X76.982 Y103.308 E212.01534
G1 X77.391 Y104.177 E212.0393
G1 X78.002 Y104.917 E212.06324
G1 X78.78 Y105.481 E212.08721
G1 X79.673 Y105.835 E212.11117
G0 F7800 X79.748 Y105.542
G1 F1800 X80.625 Y105.654 E212.13323
G1 X81.503 Y105.542 E212.15531
G1 X82.326 Y105.216 E212.17739
G1 X83.04 Y104.697 E212.19941
G1 X83.605 Y104.015 E212.2215
G1 X83.981 Y103.215 E212.24355
G1 X84.147 Y102.346 E212.26562
G1 X84.092 Y101.464 E212.28766
G1 X83.818 Y100.623 E212.30973
G1 X83.344 Y99.876 E212.3318
G1 X82.7 Y99.271 E212.35384
G1 X81.925 Y98.844 E212.37591
G1 X81.068 Y98.625 E212.39798
G1 X80.183 Y98.625 E212.42005
G1 X79.326 Y98.844 E212.44212
G1 X78.551 Y99.271 E212.46419
G1 X77.907 Y99.876 E212.48623
G1 X77.433 Y100.623 E212.5083
G1 X77.159 Y101.464 E212.53036
G1 X77.104 Y102.346 E212.55241
G1 X77.27 Y103.215 E212.57448
G1 X77.646 Y104.015 E212.59653
G1 X78.209 Y104.697 E212.61859
G1 X78.926 Y105.216 E212.64067
G1 X79.748 Y105.542 E212.66273
G0 F7800 X80.625 Y105.351
; TYPE:WALL-OUTER
G1 F1260 X81.428 Y105.249 E212.68292
G1 X82.18 Y104.951 E212.7031
G1 X82.833 Y104.476 E212.72324
G1 X83.35 Y103.853 E212.74343
G1 X83.694 Y103.122 E212.76359
G1 X83.845 Y102.327 E212.78377
G1 X83.795 Y101.521 E212.80392
G1 X83.545 Y100.752 E212.82409
G1 X83.111 Y100.069 E212.84427
G1 X82.522 Y99.516 E212.86443
G1 X81.814 Y99.125 E212.8846
G1 X81.03 Y98.925 E212.90479
G1 X80.221 Y98.925 E212.92497
G1 X79.437 Y99.125 E212.94515
G1 X78.729 Y99.516 E212.96533
G1 X78.14 Y100.069 E212.98548
G1 X77.706 Y100.752 E213.00567
G1 X77.456 Y101.521 E213.02584
G1 X77.406 Y102.327 E213.04598
G1 X77.557 Y103.122 E213.06617
G1 X77.901 Y103.853 E213.08632
G1 X78.416 Y104.476 E213.10648
G1 X79.071 Y104.951 E213.12667
G1 X79.823 Y105.249 E213.14684
G1 X80.625 Y105.351 E213.16701
G0 F7800 X80.595 Y105.598
G0 X91.428 Y108.667
G0 X91.428 Y108.667
; TYPE:WALL-INNER
G1 F1800 X91.296 Y110 E213.20043
G1 X91.428 Y111.332 E213.23382
G1 X91.817 Y112.612 E213.26719
G1 X92.447 Y113.794 E213.3006
G1 X93.297 Y114.828 E213.33399
G1 X94.331 Y115.678 E213.36738
G1 X95.513 Y116.308 E213.40079
G1 X96.793 Y116.697 E213.43416
G1 X98.125 Y116.829 E213.46755
G1 X99.457 Y116.697 E213.50094
G1 X100.737 Y116.308 E213.53431
G1 X101.919 Y115.678 E213.56772
G1 X102.953 Y114.828 E213.60111
G1 X103.803 Y113.794 E213.6345
G1 X104.433 Y112.612 E213.66792
G1 X104.822 Y111.332 E213.70129
G1 X104.954 Y110 E213.73468
G1 X104.822 Y108.667 E213.76809
G1 X104.433 Y107.387 E213.80146
G1 X103.803 Y106.205 E213.83488
G1 X102.953 Y105.171 E213.86826
G1 X101.919 Y104.321 E213.90165
G1 X100.737 Y103.691 E213.93507
G1 X99.457 Y103.302 E213.96844
G1 X98.125 Y103.171 E214.00183
G1 X96.793 Y103.302 E214.03521
G1 X95.513 Y103.691 E214.06858
G1 X94.331 Y104.321 E214.102
G1 X93.297 Y105.171 E214.13539
G1 X92.447 Y106.205 E214.16878
G1 X91.817 Y107.387 E214.20219
G1 X91.428 Y108.667 E214.23556
G0 F7800 X91.724 Y108.726
G1 F1800 X91.598 Y110 E214.26749
G1 X91.724 Y111.273 E214.2994
G1 X92.095 Y112.497 E214.33131
G1 X92.698 Y113.626 E214.36324
G1 X93.51 Y114.615 E214.39516
G1 X94.499 Y115.427 E214.42708
G1 X95.628 Y116.03 E214.45901
G1 X96.852 Y116.401 E214.49091
G1 X98.125 Y116.527 E214.52282
G1 X99.398 Y116.401 E214.55473
G1 X100.622 Y116.03 E214.58664
G1 X101.751 Y115.427 E214.61856
G1 X102.74 Y114.615 E214.65048
G1 X103.552 Y113.626 E214.68241
G1 X104.155 Y112.497 E214.71433
G1 X104.526 Y111.273 E214.74624
G1 X104.652 Y110 E214.77815
G1 X104.526 Y108.726 E214.81008
G1 X104.155 Y107.502 E214.84199
G1 X103.552 Y106.373 E214.87392
G1 X102.74 Y105.384 E214.90584
G1 X101.751 Y104.572 E214.93776
G1 X100.622 Y103.969 E214.96969
G1 X99.398 Y103.597 E215.0016
G1 X98.125 Y103.473 E215.0335
G1 X96.852 Y103.597 E215.06541
G1 X95.628 Y103.969 E215.09732
G1 X94.499 Y104.572 E215.12925
G1 X93.51 Y105.384 E215.16117
G1 X92.698 Y106.373 E215.19309
G1 X92.095 Y107.502 E215.22502
G1 X91.724 Y108.726 E215.25692
G0 F7800 X91.729 Y108.733
G0 X91.549 Y110
G0 X91.675 Y111.282
G0 X92.05 Y112.515
G0 X92.657 Y113.653
G0 X93.476 Y114.649
G0 X94.472 Y115.468
G0 X95.61 Y116.075
G0 X96.843 Y116.45
G0 X98.125 Y116.576
G0 X98.157 Y116.539
G0 X98.103 Y116.473
G0 X98.103 Y116.473
G0 X98.125 Y116.226
; TYPE:WALL-OUTER
G1 F1260 X99.339 Y116.106 E215.28735
G1 X100.507 Y115.751 E215.31781
G1 X101.584 Y115.176 E215.34826
G1 X102.527 Y114.402 E215.37869
G1 X103.301 Y113.459 E215.40913
G1 X103.876 Y112.382 E215.43958
G1 X104.231 Y111.214 E215.47003
G1 X104.351 Y110 E215.50046
G1 X104.231 Y108.785 E215.53092
G1 X103.876 Y107.617 E215.56137
G1 X103.301 Y106.54 E215.59183
G1 X102.527 Y105.597 E215.62226
G1 X101.584 Y104.823 E215.65269
G1 X100.507 Y104.248 E215.68315
G1 X99.339 Y103.893 E215.7136
G1 X98.125 Y103.774 E215.74403
G1 X96.911 Y103.893 E215.77445
G1 X95.743 Y104.248 E215.80491
G1 X94.666 Y104.823 E215.83536
G1 X93.723 Y105.597 E215.86579
G1 X92.949 Y106.54 E215.89623
G1 X92.374 Y107.617 E215.92668
G1 X92.019 Y108.785 E215.95713
G1 X91.899 Y110 E215.98759
G1 X92.019 Y111.214 E216.01802
G1 X92.374 Y112.382 E216.04847
G1 X92.949 Y113.459 E216.07893
G1 X93.723 Y114.402 E216.10936
G1 X94.666 Y115.176 E216.13979
G1 X95.743 Y115.751 E216.17025
G1 X96.911 Y116.106 E216.2007
G1 X98.125 Y116.226 E216.23113
G0 F7800 X98.103 Y116.473
G0 X98.074 Y116.496
G0 X99.407 Y116.45
G0 X100.64 Y116.075
G0 X101.778 Y115.468
G0 X102.774 Y114.649
G0 X103.593 Y113.653
G0 X104.2 Y112.515
G0 X104.575 Y111.282
G0 X104.548 Y110.925
G0 X112.39 Y104.177
G0 X112.39 Y104.177
; TYPE:WALL-INNER
G1 F1800 X113.003 Y104.917 E216.2551
G1 X113.779 Y105.481 E216.27903
G1 X114.672 Y105.835 E216.30299
G1 X115.625 Y105.956 E216.32695
G1 X116.577 Y105.835 E216.35089
G1 X117.47 Y105.481 E216.37486
G1 X118.248 Y104.917 E216.39883
G1 X118.859 Y104.177 E216.42277
G1 X119.268 Y103.308 E216.44672
G1 X119.447 Y102.365 E216.47067
G1 X119.388 Y101.408 E216.49458
G1 X119.091 Y100.494 E216.51856
G1 X118.576 Y99.683 E216.54252
G1 X117.876 Y99.027 E216.56645
G1 X117.035 Y98.563 E216.59041
G1 X116.104 Y98.325 E216.61438
G1 X115.145 Y98.325 E216.63831
G1 X114.214 Y98.563 E216.66228
G1 X113.373 Y99.027 E216.68624
G1 X112.673 Y99.683 E216.71017
G1 X112.158 Y100.494 E216.73413
G1 X111.861 Y101.408 E216.75811
G1 X111.802 Y102.365 E216.78202
G1 X111.981 Y103.308 E216.80597
G1 X112.39 Y104.177 E216.82993
G0 F7800 X112.645 Y104.015
G1 F1800 X113.21 Y104.697 E216.85202
G1 X113.924 Y105.216 E216.87404
G1 X114.747 Y105.542 E216.89612
G1 X115.625 Y105.654 E216.9182
G1 X116.502 Y105.542 E216.94025
G1 X117.324 Y105.216 E216.96231
G1 X118.041 Y104.697 E216.98439
G1 X118.604 Y104.015 E217.00645
G1 X118.98 Y103.215 E217.0285
G1 X119.146 Y102.346 E217.05057
G1 X119.091 Y101.464 E217.07261
G1 X118.817 Y100.623 E217.09468
G1 X118.343 Y99.876 E217.11675
G1 X117.699 Y99.271 E217.13879
G1 X116.924 Y98.844 E217.16086
G1 X116.067 Y98.625 E217.18293
G1 X115.182 Y98.625 E217.205
G1 X114.325 Y98.844 E217.22707
G1 X113.55 Y99.271 E217.24914
G1 X112.906 Y99.876 E217.27118
G1 X112.432 Y100.623 E217.29325
G1 X112.158 Y101.464 E217.31532
G1 X112.103 Y102.346 E217.33736
G1 X112.269 Y103.215 E217.35943
G1 X112.645 Y104.015 E217.38148
G0 F7800 X112.819 Y104.108
G0 X113.177 Y104.731
G0 X113.901 Y105.259
G0 X114.736 Y105.589
G0 X115.625 Y105.702
G0 X115.632 Y105.617
G0 X115.595 Y105.598
G0 X115.595 Y105.598
G0 X115.625 Y105.351
; TYPE:WALL-OUTER
G1 F1260 X116.427 Y105.249 E217.40165
G1 X117.179 Y104.951 E217.42182
G1 X117.834 Y104.476 E217.44201
G1 X118.349 Y103.853 E217.46217
G1 X118.693 Y103.122 E217.48232
G1 X118.844 Y102.327 E217.50251
G1 X118.794 Y101.521 E217.52265
G1 X118.544 Y100.752 E217.54283
G1 X118.11 Y100.069 E217.56301
G1 X117.521 Y99.516 E217.58316
G1 X116.813 Y99.125 E217.60334
G1 X116.029 Y98.925 E217.62352
G1 X115.22 Y98.925 E217.6437
G1 X114.436 Y99.125 E217.66389
G1 X113.728 Y99.516 E217.68406
G1 X113.139 Y100.069 E217.70422
G1 X112.705 Y100.752 E217.7244
G1 X112.455 Y101.521 E217.74457
G1 X112.405 Y102.327 E217.76472
G1 X112.556 Y103.122 E217.7849
G1 X112.9 Y103.853 E217.80506
G1 X113.417 Y104.476 E217.82525
G1 X114.07 Y104.951 E217.84539
G1 X114.822 Y105.249 E217.86557
G1 X115.625 Y105.351 E217.88576
G0 F7800 X115.703 Y106.186
; TYPE:FILL
G1 F3600 X102.505 Y119.384 E218.35136
G0 F7800 X102.081 Y119.384
G1 F3600 X115.308 Y106.157 E218.81798
G0 F7800 X114.932 Y106.109
G1 F3600 X101.657 Y119.384 E219.28629
G0 F7800 X101.232 Y119.384
G1 F3600 X114.566 Y106.051 E219.75666
G0 F7800 X114.262 Y105.93
G1 F3600 X100.808 Y119.384 E220.23129
G0 F7800 X100.384 Y119.384
G1 F3600 X113.958 Y105.81 E220.71015
G0 F7800 X113.655 Y105.689
G1 F3600 X99.96 Y119.384 E221.19328
G0 F7800 X99.535 Y119.384
G1 F3600 X113.41 Y105.51 E221.68274
G0 F7800 X113.164 Y105.331
G1 F3600 X99.111 Y119.384 E222.1785
G0 F7800 X98.687 Y119.384
G1 F3600 X102.838 Y115.232 E222.32495
G0 F7800 X103.358 Y114.713
G1 F3600 X112.919 Y105.152 E222.66224
G0 F7800 X112.708 Y104.938
G1 F3600 X104.327 Y113.319 E222.9579
G0 F7800 X104.716 Y112.506
G1 F3600 X112.516 Y104.706 E223.23307
G0 F7800 X112.323 Y104.475
G1 F3600 X104.901 Y111.897 E223.4949
G0 F7800 X105.064 Y111.309
G1 F3600 X112.147 Y104.227 E223.74476
G0 F7800 X112.012 Y103.938
G1 F3600 X105.111 Y110.838 E223.98819
G0 F7800 X105.158 Y110.368
G1 F3600 X111.876 Y103.649 E224.2252
G0 F7800 X111.745 Y103.356
G1 F3600 X105.185 Y109.916 E224.45662
G0 F7800 X105.148 Y109.529
G1 F3600 X111.677 Y103 E224.68695
G0 F7800 X111.609 Y102.643
G1 F3600 X105.11 Y109.143 E224.91624
G0 F7800 X105.071 Y108.757
G1 F3600 X111.567 Y102.261 E225.1454
G0 F7800 X111.595 Y101.809
G1 F3600 X104.995 Y108.409 E225.37824
G0 F7800 X104.896 Y108.084
G1 F3600 X111.625 Y101.354 E225.61564
G0 F7800 X111.828 Y100.727
G1 F3600 X104.798 Y107.758 E225.86366
G0 F7800 X104.699 Y107.432
G1 F3600 X112.281 Y99.85 E226.13113
G0 F7800 X113.386 Y98.745
G0 X113.386 Y98.745
G1 F3600 X123.383 Y88.748 E226.4838
G0 F7800 X123.383 Y88.324
G1 F3600 X104.571 Y107.135 E227.14743
G0 F7800 X104.424 Y106.859
G1 F3600 X123.383 Y87.899 E227.81628
G0 F7800 X123.383 Y87.475
G1 F3600 X104.277 Y106.582 E228.49031
G0 F7800 X104.129 Y106.305
G1 F3600 X123.383 Y87.051 E229.16955
G0 F7800 X123.383 Y86.626
G1 F3600 X103.975 Y106.035 E229.85424
G0 F7800 X103.784 Y105.802
G1 F3600 X123.383 Y86.202 E230.54566
G0 F7800 X123.383 Y85.778
G1 F3600 X103.592 Y105.569 E231.24384
G0 F7800 X103.4 Y105.336
G1 F3600 X123.383 Y85.354 E231.94878
G0 F7800 X123.383 Y84.929
G1 F3600 X103.21 Y105.103 E232.66045
G0 F7800 X102.995 Y104.893
G1 F3600 X123.383 Y84.505 E233.3797
G0 F7800 X123.383 Y84.081
G1 F3600 X102.762 Y104.702 E234.10716
G0 F7800 X102.529 Y104.511
G1 F3600 X123.383 Y83.657 E234.84284
G0 F7800 X123.383 Y83.232
G1 F3600 X102.297 Y104.319 E235.58672
G0 F7800 X102.063 Y104.128
G1 F3600 X123.383 Y82.808 E236.33884
G0 F7800 X123.383 Y82.384
G1 F3600 X101.789 Y103.978 E237.10063
G0 F7800 X101.512 Y103.831
G1 F3600 X123.383 Y81.96 E237.87219
G0 F7800 X123.383 Y81.535
G1 F3600 X101.235 Y103.683 E238.65352
G0 F7800 X100.959 Y103.535
G1 F3600 X123.383 Y81.111 E239.44458
G0 F7800 X123.383 Y80.687
G1 F3600 X100.656 Y103.414 E240.24634
G0 F7800 X100.331 Y103.315
G1 F3600 X123.031 Y80.615 E241.04715
G0 F7800 X122.607 Y80.615
G1 F3600 X100.006 Y103.216 E241.84446
G0 F7800 X99.68 Y103.117
G1 F3600 X122.183 Y80.615 E242.63829
G0 F7800 X121.758 Y80.615
G1 F3600 X99.326 Y103.047 E243.42964
G0 F7800 X98.939 Y103.009
G1 F3600 X121.334 Y80.615 E244.21967
G0 F7800 X120.91 Y80.615
G1 F3600 X98.553 Y102.972 E245.00837
G0 F7800 X98.166 Y102.934
G1 F3600 X120.486 Y80.615 E245.79575
G0 F7800 X120.061 Y80.615
G1 F3600 X97.705 Y102.971 E246.58442
G0 F7800 X97.235 Y103.016
G1 F3600 X119.637 Y80.615 E247.37469
G0 F7800 X119.213 Y80.615
G1 F3600 X96.765 Y103.062 E248.16659
G0 F7800 X96.162 Y103.241
G1 F3600 X118.788 Y80.615 E248.96478
G0 F7800 X118.364 Y80.615
G1 F3600 X95.553 Y103.426 E249.7695
G0 F7800 X94.707 Y103.847
G1 F3600 X117.94 Y80.615 E250.58909
G0 F7800 X117.516 Y80.615
G1 F3600 X93.157 Y104.973 E251.4484
G0 F7800 X93.099 Y105.031
G1 F3600 X78.747 Y119.383 E251.95471
G0 F7800 X79.171 Y119.383
G1 F3600 X91.974 Y106.581 E252.40635
G0 F7800 X91.553 Y107.426
G1 F3600 X79.596 Y119.383 E252.82817
G0 F7800 X80.02 Y119.383
G1 F3600 X91.367 Y108.036 E253.22846
G0 F7800 X91.189 Y108.638
G1 F3600 X80.444 Y119.383 E253.60752
G0 F7800 X80.868 Y119.383
G1 F3600 X91.143 Y109.109 E253.96998
G0 F7800 X91.097 Y109.579
G1 F3600 X81.293 Y119.383 E254.31585
G0 F7800 X81.717 Y119.383
G1 F3600 X91.06 Y110.04 E254.64545
G0 F7800 X91.097 Y110.427
G1 F3600 X82.141 Y119.383 E254.96139
G0 F7800 X82.566 Y119.383
G1 F3600 X91.136 Y110.813 E255.26372
G0 F7800 X91.174 Y111.199
G1 F3600 X82.99 Y119.383 E255.55244
G0 F7800 X83.414 Y119.383
G1 F3600 X91.244 Y111.553 E255.82866
G0 F7800 X91.343 Y111.879
G1 F3600 X83.838 Y119.383 E256.0934
G0 F7800 X84.263 Y119.383
G1 F3600 X91.441 Y112.205 E256.34663
G0 F7800 X91.54 Y112.53
G1 F3600 X84.687 Y119.383 E256.58838
G0 F7800 X85.111 Y119.383
G1 F3600 X91.662 Y112.832 E256.81949
G0 F7800 X91.81 Y113.109
G1 F3600 X85.535 Y119.383 E257.04084
G0 F7800 X85.96 Y119.383
G1 F3600 X91.957 Y113.385 E257.25242
G0 F7800 X92.105 Y113.662
G1 F3600 X86.384 Y119.383 E257.45424
G0 F7800 X86.808 Y119.383
G1 F3600 X92.254 Y113.937 E257.64636
G0 F7800 X92.445 Y114.17
G1 F3600 X87.232 Y119.383 E257.83026
G0 F7800 X87.657 Y119.383
G1 F3600 X92.637 Y114.403 E258.00595
G0 F7800 X92.828 Y114.636
G1 F3600 X88.081 Y119.383 E258.17341
G0 F7800 X88.505 Y119.384
G1 F3600 X93.019 Y114.869 E258.33267
G0 F7800 X93.229 Y115.083
G1 F3600 X88.929 Y119.384 E258.48438
G0 F7800 X89.353 Y119.384
G1 F3600 X93.463 Y115.274 E258.62937
G0 F7800 X93.695 Y115.466
G1 F3600 X89.777 Y119.384 E258.76759
G0 F7800 X90.202 Y119.384
G1 F3600 X93.928 Y115.657 E258.89906
G0 F7800 X94.161 Y115.848
G1 F3600 X90.626 Y119.384 E259.02378
G0 F7800 X91.05 Y119.384
G1 F3600 X94.431 Y116.002 E259.14307
G0 F7800 X94.708 Y116.15
G1 F3600 X91.474 Y119.384 E259.25716
G0 F7800 X91.899 Y119.384
G1 F3600 X94.985 Y116.297 E259.36604
G0 F7800 X95.262 Y116.445
G1 F3600 X92.323 Y119.384 E259.46972
G0 F7800 X92.747 Y119.384
G1 F3600 X95.559 Y116.572 E259.56893
G0 F7800 X95.884 Y116.671
G1 F3600 X93.171 Y119.384 E259.66463
G0 F7800 X93.596 Y119.384
G1 F3600 X96.209 Y116.77 E259.75683
G0 F7800 X96.534 Y116.869
G1 F3600 X94.02 Y119.384 E259.84554
G0 F7800 X94.444 Y119.384
G1 F3600 X96.882 Y116.946 E259.93155
G0 F7800 X97.268 Y116.984
G1 F3600 X94.868 Y119.384 E260.01621
G0 F7800 X95.293 Y119.384
G1 F3600 X97.654 Y117.022 E260.09952
G0 F7800 X98.041 Y117.06
G1 F3600 X95.717 Y119.384 E260.18151
G0 F7800 X96.141 Y119.384
G1 F3600 X98.493 Y117.032 E260.26448
G0 F7800 X98.964 Y116.985
G1 F3600 X96.566 Y119.384 E260.34909
G0 F7800 X96.99 Y119.384
G1 F3600 X99.435 Y116.939 E260.43535
G0 F7800 X100.023 Y116.775
G1 F3600 X97.414 Y119.384 E260.52739
G0 F7800 X97.838 Y119.384
G1 F3600 X100.631 Y116.591 E260.62592
G0 F7800 X101.445 Y116.202
G1 F3600 X98.263 Y119.384 E260.73817
G0 F7800 X102.929 Y119.384
G1 F3600 X116.188 Y106.125 E261.20592
G0 F7800 X116.691 Y106.047
G1 F3600 X103.354 Y119.384 E261.67642
G0 F7800 X103.778 Y119.384
G1 F3600 X117.393 Y105.769 E262.15672
G0 F7800 X119.247 Y103.915
G0 X119.247 Y103.915
G1 F3600 X123.383 Y99.779 E262.30263
G0 F7800 X123.384 Y100.202
G1 F3600 X104.202 Y119.384 E262.97933
G0 F7800 X104.627 Y119.384
G1 F3600 X123.384 Y100.626 E263.64105
G0 F7800 X123.384 Y101.051
G1 F3600 X105.051 Y119.384 E264.28779
G0 F7800 X105.475 Y119.384
G1 F3600 X123.384 Y101.475 E264.91958
G0 F7800 X123.384 Y101.899
G1 F3600 X105.899 Y119.384 E265.53641
G0 F7800 X106.324 Y119.384
G1 F3600 X123.384 Y102.324 E266.13825
G0 F7800 X123.384 Y102.748
G1 F3600 X106.748 Y119.384 E266.72513
G0 F7800 X107.172 Y119.384
G1 F3600 X123.384 Y103.172 E267.29705
G0 F7800 X123.384 Y103.596
G1 F3600 X107.596 Y119.384 E267.85402
G0 F7800 X108.021 Y119.384
G1 F3600 X123.384 Y104.021 E268.39599
G0 F7800 X123.384 Y104.445
G1 F3600 X108.445 Y119.384 E268.923
G0 F7800 X108.869 Y119.384
G1 F3600 X123.384 Y104.869 E269.43506
G0 F7800 X123.384 Y105.293
G1 F3600 X109.293 Y119.384 E269.93216
G0 F7800 X109.718 Y119.384
G1 F3600 X123.384 Y105.718 E270.41426
G0 F7800 X123.384 Y106.142
G1 F3600 X110.142 Y119.384 E270.88141
G0 F7800 X110.566 Y119.384
G1 F3600 X123.384 Y106.566 E271.3336
G0 F7800 X123.384 Y106.99
G1 F3600 X110.991 Y119.384 E271.77081
G0 F7800 X111.415 Y119.384
G1 F3600 X123.384 Y107.415 E272.19305
G0 F7800 X123.384 Y107.839
G1 F3600 X111.838 Y119.385 E272.60037
G0 F7800 X112.263 Y119.385
G1 F3600 X123.384 Y108.263 E272.99271
G0 F7800 X123.384 Y108.687
G1 F3600 X112.687 Y119.385 E273.37009
G0 F7800 X113.111 Y119.385
G1 F3600 X123.384 Y109.112 E273.7325
G0 F7800 X123.384 Y109.536
G1 F3600 X113.535 Y119.385 E274.07995
G0 F7800 X113.96 Y119.385
G1 F3600 X123.384 Y109.96 E274.41242
G0 F7800 X123.384 Y110.385
G1 F3600 X114.384 Y119.385 E274.72992
G0 F7800 X114.808 Y119.385
G1 F3600 X123.384 Y110.809 E275.03246
G0 F7800 X123.384 Y111.233
G1 F3600 X115.232 Y119.385 E275.32005
G0 F7800 X115.657 Y119.385
G1 F3600 X123.384 Y111.657 E275.59266
G0 F7800 X123.384 Y112.082
G1 F3600 X116.081 Y119.385 E275.85029
G0 F7800 X116.505 Y119.385
G1 F3600 X123.384 Y112.506 E276.09297
G0 F7800 X123.384 Y112.93
G1 F3600 X116.93 Y119.385 E276.32067
G0 F7800 X117.354 Y119.385
G1 F3600 X123.384 Y113.354 E276.53341
G0 F7800 X123.384 Y113.779
G1 F3600 X117.778 Y119.385 E276.73117
G0 F7800 X118.202 Y119.385
G1 F3600 X123.384 Y114.203 E276.91398
G0 F7800 X123.384 Y114.627
G1 F3600 X118.627 Y119.385 E277.08182
G0 F7800 X119.051 Y119.385
G1 F3600 X123.384 Y115.051 E277.23469
G0 F7800 X123.384 Y115.476
G1 F3600 X119.475 Y119.385 E277.37259
G0 F7800 X119.899 Y119.385
G1 F3600 X123.384 Y115.9 E277.49554
G0 F7800 X123.384 Y116.324
G1 F3600 X120.324 Y119.385 E277.6035
G0 F7800 X120.748 Y119.385
G1 F3600 X123.384 Y116.748 E277.69651
G0 F7800 X123.384 Y117.173
G1 F3600 X121.172 Y119.385 E277.77455
G0 F7800 X121.596 Y119.385
G1 F3600 X123.384 Y117.597 E277.83762
G0 F7800 X123.384 Y118.021
G1 F3600 X122.021 Y119.385 E277.88573
G0 F7800 X122.445 Y119.385
G1 F3600 X123.384 Y118.446 E277.91885
G0 F7800 X123.384 Y118.87
G1 F3600 X122.869 Y119.385 E277.93702
G0 F7800 X123.293 Y119.385
G1 F3600 X123.384 Y119.294 E277.94023
G0 F7800 X119.53 Y103.207
G0 X119.53 Y103.207
G1 F3600 X123.383 Y99.354 E278.07615
G0 F7800 X123.383 Y98.93
G1 F3600 X119.63 Y102.683 E278.20855
G0 F7800 X119.677 Y102.212
G1 F3600 X123.383 Y98.506 E278.33929
G0 F7800 X123.383 Y98.082
G1 F3600 X119.653 Y101.812 E278.47088
G0 F7800 X119.627 Y101.413
G1 F3600 X123.383 Y97.657 E278.60338
G0 F7800 X123.383 Y97.233
G1 F3600 X119.534 Y101.083 E278.73918
G0 F7800 X119.43 Y100.762
G1 F3600 X123.383 Y96.809 E278.87863
G0 F7800 X123.383 Y96.385
G1 F3600 X119.326 Y100.442 E279.02176
G0 F7800 X119.17 Y100.173
G1 F3600 X123.383 Y95.96 E279.17038
G0 F7800 X123.383 Y95.536
G1 F3600 X119.006 Y99.914 E279.32481
G0 F7800 X118.841 Y99.654
G1 F3600 X123.383 Y95.112 E279.48504
G0 F7800 X123.383 Y94.687
G1 F3600 X118.648 Y99.422 E279.65208
G0 F7800 X118.429 Y99.217
G1 F3600 X123.383 Y94.263 E279.82685
G0 F7800 X123.383 Y93.839
G1 F3600 X118.211 Y99.011 E280.0093
G0 F7800 X117.985 Y98.813
G1 F3600 X123.383 Y93.415 E280.19973
G0 F7800 X123.383 Y92.99
G1 F3600 X117.712 Y98.662 E280.39981
G0 F7800 X117.438 Y98.511
G1 F3600 X123.383 Y92.566 E280.60953
G0 F7800 X123.383 Y92.142
G1 F3600 X117.164 Y98.361 E280.82893
G0 F7800 X116.836 Y98.265
G1 F3600 X123.383 Y91.718 E281.05989
G0 F7800 X123.383 Y91.293
G1 F3600 X116.499 Y98.178 E281.30276
G0 F7800 X116.161 Y98.091
G1 F3600 X123.383 Y90.869 E281.55753
G0 F7800 X123.383 Y90.445
G1 F3600 X115.744 Y98.084 E281.82702
G0 F7800 X115.319 Y98.084
G1 F3600 X123.383 Y90.021 E282.11148
G0 F7800 X123.383 Y89.596
G1 F3600 X114.82 Y98.159 E282.41357
G0 F7800 X114.25 Y98.306
G1 F3600 X123.383 Y89.172 E282.73577
G0 F7800 X117.091 Y80.615
G0 X117.091 Y80.615
G1 F3600 X78.323 Y119.383 E284.10342
G0 F7800 X77.899 Y119.383
G1 F3600 X116.667 Y80.615 E285.47107
G0 F7800 X116.243 Y80.615
G1 F3600 X77.474 Y119.383 E286.83873
G0 F7800 X77.05 Y119.383
G1 F3600 X115.819 Y80.615 E288.20639
G0 F7800 X115.394 Y80.615
G1 F3600 X76.626 Y119.383 E289.57404
G0 F7800 X76.615 Y118.97
G1 F3600 X114.97 Y80.615 E290.92711
G0 F7800 X114.546 Y80.615
G1 F3600 X76.615 Y118.546 E292.26523
G0 F7800 X76.615 Y118.122
G1 F3600 X114.122 Y80.615 E293.58839
G0 F7800 X113.697 Y80.615
G1 F3600 X76.615 Y117.697 E294.89656
G0 F7800 X76.615 Y117.273
G1 F3600 X113.273 Y80.615 E296.18977
G0 F7800 X112.849 Y80.615
G1 F3600 X76.615 Y116.849 E297.46802
G0 F7800 X76.615 Y116.425
G1 F3600 X112.425 Y80.615 E298.73132
G0 F7800 X112 Y80.615
G1 F3600 X76.615 Y116 E299.97962
G0 F7800 X76.615 Y115.576
G1 F3600 X111.576 Y80.615 E301.21296
G0 F7800 X111.152 Y80.615
G1 F3600 X76.615 Y115.152 E302.43135
G0 F7800 X76.615 Y114.728
G1 F3600 X110.727 Y80.615 E303.63476
G0 F7800 X110.303 Y80.615
G1 F3600 X76.615 Y114.303 E304.8232
G0 F7800 X76.615 Y113.879
G1 F3600 X109.879 Y80.615 E305.99667
G0 F7800 X109.455 Y80.615
G1 F3600 X76.615 Y113.455 E307.15519
G0 F7800 X76.615 Y113.031
G1 F3600 X109.03 Y80.615 E308.29874
G0 F7800 X108.606 Y80.615
G1 F3600 X76.615 Y112.606 E309.42731
G0 F7800 X76.615 Y112.182
G1 F3600 X108.182 Y80.615 E310.54092
G0 F7800 X107.758 Y80.615
G1 F3600 X84.057 Y104.315 E311.37702
G0 F7800 X84.438 Y103.51
G1 F3600 X107.333 Y80.615 E312.1847
G0 F7800 X106.909 Y80.615
G1 F3600 X84.582 Y102.942 E312.97234
G0 F7800 X84.683 Y102.417
G1 F3600 X106.485 Y80.615 E313.74147
G0 F7800 X106.061 Y80.615
G1 F3600 X84.666 Y102.009 E314.49622
G0 F7800 X84.642 Y101.609
G1 F3600 X105.636 Y80.615 E315.23684
G0 F7800 X105.212 Y80.615
G1 F3600 X84.586 Y101.24 E315.96446
G0 F7800 X84.482 Y100.92
G1 F3600 X104.788 Y80.615 E316.68079
G0 F7800 X104.364 Y80.615
G1 F3600 X84.379 Y100.6 E317.38581
G0 F7800 X84.253 Y100.3
G1 F3600 X103.939 Y80.615 E318.08027
G0 F7800 X103.515 Y80.615
G1 F3600 X84.089 Y100.041 E318.76558
G0 F7800 X83.924 Y99.781
G1 F3600 X103.091 Y80.615 E319.44173
G0 F7800 X102.666 Y80.615
G1 F3600 X83.758 Y99.523 E320.10876
G0 F7800 X83.539 Y99.318
G1 F3600 X102.242 Y80.615 E320.76856
G0 F7800 X101.818 Y80.615
G1 F3600 X83.32 Y99.113 E321.42112
G0 F7800 X83.102 Y98.907
G1 F3600 X101.394 Y80.615 E322.06642
G0 F7800 X100.969 Y80.615
G1 F3600 X82.848 Y98.736 E322.70569
G0 F7800 X82.575 Y98.585
G1 F3600 X100.545 Y80.615 E323.33963
G0 F7800 X100.121 Y80.615
G1 F3600 X82.301 Y98.434 E323.96826
G0 F7800 X82.005 Y98.306
G1 F3600 X99.697 Y80.615 E324.59238
G0 F7800 X99.272 Y80.615
G1 F3600 X81.667 Y98.22 E325.21344
G0 F7800 X81.33 Y98.133
G1 F3600 X98.848 Y80.615 E325.83144
G0 F7800 X98.424 Y80.615
G1 F3600 X80.955 Y98.084 E326.4477
G0 F7800 X80.53 Y98.084
G1 F3600 X97.994 Y80.62 E327.06379
G0 F7800 X97.552 Y80.638
G1 F3600 X80.103 Y98.087 E327.67935
G0 F7800 X79.533 Y98.233
G1 F3600 X97.11 Y80.656 E328.29943
G0 F7800 X96.668 Y80.673
G1 F3600 X78.854 Y98.487 E328.92787
G0 F7800 X76.984 Y98.236
G0 X76.984 Y98.236
G1 F3600 X94.236 Y80.984 E329.53648
G0 F7800 X94.765 Y80.88
G1 F3600 X76.88 Y98.765 E330.16742
G0 F7800 X76.823 Y99.245
G1 F3600 X95.245 Y80.823 E330.8173
G0 F7800 X95.726 Y80.767
G1 F3600 X76.767 Y99.726 E331.48613
G0 F7800 X76.71 Y100.207
G1 F3600 X96.207 Y80.71 E332.17394
G0 F7800 X93.706 Y81.09
G0 X93.706 Y81.09
G1 F3600 X77.09 Y97.706 E332.76012
G0 F7800 X77.195 Y97.176
G1 F3600 X93.176 Y81.195 E333.32389
G0 F7800 X92.592 Y81.355
G1 F3600 X77.355 Y96.592 E333.86142
G0 F7800 X77.522 Y96.001
G1 F3600 X92.001 Y81.522 E334.3722
G0 F7800 X91.402 Y81.697
G1 F3600 X77.697 Y95.402 E334.85568
G0 F7800 X77.945 Y94.73
G1 F3600 X90.73 Y81.945 E335.30671
G0 F7800 X90.057 Y82.193
G1 F3600 X78.193 Y94.057 E335.72524
G0 F7800 X78.526 Y93.3
G1 F3600 X89.3 Y82.526 E336.10533
G0 F7800 X88.514 Y82.888
G1 F3600 X78.888 Y92.514 E336.44491
G0 F7800 X79.395 Y91.583
G1 F3600 X87.583 Y83.394 E336.73378
G0 F7800 X86.528 Y84.025
G1 F3600 X80.024 Y90.529 E336.96323
G0 F7800 X81.011 Y89.118
G0 X81.011 Y89.118
G1 F3600 X85.118 Y85.011 E337.10811
G0 F7800 X76.933 Y100.409
G0 X76.933 Y100.409
G1 F3600 X76.673 Y100.668 E337.11727
G0 F7800 X76.634 Y101.376
G1 F3600 X76.596 Y102.13 E337.12618
G1 X76.588 Y102.375 E337.12877
G0 F7800 X76.646 Y103.241
G1 F3600 X76.712 Y103.387 E337.12984
G1 X76.779 Y103.744 E337.13669
G1 X76.615 Y104.121 E337.14695
G0 F7800 X76.615 Y104.545
G1 F3600 X77.08 Y104.08 E337.16335
G0 F7800 X77.228 Y104.356
G1 F3600 X76.615 Y104.97 E337.18499
G0 F7800 X76.615 Y105.394
G1 F3600 X77.42 Y104.588 E337.21341
G0 F7800 X77.612 Y104.82
G1 F3600 X76.615 Y105.818 E337.2486
G0 F7800 X76.615 Y106.242
G1 F3600 X77.805 Y105.052 E337.29058
G0 F7800 X78.041 Y105.24
G1 F3600 X76.615 Y106.667 E337.3409
G0 F7800 X76.615 Y107.091
G1 F3600 X78.287 Y105.419 E337.39989
G0 F7800 X78.532 Y105.597
G1 F3600 X76.615 Y107.515 E337.46753
G0 F7800 X76.615 Y107.939
G1 F3600 X78.805 Y105.749 E337.54479
G0 F7800 X79.109 Y105.869
G1 F3600 X76.615 Y108.364 E337.63279
G0 F7800 X76.615 Y108.788
G1 F3600 X79.413 Y105.989 E337.73152
G0 F7800 X79.743 Y106.084
G1 F3600 X76.615 Y109.212 E337.84186
G0 F7800 X76.615 Y109.636
G1 F3600 X80.119 Y106.132 E337.96548
G0 F7800 X80.495 Y106.18
G1 F3600 X76.615 Y110.061 E338.10237
G0 F7800 X76.615 Y110.485
G1 F3600 X80.943 Y106.156 E338.25507
G0 F7800 X81.429 Y106.095
G1 F3600 X76.615 Y110.909 E338.4249
G0 F7800 X76.615 Y111.333
G1 F3600 X82.039 Y105.909 E338.61625
G0 F7800 X82.93 Y105.442
G1 F3600 X76.615 Y111.758 E338.83904
; Layer Change GCode
; LAYER:2
G0 F7800 X75.943 Y119.874 Z0.65
G0 X75.91 Y120.273
G0 X75.935 Y119.975
G0 X75.935 Y119.975
G0 X75.775 Y120.225
G0 X75.775 Y120.225
G0 X76.375 Y119.625
; TYPE:WALL-INNER
G1 F1800 X76.375 Y102.125 E339.27558
G1 X76.443 Y100.426 E339.318
G1 X76.643 Y98.725 E339.36072
G1 X76.977 Y97.048 E339.40338
G1 X77.442 Y95.403 E339.44602
G1 X78.033 Y93.8 E339.48864
G1 X78.749 Y92.246 E339.53132
G1 X79.574 Y90.773 E339.57343
G1 X80.536 Y89.334 E339.61661
G1 X81.584 Y88.003 E339.65887
G1 X82.747 Y86.747 E339.70157
G1 X84.003 Y85.584 E339.74427
G1 X85.334 Y84.536 E339.78653
G1 X86.773 Y83.574 E339.82971
G1 X88.246 Y82.749 E339.87182
G1 X89.8 Y82.033 E339.9145
G1 X91.403 Y81.442 E339.95712
G1 X93.048 Y80.977 E339.99976
G1 X94.725 Y80.643 E340.04242
G1 X96.426 Y80.443 E340.08514
G1 X98.13 Y80.375 E340.12768
G1 X123.625 Y80.375 E340.76366
G1 X123.625 Y119.625 E341.74275
G1 X76.375 Y119.625 E342.92141
G0 F7800 X76.075 Y119.925
G1 F1800 X76.075 Y102.143 E343.36498
G1 X76.144 Y100.392 E343.4087
G1 X76.348 Y98.671 E343.45193
G1 X76.684 Y96.98 E343.49493
G1 X77.155 Y95.313 E343.53814
G1 X77.751 Y93.695 E343.58116
G1 X78.481 Y92.114 E343.6246
G1 X79.329 Y90.599 E343.66791
G1 X80.287 Y89.165 E343.71092
G1 X81.358 Y87.806 E343.75409
G1 X82.534 Y86.534 E343.7973
G1 X83.806 Y85.358 E343.84051
G1 X85.165 Y84.287 E343.88368
G1 X86.599 Y83.329 E343.9267
G1 X88.114 Y82.481 E343.97
G1 X89.695 Y81.751 E344.01344
G1 X91.313 Y81.155 E344.05646
G1 X92.98 Y80.684 E344.09967
G1 X94.671 Y80.348 E344.14267
G1 X96.392 Y80.144 E344.18591
G1 X98.143 Y80.075 E344.22962
G1 X123.925 Y80.075 E344.87275
G1 X123.925 Y119.925 E345.86682
G1 X76.075 Y119.925 E347.06044
G0 F7800 X75.775 Y120.225
; TYPE:WALL-OUTER
G1 F1260 X75.775 Y102.131 E347.51179
G1 X75.845 Y100.366 E347.55586
G1 X76.051 Y98.624 E347.59961
G1 X76.394 Y96.902 E347.64341
G1 X76.868 Y95.225 E347.68689
G1 X77.479 Y93.567 E347.73096
G1 X78.209 Y91.984 E347.77445
G1 X79.066 Y90.452 E347.81824
G1 X80.041 Y88.993 E347.86201
G1 X81.134 Y87.606 E347.90606
G1 X82.322 Y86.322 E347.9497
G1 X83.606 Y85.134 E347.99333
G1 X84.993 Y84.041 E348.03738
G1 X86.448 Y83.068 E348.08105
G1 X87.98 Y82.211 E348.12484
G1 X89.567 Y81.479 E348.16843
G1 X91.225 Y80.868 E348.21251
G1 X92.907 Y80.393 E348.25611
G1 X94.626 Y80.051 E348.29983
G1 X96.371 Y79.845 E348.34366
G1 X98.131 Y79.775 E348.3876
G1 X124.225 Y79.775 E349.03852
G1 X124.225 Y120.225 E350.04755
G1 X75.775 Y120.225 E351.25614
G0 F7800 X75.935 Y119.975
G0 X79.673 Y105.835
G0 X79.673 Y105.835
; TYPE:WALL-INNER
G1 F1800 X80.625 Y105.956 E351.28008
G1 X81.578 Y105.835 E351.30404
G1 X82.471 Y105.481 E351.328
G1 X83.247 Y104.917 E351.35193
G1 X83.86 Y104.177 E351.3759
G1 X84.269 Y103.308 E351.39986
G1 X84.448 Y102.365 E351.4238
G1 X84.389 Y101.408 E351.44772
G1 X84.092 Y100.494 E351.47169
G1 X83.577 Y99.683 E351.49566
G1 X82.877 Y99.027 E351.51959
G1 X82.036 Y98.563 E351.54355
G1 X81.105 Y98.325 E351.56752
G1 X80.146 Y98.325 E351.59144
G1 X79.215 Y98.563 E351.61541
G1 X78.374 Y99.027 E351.63937
G1 X77.674 Y99.683 E351.6633
G1 X77.159 Y100.494 E351.68727
G1 X76.862 Y101.408 E351.71124
G1 X76.803 Y102.365 E351.73516
G1 X76.982 Y103.308 E351.7591
G1 X77.391 Y104.177 E351.78306
G1 X78.002 Y104.917 E351.807
G1 X78.78 Y105.481 E351.83097
G1 X79.673 Y105.835 E351.85493
G0 F7800 X79.748 Y105.542
G1 F1800 X80.625 Y105.654 E351.87699
G1 X81.503 Y105.542 E351.89907
G1 X82.326 Y105.216 E351.92115
G1 X83.04 Y104.697 E351.94317
G1 X83.605 Y104.015 E351.96526
G1 X83.981 Y103.215 E351.98731
G1 X84.147 Y102.346 E352.00938
G1 X84.092 Y101.464 E352.03142
G1 X83.818 Y100.623 E352.05349
G1 X83.344 Y99.876 E352.07556
G1 X82.7 Y99.271 E352.0976
G1 X81.925 Y98.844 E352.11967
G1 X81.068 Y98.625 E352.14174
G1 X80.183 Y98.625 E352.16381
G1 X79.326 Y98.844 E352.18588
G1 X78.551 Y99.271 E352.20795
G1 X77.907 Y99.876 E352.22999
G1 X77.433 Y100.623 E352.25206
G1 X77.159 Y101.464 E352.27412
G1 X77.104 Y102.346 E352.29617
G1 X77.27 Y103.215 E352.31824
G1 X77.646 Y104.015 E352.34029
G1 X78.209 Y104.697 E352.36235
G1 X78.926 Y105.216 E352.38443
G1 X79.748 Y105.542 E352.40649
G0 F7800 X80.625 Y105.351
; TYPE:WALL-OUTER
G1 F1260 X81.428 Y105.249 E352.42668
G1 X82.18 Y104.951 E352.44686
G1 X82.833 Y104.476 E352.467
G1 X83.35 Y103.853 E352.48719
G1 X83.694 Y103.122 E352.50735
G1 X83.845 Y102.327 E352.52753
G1 X83.795 Y101.521 E352.54768
G1 X83.545 Y100.752 E352.56785
G1 X83.111 Y100.069 E352.58804
G1 X82.522 Y99.516 E352.60819
G1 X81.814 Y99.125 E352.62836
G1 X81.03 Y98.925 E352.64855
G1 X80.221 Y98.925 E352.66873
G1 X79.437 Y99.125 E352.68891
G1 X78.729 Y99.516 E352.70909
G1 X78.14 Y100.069 E352.72924
G1 X77.706 Y100.752 E352.74943
G1 X77.456 Y101.521 E352.7696
G1 X77.406 Y102.327 E352.78974
G1 X77.557 Y103.122 E352.80993
G1 X77.901 Y103.853 E352.83008
G1 X78.416 Y104.476 E352.85024
G1 X79.071 Y104.951 E352.87043
G1 X79.823 Y105.249 E352.89061
G1 X80.625 Y105.351 E352.91077
G0 F7800 X80.595 Y105.598
G0 X91.428 Y108.667
G0 X91.428 Y108.667
; TYPE:WALL-INNER
G1 F1800 X91.296 Y110 E352.94419
G1 X91.428 Y111.332 E352.97758
G1 X91.817 Y112.612 E353.01095
G1 X92.447 Y113.794 E353.04436
G1 X93.297 Y114.828 E353.07775
G1 X94.331 Y115.678 E353.11114
G1 X95.513 Y116.308 E353.14455
G1 X96.793 Y116.697 E353.17792
G1 X98.125 Y116.829 E353.21131
G1 X99.457 Y116.697 E353.2447
G1 X100.737 Y116.308 E353.27807
G1 X101.919 Y115.678 E353.31149
G1 X102.953 Y114.828 E353.34488
G1 X103.803 Y113.794 E353.37827
G1 X104.433 Y112.612 E353.41168
G1 X104.822 Y111.332 E353.44505
G1 X104.954 Y110 E353.47844
G1 X104.822 Y108.667 E353.51185
G1 X104.433 Y107.387 E353.54522
G1 X103.803 Y106.205 E353.57864
G1 X102.953 Y105.171 E353.61203
G1 X101.919 Y104.321 E353.64542
G1 X100.737 Y103.691 E353.67883
G1 X99.457 Y103.302 E353.7122
G1 X98.125 Y103.171 E353.74559
G1 X96.793 Y103.302 E353.77897
G1 X95.513 Y103.691 E353.81234
G1 X94.331 Y104.321 E353.84576
G1 X93.297 Y105.171 E353.87915
G1 X92.447 Y106.205 E353.91254
G1 X91.817 Y107.387 E353.94595
G1 X91.428 Y108.667 E353.97932
G0 F7800 X91.724 Y108.726
G1 F1800 X91.598 Y110 E354.01125
G1 X91.724 Y111.273 E354.04316
G1 X92.095 Y112.497 E354.07507
G1 X92.698 Y113.626 E354.107
G1 X93.51 Y114.615 E354.13892
G1 X94.499 Y115.427 E354.17084
G1 X95.628 Y116.03 E354.20277
G1 X96.852 Y116.401 E354.23467
G1 X98.125 Y116.527 E354.26658
G1 X99.398 Y116.401 E354.29849
G1 X100.622 Y116.03 E354.3304
G1 X101.751 Y115.427 E354.36233
G1 X102.74 Y114.615 E354.39425
G1 X103.552 Y113.626 E354.42617
G1 X104.155 Y112.497 E354.45809
G1 X104.526 Y111.273 E354.49
G1 X104.652 Y110 E354.52191
G1 X104.526 Y108.726 E354.55384
G1 X104.155 Y107.502 E354.58575
G1 X103.552 Y106.373 E354.61768
G1 X102.74 Y105.384 E354.6496
G1 X101.751 Y104.572 E354.68152
G1 X100.622 Y103.969 E354.71345
G1 X99.398 Y103.597 E354.74536
G1 X98.125 Y103.473 E354.77726
G1 X96.852 Y103.597 E354.80917
G1 X95.628 Y103.969 E354.84108
G1 X94.499 Y104.572 E354.87301
G1 X93.51 Y105.384 E354.90493
G1 X92.698 Y106.373 E354.93685
G1 X92.095 Y107.502 E354.96878
G1 X91.724 Y108.726 E355.00068
G0 F7800 X91.729 Y108.733
G0 X91.549 Y110
G0 X91.675 Y111.282
G0 X92.05 Y112.515
G0 X92.657 Y113.653
G0 X93.476 Y114.649
G0 X94.472 Y115.468
G0 X95.61 Y116.075
G0 X96.843 Y116.45
G0 X98.125 Y116.576
G0 X98.157 Y116.539
G0 X98.103 Y116.473
G0 X98.103 Y116.473
G0 X98.125 Y116.226
; TYPE:WALL-OUTER
G1 F1260 X99.339 Y116.106 E355.03111
G1 X100.507 Y115.751 E355.06157
G1 X101.584 Y115.176 E355.09202
G1 X102.527 Y114.402 E355.12245
G1 X103.301 Y113.459 E355.15289
G1 X103.876 Y112.382 E355.18334
G1 X104.231 Y111.214 E355.21379
G1 X104.351 Y110 E355.24422
G1 X104.231 Y108.785 E355.27468
G1 X103.876 Y107.617 E355.30513
G1 X103.301 Y106.54 E355.33559
G1 X102.527 Y105.597 E355.36602
G1 X101.584 Y104.823 E355.39645
G1 X100.507 Y104.248 E355.42691
G1 X99.339 Y103.893 E355.45736
G1 X98.125 Y103.774 E355.48779
G1 X96.911 Y103.893 E355.51822
G1 X95.743 Y104.248 E355.54867
G1 X94.666 Y104.823 E355.57912
G1 X93.723 Y105.597 E355.60955
G1 X92.949 Y106.54 E355.63999
G1 X92.374 Y107.617 E355.67044
G1 X92.019 Y108.785 E355.70089
G1 X91.899 Y110 E355.73135
G1 X92.019 Y111.214 E355.76178
G1 X92.374 Y112.382 E355.79223
G1 X92.949 Y113.459 E355.82269
G1 X93.723 Y114.402 E355.85312
G1 X94.666 Y115.176 E355.88355
G1 X95.743 Y115.751 E355.91401
G1 X96.911 Y116.106 E355.94446
G1 X98.125 Y116.226 E355.97489
G0 F7800 X98.103 Y116.473
G0 X98.074 Y116.496
G0 X99.407 Y116.45
G0 X100.64 Y116.075
G0 X101.778 Y115.468
G0 X102.774 Y114.649
G0 X103.593 Y113.653
G0 X104.2 Y112.515
G0 X104.575 Y111.282
G0 X104.548 Y110.925
G0 X112.39 Y104.177
G0 X112.39 Y104.177
; TYPE:WALL-INNER
G1 F1800 X113.003 Y104.917 E355.99886
G1 X113.779 Y105.481 E356.02279
G1 X114.672 Y105.835 E356.04675
G1 X115.625 Y105.956 E356.07072
G1 X116.577 Y105.835 E356.09465
G1 X117.47 Y105.481 E356.11862
G1 X118.248 Y104.917 E356.14259
G1 X118.859 Y104.177 E356.16653
G1 X119.268 Y103.308 E356.19048
G1 X119.447 Y102.365 E356.21443
G1 X119.388 Y101.408 E356.23835
G1 X119.091 Y100.494 E356.26232
G1 X118.576 Y99.683 E356.28628
G1 X117.876 Y99.027 E356.31021
G1 X117.035 Y98.563 E356.33417
G1 X116.104 Y98.325 E356.35815
G1 X115.145 Y98.325 E356.38207
G1 X114.214 Y98.563 E356.40604
G1 X113.373 Y99.027 E356.43
G1 X112.673 Y99.683 E356.45393
G1 X112.158 Y100.494 E356.47789
G1 X111.861 Y101.408 E356.50187
G1 X111.802 Y102.365 E356.52578
G1 X111.981 Y103.308 E356.54973
G1 X112.39 Y104.177 E356.57369
G0 F7800 X112.645 Y104.015
G1 F1800 X113.21 Y104.697 E356.59578
G1 X113.924 Y105.216 E356.6178
G1 X114.747 Y105.542 E356.63988
G1 X115.625 Y105.654 E356.66196
G1 X116.502 Y105.542 E356.68401
G1 X117.324 Y105.216 E356.70607
G1 X118.041 Y104.697 E356.72815
G1 X118.604 Y104.015 E356.75021
G1 X118.98 Y103.215 E356.77226
G1 X119.146 Y102.346 E356.79433
G1 X119.091 Y101.464 E356.81638
G1 X118.817 Y100.623 E356.83844
G1 X118.343 Y99.876 E356.86051
G1 X117.699 Y99.271 E356.88255
G1 X116.924 Y98.844 E356.90462
G1 X116.067 Y98.625 E356.92669
G1 X115.182 Y98.625 E356.94876
G1 X114.325 Y98.844 E356.97083
G1 X113.55 Y99.271 E356.9929
G1 X112.906 Y99.876 E357.01494
G1 X112.432 Y100.623 E357.03701
G1 X112.158 Y101.464 E357.05908
G1 X112.103 Y102.346 E357.08112
G1 X112.269 Y103.215 E357.10319
G1 X112.645 Y104.015 E357.12524
G0 F7800 X112.819 Y104.108
G0 X113.177 Y104.731
G0 X113.901 Y105.259
G0 X114.736 Y105.589
G0 X115.625 Y105.702
G0 X115.632 Y105.617
G0 X115.595 Y105.598
G0 X115.595 Y105.598
G0 X115.625 Y105.351
; TYPE:WALL-OUTER
G1 F1260 X116.427 Y105.249 E357.14541
G1 X117.179 Y104.951 E357.16559
G1 X117.834 Y104.476 E357.18577
G1 X118.349 Y103.853 E357.20593
G1 X118.693 Y103.122 E357.22608
G1 X118.844 Y102.327 E357.24627
G1 X118.794 Y101.521 E357.26642
G1 X118.544 Y100.752 E357.28659
G1 X118.11 Y100.069 E357.30677
G1 X117.521 Y99.516 E357.32693
G1 X116.813 Y99.125 E357.3471
G1 X116.029 Y98.925 E357.36728
G1 X115.22 Y98.925 E357.38747
G1 X114.436 Y99.125 E357.40765
G1 X113.728 Y99.516 E357.42782
G1 X113.139 Y100.069 E357.44798
G1 X112.705 Y100.752 E357.46816
G1 X112.455 Y101.521 E357.48833
G1 X112.405 Y102.327 E357.50848
G1 X112.556 Y103.122 E357.52867
G1 X112.9 Y103.853 E357.54882
G1 X113.417 Y104.476 E357.56901
G1 X114.07 Y104.951 E357.58916
G1 X114.822 Y105.249 E357.60933
G1 X115.625 Y105.351 E357.62953
G0 F7800 X115.517 Y106.183
; TYPE:FILL
G1 F3600 X123.384 Y114.05 E357.90706
G0 F7800 X123.384 Y113.626
G1 F3600 X115.918 Y106.16 E358.17044
G0 F7800 X116.294 Y106.111
G1 F3600 X123.384 Y113.202 E358.42058
G0 F7800 X123.384 Y112.777
G1 F3600 X116.664 Y106.058 E358.65762
G0 F7800 X116.968 Y105.937
G1 F3600 X123.384 Y112.353 E358.88397
G0 F7800 X123.384 Y111.929
G1 F3600 X117.272 Y105.817 E359.09958
G0 F7800 X117.576 Y105.696
G1 F3600 X123.384 Y111.505 E359.30449
G0 F7800 X123.384 Y111.08
G1 F3600 X117.823 Y105.52 E359.50066
G0 F7800 X118.069 Y105.341
G1 F3600 X123.384 Y110.656 E359.68816
G0 F7800 X123.384 Y110.232
G1 F3600 X118.315 Y105.163 E359.86698
G0 F7800 X118.528 Y104.952
G1 F3600 X123.384 Y109.808 E360.03829
G0 F7800 X123.384 Y109.383
G1 F3600 X118.721 Y104.72 E360.20279
G0 F7800 X118.913 Y104.488
G1 F3600 X123.384 Y108.959 E360.36051
G0 F7800 X123.384 Y108.535
G1 F3600 X119.093 Y104.243 E360.51191
G0 F7800 X119.228 Y103.955
G1 F3600 X123.384 Y108.11 E360.6585
G0 F7800 X123.384 Y107.686
G1 F3600 X119.363 Y103.666 E360.80034
G0 F7800 X119.498 Y103.376
G1 F3600 X123.384 Y107.262 E360.93743
G0 F7800 X123.384 Y106.838
G1 F3600 X119.566 Y103.02 E361.07212
G0 F7800 X119.634 Y102.664
G1 F3600 X123.384 Y106.413 E361.20439
G0 F7800 X123.384 Y105.989
G1 F3600 X119.682 Y102.287 E361.33499
G0 F7800 X119.654 Y101.835
G1 F3600 X123.384 Y105.565 E361.46658
G0 F7800 X123.384 Y105.141
G1 F3600 X119.626 Y101.382 E361.59917
G0 F7800 X119.429 Y100.762
G1 F3600 X123.384 Y104.716 E361.73867
G0 F7800 X123.384 Y104.292
G1 F3600 X119.007 Y99.915 E361.89308
G0 F7800 X117.807 Y98.715
G0 X117.807 Y98.715
G1 F3600 X99.707 Y80.615 E362.53161
G0 F7800 X100.131 Y80.615
G1 F3600 X123.384 Y103.868 E363.35192
G0 F7800 X123.384 Y103.444
G1 F3600 X100.555 Y80.615 E364.15728
G0 F7800 X100.979 Y80.615
G1 F3600 X123.384 Y103.019 E364.94766
G0 F7800 X123.384 Y102.595
G1 F3600 X101.404 Y80.615 E365.72306
G0 F7800 X101.828 Y80.615
G1 F3600 X123.384 Y102.171 E366.48351
G0 F7800 X123.384 Y101.747
G1 F3600 X102.252 Y80.615 E367.22899
G0 F7800 X102.676 Y80.615
G1 F3600 X123.384 Y101.322 E367.95951
G0 F7800 X123.384 Y100.898
G1 F3600 X103.101 Y80.615 E368.67504
G0 F7800 X103.525 Y80.615
G1 F3600 X123.384 Y100.474 E369.37562
G0 F7800 X123.384 Y100.049
G1 F3600 X103.949 Y80.615 E370.06123
G0 F7800 X104.373 Y80.615
G1 F3600 X123.383 Y99.624 E370.73184
G0 F7800 X123.383 Y99.2
G1 F3600 X104.798 Y80.615 E371.38748
G0 F7800 X105.222 Y80.615
G1 F3600 X123.383 Y98.776 E372.02815
G0 F7800 X123.383 Y98.352
G1 F3600 X105.646 Y80.615 E372.65388
G0 F7800 X106.07 Y80.615
G1 F3600 X123.383 Y97.927 E373.26462
G0 F7800 X123.383 Y97.503
G1 F3600 X106.495 Y80.615 E373.86039
G0 F7800 X106.919 Y80.615
G1 F3600 X123.383 Y97.079 E374.4412
G0 F7800 X123.383 Y96.655
G1 F3600 X107.343 Y80.615 E375.00706
G0 F7800 X107.768 Y80.615
G1 F3600 X123.383 Y96.23 E375.55792
G0 F7800 X123.383 Y95.806
G1 F3600 X108.192 Y80.615 E376.09382
G0 F7800 X108.616 Y80.615
G1 F3600 X123.383 Y95.382 E376.61477
G0 F7800 X123.383 Y94.958
G1 F3600 X109.04 Y80.615 E377.12076
G0 F7800 X109.465 Y80.615
G1 F3600 X123.383 Y94.533 E377.61175
G0 F7800 X123.383 Y94.109
G1 F3600 X109.889 Y80.615 E378.08779
G0 F7800 X110.313 Y80.615
G1 F3600 X123.383 Y93.685 E378.54887
G0 F7800 X123.383 Y93.261
G1 F3600 X110.737 Y80.615 E378.99499
G0 F7800 X111.162 Y80.615
G1 F3600 X123.383 Y92.836 E379.42612
G0 F7800 X123.383 Y92.412
G1 F3600 X111.586 Y80.615 E379.84229
G0 F7800 X112.01 Y80.615
G1 F3600 X123.383 Y91.988 E380.2435
G0 F7800 X123.383 Y91.563
G1 F3600 X112.434 Y80.615 E380.62974
G0 F7800 X112.859 Y80.615
G1 F3600 X123.383 Y91.139 E381.001
G0 F7800 X123.383 Y90.715
G1 F3600 X113.283 Y80.615 E381.35731
G0 F7800 X113.707 Y80.615
G1 F3600 X123.383 Y90.291 E381.69865
G0 F7800 X123.383 Y89.866
G1 F3600 X114.131 Y80.615 E382.02503
G0 F7800 X114.556 Y80.615
G1 F3600 X123.383 Y89.442 E382.33642
G0 F7800 X123.383 Y89.018
G1 F3600 X114.98 Y80.615 E382.63286
G0 F7800 X115.404 Y80.615
G1 F3600 X123.383 Y88.594 E382.91434
G0 F7800 X123.383 Y88.169
G1 F3600 X115.829 Y80.615 E383.18083
G0 F7800 X116.253 Y80.615
G1 F3600 X123.383 Y87.745 E383.43236
G0 F7800 X123.383 Y87.321
G1 F3600 X116.677 Y80.615 E383.66893
G0 F7800 X117.101 Y80.615
G1 F3600 X123.383 Y86.897 E383.89055
G0 F7800 X123.383 Y86.472
G1 F3600 X117.526 Y80.615 E384.09717
G0 F7800 X117.95 Y80.615
G1 F3600 X123.383 Y86.048 E384.28883
G0 F7800 X123.383 Y85.624
G1 F3600 X118.374 Y80.615 E384.46554
G0 F7800 X118.798 Y80.615
G1 F3600 X123.383 Y85.2 E384.62729
G0 F7800 X123.383 Y84.775
G1 F3600 X119.223 Y80.615 E384.77404
G0 F7800 X119.647 Y80.615
G1 F3600 X123.383 Y84.351 E384.90584
G0 F7800 X123.383 Y83.927
G1 F3600 X120.071 Y80.615 E385.02268
G0 F7800 X120.495 Y80.615
G1 F3600 X123.383 Y83.502 E385.12454
G0 F7800 X123.383 Y83.078
G1 F3600 X120.92 Y80.615 E385.21143
G0 F7800 X121.344 Y80.615
G1 F3600 X123.383 Y82.654 E385.28336
G0 F7800 X123.383 Y82.23
G1 F3600 X121.768 Y80.615 E385.34034
G0 F7800 X122.193 Y80.615
G1 F3600 X123.383 Y81.805 E385.38232
G0 F7800 X123.383 Y81.381
G1 F3600 X122.617 Y80.615 E385.40934
G0 F7800 X123.041 Y80.615
G1 F3600 X123.383 Y80.957 E385.4214
G0 F7800 X116.965 Y98.297
G0 X116.965 Y98.297
G1 F3600 X99.282 Y80.615 E386.0452
G0 F7800 X98.858 Y80.615
G1 F3600 X116.395 Y98.152 E386.66387
G0 F7800 X115.903 Y98.084
G1 F3600 X98.434 Y80.615 E387.28013
G0 F7800 X98.014 Y80.62
G1 F3600 X115.479 Y98.084 E387.89624
G0 F7800 X115.067 Y98.096
G1 F3600 X97.606 Y80.636 E388.51221
G0 F7800 X97.198 Y80.652
G1 F3600 X114.729 Y98.183 E389.13066
G0 F7800 X114.392 Y98.27
G1 F3600 X96.79 Y80.668 E389.75162
G0 F7800 X96.387 Y80.689
G1 F3600 X114.067 Y98.369 E390.37533
G0 F7800 X113.794 Y98.521
G1 F3600 X96.007 Y80.733 E391.00283
G0 F7800 X95.627 Y80.778
G1 F3600 X113.521 Y98.671 E391.63407
G0 F7800 X113.247 Y98.822
G1 F3600 X95.248 Y80.823 E392.26904
G0 F7800 X94.868 Y80.868
G1 F3600 X113.024 Y99.023 E392.90952
G0 F7800 X112.805 Y99.229
G1 F3600 X94.507 Y80.931 E393.55503
G0 F7800 X94.153 Y81.001
G1 F3600 X112.586 Y99.434 E394.2053
G0 F7800 X112.396 Y99.668
G1 F3600 X93.799 Y81.071 E394.86136
G0 F7800 X93.445 Y81.141
G1 F3600 X112.231 Y99.928 E395.52411
G0 F7800 X112.067 Y100.187
G1 F3600 X93.093 Y81.214 E396.19345
G0 F7800 X92.762 Y81.307
G1 F3600 X111.915 Y100.46 E396.86912
G0 F7800 X111.811 Y100.781
G1 F3600 X92.431 Y81.4 E397.55282
G0 F7800 X92.101 Y81.494
G1 F3600 X111.708 Y101.101 E398.24451
G0 F7800 X111.618 Y101.436
G1 F3600 X91.77 Y81.588 E398.9447
G0 F7800 X91.44 Y81.682
G1 F3600 X111.593 Y101.835 E399.65566
G0 F7800 X111.568 Y102.234
G1 F3600 X91.131 Y81.797 E400.37663
G0 F7800 X90.821 Y81.911
G1 F3600 X111.623 Y102.713 E401.11047
G0 F7800 X111.722 Y103.237
G1 F3600 X90.511 Y82.025 E401.85877
G0 F7800 X90.201 Y82.14
G1 F3600 X112.022 Y103.961 E402.62856
G0 F7800 X113.815 Y105.754
G0 X113.815 Y105.754
G1 F3600 X123.384 Y115.323 E402.96613
G0 F7800 X123.384 Y114.899
G1 F3600 X114.517 Y106.032 E403.27894
G0 F7800 X115.031 Y106.121
G1 F3600 X123.384 Y114.474 E403.57362
G0 F7800 X123.384 Y115.747
G1 F3600 X89.891 Y82.254 E404.75517
G0 F7800 X89.601 Y82.388
G1 F3600 X123.384 Y116.171 E405.94696
G0 F7800 X123.384 Y116.596
G1 F3600 X89.31 Y82.522 E407.14901
G0 F7800 X89.019 Y82.655
G1 F3600 X123.384 Y117.02 E408.36133
G0 F7800 X123.384 Y117.444
G1 F3600 X88.729 Y82.789 E409.58388
G0 F7800 X88.438 Y82.923
G1 F3600 X123.384 Y117.869 E410.81669
G0 F7800 X123.384 Y118.293
G1 F3600 X88.162 Y83.07 E412.05926
G0 F7800 X87.889 Y83.222
G1 F3600 X123.384 Y118.717 E413.31144
G0 F7800 X123.384 Y119.141
G1 F3600 X87.618 Y83.375 E414.57318
G0 F7800 X87.346 Y83.527
G1 F3600 X123.203 Y119.385 E415.83816
G0 F7800 X122.779 Y119.385
G1 F3600 X87.074 Y83.68 E417.09775
G0 F7800 X86.808 Y83.838
G1 F3600 X122.354 Y119.385 E418.35174
G0 F7800 X121.93 Y119.385
G1 F3600 X86.554 Y84.008 E419.59975
G0 F7800 X86.299 Y84.178
G1 F3600 X121.506 Y119.385 E420.84177
G0 F7800 X121.082 Y119.385
G1 F3600 X86.045 Y84.348 E422.07779
G0 F7800 X85.791 Y84.518
G1 F3600 X120.657 Y119.385 E423.3078
G0 F7800 X120.233 Y119.385
G1 F3600 X85.536 Y84.688 E424.53183
G0 F7800 X85.296 Y84.871
G1 F3600 X119.809 Y119.385 E425.74939
G0 F7800 X119.385 Y119.385
G1 F3600 X85.058 Y85.058 E426.96037
G0 F7800 X84.82 Y85.245
G1 F3600 X118.96 Y119.385 E428.16475
G0 F7800 X118.536 Y119.385
G1 F3600 X84.583 Y85.431 E429.36255
G0 F7800 X84.346 Y85.619
G1 F3600 X118.112 Y119.385 E430.55374
G0 F7800 X117.688 Y119.385
G1 F3600 X84.112 Y85.809 E431.73822
G0 F7800 X83.891 Y86.013
G1 F3600 X101.935 Y104.057 E432.37477
G0 F7800 X101.027 Y103.572
G1 F3600 X83.671 Y86.217 E432.98703
G0 F7800 X83.451 Y86.421
G1 F3600 X100.351 Y103.321 E433.58323
G0 F7800 X99.741 Y103.135
G1 F3600 X83.23 Y86.624 E434.1657
G0 F7800 X83.01 Y86.829
G1 F3600 X99.218 Y103.036 E434.73746
G0 F7800 X98.748 Y102.991
G1 F3600 X82.8 Y87.042 E435.30009
G0 F7800 X82.595 Y87.262
G1 F3600 X98.278 Y102.945 E435.85335
G0 F7800 X97.864 Y102.956
G1 F3600 X82.392 Y87.483 E436.39918
G0 F7800 X82.187 Y87.703
G1 F3600 X97.478 Y102.993 E436.93859
G0 F7800 X97.091 Y103.031
G1 F3600 X81.984 Y87.923 E437.47155
G0 F7800 X81.779 Y88.143
G1 F3600 X96.71 Y103.074 E437.99828
G0 F7800 X96.385 Y103.173
G1 F3600 X81.592 Y88.38 E438.52015
G0 F7800 X81.405 Y88.618
G1 F3600 X96.059 Y103.272 E439.03711
G0 F7800 X95.734 Y103.371
G1 F3600 X81.218 Y88.855 E439.5492
G0 F7800 X81.031 Y89.092
G1 F3600 X95.411 Y103.472 E440.05649
G0 F7800 X95.134 Y103.62
G1 F3600 X80.844 Y89.33 E440.56061
G0 F7800 X80.663 Y89.573
G1 F3600 X94.857 Y103.767 E441.06134
G0 F7800 X94.581 Y103.914
G1 F3600 X80.493 Y89.827 E441.55832
G0 F7800 X80.323 Y90.081
G1 F3600 X94.304 Y104.062 E442.05153
G0 F7800 X94.054 Y104.236
G1 F3600 X80.154 Y90.336 E442.54189
G0 F7800 X79.983 Y90.59
G1 F3600 X93.821 Y104.428 E443.03007
G0 F7800 X93.588 Y104.619
G1 F3600 X79.813 Y90.844 E443.51602
G0 F7800 X79.658 Y91.113
G1 F3600 X93.355 Y104.81 E443.99921
G0 F7800 X93.123 Y105.002
G1 F3600 X79.506 Y91.385 E444.47959
G0 F7800 X79.353 Y91.657
G1 F3600 X92.932 Y105.235 E444.95861
G0 F7800 X92.74 Y105.468
G1 F3600 X79.201 Y91.929 E445.43623
G0 F7800 X79.048 Y92.201
G1 F3600 X92.549 Y105.701 E445.9125
G0 F7800 X92.358 Y105.934
G1 F3600 X78.903 Y92.48 E446.38714
G0 F7800 X78.77 Y92.77
G1 F3600 X92.184 Y106.185 E446.86038
G0 F7800 X92.037 Y106.462
G1 F3600 X78.636 Y93.061 E447.33313
G0 F7800 X78.502 Y93.352
G1 F3600 X91.889 Y106.739 E447.8054
G0 F7800 X91.742 Y107.015
G1 F3600 X78.369 Y93.642 E448.27716
G0 F7800 X78.237 Y93.935
G1 F3600 X91.595 Y107.292 E448.74839
G0 F7800 X91.495 Y107.617
G1 F3600 X84.331 Y100.453 E449.00112
G0 F7800 X84.535 Y101.081
G1 F3600 X91.396 Y107.942 E449.24316
G0 F7800 X91.297 Y108.267
G1 F3600 X84.642 Y101.612 E449.47793
G0 F7800 X84.67 Y102.065
G1 F3600 X91.198 Y108.593 E449.70822
G0 F7800 X91.156 Y108.975
G1 F3600 X84.669 Y102.488 E449.93707
G0 F7800 X84.601 Y102.844
G1 F3600 X91.118 Y109.361 E450.16697
G0 F7800 X91.081 Y109.748
G1 F3600 X84.533 Y103.2 E450.39797
G0 F7800 X84.432 Y103.523
G1 F3600 X91.072 Y110.164 E450.63223
G0 F7800 X91.118 Y110.634
G1 F3600 X84.296 Y103.812 E450.8729
G0 F7800 X84.161 Y104.101
G1 F3600 X91.164 Y111.104 E451.11995
G0 F7800 X91.267 Y111.632
G1 F3600 X84.009 Y104.373 E451.37601
G0 F7800 X83.816 Y104.605
G1 F3600 X91.453 Y112.242 E451.64543
G0 F7800 X91.712 Y112.925
G1 F3600 X83.624 Y104.837 E451.93075
G0 F7800 X83.431 Y105.068
G1 F3600 X92.196 Y113.834 E452.23998
G0 F7800 X94.289 Y115.927
G0 X94.289 Y115.927
G1 F3600 X97.746 Y119.384 E452.36193
G0 F7800 X97.322 Y119.384
G1 F3600 X83.191 Y105.252 E452.86046
G0 F7800 X82.945 Y105.431
G1 F3600 X96.898 Y119.384 E453.35269
G0 F7800 X96.474 Y119.384
G1 F3600 X82.7 Y105.61 E453.83861
G0 F7800 X82.423 Y105.757
G1 F3600 X96.049 Y119.384 E454.31932
G0 F7800 X95.625 Y119.384
G1 F3600 X82.119 Y105.877 E454.7958
G0 F7800 X81.815 Y105.998
G1 F3600 X95.201 Y119.384 E455.26802
G0 F7800 X94.777 Y119.384
G1 F3600 X81.48 Y106.087 E455.73711
G0 F7800 X81.104 Y106.136
G1 F3600 X94.352 Y119.384 E456.20447
G0 F7800 X93.928 Y119.384
G1 F3600 X80.728 Y106.184 E456.67014
G0 F7800 X80.272 Y106.152
G1 F3600 X93.504 Y119.384 E457.13693
G0 F7800 X93.08 Y119.384
G1 F3600 X79.785 Y106.09 E457.60593
G0 F7800 X79.161 Y105.889
G1 F3600 X92.655 Y119.384 E458.08198
G0 F7800 X92.231 Y119.384
G1 F3600 X78.21 Y105.363 E458.57661
G0 F7800 X77.344 Y104.496
G1 F3600 X76.615 Y103.767 E458.60233
G0 F7800 X76.839 Y103.568
G1 F3600 X76.615 Y103.343 E458.61025
G0 F7800 X76.615 Y104.192
G1 F3600 X91.807 Y119.384 E459.14619
G0 F7800 X91.382 Y119.384
G1 F3600 X76.615 Y104.616 E459.66715
G0 F7800 X76.615 Y105.04
G1 F3600 X90.958 Y119.384 E460.17316
G0 F7800 X90.534 Y119.384
G1 F3600 X76.615 Y105.464 E460.66421
G0 F7800 X76.615 Y105.889
G1 F3600 X90.11 Y119.384 E461.14028
G0 F7800 X89.685 Y119.384
G1 F3600 X76.615 Y106.313 E461.60138
G0 F7800 X76.615 Y106.737
G1 F3600 X89.261 Y119.384 E462.04752
G0 F7800 X88.837 Y119.384
G1 F3600 X76.615 Y107.162 E462.47868
G0 F7800 X76.615 Y107.586
G1 F3600 X88.413 Y119.384 E462.89489
G0 F7800 X87.988 Y119.383
G1 F3600 X76.615 Y108.01 E463.2961
G0 F7800 X76.615 Y108.434
G1 F3600 X87.563 Y119.383 E463.68234
G0 F7800 X87.139 Y119.383
G1 F3600 X76.615 Y108.859 E464.0536
G0 F7800 X76.615 Y109.283
G1 F3600 X86.715 Y119.383 E464.4099
G0 F7800 X86.291 Y119.383
G1 F3600 X76.615 Y109.707 E464.75125
G0 F7800 X76.615 Y110.131
G1 F3600 X85.866 Y119.383 E465.07762
G0 F7800 X85.442 Y119.383
G1 F3600 X76.615 Y110.556 E465.38902
G0 F7800 X76.615 Y110.98
G1 F3600 X85.018 Y119.383 E465.68546
G0 F7800 X84.594 Y119.383
G1 F3600 X76.615 Y111.404 E465.96694
G0 F7800 X76.615 Y111.828
G1 F3600 X84.169 Y119.383 E466.23344
G0 F7800 X83.745 Y119.383
G1 F3600 X76.615 Y112.253 E466.48497
G0 F7800 X76.615 Y112.677
G1 F3600 X83.321 Y119.383 E466.72155
G0 F7800 X82.896 Y119.383
G1 F3600 X76.615 Y113.101 E466.94314
G0 F7800 X76.615 Y113.525
G1 F3600 X82.472 Y119.383 E467.14978
G0 F7800 X82.048 Y119.383
G1 F3600 X76.615 Y113.95 E467.34145
G0 F7800 X76.615 Y114.374
G1 F3600 X81.624 Y119.383 E467.51815
G0 F7800 X81.199 Y119.383
G1 F3600 X76.615 Y114.798 E467.67988
G0 F7800 X76.615 Y115.223
G1 F3600 X80.775 Y119.383 E467.82664
G0 F7800 X80.351 Y119.383
G1 F3600 X76.615 Y115.647 E467.95844
G0 F7800 X76.615 Y116.071
G1 F3600 X79.927 Y119.383 E468.07528
G0 F7800 X79.502 Y119.383
G1 F3600 X76.615 Y116.495 E468.17714
G0 F7800 X76.615 Y116.92
G1 F3600 X79.078 Y119.383 E468.26403
G0 F7800 X78.654 Y119.383
G1 F3600 X76.615 Y117.344 E468.33596
G0 F7800 X76.615 Y117.768
G1 F3600 X78.23 Y119.383 E468.39293
G0 F7800 X77.805 Y119.383
G1 F3600 X76.615 Y118.192 E468.43493
G0 F7800 X76.615 Y118.617
G1 F3600 X77.381 Y119.383 E468.46195
G0 F7800 X76.957 Y119.383
G1 F3600 X76.615 Y119.041 E468.47402
G0 F7800 X76.588 Y102.375
G0 X76.588 Y102.375
G1 F3600 X76.596 Y102.13 E468.47691
G1 X76.634 Y101.376 E468.48583
G0 F7800 X76.732 Y100.915
G1 F3600 X76.665 Y100.848 E468.48819
G0 F7800 X76.863 Y100.622
G1 F3600 X76.682 Y100.441 E468.49458
G0 F7800 X76.984 Y100.319
G1 F3600 X76.727 Y100.061 E468.50366
G0 F7800 X76.771 Y99.682
G1 F3600 X77.149 Y100.059 E468.51698
G0 F7800 X77.314 Y99.8
G1 F3600 X76.817 Y99.303 E468.53451
G0 F7800 X76.861 Y98.923
G1 F3600 X77.479 Y99.541 E468.55631
G0 F7800 X77.695 Y99.332
G1 F3600 X76.921 Y98.558 E468.58362
G0 F7800 X76.991 Y98.204
G1 F3600 X77.914 Y99.127 E468.61618
G0 F7800 X78.133 Y98.922
G1 F3600 X77.061 Y97.85 E468.654
G0 F7800 X77.131 Y97.496
G1 F3600 X78.382 Y98.747 E468.69813
G0 F7800 X78.656 Y98.596
G1 F3600 X77.201 Y97.142 E468.74944
G0 F7800 X77.293 Y96.809
G1 F3600 X78.93 Y98.446 E468.80719
G0 F7800 X79.221 Y98.313
G1 F3600 X77.387 Y96.479 E468.87189
G0 F7800 X77.481 Y96.148
G1 F3600 X79.559 Y98.227 E468.94521
G0 F7800 X79.896 Y98.14
G1 F3600 X77.574 Y95.817 E469.02715
G0 F7800 X77.667 Y95.486
G1 F3600 X80.265 Y98.084 E469.1188
G0 F7800 X80.689 Y98.084
G1 F3600 X77.781 Y95.175 E469.2214
G0 F7800 X77.894 Y94.865
G1 F3600 X81.113 Y98.084 E469.33496
G0 F7800 X81.676 Y98.222
G1 F3600 X78.009 Y94.555 E469.46432
G0 F7800 X78.123 Y94.246
G1 F3600 X82.327 Y98.449 E469.61261
G0 F7800 X91.769 Y111.627
G0 X92.657 Y113.653
G0 X93.476 Y114.649
G0 X94.26 Y115.104
G0 X95.198 Y116.411
G0 X95.198 Y116.411
G1 F3600 X98.171 Y119.384 E469.7175
G0 F7800 X98.595 Y119.384
G1 F3600 X95.882 Y116.671 E469.8132
G0 F7800 X96.491 Y116.856
G1 F3600 X99.019 Y119.384 E469.90239
G0 F7800 X99.443 Y119.384
G1 F3600 X97.02 Y116.96 E469.98788
G0 F7800 X97.49 Y117.006
G1 F3600 X99.868 Y119.384 E470.07177
G0 F7800 X100.292 Y119.384
G1 F3600 X97.96 Y117.052 E470.15404
G0 F7800 X98.376 Y117.043
G1 F3600 X100.716 Y119.384 E470.23661
G0 F7800 X101.141 Y119.384
G1 F3600 X98.762 Y117.005 E470.32053
G0 F7800 X99.148 Y116.967
G1 F3600 X101.565 Y119.384 E470.4058
G0 F7800 X101.989 Y119.384
G1 F3600 X99.53 Y116.925 E470.49255
G0 F7800 X99.856 Y116.826
G1 F3600 X102.413 Y119.384 E470.58277
G0 F7800 X102.838 Y119.384
G1 F3600 X100.181 Y116.727 E470.6765
G0 F7800 X100.506 Y116.628
G1 F3600 X103.262 Y119.384 E470.77373
G0 F7800 X103.686 Y119.384
G1 F3600 X100.832 Y116.529 E470.87443
G0 F7800 X101.108 Y116.381
G1 F3600 X104.11 Y119.384 E470.98035
G0 F7800 X104.535 Y119.384
G1 F3600 X101.384 Y116.234 E471.09149
G0 F7800 X101.662 Y116.087
G1 F3600 X104.959 Y119.384 E471.2078
G0 F7800 X105.383 Y119.384
G1 F3600 X101.938 Y115.939 E471.32933
G0 F7800 X102.189 Y115.766
G1 F3600 X105.807 Y119.384 E471.45697
G0 F7800 X106.232 Y119.384
G1 F3600 X102.423 Y115.575 E471.59134
G0 F7800 X102.655 Y115.383
G1 F3600 X106.656 Y119.384 E471.73249
G0 F7800 X107.08 Y119.384
G1 F3600 X102.888 Y115.191 E471.88039
G0 F7800 X103.121 Y115.001
G1 F3600 X107.504 Y119.384 E472.03501
G0 F7800 X107.929 Y119.384
G1 F3600 X103.313 Y114.768 E472.19785
G0 F7800 X103.504 Y114.535
G1 F3600 X108.353 Y119.384 E472.36891
G0 F7800 X108.777 Y119.384
G1 F3600 X103.695 Y114.302 E472.5482
G0 F7800 X103.887 Y114.069
G1 F3600 X109.202 Y119.384 E472.7357
G0 F7800 X109.626 Y119.384
G1 F3600 X104.061 Y113.819 E472.93202
G0 F7800 X104.209 Y113.542
G1 F3600 X110.05 Y119.384 E473.13809
G0 F7800 X110.474 Y119.384
G1 F3600 X104.356 Y113.265 E473.35394
G0 F7800 X104.504 Y112.989
G1 F3600 X110.899 Y119.384 E473.57954
G0 F7800 X111.323 Y119.384
G1 F3600 X104.651 Y112.712 E473.81491
G0 F7800 X104.752 Y112.388
G1 F3600 X111.748 Y119.385 E474.06173
G0 F7800 X112.172 Y119.385
G1 F3600 X104.851 Y112.063 E474.32002
G0 F7800 X104.949 Y111.737
G1 F3600 X112.596 Y119.385 E474.5898
G0 F7800 X113.021 Y119.385
G1 F3600 X105.048 Y111.412 E474.87107
G0 F7800 X105.092 Y111.032
G1 F3600 X113.445 Y119.385 E475.16575
G0 F7800 X113.869 Y119.385
G1 F3600 X105.13 Y110.645 E475.47406
G0 F7800 X105.168 Y110.259
G1 F3600 X114.293 Y119.385 E475.79598
G0 F7800 X114.718 Y119.385
G1 F3600 X105.179 Y109.846 E476.1325
G0 F7800 X105.132 Y109.375
G1 F3600 X115.142 Y119.385 E476.48563
G0 F7800 X115.566 Y119.385
G1 F3600 X105.086 Y108.905 E476.85534
G0 F7800 X104.986 Y108.381
G1 F3600 X115.99 Y119.385 E477.24353
G0 F7800 X116.415 Y119.385
G1 F3600 X104.801 Y107.771 E477.65325
G0 F7800 X104.55 Y107.096
G1 F3600 X116.839 Y119.385 E478.08678
G0 F7800 X117.263 Y119.385
G1 F3600 X104.066 Y106.187 E478.55235
; Layer Change GCode
; LAYER:3
G1 F1800 E477.55235
G0 F7800 X103.631 Y106.399 Z0.85
G0 X102.774 Y105.35
G0 X101.778 Y104.531
G0 X100.64 Y103.924
G0 X99.407 Y103.549
G0 X98.125 Y103.424
G0 X96.843 Y103.549
G0 X95.61 Y103.924
G0 X94.472 Y104.531
G0 X93.476 Y105.35
G0 X92.657 Y106.346
G0 X92.05 Y107.484
G0 X91.675 Y108.717
G0 X91.549 Y110
G0 X91.675 Y111.282
G0 X91.934 Y112.132
G0 X76.103 Y119.891
G0 X75.744 Y120.067
G0 X75.935 Y119.975
G0 X75.935 Y119.975
G0 X75.775 Y120.225
G0 X75.775 Y120.225
G0 X76.375 Y119.625
; TYPE:WALL-INNER
G1 F1800 E478.55235
G1 X76.375 Y102.125 E478.98889
G1 X76.443 Y100.426 E479.03131
G1 X76.643 Y98.725 E479.07403
G1 X76.977 Y97.048 E479.11669
G1 X77.442 Y95.403 E479.15933
G1 X78.033 Y93.8 E479.20195
G1 X78.749 Y92.246 E479.24463
G1 X79.574 Y90.773 E479.28674
G1 X80.536 Y89.334 E479.32992
G1 X81.584 Y88.003 E479.37218
G1 X82.747 Y86.747 E479.41488
G1 X84.003 Y85.584 E479.45758
G1 X85.334 Y84.536 E479.49984
G1 X86.773 Y83.574 E479.54302
G1 X88.246 Y82.749 E479.58513
G1 X89.8 Y82.033 E479.62782
G1 X91.403 Y81.442 E479.67043
G1 X93.048 Y80.977 E479.71308
G1 X94.725 Y80.643 E479.75573
G1 X96.426 Y80.443 E479.79845
G1 X98.13 Y80.375 E479.84099
G1 X123.625 Y80.375 E480.47697
G1 X123.625 Y119.625 E481.45607
G1 X76.375 Y119.625 E482.63472
G0 F7800 X76.075 Y119.925
G1 F1800 X76.075 Y102.143 E483.0783
G1 X76.144 Y100.392 E483.12201
G1 X76.348 Y98.671 E483.16524
G1 X76.684 Y96.98 E483.20825
G1 X77.155 Y95.313 E483.25146
G1 X77.751 Y93.695 E483.29447
G1 X78.481 Y92.114 E483.33791
G1 X79.329 Y90.599 E483.38122
G1 X80.287 Y89.165 E483.42424
G1 X81.358 Y87.806 E483.4674
G1 X82.534 Y86.534 E483.51061
G1 X83.806 Y85.358 E483.55383
G1 X85.165 Y84.287 E483.59699
G1 X86.599 Y83.329 E483.64001
G1 X88.114 Y82.481 E483.68332
G1 X89.695 Y81.751 E483.72676
G1 X91.313 Y81.155 E483.76977
G1 X92.98 Y80.684 E483.81298
G1 X94.671 Y80.348 E483.85599
G1 X96.392 Y80.144 E483.89922
G1 X98.143 Y80.075 E483.94293
G1 X123.925 Y80.075 E484.58607
G1 X123.925 Y119.925 E485.58013
G1 X76.075 Y119.925 E486.77375
G0 F7800 X75.775 Y120.225
; TYPE:WALL-OUTER
G1 F1260 X75.775 Y102.131 E487.22511
G1 X75.845 Y100.366 E487.26917
G1 X76.051 Y98.624 E487.31293
G1 X76.394 Y96.902 E487.35673
G1 X76.868 Y95.225 E487.4002
G1 X77.479 Y93.567 E487.44428
G1 X78.209 Y91.984 E487.48776
G1 X79.066 Y90.452 E487.53155
G1 X80.041 Y88.993 E487.57532
G1 X81.134 Y87.606 E487.61937
G1 X82.322 Y86.322 E487.66301
G1 X83.606 Y85.134 E487.70665
G1 X84.993 Y84.041 E487.7507
G1 X86.448 Y83.068 E487.79436
G1 X87.98 Y82.211 E487.83815
G1 X89.567 Y81.479 E487.88175
G1 X91.225 Y80.868 E487.92582
G1 X92.907 Y80.393 E487.96942
G1 X94.626 Y80.051 E488.01314
G1 X96.371 Y79.845 E488.05697
G1 X98.131 Y79.775 E488.10091
G1 X124.225 Y79.775 E488.75183
G1 X124.225 Y120.225 E489.76086
G1 X75.775 Y120.225 E490.96945
G0 F7800 X75.935 Y119.975
G0 X79.673 Y105.835
G0 X79.673 Y105.835
; TYPE:WALL-INNER
G1 F1800 X80.625 Y105.956 E490.99339
G1 X81.578 Y105.835 E491.01735
G1 X82.471 Y105.481 E491.04131
G1 X83.247 Y104.917 E491.06524
G1 X83.86 Y104.177 E491.08921
G1 X84.269 Y103.308 E491.11317
G1 X84.448 Y102.365 E491.13712
G1 X84.389 Y101.408 E491.16103
G1 X84.092 Y100.494 E491.18501
G1 X83.577 Y99.683 E491.20897
G1 X82.877 Y99.027 E491.2329
G1 X82.036 Y98.563 E491.25686
G1 X81.105 Y98.325 E491.28083
G1 X80.146 Y98.325 E491.30476
G1 X79.215 Y98.563 E491.32873
G1 X78.374 Y99.027 E491.35269
G1 X77.674 Y99.683 E491.37662
G1 X77.159 Y100.494 E491.40058
G1 X76.862 Y101.408 E491.42456
G1 X76.803 Y102.365 E491.44847
G1 X76.982 Y103.308 E491.47242
G1 X77.391 Y104.177 E491.49637
G1 X78.002 Y104.917 E491.52031
G1 X78.78 Y105.481 E491.54428
G1 X79.673 Y105.835 E491.56825
G0 F7800 X79.748 Y105.542
G1 F1800 X80.625 Y105.654 E491.5903
G1 X81.503 Y105.542 E491.61238
G1 X82.326 Y105.216 E491.63446
G1 X83.04 Y104.697 E491.65648
G1 X83.605 Y104.015 E491.67857
G1 X83.981 Y103.215 E491.70062
G1 X84.147 Y102.346 E491.72269
G1 X84.092 Y101.464 E491.74474
G1 X83.818 Y100.623 E491.7668
G1 X83.344 Y99.876 E491.78887
G1 X82.7 Y99.271 E491.81091
G1 X81.925 Y98.844 E491.83298
G1 X81.068 Y98.625 E491.85505
G1 X80.183 Y98.625 E491.87713
G1 X79.326 Y98.844 E491.89919
G1 X78.551 Y99.271 E491.92126
G1 X77.907 Y99.876 E491.9433
G1 X77.433 Y100.623 E491.96537
G1 X77.159 Y101.464 E491.98744
G1 X77.104 Y102.346 E492.00948
G1 X77.27 Y103.215 E492.03155
G1 X77.646 Y104.015 E492.0536
G1 X78.209 Y104.697 E492.07566
G1 X78.926 Y105.216 E492.09774
G1 X79.748 Y105.542 E492.1198
G0 F7800 X80.625 Y105.351
; TYPE:WALL-OUTER
G1 F1260 X81.428 Y105.249 E492.13999
G1 X82.18 Y104.951 E492.16017
G1 X82.833 Y104.476 E492.18031
G1 X83.35 Y103.853 E492.20051
G1 X83.694 Y103.122 E492.22066
G1 X83.845 Y102.327 E492.24085
G1 X83.795 Y101.521 E492.26099
G1 X83.545 Y100.752 E492.28116
G1 X83.111 Y100.069 E492.30135
G1 X82.522 Y99.516 E492.3215
G1 X81.814 Y99.125 E492.34168
G1 X81.03 Y98.925 E492.36186
G1 X80.221 Y98.925 E492.38204
G1 X79.437 Y99.125 E492.40222
G1 X78.729 Y99.516 E492.4224
G1 X78.14 Y100.069 E492.44255
G1 X77.706 Y100.752 E492.46274
G1 X77.456 Y101.521 E492.48291
G1 X77.406 Y102.327 E492.50306
G1 X77.557 Y103.122 E492.52324
G1 X77.901 Y103.853 E492.54339
G1 X78.416 Y104.476 E492.56356
G1 X79.071 Y104.951 E492.58374
G1 X79.823 Y105.249 E492.60392
G1 X80.625 Y105.351 E492.62409
G0 F7800 X80.595 Y105.598
G0 X91.428 Y108.667
G0 X91.428 Y108.667
; TYPE:WALL-INNER
G1 F1800 X91.296 Y110 E492.6575
G1 X91.428 Y111.332 E492.69089
G1 X91.817 Y112.612 E492.72426
G1 X92.447 Y113.794 E492.75767
G1 X93.297 Y114.828 E492.79106
G1 X94.331 Y115.678 E492.82445
G1 X95.513 Y116.308 E492.85786
G1 X96.793 Y116.697 E492.89124
G1 X98.125 Y116.829 E492.92463
G1 X99.457 Y116.697 E492.95802
G1 X100.737 Y116.308 E492.99139
G1 X101.919 Y115.678 E493.0248
G1 X102.953 Y114.828 E493.05819
G1 X103.803 Y113.794 E493.09158
G1 X104.433 Y112.612 E493.12499
G1 X104.822 Y111.332 E493.15836
G1 X104.954 Y110 E493.19175
G1 X104.822 Y108.667 E493.22517
G1 X104.433 Y107.387 E493.25854
G1 X103.803 Y106.205 E493.29195
G1 X102.953 Y105.171 E493.32534
G1 X101.919 Y104.321 E493.35873
G1 X100.737 Y103.691 E493.39214
G1 X99.457 Y103.302 E493.42551
G1 X98.125 Y103.171 E493.4589
G1 X96.793 Y103.302 E493.49229
G1 X95.513 Y103.691 E493.52566
G1 X94.331 Y104.321 E493.55907
G1 X93.297 Y105.171 E493.59246
G1 X92.447 Y106.205 E493.62585
G1 X91.817 Y107.387 E493.65926
G1 X91.428 Y108.667 E493.69263
G0 F7800 X91.724 Y108.726
G1 F1800 X91.598 Y110 E493.72457
G1 X91.724 Y111.273 E493.75648
G1 X92.095 Y112.497 E493.78838
G1 X92.698 Y113.626 E493.82031
G1 X93.51 Y114.615 E493.85223
G1 X94.499 Y115.427 E493.88415
G1 X95.628 Y116.03 E493.91608
G1 X96.852 Y116.401 E493.94798
G1 X98.125 Y116.527 E493.97989
G1 X99.398 Y116.401 E494.01181
G1 X100.622 Y116.03 E494.04371
G1 X101.751 Y115.427 E494.07564
G1 X102.74 Y114.615 E494.10756
G1 X103.552 Y113.626 E494.13948
G1 X104.155 Y112.497 E494.17141
G1 X104.526 Y111.273 E494.20331
G1 X104.652 Y110 E494.23522
G1 X104.526 Y108.726 E494.26716
G1 X104.155 Y107.502 E494.29906
G1 X103.552 Y106.373 E494.33099
G1 X102.74 Y105.384 E494.36291
G1 X101.751 Y104.572 E494.39483
G1 X100.622 Y103.969 E494.42676
G1 X99.398 Y103.597 E494.45867
G1 X98.125 Y103.473 E494.49058
G1 X96.852 Y103.597 E494.52248
G1 X95.628 Y103.969 E494.55439
G1 X94.499 Y104.572 E494.58632
G1 X93.51 Y105.384 E494.61824
G1 X92.698 Y106.373 E494.65016
G1 X92.095 Y107.502 E494.68209
G1 X91.724 Y108.726 E494.714
G0 F7800 X91.729 Y108.733
G0 X91.549 Y110
G0 X91.675 Y111.282
G0 X92.05 Y112.515
G0 X92.657 Y113.653
G0 X93.476 Y114.649
G0 X94.472 Y115.468
G0 X95.61 Y116.075
G0 X96.843 Y116.45
G0 X98.125 Y116.576
G0 X98.157 Y116.539
G0 X98.103 Y116.473
G0 X98.103 Y116.473
G0 X98.125 Y116.226
; TYPE:WALL-OUTER
G1 F1260 X99.339 Y116.106 E494.74443
G1 X100.507 Y115.751 E494.77488
G1 X101.584 Y115.176 E494.80533
G1 X102.527 Y114.402 E494.83577
G1 X103.301 Y113.459 E494.8662
