; generated by Slic3r 1.2.9 on 2017-04-20 at 14:32:39

; external perimeters extrusion width = 0.30mm
; perimeters extrusion width = 0.40mm
; infill extrusion width = 0.40mm
; solid infill extrusion width = 0.40mm
; top infill extrusion width = 0.40mm

M107
M190 S85 ; set bed temperature
M104 S210 ; set temperature
G28 ; home all axes
G1 Z5 F5000 ; lift nozzle

M109 S210 ; wait for temperature to be reached
G21 ; set units to millimeters
G90 ; use absolute coordinates
M82 ; use absolute distances for extrusion
G92 E0
G1 Z0.300 F7800.000
G1 E-1.00000 F2400.00000
G92 E0
G1 X68.131 Y68.131 F7800.000
G1 E1.00000 F2400.00000
G1 X69.825 Y66.522 E1.15609 F1260.000
G1 X71.504 Y65.082 E1.30388
G1 X73.252 Y63.726 E1.45166
G1 X75.064 Y62.457 E1.59944
G1 X76.936 Y61.278 E1.74722
G1 X78.864 Y60.193 E1.89501
G1 X80.843 Y59.204 E2.04279
G1 X82.868 Y58.313 E2.19057
G1 X84.934 Y57.523 E2.33836
G1 X87.036 Y56.835 E2.48614
G1 X89.170 Y56.251 E2.63392
G1 X91.329 Y55.772 E2.78171
G1 X93.510 Y55.400 E2.92949
G1 X95.706 Y55.135 E3.07727
G1 X97.913 Y54.978 E3.22505
G1 X100.198 Y54.932 E3.37774
G1 X102.336 Y54.991 E3.52061 F1260.000
G1 X104.541 Y55.160 E3.66840
G1 X106.736 Y55.436 E3.81618
G1 X108.671 Y55.772 E3.94734
G1 X111.143 Y56.331 E4.11665
G1 X113.202 Y56.907 E4.25952
G1 X115.301 Y57.607 E4.40731
G1 X117.362 Y58.409 E4.55509
G1 X119.157 Y59.204 E4.68625
G1 X121.136 Y60.193 E4.83403
G1 X123.064 Y61.278 E4.98182
G1 X125.143 Y62.595 E5.14622
G1 X126.948 Y63.874 E5.29400
G1 X128.688 Y65.240 E5.44179
G1 X130.175 Y66.522 E5.57295
G1 X131.781 Y68.043 E5.72073
G1 X133.311 Y69.641 E5.86851
G1 X134.760 Y71.312 E6.01630
G1 X136.274 Y73.252 E6.18070
G1 X137.543 Y75.064 E6.32848
G1 X138.722 Y76.936 E6.47627
G1 X139.807 Y78.864 E6.62405
G1 X140.689 Y80.618 E6.75521
G1 X141.591 Y82.638 E6.90301
G1 X142.393 Y84.699 E7.05077
G1 X143.093 Y86.798 E7.19856
G1 X143.689 Y88.928 E7.34634
G1 X144.228 Y91.329 E7.51075
G1 X144.564 Y93.264 E7.64192
G1 X144.840 Y95.459 E7.78969
G1 X145.009 Y97.664 E7.93747
G1 X145.070 Y99.876 E8.08525
G1 X145.009 Y102.336 E8.24966
G1 X144.840 Y104.541 E8.39744
G1 X144.564 Y106.736 E8.54523
G1 X144.179 Y108.915 E8.69301
G1 X143.749 Y110.830 E8.82417
G1 X143.165 Y112.964 E8.97197
G1 X142.477 Y115.066 E9.11974
G1 X141.591 Y117.362 E9.28414
G1 X140.689 Y119.382 E9.43192
G1 X139.689 Y121.355 E9.57971
G1 X138.594 Y123.277 E9.72749
G1 X137.543 Y124.936 E9.85866
G1 X136.274 Y126.748 E10.00643
G1 X134.918 Y128.496 E10.15422
G1 X133.478 Y130.175 E10.30200
G1 X132.008 Y131.728 E10.44486
G1 X130.175 Y133.478 E10.61418
G1 X128.496 Y134.918 E10.76196
G1 X126.748 Y136.274 E10.90974
G1 X124.936 Y137.543 E11.05751
G1 X123.277 Y138.594 E11.18869
G1 X121.070 Y139.840 E11.35800
G1 X119.157 Y140.796 E11.50087
G1 X117.132 Y141.687 E11.64865
G1 X115.066 Y142.477 E11.79643
G1 X112.964 Y143.165 E11.94420
G1 X111.072 Y143.689 E12.07538
G1 X108.915 Y144.179 E12.22316
G1 X106.417 Y144.609 E12.39248
G1 X104.294 Y144.865 E12.53534
G1 X102.087 Y145.022 E12.68312
G1 X99.876 Y145.070 E12.83091
G1 X97.664 Y145.009 E12.97869
G1 X95.459 Y144.840 E13.12648
G1 X93.510 Y144.600 E13.25763
G1 X91.013 Y144.163 E13.42696
G1 X88.928 Y143.689 E13.56982
G1 X86.798 Y143.093 E13.71760
G1 X84.699 Y142.393 E13.86538
G1 X82.638 Y141.591 E14.01315
G1 X80.843 Y140.796 E14.14433
G1 X78.864 Y139.807 E14.29211
G1 X76.723 Y138.594 E14.45652
G1 X74.857 Y137.405 E14.60429
G1 X73.052 Y136.126 E14.75208
G1 X71.504 Y134.918 E14.88324
G1 X69.825 Y133.478 E15.03102
G1 X68.219 Y131.957 E15.17881
G1 X66.689 Y130.359 E15.32659
G1 X65.082 Y128.496 E15.49099
G1 X63.726 Y126.748 E15.63878
G1 X62.457 Y124.936 E15.78656
G1 X61.278 Y123.064 E15.93434
G1 X60.311 Y121.355 E16.06550
G1 X59.311 Y119.382 E16.21329
G1 X58.409 Y117.362 E16.36107
G1 X57.607 Y115.301 E16.50885
G1 X56.930 Y113.272 E16.65172
G1 X56.251 Y110.830 E16.82103
G1 X55.821 Y108.915 E16.95220
G1 X55.436 Y106.736 E17.09998
G1 X55.160 Y104.541 E17.24776
G1 X54.991 Y102.336 E17.39555
G1 X54.930 Y100.124 E17.54333
G1 X54.977 Y97.986 E17.68619
G1 X55.160 Y95.459 E17.85551
G1 X55.400 Y93.510 E17.98667
G1 X55.772 Y91.329 E18.13445
G1 X56.251 Y89.170 E18.28223
G1 X56.835 Y87.036 E18.43002
G1 X57.523 Y84.934 E18.57780
G1 X58.287 Y82.936 E18.72066
G1 X59.311 Y80.618 E18.88998
G1 X60.193 Y78.864 E19.02114
G1 X61.278 Y76.936 E19.16893
G1 X62.457 Y75.064 E19.31671
G1 X63.726 Y73.252 E19.46449
G1 X65.240 Y71.312 E19.62890
G1 X66.689 Y69.641 E19.77668
G1 X68.099 Y68.163 E19.91314
G1 X68.510 Y68.510 F7800.000
G1 X70.175 Y66.928 E20.06660 F1260.000
G1 X71.834 Y65.504 E20.21263
G1 X73.560 Y64.163 E20.35866
G1 X75.351 Y62.909 E20.50468
G1 X77.200 Y61.744 E20.65071
G1 X79.105 Y60.672 E20.79674
G1 X81.060 Y59.694 E20.94277
G1 X83.060 Y58.813 E21.08879
G1 X85.102 Y58.032 E21.23482
G1 X87.179 Y57.351 E21.38085
G1 X89.287 Y56.773 E21.52688
G1 X91.421 Y56.300 E21.67290
G1 X93.576 Y55.931 E21.81893
G1 X95.746 Y55.669 E21.96496
G1 X97.926 Y55.514 E22.11098
G1 X100.185 Y55.468 E22.26192
G1 X102.296 Y55.525 E22.40303 F1260.000
G1 X104.476 Y55.691 E22.54906
G1 X106.645 Y55.964 E22.69508
G1 X108.579 Y56.300 E22.82625
G1 X111.000 Y56.847 E22.99205
G1 X113.034 Y57.416 E23.13316
G1 X115.108 Y58.107 E23.27919
G1 X117.145 Y58.898 E23.42521
G1 X119.141 Y59.789 E23.57124
G1 X120.895 Y60.672 E23.70240
G1 X122.800 Y61.744 E23.84843
G1 X124.834 Y63.033 E24.00932
G1 X126.618 Y64.296 E24.15535
G1 X128.338 Y65.645 E24.30138
G1 X129.990 Y67.077 E24.44741
G1 X131.412 Y68.431 E24.57856
G1 X132.923 Y70.010 E24.72459
G1 X134.355 Y71.662 E24.87062
G1 X135.837 Y73.560 E25.03151
G1 X137.091 Y75.351 E25.17754
G1 X138.256 Y77.200 E25.32357
G1 X139.223 Y78.909 E25.45473
G1 X140.211 Y80.859 E25.60075
G1 X141.102 Y82.855 E25.74679
G1 X141.893 Y84.892 E25.89281
G1 X142.584 Y86.966 E26.03884
G1 X143.173 Y89.071 E26.18486
G1 X143.700 Y91.421 E26.34576
G1 X144.036 Y93.356 E26.47693
G1 X144.309 Y95.524 E26.62294
G1 X144.475 Y97.704 E26.76897
G1 X144.534 Y99.889 E26.91500
G1 X144.475 Y102.296 E27.07589
G1 X144.309 Y104.476 E27.22192
G1 X144.036 Y106.645 E27.36794
G1 X143.657 Y108.797 E27.51397
G1 X143.227 Y110.713 E27.64513
G1 X142.649 Y112.821 E27.79117
G1 X141.968 Y114.898 E27.93719
G1 X141.102 Y117.145 E28.09808
G1 X140.211 Y119.141 E28.24411
G1 X139.223 Y121.091 E28.39013
G1 X138.256 Y122.800 E28.52129
G1 X137.091 Y124.650 E28.66733
G1 X135.837 Y126.440 E28.81335
G1 X134.496 Y128.166 E28.95938
G1 X132.923 Y129.990 E29.12027
G1 X131.412 Y131.569 E29.26629
G1 X129.825 Y133.072 E29.41232
G1 X128.166 Y134.496 E29.55835
G1 X126.440 Y135.837 E29.70438
G1 X124.650 Y137.091 E29.85039
G1 X122.991 Y138.141 E29.98156
G1 X120.829 Y139.361 E30.14737
G1 X118.940 Y140.306 E30.28848
G1 X116.940 Y141.187 E30.43450
G1 X114.898 Y141.968 E30.58053
G1 X112.821 Y142.649 E30.72654
G1 X110.929 Y143.173 E30.85772
G1 X108.797 Y143.657 E31.00374
G1 X106.352 Y144.078 E31.16954
G1 X104.254 Y144.331 E31.31066
G1 X102.074 Y144.486 E31.45668
G1 X99.889 Y144.534 E31.60271
G1 X97.704 Y144.475 E31.74874
G1 X95.746 Y144.331 E31.87990
G1 X93.576 Y144.069 E32.02593
G1 X91.131 Y143.641 E32.19172
G1 X89.071 Y143.173 E32.33284
G1 X86.966 Y142.584 E32.47887
G1 X84.892 Y141.893 E32.62490
G1 X82.855 Y141.102 E32.77091
G1 X81.060 Y140.306 E32.90209
G1 X79.105 Y139.328 E33.04811
G1 X77.009 Y138.141 E33.20901
G1 X75.166 Y136.967 E33.35503
G1 X73.382 Y135.704 E33.50106
G1 X71.662 Y134.355 E33.64709
G1 X70.175 Y133.072 E33.77825
G1 X68.588 Y131.569 E33.92427
G1 X67.077 Y129.990 E34.07030
G1 X65.504 Y128.166 E34.23120
G1 X64.163 Y126.440 E34.37722
G1 X62.909 Y124.649 E34.52325
G1 X61.859 Y122.991 E34.65441
G1 X60.777 Y121.091 E34.80044
G1 X59.789 Y119.141 E34.94646
G1 X58.898 Y117.145 E35.09249
G1 X58.107 Y115.108 E35.23852
G1 X57.439 Y113.104 E35.37963
G1 X56.773 Y110.713 E35.54543
G1 X56.343 Y108.797 E35.67660
G1 X55.964 Y106.645 E35.82262
G1 X55.691 Y104.476 E35.96865
G1 X55.525 Y102.296 E36.11468
G1 X55.466 Y100.111 E36.26071
G1 X55.512 Y98.000 E36.40181
G1 X55.691 Y95.524 E36.56762
G1 X55.931 Y93.576 E36.69877
G1 X56.300 Y91.421 E36.84480
G1 X56.773 Y89.287 E36.99083
G1 X57.351 Y87.179 E37.13686
G1 X58.107 Y84.892 E37.29775
G1 X58.898 Y82.855 E37.44378
G1 X59.789 Y80.859 E37.58980
G1 X60.777 Y78.909 E37.73583
G1 X61.744 Y77.200 E37.86699
G1 X62.909 Y75.351 E38.01302
G1 X64.163 Y73.560 E38.15904
G1 X65.645 Y71.662 E38.31994
G1 X67.077 Y70.010 E38.46597
G1 X68.478 Y68.541 E38.60155
G1 E37.60155 F2400.00000
G92 E0
G1 X70.769 Y70.769 F7800.000
G1 E1.00000 F2400.00000
G1 X72.251 Y69.359 E1.13665 F1260.000
G1 X73.787 Y68.034 E1.27220
G1 X75.388 Y66.786 E1.40775
G1 X77.047 Y65.619 E1.54330
G1 X78.762 Y64.534 E1.67885
G1 X80.527 Y63.534 E1.81440
G1 X82.340 Y62.623 E1.94995
G1 X84.195 Y61.801 E2.08549
G1 X86.089 Y61.072 E2.22104
G1 X88.016 Y60.436 E2.35660
G1 X89.971 Y59.896 E2.49214
G1 X91.951 Y59.452 E2.62769
G1 X93.951 Y59.106 E2.76324
G1 X95.964 Y58.858 E2.89879
G1 X97.988 Y58.710 E3.03434
G1 X100.106 Y58.663 E3.17590
G1 X102.045 Y58.712 E3.30543 F1260.000
G1 X104.068 Y58.862 E3.44098
G1 X106.049 Y59.106 E3.57434
G1 X108.049 Y59.452 E3.70989
G1 X110.147 Y59.928 E3.85364
G1 X112.016 Y60.446 E3.98317
G1 X113.942 Y61.083 E4.11873
G1 X115.805 Y61.801 E4.25208
G1 X117.660 Y62.623 E4.38763
G1 X119.473 Y63.534 E4.52318
G1 X121.238 Y64.534 E4.65873
G1 X122.980 Y65.637 E4.79647
G1 X124.639 Y66.806 E4.93202
G1 X126.238 Y68.055 E5.06757
G1 X127.749 Y69.359 E5.20093
G1 X129.220 Y70.757 E5.33648
G1 X130.619 Y72.226 E5.47203
G1 X131.945 Y73.762 E5.60758
G1 X133.214 Y75.388 E5.74532
G1 X134.381 Y77.047 E5.88087
G1 X135.466 Y78.762 E6.01642
G1 X136.450 Y80.498 E6.14978
G1 X137.363 Y82.310 E6.28532
G1 X138.186 Y84.165 E6.42088
G1 X138.917 Y86.058 E6.55642
G1 X139.554 Y87.984 E6.69197
G1 X140.096 Y89.939 E6.82752
G1 X140.548 Y91.951 E6.96527
G1 X140.894 Y93.951 E7.10082
G1 X141.142 Y95.964 E7.23637
G1 X141.288 Y97.955 E7.36972
G1 X141.339 Y99.984 E7.50527
G1 X141.288 Y102.045 E7.64302
G1 X141.138 Y104.068 E7.77857
G1 X140.889 Y106.082 E7.91412
G1 X140.548 Y108.049 E8.04747
G1 X140.104 Y110.029 E8.18302
G1 X139.564 Y111.984 E8.31857
G1 X138.928 Y113.911 E8.45412
G1 X138.186 Y115.835 E8.59186
G1 X137.363 Y117.690 E8.72741
G1 X136.450 Y119.502 E8.86296
G1 X135.449 Y121.267 E8.99851
G1 X134.381 Y122.953 E9.13187
G1 X133.214 Y124.612 E9.26742
G1 X131.966 Y126.213 E9.40297
G1 X130.619 Y127.774 E9.54071
G1 X129.220 Y129.243 E9.67626
G1 X127.749 Y130.641 E9.81181
G1 X126.238 Y131.945 E9.94517
G1 X124.639 Y133.194 E10.08072
G1 X122.980 Y134.363 E10.21626
G1 X121.267 Y135.449 E10.35182
G1 X119.392 Y136.506 E10.49557
G1 X117.660 Y137.377 E10.62511
G1 X115.805 Y138.199 E10.76065
G1 X113.911 Y138.928 E10.89620
G1 X111.984 Y139.564 E11.03175
G1 X110.060 Y140.096 E11.16511
G1 X108.081 Y140.542 E11.30066
G1 X106.049 Y140.894 E11.43840
G1 X104.068 Y141.138 E11.57176
G1 X102.045 Y141.288 E11.70730
G1 X100.016 Y141.339 E11.84286
G1 X97.988 Y141.290 E11.97840
G1 X95.932 Y141.138 E12.11615
G1 X93.918 Y140.889 E12.25170
G1 X91.919 Y140.542 E12.38724
G1 X89.971 Y140.104 E12.52060
G1 X88.016 Y139.564 E12.65615
G1 X85.974 Y138.885 E12.79991
G1 X84.165 Y138.186 E12.92944
G1 X82.310 Y137.363 E13.06499
G1 X80.527 Y136.466 E13.19834
G1 X78.762 Y135.466 E13.33389
G1 X77.047 Y134.381 E13.46944
G1 X75.388 Y133.214 E13.60499
G1 X73.787 Y131.966 E13.74054
G1 X72.251 Y130.641 E13.87609
G1 X70.757 Y129.220 E14.01384
G1 X69.381 Y127.774 E14.14719
G1 X68.055 Y126.238 E14.28274
G1 X66.806 Y124.639 E14.41829
G1 X65.637 Y122.980 E14.55384
G1 X64.551 Y121.267 E14.68939
G1 X63.594 Y119.580 E14.81892
G1 X62.623 Y117.660 E14.96268
G1 X61.801 Y115.805 E15.09823
G1 X61.083 Y113.942 E15.23158
G1 X60.446 Y112.016 E15.36713
G1 X59.904 Y110.060 E15.50268
G1 X59.458 Y108.081 E15.63823
G1 X59.126 Y106.171 E15.76776
G1 X58.858 Y104.036 E15.91152
G1 X58.712 Y102.045 E16.04487
G1 X58.661 Y100.016 E16.18042
G1 X58.710 Y97.988 E16.31597
G1 X58.858 Y95.964 E16.45152
G1 X59.106 Y93.951 E16.58707
G1 X59.437 Y92.040 E16.71660
G1 X59.904 Y89.939 E16.86036
G1 X60.446 Y87.984 E16.99591
G1 X61.083 Y86.058 E17.13146
G1 X61.814 Y84.165 E17.26701
G1 X62.623 Y82.340 E17.40036
G1 X63.550 Y80.498 E17.53811
G1 X64.551 Y78.733 E17.67366
G1 X65.637 Y77.020 E17.80921
G1 X66.786 Y75.388 E17.94256
G1 X68.034 Y73.787 E18.07811
G1 X69.359 Y72.251 E18.21366
G1 X70.738 Y70.801 E18.34730
G1 X71.148 Y71.148 F7800.000
G1 X72.605 Y69.760 E18.48175 F1260.000
G1 X74.122 Y68.452 E18.61555
G1 X75.701 Y67.221 E18.74934
G1 X77.339 Y66.068 E18.88313
G1 X79.031 Y64.997 E19.01693
G1 X80.774 Y64.010 E19.15072
G1 X82.563 Y63.110 E19.28451
G1 X84.394 Y62.299 E19.41831
G1 X86.263 Y61.578 E19.55210
G1 X88.165 Y60.951 E19.68589
G1 X90.095 Y60.417 E19.81969
G1 X92.049 Y59.979 E19.95348
G1 X94.023 Y59.637 E20.08727
G1 X96.010 Y59.392 E20.22107
G1 X98.008 Y59.245 E20.35486
G1 X100.010 Y59.197 E20.48865
G1 X101.992 Y59.245 E20.62113 F1260.000
G1 X103.990 Y59.392 E20.75492
G1 X106.079 Y59.654 E20.89560
G1 X107.970 Y59.983 E21.02382
G1 X109.924 Y60.422 E21.15761
G1 X111.835 Y60.951 E21.29009
G1 X113.737 Y61.578 E21.42388
G1 X115.700 Y62.340 E21.56457
G1 X117.455 Y63.118 E21.69278
G1 X119.243 Y64.019 E21.82657
G1 X120.969 Y64.997 E21.95905
G1 X122.661 Y66.068 E22.09284
G1 X124.299 Y67.221 E22.22664
G1 X125.878 Y68.452 E22.36043
G1 X127.409 Y69.773 E22.49554
G1 X128.859 Y71.155 E22.62934
G1 X130.240 Y72.605 E22.76313
G1 X131.548 Y74.122 E22.89692
G1 X132.768 Y75.686 E23.02940
G1 X133.921 Y77.323 E23.16319
G1 X134.993 Y79.014 E23.29698
G1 X135.990 Y80.774 E23.43210
G1 X136.890 Y82.563 E23.56589
G1 X137.701 Y84.394 E23.69968
G1 X138.415 Y86.244 E23.83216
G1 X139.044 Y88.146 E23.96595
G1 X139.578 Y90.076 E24.09974
G1 X140.017 Y92.030 E24.23354
G1 X140.363 Y94.023 E24.36865
G1 X140.608 Y96.010 E24.50244
G1 X140.755 Y98.008 E24.63624
G1 X140.803 Y100.010 E24.77003
G1 X140.754 Y102.012 E24.90382
G1 X140.608 Y103.990 E25.03630
G1 X140.363 Y105.977 E25.17009
G1 X140.017 Y107.970 E25.30520
G1 X139.578 Y109.924 E25.43900
G1 X139.044 Y111.854 E25.57279
G1 X138.422 Y113.737 E25.70527
G1 X137.701 Y115.606 E25.83906
G1 X136.890 Y117.437 E25.97285
G1 X135.990 Y119.226 E26.10665
G1 X135.003 Y120.969 E26.24044
G1 X133.977 Y122.590 E26.36866
G1 X132.768 Y124.314 E26.50934
G1 X131.548 Y125.878 E26.64181
G1 X130.240 Y127.395 E26.77561
G1 X128.859 Y128.845 E26.90940
G1 X127.409 Y130.227 E27.04319
G1 X125.893 Y131.535 E27.17699
G1 X124.314 Y132.768 E27.31078
G1 X122.661 Y133.932 E27.44589
G1 X120.986 Y134.993 E27.57837
G1 X119.243 Y135.981 E27.71216
G1 X117.455 Y136.882 E27.84595
G1 X115.624 Y137.694 E27.97975
G1 X113.658 Y138.448 E28.12043
G1 X111.835 Y139.049 E28.24864
G1 X109.905 Y139.583 E28.38244
G1 X107.970 Y140.017 E28.51491
G1 X105.997 Y140.360 E28.64871
G1 X104.009 Y140.606 E28.78250
G1 X102.012 Y140.754 E28.91629
G1 X100.010 Y140.803 E29.05009
G1 X98.008 Y140.755 E29.18388
G1 X95.991 Y140.606 E29.31899
G1 X94.003 Y140.360 E29.45278
G1 X92.030 Y140.017 E29.58658
G1 X90.095 Y139.583 E29.71905
G1 X88.165 Y139.049 E29.85285
G1 X86.244 Y138.415 E29.98796
G1 X84.376 Y137.694 E30.12175
G1 X82.545 Y136.882 E30.25555
G1 X80.757 Y135.981 E30.38934
G1 X79.014 Y134.993 E30.52313
G1 X77.339 Y133.932 E30.65561
G1 X75.701 Y132.779 E30.78940
G1 X74.122 Y131.548 E30.92319
G1 X72.605 Y130.240 E31.05699
G1 X71.141 Y128.845 E31.19210
G1 X69.773 Y127.409 E31.32457
G1 X68.465 Y125.893 E31.45837
G1 X67.232 Y124.314 E31.59216
G1 X66.079 Y122.677 E31.72595
G1 X65.007 Y120.986 E31.85975
G1 X64.060 Y119.316 E31.98796
G1 X63.110 Y117.437 E32.12865
G1 X62.306 Y115.624 E32.26112
G1 X61.585 Y113.756 E32.39492
G1 X60.956 Y111.854 E32.52871
G1 X60.422 Y109.924 E32.66250
G1 X59.983 Y107.970 E32.79630
G1 X59.654 Y106.079 E32.92451
G1 X59.392 Y103.990 E33.06519
G1 X59.246 Y102.012 E33.19767
G1 X59.197 Y100.010 E33.33146
G1 X59.245 Y98.008 E33.46526
G1 X59.392 Y96.010 E33.59905
G1 X59.637 Y94.023 E33.73284
G1 X59.964 Y92.132 E33.86106
G1 X60.422 Y90.076 E34.00174
G1 X60.951 Y88.165 E34.13422
G1 X61.578 Y86.263 E34.26801
G1 X62.299 Y84.394 E34.40180
G1 X63.110 Y82.563 E34.53560
G1 X64.019 Y80.757 E34.67071
G1 X65.007 Y79.014 E34.80450
G1 X66.079 Y77.323 E34.93829
