; generated by Slic3r 1.2.9 on 2017-04-27 at 10:11:27

; external perimeters extrusion width = 0.40mm
; perimeters extrusion width = 0.67mm
; infill extrusion width = 0.67mm
; solid infill extrusion width = 0.67mm
; top infill extrusion width = 0.67mm

M107
M190 S85 ; set bed temperature
M104 S205 ; set temperature
G28 ; home all axes
G1 Z5 F5000 ; lift nozzle

M109 S205 ; wait for temperature to be reached
G21 ; set units to millimeters
G90 ; use absolute coordinates
M82 ; use absolute distances for extrusion
G92 E0
G1 Z0.300 F7800.000
G1 E-1.00000 F2400.00000
G92 E0
G1 X80.007 Y88.274 F7800.000
G1 E1.00000 F2400.00000
G1 X80.597 Y87.739 E1.05320 F1260.000
G1 X80.981 Y87.424 E1.08642
G1 X81.849 Y86.781 E1.15854
G1 X82.262 Y86.504 E1.19179
G1 X83.189 Y85.949 E1.26392
G1 X83.627 Y85.715 E1.29715
G1 X84.603 Y85.253 E1.36927
G1 X85.063 Y85.063 E1.40252
G1 X86.079 Y84.699 E1.47464
G1 X86.555 Y84.554 E1.50787
G1 X87.603 Y84.292 E1.57999
G1 X88.091 Y84.195 E1.61324
G1 X89.159 Y84.037 E1.68537
G1 X89.654 Y83.988 E1.71859
G1 X90.732 Y83.935 E1.79072
G1 X91.234 Y83.935 E1.82426
G1 X111.234 Y84.935 E3.16204 F1260.000
G1 X112.431 Y85.004 E3.24215
G1 X113.015 Y85.072 E3.28140
G1 X114.156 Y85.273 E3.35881
G1 X114.728 Y85.408 E3.39806
G1 X115.838 Y85.739 E3.47546
G1 X116.391 Y85.939 E3.51471
G1 X117.455 Y86.397 E3.59212
G1 X117.981 Y86.659 E3.63137
G1 X118.985 Y87.237 E3.70878
G1 X119.477 Y87.559 E3.74803
G1 X120.408 Y88.248 E3.82543
G1 X120.877 Y88.642 E3.86634
G1 X121.704 Y89.418 E3.94208
G1 X122.108 Y89.844 E3.98134
G1 X122.856 Y90.729 E4.05874
G1 X123.208 Y91.199 E4.09797
G1 X123.849 Y92.165 E4.17540
G1 X124.144 Y92.672 E4.21464
G1 X124.542 Y93.456 E4.27332
G1 X125.090 Y95.750 E4.43092
G1 X125.090 Y104.250 E4.99877
G1 X124.542 Y106.544 E5.15636
G1 X124.144 Y107.328 E5.21504
G1 X123.849 Y107.835 E5.25429
G1 X123.208 Y108.801 E5.33171
G1 X122.856 Y109.271 E5.37095
G1 X122.108 Y110.156 E5.44835
G1 X121.704 Y110.582 E5.48760
G1 X120.859 Y111.375 E5.56502
G1 X120.408 Y111.752 E5.60426
G1 X119.477 Y112.441 E5.68166
G1 X118.985 Y112.763 E5.72091
G1 X117.981 Y113.341 E5.79832
G1 X117.455 Y113.603 E5.83757
G1 X116.391 Y114.061 E5.91498
G1 X115.838 Y114.261 E5.95422
G1 X114.728 Y114.592 E6.03163
G1 X114.156 Y114.727 E6.07088
G1 X113.015 Y114.928 E6.14828
G1 X112.431 Y114.996 E6.18754
G1 X111.234 Y115.065 E6.26765
G1 X91.234 Y116.065 E7.60543
G1 X90.732 Y116.065 E7.63897
G1 X89.654 Y116.012 E7.71109
G1 X89.159 Y115.963 E7.74433
G1 X88.091 Y115.805 E7.81645
G1 X87.603 Y115.708 E7.84970
G1 X86.555 Y115.446 E7.92181
G1 X86.079 Y115.301 E7.95506
G1 X85.063 Y114.937 E8.02717
G1 X84.603 Y114.747 E8.06041
G1 X83.627 Y114.285 E8.13254
G1 X83.188 Y114.051 E8.16578
G1 X82.262 Y113.496 E8.23790
G1 X81.849 Y113.219 E8.27115
G1 X80.982 Y112.576 E8.34326
G1 X80.597 Y112.261 E8.37650
G1 X79.797 Y111.536 E8.44862
G1 X79.445 Y111.184 E8.48187
G1 X78.720 Y110.384 E8.55399
G1 X78.404 Y109.999 E8.58723
G1 X77.761 Y109.132 E8.65936
G1 X77.485 Y108.719 E8.69258
G1 X76.930 Y107.793 E8.76471
G1 X76.695 Y107.354 E8.79795
G1 X76.234 Y106.378 E8.87007
G1 X76.043 Y105.918 E8.90332
G1 X75.680 Y104.902 E8.97544
G1 X75.535 Y104.425 E9.00868
G1 X75.273 Y103.378 E9.08080
G1 X75.176 Y102.890 E9.11404
G1 X75.017 Y101.822 E9.18616
G1 X74.969 Y101.327 E9.21941
G1 X74.916 Y100.249 E9.29152
G1 X74.916 Y99.751 E9.32477
G1 X74.969 Y98.673 E9.39689
G1 X75.017 Y98.178 E9.43013
G1 X75.176 Y97.110 E9.50225
G1 X75.279 Y96.599 E9.53704
G1 X75.535 Y95.575 E9.60761
G1 X75.680 Y95.099 E9.64084
G1 X76.043 Y94.082 E9.71297
G1 X76.234 Y93.622 E9.74622
G1 X76.695 Y92.646 E9.81834
G1 X76.930 Y92.207 E9.85158
G1 X77.485 Y91.282 E9.92370
G1 X77.761 Y90.868 E9.95693
G1 X78.404 Y90.001 E10.02906
G1 X78.720 Y89.616 E10.06230
G1 X79.445 Y88.816 E10.13442
G1 X79.963 Y88.314 E10.18258
G1 X80.367 Y88.671 F7800.000
G1 X80.957 Y88.136 E10.23578 F1260.000
G1 X81.301 Y87.854 E10.26549
G1 X82.168 Y87.211 E10.33762
G1 X82.538 Y86.964 E10.36735
G1 X83.464 Y86.408 E10.43948
G1 X83.856 Y86.199 E10.46920
G1 X84.832 Y85.737 E10.54132
G1 X85.243 Y85.567 E10.57105
G1 X86.260 Y85.203 E10.64318
G1 X86.686 Y85.074 E10.67290
G1 X87.733 Y84.812 E10.74502
G1 X88.169 Y84.725 E10.77476
G1 X89.237 Y84.566 E10.84689
G1 X89.680 Y84.523 E10.87659
G1 X90.758 Y84.470 E10.94872
G1 X91.207 Y84.470 E10.97872
G1 X111.207 Y85.470 E12.31650 F1260.000
G1 X112.400 Y85.539 E12.39633
G1 X112.922 Y85.600 E12.43143
G1 X114.063 Y85.800 E12.50884
G1 X114.575 Y85.921 E12.54394
G1 X115.685 Y86.252 E12.62135
G1 X116.202 Y86.441 E12.65810
G1 X117.244 Y86.889 E12.73385
G1 X117.714 Y87.124 E12.76896
G1 X118.718 Y87.701 E12.84636
G1 X119.158 Y87.989 E12.88147
G1 X120.089 Y88.679 E12.95887
G1 X120.510 Y89.032 E12.99563
G1 X121.337 Y89.808 E13.07138
G1 X121.699 Y90.189 E13.10649
G1 X122.447 Y91.074 E13.18389
G1 X122.762 Y91.495 E13.21897
G1 X123.402 Y92.461 E13.29640
G1 X123.667 Y92.915 E13.33150
G1 X124.064 Y93.698 E13.39018
G1 X124.555 Y95.750 E13.53113
G1 X124.555 Y104.250 E14.09898
G1 X124.064 Y106.302 E14.23993
G1 X123.667 Y107.085 E14.29861
G1 X123.402 Y107.539 E14.33371
G1 X122.762 Y108.505 E14.41113
G1 X122.447 Y108.926 E14.44622
G1 X121.699 Y109.811 E14.52363
G1 X121.337 Y110.192 E14.55873
G1 X120.492 Y110.985 E14.63615
G1 X120.089 Y111.321 E14.67124
G1 X119.158 Y112.011 E14.74865
G1 X118.718 Y112.299 E14.78375
G1 X117.714 Y112.876 E14.86116
G1 X117.244 Y113.111 E14.89626
G1 X116.179 Y113.569 E14.97367
G1 X115.685 Y113.748 E15.00877
G1 X114.575 Y114.079 E15.08617
G1 X114.063 Y114.200 E15.12128
G1 X112.922 Y114.400 E15.19869
G1 X112.400 Y114.461 E15.23379
G1 X111.207 Y114.530 E15.31362
G1 X91.207 Y115.530 E16.65140
G1 X90.758 Y115.530 E16.68140
G1 X89.680 Y115.477 E16.75351
G1 X89.237 Y115.434 E16.78325
G1 X88.169 Y115.275 E16.85536
G1 X87.733 Y115.188 E16.88510
G1 X86.686 Y114.926 E16.95721
G1 X86.260 Y114.797 E16.98695
G1 X85.243 Y114.433 E17.05906
G1 X84.832 Y114.263 E17.08879
G1 X83.856 Y113.801 E17.16092
G1 X83.464 Y113.591 E17.19065
G1 X82.538 Y113.036 E17.26277
G1 X82.168 Y112.789 E17.29250
G1 X81.301 Y112.146 E17.36462
G1 X80.957 Y111.864 E17.39435
G1 X80.157 Y111.139 E17.46647
G1 X79.842 Y110.824 E17.49621
G1 X79.117 Y110.024 E17.56832
G1 X78.835 Y109.680 E17.59806
G1 X78.192 Y108.813 E17.67018
G1 X77.944 Y108.443 E17.69990
G1 X77.389 Y107.517 E17.77202
G1 X77.180 Y107.125 E17.80175
G1 X76.718 Y106.149 E17.87387
G1 X76.548 Y105.738 E17.90361
G1 X76.184 Y104.721 E17.97573
G1 X76.055 Y104.295 E18.00546
G1 X75.793 Y103.248 E18.07758
G1 X75.706 Y102.812 E18.10730
G1 X75.547 Y101.744 E18.17943
G1 X75.504 Y101.301 E18.20916
G1 X75.451 Y100.223 E18.28128
G1 X75.451 Y99.777 E18.31101
G1 X75.504 Y98.699 E18.38313
G1 X75.547 Y98.256 E18.41287
G1 X75.706 Y97.188 E18.48498
G1 X75.798 Y96.730 E18.51625
G1 X76.055 Y95.705 E18.58683
G1 X76.184 Y95.279 E18.61655
G1 X76.548 Y94.262 E18.68868
G1 X76.718 Y93.851 E18.71842
G1 X77.180 Y92.875 E18.79053
G1 X77.389 Y92.483 E18.82027
G1 X77.944 Y91.557 E18.89238
G1 X78.192 Y91.187 E18.92211
G1 X78.835 Y90.320 E18.99423
G1 X79.117 Y89.976 E19.02396
G1 X79.842 Y89.176 E19.09609
G1 X80.322 Y88.711 E19.14074
G1 E18.14074 F2400.00000
G92 E0
G1 X82.513 Y91.039 F7800.000
G1 E1.00000 F2400.00000
G1 X83.178 Y90.441 E1.05976 F1260.000
G1 X84.153 Y89.722 E1.14066
G1 X85.193 Y89.102 E1.22155
G1 X86.289 Y88.588 E1.30245
G1 X87.430 Y88.183 E1.38334
G1 X88.606 Y87.892 E1.46424
G1 X89.804 Y87.717 E1.54513
G1 X91.015 Y87.661 E1.62609
G1 X112.254 Y88.733 E3.04679 F1260.000
G1 X113.549 Y88.955 E3.13456
G1 X114.809 Y89.327 E3.22232
G1 X116.018 Y89.841 E3.31009
G1 X117.159 Y90.492 E3.39786
G1 X118.217 Y91.270 E3.48563
G1 X119.179 Y92.166 E3.57340
G1 X120.076 Y93.229 E3.66634
G1 X120.798 Y94.326 E3.75411
G1 X121.552 Y95.812 E3.86542
G1 X120.768 Y97.089 E3.96551
G1 X109.060 Y97.089 E4.74771
G1 X108.389 Y97.159 E4.79277
G1 X107.846 Y97.329 E4.83077
G1 X107.347 Y97.602 E4.86878
G1 X106.910 Y97.967 E4.90678
G1 X106.553 Y98.410 E4.94479
G1 X106.290 Y98.914 E4.98279
G1 X106.130 Y99.460 E5.02080
G1 X106.079 Y100.026 E5.05880
G1 X106.140 Y100.592 E5.09681
G1 X106.290 Y101.086 E5.13131
G1 X106.553 Y101.590 E5.16932
G1 X106.948 Y102.071 E5.21082
G1 X107.347 Y102.398 E5.24533
G1 X107.846 Y102.671 E5.28333
G1 X108.441 Y102.851 E5.32483
G1 X109.060 Y102.911 E5.36640
G1 X120.768 Y102.911 E6.14859
G1 X121.552 Y104.188 E6.24868
G1 X120.759 Y105.741 E6.36517
G1 X120.030 Y106.833 E6.45294
G1 X119.179 Y107.834 E6.54071
G1 X118.217 Y108.730 E6.62848
G1 X117.159 Y109.508 E6.71624
G1 X116.018 Y110.159 E6.80401
G1 X114.882 Y110.647 E6.88660
G1 X113.624 Y111.027 E6.97437
G1 X112.331 Y111.258 E7.06214
G1 X111.050 Y111.337 E7.14785
G1 X91.015 Y112.339 E8.48802
G1 X89.804 Y112.283 E8.56897
G1 X88.606 Y112.108 E8.64987
G1 X87.431 Y111.817 E8.73076
G1 X86.289 Y111.412 E8.81166
G1 X85.135 Y110.867 E8.89694
G1 X84.098 Y110.241 E8.97783
G1 X83.086 Y109.480 E9.06245
G1 X82.233 Y108.702 E9.13961
G1 X81.463 Y107.853 E9.21611
G1 X80.740 Y106.883 E9.29701
G1 X80.083 Y105.788 E9.38229
G1 X79.594 Y104.752 E9.45880
G1 X79.183 Y103.613 E9.53969
G1 X78.872 Y102.375 E9.62497
G1 X78.698 Y101.177 E9.70587
G1 X78.642 Y100.033 E9.78238
G1 X78.698 Y98.823 E9.86327
G1 X78.885 Y97.561 E9.94855
G1 X79.183 Y96.387 E10.02944
G1 X79.594 Y95.248 E10.11034
G1 X80.114 Y94.154 E10.19124
G1 X80.703 Y93.172 E10.26774
G1 X81.463 Y92.147 E10.35302
G1 X82.233 Y91.298 E10.42953
G1 X82.469 Y91.080 E10.45104
G1 X82.873 Y91.436 F7800.000
G1 X83.508 Y90.863 E10.50817 F1260.000
G1 X84.440 Y90.175 E10.58556
G1 X85.434 Y89.581 E10.66294
G1 X86.482 Y89.088 E10.74032
G1 X87.536 Y88.711 E10.81507
G1 X88.659 Y88.427 E10.89246
G1 X89.804 Y88.255 E10.96984
G1 X90.961 Y88.197 E11.04723
G1 X112.207 Y89.266 E12.46838 F1260.000
G1 X113.441 Y89.480 E12.55200
G1 X114.641 Y89.835 E12.63563
G1 X115.792 Y90.327 E12.71925
G1 X116.879 Y90.948 E12.80287
G1 X117.886 Y91.691 E12.88649
G1 X118.801 Y92.546 E12.97011
G1 X119.610 Y93.500 E13.05373
G1 X120.304 Y94.542 E13.13736
G1 X120.939 Y95.787 E13.23072
G1 X120.469 Y96.553 E13.29078
G1 X109.033 Y96.553 E14.05471
G1 X108.284 Y96.631 E14.10505
G1 X107.640 Y96.832 E14.15011
G1 X107.048 Y97.154 E14.19516
G1 X106.530 Y97.586 E14.24021
G1 X106.106 Y98.111 E14.28527
G1 X105.793 Y98.708 E14.33032
G1 X105.602 Y99.355 E14.37537
G1 X105.541 Y100.026 E14.42043
G1 X105.612 Y100.697 E14.46548
G1 X105.793 Y101.292 E14.50703
G1 X106.106 Y101.889 E14.55209
G1 X106.567 Y102.451 E14.60064
G1 X107.048 Y102.846 E14.64219
G1 X107.640 Y103.168 E14.68724
G1 X108.336 Y103.379 E14.73579
G1 X109.033 Y103.447 E14.78264
G1 X120.469 Y103.447 E15.54657
G1 X120.939 Y104.213 E15.60662
G1 X120.304 Y105.458 E15.69999
G1 X119.610 Y106.500 E15.78361
G1 X118.801 Y107.454 E15.86723
G1 X117.886 Y108.309 E15.95085
G1 X116.879 Y109.052 E16.03447
G1 X115.834 Y109.652 E16.11499
G1 X114.685 Y110.149 E16.19861
G1 X113.486 Y110.509 E16.28223
G1 X112.254 Y110.728 E16.36586
G1 X91.001 Y111.803 E17.78745
G1 X89.844 Y111.749 E17.86487
G1 X88.697 Y111.580 E17.94225
G1 X87.573 Y111.301 E18.01964
G1 X86.482 Y110.912 E18.09702
G1 X85.434 Y110.419 E18.17440
G1 X84.407 Y109.803 E18.25442
G1 X83.508 Y109.137 E18.32917
G1 X82.648 Y108.360 E18.40655
G1 X81.869 Y107.503 E18.48394
G1 X81.156 Y106.541 E18.56395
G1 X80.562 Y105.547 E18.64133
G1 X80.083 Y104.535 E18.71609
G1 X79.691 Y103.445 E18.79347
G1 X79.400 Y102.283 E18.87348
G1 X79.232 Y101.137 E18.95087
G1 X79.177 Y99.980 E19.02825
G1 X79.232 Y98.863 E19.10300
G1 X79.400 Y97.717 E19.18038
G1 X79.691 Y96.555 E19.26040
G1 X80.068 Y95.501 E19.33515
G1 X80.562 Y94.453 E19.41253
G1 X81.156 Y93.459 E19.48991
G1 X81.869 Y92.497 E19.56993
G1 X82.621 Y91.668 E19.64468
G1 X82.829 Y91.476 E19.66356
G1 X83.233 Y91.833 F7800.000
G1 X83.838 Y91.286 E19.71805 F1260.000
G1 X84.726 Y90.628 E19.79193
G1 X85.675 Y90.060 E19.86580
G1 X86.675 Y89.587 E19.93967
G1 X87.716 Y89.215 E20.01354
G1 X88.789 Y88.947 E20.08741
G1 X89.883 Y88.786 E20.16128
G1 X90.988 Y88.732 E20.23517
G1 X112.161 Y89.800 E21.65145 F1260.000
G1 X113.348 Y90.009 E21.73196
G1 X114.488 Y90.350 E21.81144
G1 X115.580 Y90.820 E21.89091
G1 X116.598 Y91.405 E21.96935
G1 X117.555 Y92.113 E22.04883
G1 X118.434 Y92.937 E22.12934
G1 X119.201 Y93.847 E22.20881
G1 X119.857 Y94.839 E22.28829
G1 X120.326 Y95.762 E22.35749
G1 X120.169 Y96.018 E22.37751
G1 X109.007 Y96.018 E23.12318
G1 X108.231 Y96.093 E23.17531
G1 X107.483 Y96.314 E23.22741
G1 X106.792 Y96.678 E23.27951
G1 X106.186 Y97.168 E23.33161
G1 X105.688 Y97.768 E23.38372
G1 X105.410 Y98.277 E23.42243
G1 X105.295 Y98.502 E23.43932
G1 X105.074 Y99.250 E23.49142
G1 X105.003 Y100.026 E23.54352
G1 X105.084 Y100.802 E23.59563
G1 X105.295 Y101.498 E23.64423
G1 X105.410 Y101.723 E23.66111
G1 X105.688 Y102.232 E23.69983
G1 X106.149 Y102.794 E23.74843
G1 X106.792 Y103.322 E23.80403
G1 X107.434 Y103.665 E23.85263
G1 X108.179 Y103.897 E23.90474
G1 X109.007 Y103.982 E23.96036
G1 X120.169 Y103.982 E24.70603
G1 X120.326 Y104.238 E24.72605
G1 X119.857 Y105.161 E24.79525
G1 X119.201 Y106.153 E24.87473
G1 X118.434 Y107.063 E24.95420
G1 X117.567 Y107.878 E25.03368
G1 X116.611 Y108.586 E25.11315
G1 X115.580 Y109.180 E25.19263
G1 X114.488 Y109.650 E25.27211
G1 X113.348 Y109.991 E25.35158
G1 X112.176 Y110.198 E25.43106
G1 X90.988 Y111.268 E26.84838
G1 X89.883 Y111.214 E26.92226
G1 X88.789 Y111.053 E26.99613
G1 X87.716 Y110.785 E27.07000
G1 X86.675 Y110.413 E27.14387
G1 X85.675 Y109.940 E27.21775
G1 X84.715 Y109.365 E27.29249
G1 X83.806 Y108.686 E27.36834
G1 X83.009 Y107.963 E27.44023
G1 X82.275 Y107.153 E27.51322
G1 X81.608 Y106.255 E27.58797
G1 X81.028 Y105.279 E27.66382
G1 X80.568 Y104.306 E27.73570
G1 X80.200 Y103.277 E27.80870
G1 X79.928 Y102.192 E27.88345
G1 X79.767 Y101.098 E27.95732
G1 X79.713 Y100.007 E28.03031
G1 X79.767 Y98.902 E28.10418
G1 X79.931 Y97.795 E28.17893
G1 X80.200 Y96.723 E28.25280
G1 X80.568 Y95.694 E28.32580
G1 X81.028 Y94.721 E28.39769
G1 X81.608 Y93.745 E28.47353
G1 X82.275 Y92.847 E28.54828
G1 X83.009 Y92.037 E28.62128
G1 X83.188 Y91.873 E28.63752
G1 E27.63752 F2400.00000
G92 E0
G1 X119.531 Y104.550 F7800.000
G1 E1.00000 F2400.00000
G1 X119.362 Y104.882 E1.02487 F315.000
G1 X118.741 Y105.819 E1.09995
G1 X118.016 Y106.677 E1.17503
G1 X117.196 Y107.446 E1.25010
G1 X116.293 Y108.115 E1.32518
G1 X115.319 Y108.675 E1.40026
G1 X114.287 Y109.119 E1.47533
G1 X113.210 Y109.440 E1.55041
G1 X112.104 Y109.634 E1.62541
G1 X90.981 Y110.700 E3.03835
G1 X89.932 Y110.648 E3.10848
G1 X88.893 Y110.494 E3.17863
G1 X87.875 Y110.239 E3.24878
G1 X86.886 Y109.885 E3.31892
G1 X85.937 Y109.436 E3.38907
G1 X85.036 Y108.896 E3.45922
G1 X84.193 Y108.271 E3.52936
G1 X83.415 Y107.566 E3.59951
G1 X82.710 Y106.788 E3.66966
G1 X82.084 Y105.944 E3.73980
G1 X81.545 Y105.044 E3.80995
G1 X81.096 Y104.095 E3.88010
G1 X80.742 Y103.106 E3.95024
G1 X80.487 Y102.087 E4.02039
G1 X80.333 Y101.049 E4.09054
G1 X80.281 Y100.000 E4.16068
G1 X80.333 Y98.951 E4.23083
G1 X80.487 Y97.913 E4.30098
G1 X80.742 Y96.894 E4.37112
G1 X81.096 Y95.905 E4.44127
G1 X81.544 Y94.957 E4.51139
G1 X82.098 Y94.037 E4.58308
G1 X82.710 Y93.212 E4.65170
G1 X83.415 Y92.434 E4.72185
G1 X84.193 Y91.729 E4.79199
G1 X85.036 Y91.104 E4.86214
G1 X85.937 Y90.564 E4.93229
G1 X86.886 Y90.115 E5.00243
G1 X87.875 Y89.761 E5.07258
G1 X88.893 Y89.506 E5.14273
G1 X89.932 Y89.352 E5.21287
G1 X90.981 Y89.300 E5.28301
G1 X112.104 Y90.366 E6.69595
G1 X113.210 Y90.560 E6.77095
G1 X114.287 Y90.881 E6.84602
G1 X115.319 Y91.325 E6.92110
G1 X116.293 Y91.885 E6.99618
G1 X117.196 Y92.554 E7.07125
G1 X118.016 Y93.323 E7.14633
G1 X118.741 Y94.181 E7.22141
G1 X119.362 Y95.118 E7.29649
G1 X119.531 Y95.450 E7.32136
G1 X108.966 Y95.450 E8.02712
G1 X108.093 Y95.536 E8.08574
G1 X107.239 Y95.795 E8.14534
G1 X106.452 Y96.216 E8.20495
G1 X105.762 Y96.782 E8.26456
G1 X105.196 Y97.471 E8.32416
G1 X104.776 Y98.258 E8.38377
G1 X104.517 Y99.112 E8.44338
G1 X104.429 Y100.000 E8.50298
G1 X104.517 Y100.888 E8.56259
G1 X104.776 Y101.742 E8.62220
G1 X105.196 Y102.529 E8.68180
G1 X105.762 Y103.218 E8.74141
G1 X106.452 Y103.784 E8.80102
G1 X107.239 Y104.205 E8.86062
G1 X108.093 Y104.464 E8.92023
G1 X108.966 Y104.550 E8.97885
G1 X119.471 Y104.550 E9.68060
