; generated by Slic3r 1.2.9 on 2017-04-27 at 10:17:30

; external perimeters extrusion width = 0.40mm
; perimeters extrusion width = 0.67mm
; infill extrusion width = 0.67mm
; solid infill extrusion width = 0.67mm
; top infill extrusion width = 0.67mm

M107
M190 S85 ; set bed temperature
M104 S205 ; set temperature
G28 ; home all axes
G1 Z5 F5000 ; lift nozzle

M109 S205 ; wait for temperature to be reached
G21 ; set units to millimeters
G90 ; use absolute coordinates
M82 ; use absolute distances for extrusion
G92 E0
G1 Z0.300 F7800.000
G1 E-1.00000 F2400.00000
G92 E0
G1 X79.978 Y88.243 F7800.000
G1 E1.00000 F2400.00000
G1 X80.533 Y87.739 E1.05006 F1260.000
G1 X80.918 Y87.424 E1.08331
G1 X81.785 Y86.781 E1.15542
G1 X82.199 Y86.504 E1.18867
G1 X83.125 Y85.949 E1.26079
G1 X83.564 Y85.715 E1.29403
G1 X84.540 Y85.253 E1.36615
G1 X84.999 Y85.063 E1.39939
G1 X86.016 Y84.699 E1.47151
G1 X86.492 Y84.554 E1.50476
G1 X87.539 Y84.292 E1.57687
G1 X88.027 Y84.195 E1.61012
G1 X89.095 Y84.037 E1.68225
G1 X89.590 Y83.988 E1.71545
G1 X90.669 Y83.935 E1.78760
G1 X91.171 Y83.935 E1.82114
G1 X111.171 Y84.935 E3.15892 F1260.000
G1 X112.368 Y85.004 E3.23903
G1 X112.952 Y85.072 E3.27828
G1 X114.093 Y85.273 E3.35569
G1 X114.665 Y85.408 E3.39494
G1 X115.775 Y85.739 E3.47234
G1 X116.327 Y85.939 E3.51160
G1 X117.392 Y86.397 E3.58900
G1 X117.936 Y86.670 E3.62970
G1 X118.922 Y87.237 E3.70565
G1 X119.413 Y87.558 E3.74488
G1 X120.344 Y88.248 E3.82231
G1 X120.795 Y88.625 E3.86155
G1 X121.640 Y89.418 E3.93896
G1 X122.045 Y89.844 E3.97821
G1 X122.793 Y90.729 E4.05562
G1 X123.145 Y91.199 E4.09487
G1 X123.785 Y92.165 E4.17227
G1 X124.081 Y92.672 E4.21153
G1 X124.605 Y93.706 E4.28893
G1 X125.154 Y96.000 E4.44653
G1 X125.154 Y104.000 E4.98097
G1 X124.605 Y106.294 E5.13857
G1 X124.081 Y107.328 E5.21597
G1 X123.785 Y107.835 E5.25522
G1 X123.145 Y108.801 E5.33263
G1 X122.793 Y109.271 E5.37188
G1 X122.045 Y110.156 E5.44928
G1 X121.640 Y110.582 E5.48853
G1 X120.795 Y111.375 E5.56595
G1 X120.344 Y111.752 E5.60519
G1 X119.413 Y112.441 E5.68259
G1 X118.922 Y112.763 E5.72185
G1 X117.917 Y113.341 E5.79925
G1 X117.392 Y113.603 E5.83850
G1 X116.327 Y114.061 E5.91590
G1 X115.775 Y114.261 E5.95516
G1 X114.664 Y114.592 E6.03257
G1 X114.093 Y114.727 E6.07181
G1 X112.952 Y114.928 E6.14921
G1 X112.368 Y114.996 E6.18847
G1 X111.171 Y115.065 E6.26858
G1 X91.171 Y116.065 E7.60636
G1 X90.669 Y116.065 E7.63990
G1 X89.590 Y116.012 E7.71203
G1 X89.095 Y115.963 E7.74526
G1 X88.027 Y115.805 E7.81738
G1 X87.539 Y115.708 E7.85063
G1 X86.492 Y115.446 E7.92274
G1 X86.016 Y115.301 E7.95599
G1 X84.999 Y114.937 E8.02810
G1 X84.540 Y114.747 E8.06135
G1 X83.564 Y114.285 E8.13347
G1 X83.125 Y114.051 E8.16671
G1 X82.199 Y113.496 E8.23883
G1 X81.785 Y113.219 E8.27208
G1 X80.918 Y112.576 E8.34420
G1 X80.534 Y112.261 E8.37742
G1 X79.734 Y111.536 E8.44955
G1 X79.382 Y111.184 E8.48280
G1 X78.657 Y110.384 E8.55492
G1 X78.341 Y109.999 E8.58816
G1 X77.698 Y109.132 E8.66029
G1 X77.411 Y108.701 E8.69488
G1 X76.867 Y107.793 E8.76564
G1 X76.632 Y107.354 E8.79888
G1 X76.170 Y106.378 E8.87100
G1 X75.980 Y105.918 E8.90425
G1 X75.616 Y104.902 E8.97637
G1 X75.472 Y104.425 E9.00961
G1 X75.214 Y103.398 E9.08038
G1 X75.112 Y102.890 E9.11497
G1 X74.954 Y101.822 E9.18709
G1 X74.905 Y101.327 E9.22034
G1 X74.852 Y100.249 E9.29245
G1 X74.852 Y99.751 E9.32568
G1 X74.905 Y98.673 E9.39782
G1 X74.954 Y98.178 E9.43106
G1 X75.112 Y97.110 E9.50318
G1 X75.210 Y96.622 E9.53642
G1 X75.472 Y95.575 E9.60854
G1 X75.616 Y95.098 E9.64179
G1 X75.980 Y94.082 E9.71390
G1 X76.170 Y93.622 E9.74715
G1 X76.632 Y92.646 E9.81928
G1 X76.867 Y92.207 E9.85251
G1 X77.411 Y91.299 E9.92328
G1 X77.698 Y90.868 E9.95787
G1 X78.341 Y90.001 E10.02999
G1 X78.657 Y89.616 E10.06324
G1 X79.382 Y88.816 E10.13535
G1 X79.934 Y88.283 E10.18663
G1 X80.338 Y88.639 F7800.000
G1 X80.893 Y88.136 E10.23669 F1260.000
G1 X81.237 Y87.854 E10.26643
G1 X82.104 Y87.211 E10.33854
G1 X82.474 Y86.964 E10.36828
G1 X83.400 Y86.408 E10.44040
G1 X83.793 Y86.199 E10.47013
G1 X84.769 Y85.737 E10.54225
G1 X85.180 Y85.567 E10.57198
G1 X86.196 Y85.203 E10.64410
G1 X86.622 Y85.074 E10.67383
G1 X87.669 Y84.812 E10.74595
G1 X88.106 Y84.725 E10.77568
G1 X89.174 Y84.566 E10.84781
G1 X89.616 Y84.523 E10.87751
G1 X90.695 Y84.470 E10.94965
G1 X91.144 Y84.470 E10.97965
G1 X111.144 Y85.470 E12.31743 F1260.000
G1 X112.337 Y85.539 E12.39725
G1 X112.859 Y85.600 E12.43236
G1 X114.000 Y85.800 E12.50976
G1 X114.511 Y85.921 E12.54487
G1 X115.622 Y86.252 E12.62227
G1 X116.116 Y86.431 E12.65738
G1 X117.180 Y86.889 E12.73478
G1 X117.650 Y87.124 E12.76989
G1 X118.655 Y87.701 E12.84729
G1 X119.094 Y87.989 E12.88238
G1 X120.026 Y88.679 E12.95980
G1 X120.445 Y89.030 E12.99635
G1 X121.274 Y89.808 E13.07231
G1 X121.636 Y90.189 E13.10742
G1 X122.383 Y91.074 E13.18482
G1 X122.699 Y91.495 E13.21993
G1 X123.339 Y92.461 E13.29733
G1 X123.603 Y92.915 E13.33244
G1 X124.127 Y93.948 E13.40984
G1 X124.618 Y96.000 E13.55079
G1 X124.618 Y104.000 E14.08523
G1 X124.127 Y106.052 E14.22619
G1 X123.603 Y107.085 E14.30359
G1 X123.339 Y107.539 E14.33870
G1 X122.699 Y108.505 E14.41611
G1 X122.383 Y108.926 E14.45121
G1 X121.636 Y109.811 E14.52861
G1 X121.274 Y110.192 E14.56372
G1 X120.429 Y110.985 E14.64113
G1 X120.026 Y111.321 E14.67623
G1 X119.095 Y112.011 E14.75363
G1 X118.655 Y112.299 E14.78874
G1 X117.650 Y112.876 E14.86614
G1 X117.180 Y113.111 E14.90124
G1 X116.116 Y113.569 E14.97865
G1 X115.622 Y113.748 E15.01375
G1 X114.511 Y114.079 E15.09117
G1 X114.000 Y114.200 E15.12626
G1 X112.859 Y114.400 E15.20367
G1 X112.337 Y114.461 E15.23877
G1 X111.144 Y114.530 E15.31860
G1 X91.144 Y115.530 E16.65638
G1 X90.695 Y115.530 E16.68638
G1 X89.616 Y115.477 E16.75851
G1 X89.174 Y115.434 E16.78823
G1 X88.106 Y115.275 E16.86034
G1 X87.669 Y115.188 E16.89008
G1 X86.622 Y114.926 E16.96220
G1 X86.196 Y114.797 E16.99193
G1 X85.180 Y114.433 E17.06405
G1 X84.769 Y114.263 E17.09378
G1 X83.793 Y113.801 E17.16590
G1 X83.400 Y113.591 E17.19563
G1 X82.474 Y113.036 E17.26775
G1 X82.104 Y112.789 E17.29749
G1 X81.237 Y112.146 E17.36961
G1 X80.893 Y111.864 E17.39932
G1 X80.093 Y111.139 E17.47145
G1 X79.779 Y110.824 E17.50119
G1 X79.054 Y110.024 E17.57330
G1 X78.771 Y109.680 E17.60304
G1 X78.128 Y108.813 E17.67516
G1 X77.871 Y108.426 E17.70622
G1 X77.326 Y107.517 E17.77700
G1 X77.116 Y107.125 E17.80673
G1 X76.655 Y106.149 E17.87886
G1 X76.484 Y105.738 E17.90859
G1 X76.121 Y104.721 E17.98071
G1 X75.991 Y104.295 E18.01044
G1 X75.734 Y103.268 E18.08121
G1 X75.642 Y102.812 E18.11229
G1 X75.484 Y101.744 E18.18441
G1 X75.440 Y101.301 E18.21414
G1 X75.387 Y100.223 E18.28626
G1 X75.387 Y99.778 E18.31598
G1 X75.440 Y98.699 E18.38811
G1 X75.484 Y98.256 E18.41784
G1 X75.642 Y97.188 E18.48996
G1 X75.729 Y96.752 E18.51970
G1 X75.991 Y95.705 E18.59181
G1 X76.121 Y95.279 E18.62155
G1 X76.484 Y94.262 E18.69366
G1 X76.655 Y93.851 E18.72340
G1 X77.116 Y92.875 E18.79552
G1 X77.326 Y92.483 E18.82525
G1 X77.871 Y91.574 E18.89601
G1 X78.128 Y91.187 E18.92710
G1 X78.771 Y90.320 E18.99921
G1 X79.054 Y89.976 E19.02895
G1 X79.779 Y89.176 E19.10106
G1 X80.293 Y88.680 E19.14883
G1 E18.14883 F2400.00000
G92 E0
G1 X82.485 Y91.008 F7800.000
G1 E1.00000 F2400.00000
G1 X83.115 Y90.441 E1.05664 F1260.000
G1 X84.090 Y89.722 E1.13754
G1 X85.130 Y89.102 E1.21843
G1 X86.226 Y88.588 E1.29933
G1 X87.367 Y88.183 E1.38022
G1 X88.542 Y87.892 E1.46112
G1 X89.741 Y87.717 E1.54201
G1 X90.951 Y87.661 E1.62296
G1 X112.190 Y88.733 E3.04367 F1260.000
G1 X113.485 Y88.955 E3.13144
G1 X114.745 Y89.327 E3.21920
G1 X115.954 Y89.841 E3.30697
G1 X117.096 Y90.492 E3.39474
G1 X118.154 Y91.270 E3.48251
G1 X119.115 Y92.166 E3.57028
G1 X119.966 Y93.167 E3.65804
G1 X120.735 Y94.326 E3.75099
G1 X121.616 Y96.062 E3.88103
G1 X120.832 Y97.339 E3.98112
G1 X111.023 Y97.339 E4.63641
G1 X110.267 Y97.436 E4.68733
G1 X109.565 Y97.727 E4.73810
G1 X109.072 Y98.105 E4.77958
G1 X108.645 Y98.647 E4.82571
G1 X108.354 Y99.349 E4.87648
G1 X108.273 Y99.965 E4.91795
G1 X108.354 Y100.651 E4.96408
G1 X108.609 Y101.292 E5.01021
G1 X109.022 Y101.845 E5.05634
G1 X109.565 Y102.273 E5.10247
G1 X110.267 Y102.564 E5.15324
G1 X111.023 Y102.661 E5.20416
G1 X120.832 Y102.661 E5.85945
G1 X121.616 Y103.938 E5.95954
G1 X120.696 Y105.741 E6.09476
G1 X119.966 Y106.833 E6.18253
G1 X119.115 Y107.834 E6.27030
G1 X118.214 Y108.680 E6.35289
G1 X117.161 Y109.466 E6.44065
G1 X116.024 Y110.124 E6.52842
G1 X114.818 Y110.647 E6.61619
G1 X113.561 Y111.027 E6.70396
G1 X112.268 Y111.258 E6.79172
G1 X110.987 Y111.337 E6.87744
G1 X90.951 Y112.339 E8.21761
G1 X89.741 Y112.283 E8.29857
G1 X88.542 Y112.108 E8.37945
G1 X87.367 Y111.817 E8.46035
G1 X86.226 Y111.412 E8.54124
G1 X85.130 Y110.898 E8.62214
G1 X84.035 Y110.241 E8.70742
G1 X83.064 Y109.517 E8.78831
G1 X82.216 Y108.748 E8.86483
G1 X81.400 Y107.853 E8.94572
G1 X80.640 Y106.828 E9.03100
G1 X79.997 Y105.740 E9.11543
G1 X79.505 Y104.692 E9.19278
G1 X79.119 Y103.613 E9.26928
G1 X78.809 Y102.375 E9.35456
G1 X78.635 Y101.177 E9.43546
G1 X78.578 Y99.967 E9.51635
G1 X78.635 Y98.823 E9.59286
G1 X78.809 Y97.625 E9.67376
G1 X79.119 Y96.387 E9.75904
G1 X79.505 Y95.308 E9.83554
G1 X79.997 Y94.260 E9.91289
G1 X80.640 Y93.172 E9.99732
G1 X81.400 Y92.147 E10.08260
G1 X82.169 Y91.298 E10.15911
G1 X82.440 Y91.048 E10.18374
G1 X82.844 Y91.405 F7800.000
G1 X83.445 Y90.863 E10.23775 F1260.000
G1 X84.376 Y90.175 E10.31513
G1 X85.371 Y89.581 E10.39252
G1 X86.419 Y89.088 E10.46990
G1 X87.510 Y88.699 E10.54728
G1 X88.595 Y88.427 E10.62203
G1 X89.741 Y88.255 E10.69941
G1 X90.898 Y88.197 E10.77681
G1 X112.144 Y89.266 E12.19796 F1260.000
G1 X113.377 Y89.480 E12.28158
G1 X114.578 Y89.835 E12.36520
G1 X115.729 Y90.327 E12.44882
G1 X116.815 Y90.948 E12.53244
G1 X117.823 Y91.691 E12.61607
G1 X118.737 Y92.546 E12.69969
G1 X119.547 Y93.500 E12.78331
G1 X120.241 Y94.542 E12.86693
G1 X121.002 Y96.037 E12.97902
G1 X120.532 Y96.803 E13.03908
G1 X110.988 Y96.803 E13.67670
G1 X110.059 Y96.933 E13.73932
G1 X109.355 Y97.224 E13.79022
G1 X108.690 Y97.723 E13.84577
G1 X108.177 Y98.377 E13.90132
G1 X107.832 Y99.210 E13.96151
G1 X107.732 Y99.965 E14.01241
G1 X107.832 Y100.790 E14.06796
G1 X108.142 Y101.562 E14.12351
G1 X108.640 Y102.227 E14.17905
G1 X109.355 Y102.776 E14.23925
G1 X110.127 Y103.086 E14.29480
G1 X110.988 Y103.197 E14.35277
G1 X120.532 Y103.197 E14.99039
G1 X121.002 Y103.963 E15.05045
G1 X120.241 Y105.458 E15.16254
G1 X119.547 Y106.500 E15.24616
G1 X118.737 Y107.454 E15.32978
G1 X117.858 Y108.279 E15.41030
G1 X116.854 Y109.026 E15.49392
G1 X115.770 Y109.652 E15.57754
G1 X114.621 Y110.149 E15.66116
G1 X113.423 Y110.509 E15.74479
G1 X112.190 Y110.728 E15.82841
G1 X90.938 Y111.803 E17.25000
G1 X89.780 Y111.749 E17.32742
G1 X88.634 Y111.580 E17.40480
G1 X87.510 Y111.301 E17.48219
G1 X86.419 Y110.912 E17.55957
G1 X85.371 Y110.419 E17.63695
G1 X84.343 Y109.803 E17.71697
G1 X83.414 Y109.112 E17.79435
G1 X82.585 Y108.360 E17.86910
G1 X81.806 Y107.503 E17.94649
G1 X81.092 Y106.541 E18.02650
G1 X80.481 Y105.511 E18.10654
G1 X80.005 Y104.499 E18.18126
G1 X79.628 Y103.445 E18.25601
G1 X79.337 Y102.283 E18.33602
G1 X79.169 Y101.137 E18.41340
G1 X79.114 Y99.980 E18.49079
G1 X79.169 Y98.863 E18.56554
G1 X79.337 Y97.717 E18.64292
G1 X79.628 Y96.555 E18.72294
G1 X80.005 Y95.501 E18.79769
G1 X80.481 Y94.489 E18.87240
G1 X81.092 Y93.459 E18.95244
G1 X81.806 Y92.497 E19.03246
G1 X82.557 Y91.668 E19.10721
G1 X82.800 Y91.445 E19.12920
G1 X83.204 Y91.802 F7800.000
G1 X83.774 Y91.286 E19.18058 F1260.000
G1 X84.663 Y90.628 E19.25445
G1 X85.612 Y90.060 E19.32832
G1 X86.611 Y89.587 E19.40220
G1 X87.653 Y89.215 E19.47607
G1 X88.726 Y88.947 E19.54994
G1 X89.820 Y88.786 E19.62381
G1 X90.924 Y88.732 E19.69769
G1 X112.097 Y89.800 E21.11398 F1260.000
G1 X113.284 Y90.009 E21.19449
G1 X114.424 Y90.350 E21.27396
G1 X115.517 Y90.820 E21.35344
G1 X116.548 Y91.414 E21.43291
G1 X117.491 Y92.113 E21.51135
G1 X118.370 Y92.937 E21.59187
G1 X119.137 Y93.847 E21.67134
G1 X119.794 Y94.839 E21.75082
G1 X120.389 Y96.012 E21.83875
G1 X120.232 Y96.268 E21.85877
G1 X110.953 Y96.268 E22.47871
G1 X109.919 Y96.411 E22.54839
G1 X109.085 Y96.756 E22.60871
G1 X108.308 Y97.341 E22.67368
G1 X107.674 Y98.168 E22.74330
G1 X107.328 Y99.002 E22.80361
G1 X107.192 Y99.965 E22.86858
G1 X107.328 Y100.998 E22.93820
G1 X107.674 Y101.832 E22.99852
G1 X108.258 Y102.609 E23.06349
G1 X109.024 Y103.209 E23.12846
G1 X109.919 Y103.589 E23.19343
G1 X110.953 Y103.732 E23.26311
G1 X120.232 Y103.732 E23.88306
G1 X120.389 Y103.988 E23.90307
G1 X119.794 Y105.161 E23.99100
G1 X119.137 Y106.153 E24.07048
G1 X118.370 Y107.063 E24.14996
G1 X117.503 Y107.878 E24.22943
G1 X116.548 Y108.586 E24.30891
G1 X115.517 Y109.180 E24.38838
G1 X114.424 Y109.650 E24.46786
G1 X113.284 Y109.991 E24.54733
G1 X112.113 Y110.198 E24.62681
G1 X90.924 Y111.268 E26.04413
G1 X89.820 Y111.214 E26.11801
G1 X88.726 Y111.053 E26.19188
G1 X87.653 Y110.785 E26.26575
G1 X86.611 Y110.413 E26.33963
G1 X85.612 Y109.940 E26.41350
G1 X84.652 Y109.365 E26.48825
G1 X83.774 Y108.714 E26.56124
G1 X82.955 Y107.972 E26.63511
G1 X82.203 Y107.143 E26.70986
G1 X81.531 Y106.232 E26.78551
G1 X80.977 Y105.306 E26.85759
G1 X80.510 Y104.318 E26.93059
G1 X80.137 Y103.277 E27.00446
G1 X79.865 Y102.192 E27.07921
G1 X79.703 Y101.098 E27.15308
G1 X79.650 Y100.007 E27.22607
G1 X79.703 Y98.902 E27.29995
G1 X79.865 Y97.808 E27.37382
G1 X80.137 Y96.723 E27.44857
G1 X80.505 Y95.694 E27.52156
G1 X80.966 Y94.718 E27.59364
G1 X81.545 Y93.745 E27.66930
G1 X82.211 Y92.847 E27.74404
G1 X82.945 Y92.037 E27.81704
G1 X83.160 Y91.842 E27.83640
G1 E26.83640 F2400.00000
G92 E0
G1 X119.594 Y104.300 F7800.000
G1 E1.00000 F2400.00000
G1 X119.299 Y104.882 E1.04360 F315.000
G1 X118.678 Y105.819 E1.11868
G1 X117.953 Y106.677 E1.19375
G1 X117.133 Y107.446 E1.26883
G1 X116.230 Y108.115 E1.34391
G1 X115.256 Y108.675 E1.41898
G1 X114.223 Y109.119 E1.49406
G1 X113.146 Y109.440 E1.56914
G1 X112.040 Y109.634 E1.64414
G1 X90.917 Y110.700 E3.05708
G1 X89.869 Y110.648 E3.12721
G1 X88.830 Y110.494 E3.19736
G1 X87.811 Y110.239 E3.26750
G1 X86.823 Y109.885 E3.33765
G1 X85.874 Y109.436 E3.40780
G1 X84.973 Y108.896 E3.47794
G1 X84.130 Y108.271 E3.54809
G1 X83.352 Y107.566 E3.61824
G1 X82.646 Y106.788 E3.68838
G1 X82.021 Y105.944 E3.75853
G1 X81.481 Y105.044 E3.82868
G1 X81.032 Y104.095 E3.89882
G1 X80.679 Y103.106 E3.96897
G1 X80.428 Y102.107 E4.03778
G1 X80.269 Y101.048 E4.10927
G1 X80.218 Y100.000 E4.17940
G1 X80.269 Y98.951 E4.24955
G1 X80.423 Y97.913 E4.31970
G1 X80.679 Y96.894 E4.38984
G1 X81.032 Y95.905 E4.45999
G1 X81.481 Y94.956 E4.53014
G1 X82.021 Y94.056 E4.60028
G1 X82.646 Y93.212 E4.67041
G1 X83.366 Y92.421 E4.74190
G1 X84.130 Y91.729 E4.81072
G1 X84.973 Y91.104 E4.88086
G1 X85.874 Y90.564 E4.95101
G1 X86.823 Y90.115 E5.02116
G1 X87.811 Y89.761 E5.09130
G1 X88.830 Y89.506 E5.16145
G1 X89.869 Y89.352 E5.23159
G1 X90.917 Y89.300 E5.30173
G1 X112.040 Y90.366 E6.71467
G1 X113.146 Y90.560 E6.78967
G1 X114.223 Y90.881 E6.86475
G1 X115.255 Y91.325 E6.93980
G1 X116.247 Y91.898 E7.01632
G1 X117.133 Y92.554 E7.08997
G1 X117.953 Y93.323 E7.16504
G1 X118.678 Y94.181 E7.24012
G1 X119.299 Y95.118 E7.31520
G1 X119.594 Y95.700 E7.35880
G1 X110.898 Y95.700 E7.93975
G1 X109.804 Y95.844 E8.01346
G1 X108.766 Y96.274 E8.08850
G1 X107.891 Y96.945 E8.16218
G1 X107.192 Y97.848 E8.23848
G1 X106.761 Y98.886 E8.31356
G1 X106.617 Y99.980 E8.38724
G1 X106.761 Y101.113 E8.46354
G1 X107.191 Y102.151 E8.53863
G1 X107.875 Y103.042 E8.61366
G1 X108.766 Y103.726 E8.68870
G1 X109.804 Y104.156 E8.76373
G1 X110.898 Y104.300 E8.83745
G1 X119.534 Y104.300 E9.41439
G1 X119.297 Y104.568 F7800.000
G1 X118.687 Y104.836 F7800.000
G1 X118.249 Y105.497 E9.46739 F630.000
G1 X117.563 Y106.308 E9.53831
G1 X116.789 Y107.034 E9.60924
G1 X115.936 Y107.666 E9.68016
G1 X115.016 Y108.195 E9.75109
G1 X114.040 Y108.614 E9.82201
G1 X113.023 Y108.918 E9.89293
G1 X111.980 Y109.101 E9.96365
G1 X92.797 Y110.069 E11.24682
G1 X92.713 Y109.852 E11.26232
G1 X92.807 Y109.775 E11.27047
G1 X93.189 Y109.249 E11.31388
G1 X93.428 Y108.645 E11.35729
G1 X93.510 Y108.000 E11.40070
G1 X93.428 Y107.355 E11.44411
G1 X93.189 Y106.751 E11.48752
