; generated by Slic3r 1.2.9 on 2017-04-27 at 09:49:08

; external perimeters extrusion width = 0.40mm
; perimeters extrusion width = 0.67mm
; infill extrusion width = 0.67mm
; solid infill extrusion width = 0.67mm
; top infill extrusion width = 0.67mm

M107
M190 S85 ; set bed temperature
M104 S210 ; set temperature
G28 ; home all axes
G1 Z5 F5000 ; lift nozzle

M109 S210 ; wait for temperature to be reached
G21 ; set units to millimeters
G90 ; use absolute coordinates
M82 ; use absolute distances for extrusion
G92 E0
G1 Z0.300 F7800.000
G1 E-1.00000 F2400.00000
G92 E0
G1 X79.485 Y88.074 F7800.000
G1 E1.00000 F2400.00000
G1 X80.389 Y87.316 E1.07883 F1260.000
G1 X80.824 Y86.990 E1.11517
G1 X81.804 Y86.333 E1.19400
G1 X82.272 Y86.055 E1.23035
G1 X83.317 Y85.507 E1.30919
G1 X83.812 Y85.281 E1.34552
G1 X84.909 Y84.848 E1.42436
G1 X85.425 Y84.675 E1.46069
G1 X86.563 Y84.363 E1.53953
G1 X87.095 Y84.247 E1.57587
G1 X88.259 Y84.058 E1.65470
G1 X88.800 Y83.999 E1.69104
G1 X89.979 Y83.936 E1.76988
G1 X90.879 Y83.954 E1.83002
G1 X110.504 Y84.935 E3.14272 F1260.000
G1 X111.701 Y85.004 E3.22283
G1 X112.285 Y85.072 E3.26209
G1 X113.426 Y85.273 E3.33949
G1 X113.998 Y85.408 E3.37874
G1 X115.108 Y85.739 E3.45615
G1 X115.660 Y85.939 E3.49540
G1 X116.725 Y86.397 E3.57280
G1 X117.269 Y86.670 E3.61350
G1 X118.255 Y87.237 E3.68945
G1 X118.747 Y87.559 E3.72871
G1 X119.678 Y88.248 E3.80611
G1 X120.128 Y88.625 E3.84535
G1 X120.974 Y89.418 E3.92276
G1 X121.378 Y89.844 E3.96202
G1 X122.126 Y90.729 E4.03942
G1 X122.478 Y91.199 E4.07867
G1 X123.118 Y92.165 E4.15608
G1 X123.414 Y92.672 E4.19533
G1 X123.938 Y93.706 E4.27273
G1 X124.487 Y96.000 E4.43033
G1 X124.487 Y104.000 E4.96477
G1 X123.938 Y106.294 E5.12237
G1 X123.414 Y107.328 E5.19977
G1 X123.118 Y107.835 E5.23902
G1 X122.478 Y108.801 E5.31645
G1 X122.126 Y109.271 E5.35568
G1 X121.378 Y110.156 E5.43308
G1 X120.974 Y110.582 E5.47234
G1 X120.128 Y111.375 E5.54975
G1 X119.678 Y111.752 E5.58899
G1 X118.747 Y112.441 E5.66639
G1 X118.255 Y112.763 E5.70565
G1 X117.250 Y113.341 E5.78305
G1 X116.725 Y113.603 E5.82230
G1 X115.660 Y114.061 E5.89971
G1 X115.108 Y114.261 E5.93896
G1 X113.998 Y114.592 E6.01636
G1 X113.426 Y114.727 E6.05561
G1 X112.285 Y114.928 E6.13302
G1 X111.701 Y114.996 E6.17227
G1 X110.504 Y115.065 E6.25238
G1 X90.504 Y116.065 E7.59016
G1 X89.979 Y116.064 E7.62524
G1 X88.800 Y116.001 E7.70408
G1 X88.259 Y115.942 E7.74042
G1 X87.095 Y115.753 E7.81926
G1 X86.563 Y115.637 E7.85560
G1 X85.425 Y115.325 E7.93443
G1 X84.909 Y115.152 E7.97076
G1 X83.812 Y114.719 E8.04960
G1 X83.317 Y114.493 E8.08592
G1 X82.272 Y113.945 E8.16478
G1 X81.804 Y113.667 E8.20111
G1 X80.824 Y113.010 E8.27995
G1 X80.389 Y112.684 E8.31628
G1 X79.485 Y111.926 E8.39512
G1 X79.087 Y111.554 E8.43147
G1 X78.269 Y110.704 E8.51030
G1 X77.914 Y110.292 E8.54663
G1 X77.191 Y109.359 E8.62547
G1 X76.882 Y108.911 E8.66181
G1 X76.264 Y107.906 E8.74064
G1 X75.513 Y105.250 E8.92503
G1 X75.513 Y94.750 E9.62649
G1 X76.264 Y92.094 E9.81087
G1 X76.882 Y91.089 E9.88971
G1 X77.191 Y90.641 E9.92605
G1 X77.914 Y89.708 E10.00488
G1 X78.269 Y89.296 E10.04122
G1 X79.087 Y88.446 E10.12005
G1 X79.441 Y88.115 E10.15239
G1 X79.829 Y88.485 F7800.000
G1 X80.733 Y87.727 E10.23122 F1260.000
G1 X81.122 Y87.435 E10.26372
G1 X82.102 Y86.778 E10.34255
G1 X82.521 Y86.529 E10.37506
G1 X83.566 Y85.981 E10.45390
G1 X84.008 Y85.779 E10.48639
G1 X85.106 Y85.346 E10.56523
G1 X85.567 Y85.192 E10.59773
G1 X86.705 Y84.879 E10.67656
G1 X87.180 Y84.775 E10.70906
G1 X88.345 Y84.586 E10.78789
G1 X88.829 Y84.534 E10.82040
G1 X90.007 Y84.471 E10.89924
G1 X90.852 Y84.489 E10.95568
G1 X110.477 Y85.470 E12.26837 F1260.000
G1 X111.670 Y85.539 E12.34820
G1 X112.192 Y85.600 E12.38331
G1 X113.333 Y85.800 E12.46071
G1 X113.845 Y85.921 E12.49582
G1 X114.955 Y86.252 E12.57322
G1 X115.449 Y86.431 E12.60833
G1 X116.514 Y86.889 E12.68573
G1 X116.983 Y87.124 E12.72083
G1 X117.988 Y87.701 E12.79824
G1 X118.428 Y87.989 E12.83334
G1 X119.359 Y88.679 E12.91075
G1 X119.762 Y89.015 E12.94584
G1 X120.607 Y89.808 E13.02326
G1 X120.969 Y90.189 E13.05836
G1 X121.716 Y91.074 E13.13577
G1 X122.032 Y91.495 E13.17087
G1 X122.672 Y92.461 E13.24828
G1 X122.936 Y92.915 E13.28338
G1 X123.461 Y93.948 E13.36079
G1 X123.951 Y96.000 E13.50174
G1 X123.951 Y104.000 E14.03618
G1 X123.461 Y106.052 E14.17713
G1 X122.936 Y107.085 E14.25454
G1 X122.672 Y107.539 E14.28964
G1 X122.032 Y108.505 E14.36706
G1 X121.716 Y108.926 E14.40215
G1 X120.969 Y109.811 E14.47955
G1 X120.607 Y110.192 E14.51466
G1 X119.762 Y110.985 E14.59208
G1 X119.359 Y111.321 E14.62717
G1 X118.428 Y112.011 E14.70457
G1 X117.988 Y112.299 E14.73968
G1 X116.984 Y112.876 E14.81709
G1 X116.514 Y113.111 E14.85219
G1 X115.449 Y113.569 E14.92960
G1 X114.955 Y113.748 E14.96470
G1 X113.845 Y114.079 E15.04210
G1 X113.333 Y114.200 E15.07721
G1 X112.192 Y114.400 E15.15461
G1 X111.670 Y114.461 E15.18972
G1 X110.477 Y114.530 E15.26955
G1 X90.477 Y115.530 E16.60733
G1 X90.007 Y115.529 E16.63870
G1 X88.829 Y115.466 E16.71754
G1 X88.345 Y115.414 E16.75004
G1 X87.180 Y115.225 E16.82888
G1 X86.705 Y115.121 E16.86138
G1 X85.567 Y114.808 E16.94021
G1 X85.106 Y114.654 E16.97271
G1 X84.008 Y114.221 E17.05155
G1 X83.566 Y114.019 E17.08403
G1 X82.521 Y113.471 E17.16288
G1 X82.103 Y113.222 E17.19537
G1 X81.122 Y112.565 E17.27422
G1 X80.733 Y112.273 E17.30671
G1 X79.829 Y111.515 E17.38555
G1 X79.473 Y111.183 E17.41806
G1 X78.655 Y110.332 E17.49689
G1 X78.337 Y109.964 E17.52938
G1 X77.615 Y109.031 E17.60822
G1 X77.338 Y108.631 E17.64072
G1 X76.720 Y107.625 E17.71956
G1 X76.049 Y105.250 E17.88447
G1 X76.049 Y94.750 E18.58593
G1 X76.720 Y92.375 E18.75084
G1 X77.338 Y91.369 E18.82967
G1 X77.615 Y90.969 E18.86217
G1 X78.337 Y90.036 E18.94100
G1 X78.655 Y89.668 E18.97351
G1 X79.473 Y88.817 E19.05234
G1 X79.785 Y88.526 E19.08083
G1 E18.08083 F2400.00000
G92 E0
G1 X79.032 Y94.718 F7800.000
G1 E1.00000 F2400.00000
G1 X80.080 Y93.013 E1.13370 F1260.000
G1 X80.887 Y91.964 E1.22213
G1 X81.802 Y91.007 E1.31056
G1 X82.814 Y90.154 E1.39899
G1 X83.911 Y89.414 E1.48741
G1 X85.082 Y88.796 E1.57584
G1 X86.312 Y88.306 E1.66427
G1 X87.657 Y87.936 E1.75749
G1 X88.965 Y87.728 E1.84592
G1 X90.283 Y87.661 E1.93410
G1 X110.325 Y88.663 E3.27473
G1 X111.601 Y88.742 E3.36009
G1 X112.818 Y88.955 E3.44267
G1 X114.079 Y89.327 E3.53044
G1 X115.287 Y89.841 E3.61821
G1 X116.429 Y90.492 E3.70598
G1 X117.547 Y91.320 E3.79892
G1 X118.502 Y92.222 E3.88669
G1 X119.346 Y93.229 E3.97446
G1 X120.068 Y94.326 E4.06223
G1 X120.949 Y96.062 E4.19227
G1 X120.165 Y97.339 E4.29236
G1 X110.356 Y97.339 E4.94765
G1 X109.532 Y97.454 E5.00322
G1 X108.959 Y97.692 E5.04469
G1 X108.405 Y98.105 E5.09082
G1 X107.978 Y98.647 E5.13695
G1 X107.705 Y99.282 E5.18308
G1 X107.606 Y100.035 E5.23385
G1 X107.687 Y100.651 E5.27533
G1 X107.943 Y101.292 E5.32145
G1 X108.356 Y101.845 E5.36758
G1 X108.959 Y102.308 E5.41836
G1 X109.600 Y102.564 E5.46449
G1 X110.321 Y102.659 E5.51306
G1 X120.165 Y102.661 E6.17069
G1 X120.949 Y103.938 E6.27078
G1 X120.068 Y105.674 E6.40082
G1 X119.346 Y106.771 E6.48860
G1 X118.502 Y107.778 E6.57636
G1 X117.547 Y108.680 E6.66413
G1 X116.494 Y109.466 E6.75190
G1 X115.357 Y110.124 E6.83967
G1 X114.152 Y110.647 E6.92744
G1 X112.894 Y111.027 E7.01520
G1 X111.524 Y111.267 E7.10815
G1 X90.283 Y112.339 E8.52895
G1 X88.893 Y112.264 E8.62193
G1 X87.587 Y112.048 E8.71036
G1 X86.312 Y111.694 E8.79878
G1 X85.082 Y111.204 E8.88720
G1 X83.912 Y110.586 E8.97563
G1 X82.814 Y109.846 E9.06406
G1 X81.802 Y108.993 E9.15249
G1 X80.887 Y108.036 E9.24092
G1 X80.080 Y106.987 E9.32934
G1 X79.032 Y105.282 E9.46305
G1 X79.799 Y103.911 E9.56800
G1 X90.145 Y103.911 E10.25920
G1 X91.225 Y103.771 E10.33191
G1 X92.168 Y103.391 E10.39984
G1 X93.029 Y102.729 E10.47241
G1 X93.606 Y101.978 E10.53569
G1 X94.004 Y101.042 E10.60361
G1 X94.145 Y99.965 E10.67619
G1 X94.022 Y99.026 E10.73946
G1 X93.641 Y98.083 E10.80739
G1 X92.980 Y97.221 E10.87996
G1 X92.168 Y96.609 E10.94789
G1 X91.225 Y96.229 E11.01581
G1 X90.145 Y96.089 E11.08853
G1 X79.799 Y96.089 E11.77973
G1 X79.061 Y94.770 E11.88067
G1 X79.653 Y94.731 F7800.000
G1 X80.529 Y93.306 E11.99242 F1260.000
G1 X81.302 Y92.303 E12.07701
G1 X82.178 Y91.389 E12.16160
G1 X83.182 Y90.547 E12.24907
G1 X84.235 Y89.845 E12.33366
G1 X85.357 Y89.259 E12.41825
G1 X86.536 Y88.796 E12.50283
G1 X87.715 Y88.472 E12.58455
G1 X88.965 Y88.267 E12.66913
G1 X90.270 Y88.197 E12.75645
G1 X110.292 Y89.198 E14.09573
G1 X111.523 Y89.272 E14.17812
G1 X112.710 Y89.480 E14.25863
G1 X113.911 Y89.835 E14.34225
G1 X115.062 Y90.327 E14.42587
G1 X116.148 Y90.948 E14.50949
G1 X117.192 Y91.721 E14.59622
G1 X118.103 Y92.580 E14.67985
G1 X118.908 Y93.538 E14.76347
G1 X119.598 Y94.582 E14.84709
G1 X120.336 Y96.037 E14.95607
G1 X119.865 Y96.803 E15.01613
G1 X110.321 Y96.803 E15.65375
G1 X109.460 Y96.914 E15.71172
G1 X108.688 Y97.224 E15.76727
G1 X107.974 Y97.773 E15.82746
G1 X107.475 Y98.438 E15.88301
G1 X107.183 Y99.142 E15.93391
G1 X107.066 Y100.035 E15.99411
G1 X107.183 Y100.858 E16.04965
G1 X107.475 Y101.562 E16.10055
G1 X107.974 Y102.227 E16.15610
G1 X108.628 Y102.741 E16.21165
G1 X109.460 Y103.086 E16.27184
G1 X110.321 Y103.197 E16.32982
G1 X119.865 Y103.197 E16.96744
G1 X120.336 Y103.963 E17.02749
G1 X119.598 Y105.418 E17.13648
G1 X118.908 Y106.462 E17.22010
G1 X118.103 Y107.420 E17.30372
G1 X117.192 Y108.279 E17.38734
G1 X116.187 Y109.026 E17.47096
G1 X115.103 Y109.652 E17.55459
G1 X113.954 Y110.149 E17.63821
G1 X112.710 Y110.520 E17.72494
G1 X111.523 Y110.728 E17.80545
G1 X110.296 Y110.802 E17.88762
G1 X90.270 Y111.803 E19.22711
G1 X88.965 Y111.733 E19.31443
G1 X87.715 Y111.528 E19.39902
G1 X86.495 Y111.190 E19.48361
G1 X85.318 Y110.723 E19.56819
G1 X84.198 Y110.133 E19.65278
G1 X83.147 Y109.427 E19.73737
G1 X82.178 Y108.611 E19.82196
G1 X81.302 Y107.697 E19.90655
G1 X80.529 Y106.694 E19.99114
G1 X79.653 Y105.269 E20.10290
G1 X80.113 Y104.447 E20.16586
G1 X90.180 Y104.447 E20.83842
G1 X91.365 Y104.293 E20.91819
G1 X92.438 Y103.858 E20.99554
G1 X93.411 Y103.111 E21.07753
G1 X94.074 Y102.248 E21.15023
G1 X94.525 Y101.182 E21.22758
G1 X94.686 Y99.965 E21.30957
G1 X94.544 Y98.886 E21.38227
G1 X94.109 Y97.813 E21.45962
G1 X93.362 Y96.839 E21.54161
G1 X92.438 Y96.142 E21.61896
G1 X91.365 Y95.707 E21.69631
G1 X90.180 Y95.553 E21.77608
G1 X80.113 Y95.553 E22.44863
G1 X79.682 Y94.783 E22.50759
G1 X80.274 Y94.744 F7800.000
G1 X80.978 Y93.598 E22.59740 F1260.000
G1 X81.717 Y92.642 E22.67815
G1 X82.554 Y91.770 E22.75890
G1 X83.492 Y90.984 E22.84061
G1 X84.496 Y90.312 E22.92136
G1 X85.567 Y89.752 E23.00211
G1 X86.678 Y89.313 E23.08190
G1 X87.815 Y89.000 E23.16069
G1 X89.036 Y88.798 E23.24339
G1 X90.257 Y88.732 E23.32505
G1 X110.264 Y89.733 E24.66333
G1 X111.446 Y89.802 E24.74239
G1 X112.602 Y90.005 E24.82083
G1 X113.743 Y90.344 E24.90031
G1 X114.836 Y90.813 E24.97978
G1 X115.881 Y91.414 E25.06029
G1 X116.836 Y92.122 E25.13977
G1 X117.703 Y92.937 E25.21924
G1 X118.470 Y93.847 E25.29872
G1 X119.127 Y94.839 E25.37820
G1 X119.722 Y96.012 E25.46613
G1 X119.566 Y96.268 E25.48614
G1 X110.251 Y96.270 E26.10843
G1 X109.320 Y96.393 E26.17112
G1 X108.418 Y96.756 E26.23609
G1 X107.592 Y97.391 E26.30571
G1 X107.042 Y98.107 E26.36602
G1 X106.661 Y99.002 E26.43099
G1 X106.525 Y100.035 E26.50061
G1 X106.643 Y100.930 E26.56093
G1 X107.007 Y101.832 E26.62590
G1 X107.592 Y102.609 E26.69087
G1 X108.358 Y103.209 E26.75584
G1 X109.320 Y103.607 E26.82546
G1 X110.286 Y103.732 E26.89049
G1 X119.566 Y103.732 E27.51043
G1 X119.722 Y103.988 E27.53045
G1 X119.127 Y105.161 E27.61838
G1 X118.470 Y106.153 E27.69786
G1 X117.703 Y107.063 E27.77733
G1 X116.836 Y107.878 E27.85681
G1 X115.881 Y108.586 E27.93628
G1 X114.836 Y109.187 E28.01679
G1 X113.743 Y109.656 E28.09627
G1 X112.602 Y109.995 E28.17575
G1 X111.446 Y110.198 E28.25419
G1 X110.266 Y110.267 E28.33318
G1 X90.257 Y111.268 E29.67153
G1 X89.051 Y111.204 E29.75223
G1 X87.843 Y111.008 E29.83394
G1 X86.678 Y110.687 E29.91469
G1 X85.554 Y110.242 E29.99544
G1 X84.484 Y109.680 E30.07619
G1 X83.480 Y109.007 E30.15694
G1 X82.554 Y108.230 E30.23769
G1 X81.717 Y107.358 E30.31844
G1 X80.978 Y106.402 E30.39919
G1 X80.274 Y105.256 E30.48899
G1 X80.427 Y104.982 E30.50998
G1 X90.250 Y104.980 E31.16623
G1 X91.504 Y104.815 E31.25072
G1 X92.708 Y104.326 E31.33749
G1 X93.793 Y103.493 E31.42891
G1 X94.542 Y102.518 E31.51102
G1 X95.047 Y101.322 E31.59779
G1 X95.226 Y99.965 E31.68921
G1 X95.065 Y98.746 E31.77133
G1 X94.577 Y97.543 E31.85810
G1 X93.744 Y96.457 E31.94951
G1 X92.708 Y95.674 E32.03628
G1 X91.504 Y95.185 E32.12305
G1 X90.215 Y95.018 E32.20988
G1 X80.427 Y95.018 E32.86379
G1 X80.303 Y94.796 E32.88077
G1 E31.88077 F2400.00000
G92 E0
G1 X118.927 Y104.300 F7800.000
G1 E1.00000 F2400.00000
G1 X118.632 Y104.882 E1.04360 F315.000
G1 X118.011 Y105.819 E1.11868
G1 X117.286 Y106.677 E1.19375
G1 X116.466 Y107.446 E1.26883
G1 X115.563 Y108.115 E1.34391
G1 X114.589 Y108.675 E1.41898
G1 X113.556 Y109.119 E1.49406
G1 X112.479 Y109.440 E1.56914
G1 X111.374 Y109.634 E1.64414
G1 X90.251 Y110.700 E3.05703
G1 X89.104 Y110.638 E3.13374
G1 X87.972 Y110.454 E3.21042
G1 X86.865 Y110.150 E3.28710
G1 X85.797 Y109.729 E3.36378
G1 X84.781 Y109.196 E3.44045
G1 X83.827 Y108.557 E3.51713
G1 X82.947 Y107.819 E3.59381
G1 X82.152 Y106.992 E3.67049
G1 X81.449 Y106.084 E3.74716
G1 X81.121 Y105.550 E3.78907
G1 X90.270 Y105.550 E4.40030
G1 X91.688 Y105.363 E4.49581
G1 X93.027 Y104.809 E4.59265
G1 X94.177 Y103.926 E4.68948
G1 X95.059 Y102.776 E4.78632
G1 X95.614 Y101.437 E4.88315
G1 X95.803 Y100.000 E4.97999
G1 X95.614 Y98.563 E5.07682
G1 X95.059 Y97.224 E5.17366
G1 X94.177 Y96.074 E5.27050
G1 X93.027 Y95.191 E5.36733
G1 X91.688 Y94.637 E5.46417
G1 X90.270 Y94.450 E5.55968
G1 X81.121 Y94.450 E6.17090
G1 X81.449 Y93.916 E6.21281
G1 X82.152 Y93.008 E6.28949
G1 X82.947 Y92.181 E6.36617
G1 X83.827 Y91.443 E6.44285
G1 X84.781 Y90.804 E6.51952
G1 X85.797 Y90.271 E6.59620
G1 X86.844 Y89.858 E6.67142
G1 X87.972 Y89.546 E6.74957
G1 X89.104 Y89.362 E6.82623
G1 X90.251 Y89.300 E6.90294
G1 X111.374 Y90.366 E8.31583
G1 X112.479 Y90.560 E8.39083
G1 X113.556 Y90.881 E8.46591
G1 X114.589 Y91.325 E8.54099
G1 X115.563 Y91.885 E8.61606
G1 X116.466 Y92.554 E8.69114
G1 X117.286 Y93.323 E8.76622
G1 X118.011 Y94.181 E8.84129
G1 X118.632 Y95.118 E8.91637
G1 X118.927 Y95.700 E8.95997
G1 X110.231 Y95.700 E9.54092
G1 X109.137 Y95.844 E9.61463
G1 X108.099 Y96.274 E9.68967
G1 X107.208 Y96.958 E9.76471
G1 X106.524 Y97.849 E9.83979
G1 X106.092 Y98.907 E9.91609
G1 X105.948 Y100.000 E9.98977
G1 X106.095 Y101.114 E10.06481
G1 X106.524 Y102.151 E10.13984
G1 X107.208 Y103.042 E10.21488
G1 X108.099 Y103.726 E10.28991
G1 X109.137 Y104.156 E10.36495
G1 X110.231 Y104.300 E10.43866
G1 X118.867 Y104.300 E11.01561
G1 X118.630 Y104.568 F7800.000
G1 X118.020 Y104.836 F7800.000
G1 X117.582 Y105.497 E11.06861 F630.000
G1 X116.897 Y106.308 E11.13953
G1 X116.122 Y107.034 E11.21045
G1 X115.269 Y107.666 E11.28138
G1 X114.349 Y108.195 E11.35230
G1 X113.373 Y108.614 E11.42323
G1 X112.356 Y108.918 E11.49415
G1 X111.314 Y109.101 E11.56486
G1 X92.130 Y110.069 E12.84804
G1 X92.046 Y109.852 E12.86353
G1 X92.140 Y109.775 E12.87169
G1 X92.522 Y109.249 E12.91510
G1 X92.761 Y108.645 E12.95851
G1 X92.843 Y108.000 E13.00192
G1 X92.761 Y107.355 E13.04533
G1 X92.522 Y106.751 E13.08874
G1 X92.140 Y106.225 E13.13214
G1 X91.762 Y105.912 E13.16495
G1 X93.297 Y105.277 E13.27596
G1 X94.559 Y104.308 E13.38222
G1 X95.527 Y103.046 E13.48847
G1 X96.156 Y101.527 E13.59834
G1 X96.598 Y101.997 E13.64145
G1 X97.147 Y102.346 E13.68486
G1 X97.765 Y102.546 E13.72827
G1 X98.413 Y102.587 E13.77168
G1 X99.052 Y102.465 E13.81509
G1 X99.640 Y102.189 E13.85850
G1 X100.140 Y101.775 E13.90191
G1 X100.522 Y101.249 E13.94532
G1 X100.761 Y100.645 E13.98873
G1 X100.843 Y100.000 E14.03214
G1 X100.761 Y99.355 E14.07555
G1 X100.522 Y98.751 E14.11896
G1 X100.140 Y98.225 E14.16237
G1 X99.640 Y97.811 E14.20578
G1 X99.052 Y97.535 E14.24919
G1 X98.413 Y97.413 E14.29260
G1 X97.775 Y97.453 E14.33533
G1 X97.148 Y97.653 E14.37927
G1 X96.598 Y98.003 E14.42281
G1 X96.156 Y98.473 E14.46592
G1 X95.527 Y96.954 E14.57579
G1 X94.559 Y95.692 E14.68204
