; Generated with MatterSlice 1.0
; filamentDiameter = 1.75
; extrusionWidth = 0.3
; firstLayerExtrusionWidth = 0.3
; layerThickness = 0.2
; firstLayerThickness = 0.25
; automatic settings before start_gcode
G21 ; set units to millimeters
M107 ; fan off
M190 S75 ; wait for bed temperature to be reached
M104 T0 S210 ; start heating extruder 1
T0 ; set the active extruder to 0
; settings from start_gcode
G28 ; home all axes
G1 Z5 F5000 ; lift nozzle
; automatic settings after start_gcode
M109 T0 S210 ; wait for extruder 1 to reach temperature
T0 ; set the active extruder to 0
G90 ; use absolute coordinates
G92 E0 ; reset the expected extruder position
M82 ; use absolute distance for extrusion
; Layer count: 40
; Layer Change GCode
; LAYER:0
G4 P0
M107
G0 F7800 X164.45 Y146.45 Z0.25
; TYPE:SKIRT
G1 F1800 E0
G1 F720 X35.55 Y146.45 E4.01928
G1 X35.55 Y53.55 E6.91603
G1 X164.45 Y53.55 E10.93531
G1 X164.45 Y146.45 E13.83206
G0 F7800 X164.15 Y146.15
G1 F720 X35.85 Y146.15 E17.83263
G1 X35.85 Y53.85 E20.71067
G1 X164.15 Y53.85 E24.71124
G1 X164.15 Y146.15 E27.58928
G1 F1800 E26.58928
G0 F7800 X42.15 Y139.85
; TYPE:WALL-OUTER
G1 F1800 E27.58928
G1 F720 X42.15 Y60.15 E30.07444
G1 X157.85 Y60.15 E33.68212
G1 X157.85 Y139.85 E36.16728
G1 X42.15 Y139.85 E39.77496
G0 F7800 X42.45 Y139.55
; TYPE:WALL-INNER
G1 F720 X42.45 Y60.45 E42.24141
G1 X157.55 Y60.45 E45.83039
G1 X157.55 Y139.55 E48.29683
G1 X42.45 Y139.55 E51.88581
G0 F7800 X42.75 Y139.25
G1 F720 X42.75 Y60.75 E54.33355
G1 X157.25 Y60.75 E57.90382
G1 X157.25 Y139.25 E60.35155
G1 X42.75 Y139.25 E63.92182
G0 F7800 X51.87 Y132.645
G0 X51.87 Y132.645
G0 X51.898 Y132.397
; TYPE:WALL-OUTER
G1 F720 X52.272 Y132.385 E63.93349
G1 X52.64 Y132.313 E63.94518
G1 X52.975 Y132.193 E63.95628
G1 X53.305 Y132.014 E63.96798
G1 X53.588 Y131.799 E63.97907
G1 X53.849 Y131.53 E63.99075
G1 X54.065 Y131.224 E64.00243
G1 X54.222 Y130.905 E64.01352
G1 X54.337 Y130.548 E64.02521
G1 X54.394 Y130.178 E64.03689
G1 X54.394 Y129.821 E64.04802
G1 X54.338 Y129.452 E64.05966
G1 X54.23 Y129.111 E64.07081
G1 X54.065 Y128.775 E64.08248
G1 X53.849 Y128.469 E64.09416
G1 X53.602 Y128.212 E64.10528
G1 X53.305 Y127.985 E64.11693
G1 X52.992 Y127.814 E64.12805
G1 X52.64 Y127.686 E64.13973
G1 X52.272 Y127.615 E64.15142
G1 X51.915 Y127.601 E64.16256
G1 X51.543 Y127.643 E64.17423
G1 X51.201 Y127.737 E64.18529
G1 X50.859 Y127.889 E64.19696
G1 X50.543 Y128.092 E64.20867
G1 X50.277 Y128.33 E64.2198
G1 X50.038 Y128.617 E64.23145
G1 X49.847 Y128.939 E64.24312
G1 X49.714 Y129.271 E64.25427
G1 X49.628 Y129.635 E64.26594
G1 X49.601 Y129.991 E64.27707
G1 X49.628 Y130.364 E64.28873
G1 X49.714 Y130.728 E64.30039
G1 X49.847 Y131.06 E64.31154
G1 X50.038 Y131.381 E64.32319
G1 X50.264 Y131.657 E64.33431
G1 X50.543 Y131.907 E64.346
G1 X50.858 Y132.11 E64.35768
G1 X51.183 Y132.256 E64.36879
G1 X51.543 Y132.356 E64.38044
G1 X51.898 Y132.397 E64.39158
G0 F7800 X51.885 Y132.698
; TYPE:WALL-INNER
G1 F720 X52.306 Y132.684 E64.40472
G1 X52.719 Y132.603 E64.41784
G1 X53.098 Y132.468 E64.43039
G1 X53.468 Y132.267 E64.44352
G1 X53.787 Y132.024 E64.45602
G1 X54.08 Y131.723 E64.46912
G1 X54.324 Y131.378 E64.48229
G1 X54.501 Y131.018 E64.4948
G1 X54.63 Y130.617 E64.50794
G1 X54.694 Y130.201 E64.52106
G1 X54.694 Y129.798 E64.53363
G1 X54.631 Y129.383 E64.54672
G1 X54.509 Y128.999 E64.55928
G1 X54.324 Y128.622 E64.57237
G1 X54.081 Y128.278 E64.58551
G1 X53.803 Y127.987 E64.59806
G1 X53.469 Y127.732 E64.61116
G1 X53.116 Y127.54 E64.62369
G1 X52.721 Y127.396 E64.6368
G1 X52.307 Y127.316 E64.64995
G1 X51.904 Y127.3 E64.66252
G1 X51.486 Y127.348 E64.67564
G1 X51.1 Y127.454 E64.68812
G1 X50.716 Y127.624 E64.70122
G1 X50.361 Y127.853 E64.71439
G1 X50.06 Y128.121 E64.72696
G1 X49.792 Y128.444 E64.74004
G1 X49.577 Y128.806 E64.75317
G1 X49.427 Y129.18 E64.76574
G1 X49.331 Y129.589 E64.77884
G1 X49.3 Y129.99 E64.79138
G1 X49.331 Y130.409 E64.80448
G1 X49.427 Y130.819 E64.81761
G1 X49.577 Y131.193 E64.83017
G1 X49.791 Y131.554 E64.84326
G1 X50.047 Y131.865 E64.85582
G1 X50.36 Y132.146 E64.86894
G1 X50.715 Y132.375 E64.88211
G1 X51.081 Y132.539 E64.89461
G1 X51.485 Y132.651 E64.90769
G1 X51.885 Y132.698 E64.92024
G0 F7800 X51.873 Y132.999
G1 F720 X52.34 Y132.983 E64.93481
G1 X52.799 Y132.893 E64.9494
G1 X53.221 Y132.743 E64.96336
G1 X53.632 Y132.519 E64.97796
G1 X53.987 Y132.249 E64.99187
G1 X54.312 Y131.915 E65.0064
G1 X54.582 Y131.532 E65.02101
G1 X54.78 Y131.131 E65.03496
G1 X54.923 Y130.686 E65.04953
G1 X54.994 Y130.224 E65.0641
G1 X54.994 Y129.775 E65.07811
G1 X54.924 Y129.315 E65.09261
G1 X54.788 Y128.888 E65.10659
G1 X54.583 Y128.468 E65.12116
G1 X54.313 Y128.086 E65.13575
G1 X54.003 Y127.763 E65.14971
G1 X53.633 Y127.48 E65.16423
G1 X53.24 Y127.266 E65.17818
G1 X52.801 Y127.106 E65.19275
G1 X52.342 Y127.017 E65.20733
G1 X51.893 Y126.999 E65.22134
G1 X51.429 Y127.052 E65.23591
G1 X50.999 Y127.17 E65.24981
G1 X50.573 Y127.359 E65.26434
G1 X50.178 Y127.613 E65.27899
G1 X49.844 Y127.912 E65.29296
G1 X49.546 Y128.271 E65.30751
G1 X49.308 Y128.673 E65.32208
G1 X49.14 Y129.089 E65.33607
G1 X49.034 Y129.543 E65.3506
G1 X48.999 Y129.99 E65.36459
G1 X49.033 Y130.455 E65.37912
G1 X49.14 Y130.91 E65.3937
G1 X49.308 Y131.326 E65.40769
G1 X49.545 Y131.727 E65.42221
G1 X49.83 Y132.073 E65.43619
G1 X50.178 Y132.385 E65.45076
G1 X50.571 Y132.639 E65.46535
G1 X50.979 Y132.822 E65.4793
G1 X51.427 Y132.946 E65.49379
G1 X51.873 Y132.999 E65.5078
G0 F7800 X52.172 Y132.676
G0 X52.731 Y132.65
G0 X53.118 Y132.513
G0 X53.495 Y132.308
G0 X53.82 Y132.06
G0 X54.117 Y131.753
G0 X54.366 Y131.403
G0 X54.547 Y131.036
G0 X54.678 Y130.627
G0 X54.743 Y130.205
G0 X54.679 Y129.982
G0 X61.972 Y122.148
G0 X61.972 Y122.148
G0 X61.998 Y121.9
; TYPE:WALL-OUTER
G1 F720 X62.201 Y121.889 E65.51414
G1 X62.583 Y121.808 E65.52631
G1 X62.78 Y121.732 E65.5329
G1 X63.116 Y121.538 E65.54499
G1 X63.412 Y121.271 E65.55742
G1 X63.643 Y120.954 E65.56965
G1 X63.739 Y120.764 E65.57629
G1 X63.858 Y120.395 E65.58838
G1 X63.901 Y120 E65.60077
G1 X63.858 Y119.603 E65.61322
G1 X63.735 Y119.224 E65.62565
G1 X63.535 Y118.879 E65.63808
G1 X63.267 Y118.584 E65.65051
G1 X62.952 Y118.354 E65.66267
G1 X62.587 Y118.192 E65.67512
G1 X62.197 Y118.109 E65.68756
G1 X61.804 Y118.109 E65.69981
G1 X61.603 Y118.142 E65.70616
G1 X61.227 Y118.263 E65.71848
G1 X60.882 Y118.463 E65.73091
G1 X60.586 Y118.73 E65.74334
G1 X60.352 Y119.054 E65.7558
G1 X60.195 Y119.407 E65.76785
G1 X60.141 Y119.611 E65.77443
G1 X60.1 Y119.999 E65.7866
G1 X60.111 Y120.203 E65.79297
G1 X60.194 Y120.589 E65.80528
G1 X60.357 Y120.953 E65.81771
G1 X60.591 Y121.274 E65.8301
G1 X60.882 Y121.536 E65.84231
G1 X61.227 Y121.736 E65.85474
G1 X61.607 Y121.858 E65.86719
G1 X61.998 Y121.9 E65.87945
G0 F7800 X61.991 Y122.201
; TYPE:WALL-INNER
G1 F720 X62.24 Y122.187 E65.88723
G1 X62.669 Y122.097 E65.90089
G1 X62.91 Y122.003 E65.90896
G1 X63.293 Y121.782 E65.92275
G1 X63.636 Y121.473 E65.93714
G1 X63.9 Y121.111 E65.95111
G1 X64.017 Y120.879 E65.95922
G1 X64.153 Y120.458 E65.97301
G1 X64.203 Y120 E65.98738
G1 X64.153 Y119.54 E66.00181
G1 X64.01 Y119.101 E66.0162
G1 X63.778 Y118.701 E66.03062
G1 X63.468 Y118.359 E66.04501
G1 X63.103 Y118.093 E66.0591
G1 X62.68 Y117.905 E66.07353
G1 X62.228 Y117.809 E66.08794
G1 X61.78 Y117.809 E66.10191
G1 X61.532 Y117.849 E66.10974
G1 X61.104 Y117.988 E66.12377
G1 X60.705 Y118.219 E66.13815
G1 X60.361 Y118.529 E66.15259
G1 X60.091 Y118.903 E66.16697
G1 X59.911 Y119.307 E66.18076
G1 X59.845 Y119.556 E66.18879
G1 X59.799 Y119.992 E66.20247
G1 X59.813 Y120.243 E66.2103
G1 X59.907 Y120.683 E66.22433
G1 X60.096 Y121.104 E66.23872
G1 X60.367 Y121.476 E66.25307
G1 X60.705 Y121.78 E66.26725
G1 X61.104 Y122.011 E66.28162
G1 X61.544 Y122.153 E66.29604
G1 X61.991 Y122.201 E66.31006
G0 F7800 X61.983 Y122.502
G1 F720 X62.28 Y122.486 E66.31933
G1 X62.755 Y122.385 E66.33448
G1 X63.04 Y122.274 E66.34401
G1 X63.47 Y122.026 E66.35949
G1 X63.86 Y121.675 E66.37585
G1 X64.157 Y121.268 E66.39156
G1 X64.296 Y120.993 E66.40117
G1 X64.448 Y120.521 E66.41663
G1 X64.504 Y120 E66.43297
G1 X64.448 Y119.477 E66.44937
G1 X64.286 Y118.978 E66.46573
G1 X64.022 Y118.523 E66.48213
G1 X63.669 Y118.135 E66.49849
G1 X63.254 Y117.832 E66.51451
G1 X62.773 Y117.618 E66.53093
G1 X62.26 Y117.509 E66.54728
G1 X61.755 Y117.509 E66.56303
G1 X61.461 Y117.557 E66.57232
G1 X60.981 Y117.712 E66.58804
G1 X60.527 Y117.976 E66.60442
G1 X60.137 Y118.327 E66.62078
G1 X59.829 Y118.753 E66.63717
G1 X59.627 Y119.207 E66.65267
G1 X59.549 Y119.501 E66.66215
G1 X59.498 Y119.984 E66.6773
G1 X59.514 Y120.283 E66.68663
G1 X59.62 Y120.776 E66.70236
G1 X59.835 Y121.255 E66.71873
G1 X60.143 Y121.678 E66.73504
G1 X60.527 Y122.024 E66.75116
G1 X60.981 Y122.287 E66.76752
G1 X61.481 Y122.448 E66.7839
G1 X61.983 Y122.502 E66.79964
G0 F7800 X92.784 Y122.171
G0 X93.184 Y122.167
G0 X94.972 Y122.148
G0 X94.972 Y122.148
G0 X94.998 Y121.9
; TYPE:WALL-OUTER
G1 F720 X95.201 Y121.889 E66.80598
G1 X95.583 Y121.808 E66.81816
G1 X95.78 Y121.732 E66.82474
G1 X96.116 Y121.538 E66.83684
G1 X96.412 Y121.271 E66.84927
G1 X96.643 Y120.954 E66.8615
G1 X96.739 Y120.764 E66.86814
G1 X96.858 Y120.395 E66.88023
G1 X96.901 Y120 E66.89262
G1 X96.858 Y119.603 E66.90507
G1 X96.735 Y119.224 E66.91749
G1 X96.535 Y118.879 E66.92993
G1 X96.267 Y118.584 E66.94235
G1 X95.952 Y118.354 E66.95452
G1 X95.587 Y118.192 E66.96697
G1 X95.197 Y118.109 E66.9794
G1 X94.803 Y118.109 E66.99169
G1 X94.602 Y118.142 E66.99804
G1 X94.226 Y118.263 E67.01035
G1 X93.881 Y118.463 E67.02279
G1 X93.585 Y118.73 E67.03522
G1 X93.351 Y119.054 E67.04768
G1 X93.193 Y119.41 E67.05983
G1 X93.109 Y119.8 E67.07227
G1 X93.109 Y120.199 E67.08471
G1 X93.193 Y120.589 E67.09715
G1 X93.356 Y120.953 E67.10958
G1 X93.59 Y121.274 E67.12197
G1 X93.881 Y121.536 E67.13418
G1 X94.226 Y121.736 E67.14661
G1 X94.606 Y121.859 E67.15907
G1 X94.998 Y121.9 E67.17136
G0 F7800 X94.991 Y122.201
; TYPE:WALL-INNER
G1 F720 X95.24 Y122.187 E67.17913
G1 X95.669 Y122.097 E67.1928
G1 X95.91 Y122.003 E67.20087
G1 X96.293 Y121.782 E67.21466
G1 X96.636 Y121.473 E67.22905
G1 X96.9 Y121.111 E67.24302
G1 X97.017 Y120.879 E67.25112
G1 X97.153 Y120.458 E67.26492
G1 X97.203 Y120 E67.27928
G1 X97.153 Y119.54 E67.29371
G1 X97.01 Y119.101 E67.30811
G1 X96.778 Y118.701 E67.32253
G1 X96.468 Y118.359 E67.33692
G1 X96.103 Y118.093 E67.351
G1 X95.68 Y117.905 E67.36544
G1 X95.228 Y117.809 E67.37985
G1 X94.779 Y117.809 E67.39385
G1 X94.531 Y117.849 E67.40168
G1 X94.103 Y117.988 E67.41571
G1 X93.704 Y118.219 E67.43009
G1 X93.36 Y118.529 E67.44453
G1 X93.09 Y118.903 E67.45891
G1 X92.906 Y119.317 E67.47304
G1 X92.809 Y119.768 E67.48742
G1 X92.809 Y120.231 E67.50186
G1 X92.906 Y120.683 E67.51627
G1 X93.095 Y121.104 E67.53066
G1 X93.366 Y121.476 E67.54501
G1 X93.704 Y121.78 E67.55919
G1 X94.103 Y122.011 E67.57356
G1 X94.543 Y122.154 E67.58799
G1 X94.991 Y122.201 E67.60204
G0 F7800 X94.983 Y122.502
G1 F720 X95.28 Y122.486 E67.61131
G1 X95.755 Y122.385 E67.62645
G1 X96.04 Y122.274 E67.63599
G1 X96.47 Y122.026 E67.65147
G1 X96.86 Y121.675 E67.66783
G1 X97.157 Y121.268 E67.68354
G1 X97.296 Y120.993 E67.69315
G1 X97.448 Y120.521 E67.70861
G1 X97.504 Y120 E67.72495
G1 X97.448 Y119.477 E67.74135
G1 X97.286 Y118.978 E67.75771
G1 X97.022 Y118.523 E67.77411
G1 X96.669 Y118.135 E67.79047
G1 X96.254 Y117.832 E67.80649
G1 X95.773 Y117.618 E67.8229
G1 X95.26 Y117.509 E67.83926
G1 X94.754 Y117.509 E67.85504
G1 X94.46 Y117.557 E67.86432
G1 X93.98 Y117.712 E67.88005
G1 X93.526 Y117.976 E67.89643
G1 X93.136 Y118.327 E67.91279
G1 X92.828 Y118.753 E67.92918
G1 X92.619 Y119.223 E67.94522
G1 X92.509 Y119.736 E67.96158
G1 X92.509 Y120.263 E67.97801
G1 X92.619 Y120.776 E67.99437
G1 X92.834 Y121.255 E68.01074
G1 X93.142 Y121.678 E68.02706
G1 X93.526 Y122.024 E68.04318
G1 X93.98 Y122.287 E68.05954
G1 X94.48 Y122.449 E68.07592
G1 X94.983 Y122.502 E68.09169
G0 F7800 X99.296 Y122.348
G0 X99.696 Y122.334
G0 X104.972 Y122.148
G0 X104.972 Y122.148
G0 X104.998 Y121.9
; TYPE:WALL-OUTER
G1 F720 X105.201 Y121.889 E68.09803
G1 X105.583 Y121.808 E68.11021
G1 X105.78 Y121.732 E68.11679
G1 X106.116 Y121.538 E68.12889
G1 X106.412 Y121.271 E68.14132
G1 X106.643 Y120.954 E68.15355
G1 X106.739 Y120.764 E68.16019
G1 X106.858 Y120.395 E68.17228
G1 X106.901 Y120 E68.18467
G1 X106.858 Y119.603 E68.19712
G1 X106.735 Y119.224 E68.20954
G1 X106.535 Y118.879 E68.22198
G1 X106.267 Y118.584 E68.23441
G1 X105.952 Y118.354 E68.24657
G1 X105.587 Y118.192 E68.25902
G1 X105.197 Y118.109 E68.27145
G1 X104.803 Y118.109 E68.28374
G1 X104.602 Y118.142 E68.29009
G1 X104.226 Y118.263 E68.30241
G1 X103.881 Y118.463 E68.31484
G1 X103.585 Y118.73 E68.32727
G1 X103.351 Y119.054 E68.33973
G1 X103.193 Y119.41 E68.35188
G1 X103.109 Y119.8 E68.36432
G1 X103.109 Y120.199 E68.37676
G1 X103.193 Y120.589 E68.3892
G1 X103.356 Y120.953 E68.40163
G1 X103.59 Y121.274 E68.41402
G1 X103.881 Y121.536 E68.42623
G1 X104.226 Y121.736 E68.43866
G1 X104.606 Y121.859 E68.45112
G1 X104.998 Y121.9 E68.46341
G0 F7800 X104.991 Y122.201
; TYPE:WALL-INNER
G1 F720 X105.24 Y122.187 E68.47119
G1 X105.669 Y122.097 E68.48485
G1 X105.91 Y122.003 E68.49292
G1 X106.293 Y121.782 E68.50671
G1 X106.636 Y121.473 E68.5211
G1 X106.9 Y121.111 E68.53507
G1 X107.017 Y120.879 E68.54318
G1 X107.153 Y120.458 E68.55697
G1 X107.203 Y120 E68.57134
G1 X107.153 Y119.54 E68.58576
G1 X107.01 Y119.101 E68.60016
G1 X106.778 Y118.701 E68.61458
G1 X106.468 Y118.359 E68.62897
G1 X106.103 Y118.093 E68.64306
G1 X105.68 Y117.905 E68.65749
G1 X105.228 Y117.809 E68.6719
G1 X104.779 Y117.809 E68.6859
G1 X104.531 Y117.849 E68.69373
G1 X104.103 Y117.988 E68.70776
G1 X103.704 Y118.219 E68.72214
G1 X103.36 Y118.529 E68.73658
G1 X103.09 Y118.903 E68.75096
G1 X102.906 Y119.317 E68.76509
G1 X102.809 Y119.768 E68.77947
G1 X102.809 Y120.231 E68.79391
G1 X102.906 Y120.683 E68.80832
G1 X103.095 Y121.104 E68.82271
G1 X103.366 Y121.476 E68.83706
G1 X103.704 Y121.78 E68.85124
G1 X104.103 Y122.011 E68.86562
G1 X104.543 Y122.154 E68.88004
G1 X104.991 Y122.201 E68.89409
G0 F7800 X104.983 Y122.502
G1 F720 X105.28 Y122.486 E68.90336
G1 X105.755 Y122.385 E68.9185
G1 X106.04 Y122.274 E68.92804
G1 X106.47 Y122.026 E68.94352
G1 X106.86 Y121.675 E68.95988
G1 X107.157 Y121.268 E68.97559
G1 X107.296 Y120.993 E68.9852
G1 X107.448 Y120.521 E69.00066
G1 X107.504 Y120 E69.017
G1 X107.448 Y119.477 E69.0334
G1 X107.286 Y118.978 E69.04976
G1 X107.022 Y118.523 E69.06616
G1 X106.669 Y118.135 E69.08252
G1 X106.254 Y117.832 E69.09854
G1 X105.773 Y117.618 E69.11496
G1 X105.26 Y117.509 E69.13131
G1 X104.754 Y117.509 E69.14709
G1 X104.46 Y117.557 E69.15638
G1 X103.98 Y117.712 E69.1721
G1 X103.526 Y117.976 E69.18848
G1 X103.136 Y118.327 E69.20484
G1 X102.828 Y118.753 E69.22123
G1 X102.619 Y119.223 E69.23727
G1 X102.509 Y119.736 E69.25363
G1 X102.509 Y120.263 E69.27006
G1 X102.619 Y120.776 E69.28642
G1 X102.834 Y121.255 E69.30279
G1 X103.142 Y121.678 E69.31911
G1 X103.526 Y122.024 E69.33523
G1 X103.98 Y122.287 E69.35159
G1 X104.48 Y122.449 E69.36798
G1 X104.983 Y122.502 E69.38375
G0 F7800 X135.593 Y122.173
G0 X135.993 Y122.168
G0 X137.972 Y122.148
G0 X137.972 Y122.148
G0 X137.998 Y121.9
; TYPE:WALL-OUTER
G1 F720 X138.201 Y121.889 E69.39009
G1 X138.583 Y121.808 E69.40226
G1 X138.78 Y121.732 E69.40885
G1 X139.116 Y121.538 E69.42094
G1 X139.412 Y121.271 E69.43337
G1 X139.643 Y120.954 E69.4456
G1 X139.739 Y120.764 E69.45224
G1 X139.858 Y120.395 E69.46433
G1 X139.901 Y120 E69.47672
G1 X139.858 Y119.603 E69.48917
G1 X139.735 Y119.224 E69.5016
G1 X139.535 Y118.879 E69.51403
G1 X139.267 Y118.584 E69.52646
G1 X138.952 Y118.354 E69.53862
G1 X138.587 Y118.192 E69.55107
G1 X138.197 Y118.109 E69.56351
G1 X137.803 Y118.109 E69.57579
G1 X137.602 Y118.142 E69.58214
G1 X137.226 Y118.263 E69.59446
G1 X136.881 Y118.463 E69.60689
G1 X136.585 Y118.73 E69.61932
G1 X136.351 Y119.054 E69.63178
G1 X136.193 Y119.41 E69.64393
G1 X136.109 Y119.8 E69.65637
G1 X136.109 Y120.199 E69.66881
G1 X136.193 Y120.589 E69.68125
G1 X136.356 Y120.953 E69.69369
G1 X136.59 Y121.274 E69.70607
G1 X136.881 Y121.536 E69.71828
G1 X137.226 Y121.736 E69.73072
G1 X137.606 Y121.859 E69.74317
G1 X137.998 Y121.9 E69.75546
G0 F7800 X137.991 Y122.201
; TYPE:WALL-INNER
G1 F720 X138.24 Y122.187 E69.76324
G1 X138.669 Y122.097 E69.77691
G1 X138.91 Y122.003 E69.78497
G1 X139.293 Y121.782 E69.79876
G1 X139.636 Y121.473 E69.81315
G1 X139.9 Y121.111 E69.82712
G1 X140.017 Y120.879 E69.83523
G1 X140.153 Y120.458 E69.84902
G1 X140.203 Y120 E69.86339
G1 X140.153 Y119.54 E69.87782
G1 X140.01 Y119.101 E69.89221
G1 X139.778 Y118.701 E69.90663
G1 X139.468 Y118.359 E69.92102
G1 X139.103 Y118.093 E69.93511
G1 X138.68 Y117.905 E69.94954
G1 X138.228 Y117.809 E69.96395
G1 X137.779 Y117.809 E69.97795
G1 X137.531 Y117.849 E69.98578
G1 X137.103 Y117.988 E69.99981
G1 X136.704 Y118.219 E70.01419
G1 X136.36 Y118.529 E70.02863
G1 X136.09 Y118.903 E70.04301
G1 X135.906 Y119.317 E70.05714
G1 X135.809 Y119.768 E70.07152
G1 X135.809 Y120.231 E70.08596
G1 X135.906 Y120.683 E70.10038
G1 X136.095 Y121.104 E70.11477
G1 X136.366 Y121.476 E70.12912
G1 X136.704 Y121.78 E70.14329
G1 X137.103 Y122.011 E70.15767
G1 X137.543 Y122.154 E70.17209
G1 X137.991 Y122.201 E70.18614
G0 F7800 X137.983 Y122.502
G1 F720 X138.28 Y122.486 E70.19541
G1 X138.755 Y122.385 E70.21056
G1 X139.04 Y122.274 E70.22009
G1 X139.47 Y122.026 E70.23557
G1 X139.86 Y121.675 E70.25193
G1 X140.157 Y121.268 E70.26764
G1 X140.296 Y120.993 E70.27725
G1 X140.448 Y120.521 E70.29271
G1 X140.504 Y120 E70.30905
G1 X140.448 Y119.477 E70.32545
G1 X140.286 Y118.978 E70.34181
G1 X140.022 Y118.523 E70.35821
G1 X139.669 Y118.135 E70.37457
G1 X139.254 Y117.832 E70.39059
G1 X138.773 Y117.618 E70.40701
G1 X138.26 Y117.509 E70.42336
G1 X137.754 Y117.509 E70.43914
G1 X137.46 Y117.557 E70.44843
G1 X136.98 Y117.712 E70.46416
G1 X136.526 Y117.976 E70.48053
G1 X136.136 Y118.327 E70.49689
G1 X135.828 Y118.753 E70.51328
G1 X135.619 Y119.223 E70.52932
G1 X135.509 Y119.736 E70.54568
G1 X135.509 Y120.263 E70.56211
G1 X135.619 Y120.776 E70.57847
G1 X135.834 Y121.255 E70.59485
G1 X136.142 Y121.678 E70.61116
G1 X136.526 Y122.024 E70.62728
G1 X136.98 Y122.287 E70.64364
G1 X137.48 Y122.449 E70.66003
G1 X137.983 Y122.502 E70.6758
G0 F7800 X145.322 Y130.032
G0 X145.281 Y130.415
G0 X145.379 Y130.834
G0 X145.532 Y131.214
G0 X145.751 Y131.582
G0 X146.011 Y131.899
G0 X146.329 Y132.185
G0 X146.691 Y132.417
G0 X147.064 Y132.585
G0 X147.475 Y132.699
G0 X147.883 Y132.747
G0 X147.917 Y132.695
G0 X147.869 Y132.645
G0 X147.869 Y132.645
G0 X147.897 Y132.397
; TYPE:WALL-OUTER
G1 F720 X148.271 Y132.385 E70.68747
G1 X148.639 Y132.313 E70.69916
G1 X148.974 Y132.193 E70.71025
G1 X149.304 Y132.014 E70.72196
G1 X149.587 Y131.799 E70.73304
G1 X149.848 Y131.53 E70.74473
G1 X150.064 Y131.224 E70.75641
G1 X150.221 Y130.905 E70.7675
G1 X150.336 Y130.548 E70.77919
G1 X150.393 Y130.178 E70.79086
G1 X150.393 Y129.821 E70.802
G1 X150.337 Y129.452 E70.81363
G1 X150.229 Y129.111 E70.82479
G1 X150.064 Y128.775 E70.83646
G1 X149.848 Y128.469 E70.84814
G1 X149.601 Y128.212 E70.85925
G1 X149.304 Y127.985 E70.87091
G1 X148.991 Y127.814 E70.88203
G1 X148.639 Y127.686 E70.89371
G1 X148.271 Y127.615 E70.90539
G1 X147.914 Y127.601 E70.91654
G1 X147.542 Y127.643 E70.92821
G1 X147.2 Y127.737 E70.93927
G1 X146.858 Y127.889 E70.95094
G1 X146.542 Y128.092 E70.96265
G1 X146.276 Y128.33 E70.97378
G1 X146.037 Y128.617 E70.98542
G1 X145.846 Y128.939 E70.9971
G1 X145.713 Y129.271 E71.00825
G1 X145.627 Y129.635 E71.01991
G1 X145.601 Y129.991 E71.03104
G1 X145.627 Y130.364 E71.0427
G1 X145.713 Y130.728 E71.05436
G1 X145.846 Y131.06 E71.06552
G1 X146.037 Y131.381 E71.07716
G1 X146.263 Y131.657 E71.08829
G1 X146.542 Y131.907 E71.09997
G1 X146.857 Y132.11 E71.11165
G1 X147.182 Y132.256 E71.12276
G1 X147.542 Y132.356 E71.13441
G1 X147.897 Y132.397 E71.14556
G0 F7800 X147.884 Y132.698
; TYPE:WALL-INNER
G1 F720 X148.305 Y132.684 E71.15869
G1 X148.718 Y132.603 E71.17181
G1 X149.097 Y132.468 E71.18436
G1 X149.467 Y132.267 E71.19749
G1 X149.786 Y132.024 E71.20999
G1 X150.079 Y131.723 E71.22309
G1 X150.323 Y131.378 E71.23627
G1 X150.5 Y131.018 E71.24877
G1 X150.629 Y130.617 E71.26191
G1 X150.693 Y130.201 E71.27503
G1 X150.693 Y129.798 E71.2876
G1 X150.63 Y129.383 E71.30069
G1 X150.508 Y128.999 E71.31325
G1 X150.323 Y128.622 E71.32635
G1 X150.08 Y128.278 E71.33948
G1 X149.802 Y127.987 E71.35203
G1 X149.468 Y127.732 E71.36513
G1 X149.115 Y127.54 E71.37766
G1 X148.72 Y127.396 E71.39077
G1 X148.306 Y127.316 E71.40392
G1 X147.903 Y127.3 E71.41649
G1 X147.485 Y127.348 E71.42961
G1 X147.099 Y127.454 E71.4421
G1 X146.715 Y127.624 E71.45519
G1 X146.36 Y127.853 E71.46836
G1 X146.059 Y128.121 E71.48093
G1 X145.791 Y128.444 E71.49402
G1 X145.576 Y128.806 E71.50714
G1 X145.426 Y129.18 E71.51971
G1 X145.33 Y129.589 E71.53281
G1 X145.3 Y129.99 E71.54535
G1 X145.33 Y130.409 E71.55845
G1 X145.426 Y130.819 E71.57158
G1 X145.576 Y131.193 E71.58414
G1 X145.79 Y131.554 E71.59723
G1 X146.046 Y131.865 E71.60979
G1 X146.359 Y132.146 E71.6229
G1 X146.714 Y132.375 E71.63608
G1 X147.08 Y132.539 E71.64858
G1 X147.484 Y132.651 E71.66165
G1 X147.884 Y132.698 E71.67421
G0 F7800 X147.872 Y132.999
G1 F720 X148.339 Y132.983 E71.68878
G1 X148.798 Y132.893 E71.70337
G1 X149.22 Y132.743 E71.71733
G1 X149.631 Y132.519 E71.73193
G1 X149.986 Y132.249 E71.74583
G1 X150.311 Y131.915 E71.76037
G1 X150.581 Y131.532 E71.77498
G1 X150.779 Y131.131 E71.78892
G1 X150.922 Y130.686 E71.8035
G1 X150.993 Y130.224 E71.81807
G1 X150.993 Y129.775 E71.83207
G1 X150.923 Y129.315 E71.84658
G1 X150.787 Y128.888 E71.86055
G1 X150.582 Y128.468 E71.87513
G1 X150.312 Y128.086 E71.88971
G1 X150.002 Y127.763 E71.90367
G1 X149.632 Y127.48 E71.9182
G1 X149.239 Y127.266 E71.93215
G1 X148.8 Y127.106 E71.94672
G1 X148.341 Y127.017 E71.9613
G1 X147.892 Y126.999 E71.97531
G1 X147.428 Y127.052 E71.98987
G1 X146.998 Y127.17 E72.00378
G1 X146.572 Y127.359 E72.01831
G1 X146.177 Y127.613 E72.03295
G1 X145.843 Y127.912 E72.04693
G1 X145.545 Y128.271 E72.06148
G1 X145.307 Y128.673 E72.07605
G1 X145.139 Y129.089 E72.09004
G1 X145.032 Y129.544 E72.10461
G1 X144.999 Y129.99 E72.11855
G1 X145.032 Y130.454 E72.13306
G1 X145.139 Y130.91 E72.14766
G1 X145.307 Y131.326 E72.16165
G1 X145.544 Y131.727 E72.17618
G1 X145.829 Y132.073 E72.19016
G1 X146.177 Y132.385 E72.20473
G1 X146.57 Y132.639 E72.21932
G1 X146.978 Y132.822 E72.23326
G1 X147.426 Y132.946 E72.24776
G1 X147.872 Y132.999 E72.26176
G1 F1800 E71.26176
G0 F7800 X147.827 Y132.748
G0 X147.883 Y132.747
G0 X147.475 Y132.699
G0 X147.064 Y132.585
G0 X146.691 Y132.417
G0 X146.329 Y132.185
G0 X146.011 Y131.899
G0 X145.751 Y131.582
G0 X145.532 Y131.214
G0 X145.379 Y130.834
G0 X145.281 Y130.415
G0 X145.25 Y129.99
G0 X145.282 Y129.582
G0 X145.379 Y129.165
G0 X145.532 Y128.785
G0 X145.751 Y128.416
G0 X146.025 Y128.087
G0 X146.33 Y127.814
G0 X146.692 Y127.58
G0 X146.896 Y127.494
G0 X137.99 Y77.25
G0 X137.92 Y76.856
G0 X137.972 Y77.148
G0 X137.972 Y77.148
G0 X137.998 Y76.9
; TYPE:WALL-OUTER
G1 F1800 E72.26176
G1 F720 X138.201 Y76.889 E72.2681
G1 X138.583 Y76.808 E72.28028
G1 X138.78 Y76.732 E72.28686
G1 X139.116 Y76.538 E72.29896
G1 X139.412 Y76.271 E72.31139
G1 X139.643 Y75.954 E72.32362
G1 X139.739 Y75.764 E72.33026
G1 X139.858 Y75.395 E72.34235
G1 X139.901 Y75 E72.35474
G1 X139.858 Y74.604 E72.36716
G1 X139.735 Y74.225 E72.37958
G1 X139.535 Y73.88 E72.39202
G1 X139.267 Y73.585 E72.40444
G1 X138.952 Y73.355 E72.41661
G1 X138.59 Y73.194 E72.42896
G1 X138.386 Y73.14 E72.43554
G1 X138.002 Y73.099 E72.44758
G1 X137.606 Y73.141 E72.46
G1 X137.226 Y73.264 E72.47245
G1 X136.881 Y73.464 E72.48489
G1 X136.585 Y73.731 E72.49732
G1 X136.351 Y74.054 E72.50975
G1 X136.193 Y74.411 E72.52193
G1 X136.109 Y74.801 E72.53437
G1 X136.109 Y75.199 E72.54678
G1 X136.193 Y75.589 E72.55922
G1 X136.356 Y75.953 E72.57165
G1 X136.59 Y76.274 E72.58404
G1 X136.881 Y76.536 E72.59625
G1 X137.226 Y76.736 E72.60868
G1 X137.606 Y76.859 E72.62114
G1 X137.998 Y76.9 E72.63343
G0 F7800 X137.991 Y77.201
; TYPE:WALL-INNER
G1 F720 X138.24 Y77.187 E72.6412
G1 X138.669 Y77.097 E72.65487
G1 X138.91 Y77.003 E72.66294
G1 X139.293 Y76.782 E72.67672
G1 X139.636 Y76.473 E72.69112
G1 X139.9 Y76.111 E72.70509
G1 X140.017 Y75.879 E72.71319
G1 X140.153 Y75.458 E72.72699
G1 X140.203 Y75 E72.74135
G1 X140.153 Y74.541 E72.75575
G1 X140.01 Y74.102 E72.77015
G1 X139.778 Y73.702 E72.78457
G1 X139.468 Y73.36 E72.79896
G1 X139.103 Y73.094 E72.81304
G1 X138.69 Y72.91 E72.82714
G1 X138.441 Y72.844 E72.83517
G1 X138.002 Y72.797 E72.84894
G1 X137.543 Y72.846 E72.86333
G1 X137.103 Y72.989 E72.87776
G1 X136.704 Y73.22 E72.89213
G1 X136.36 Y73.53 E72.90657
G1 X136.09 Y73.903 E72.92093
G1 X135.906 Y74.318 E72.93509
G1 X135.809 Y74.769 E72.94947
G1 X135.809 Y75.231 E72.96388
G1 X135.906 Y75.683 E72.97829
G1 X136.095 Y76.104 E72.99268
G1 X136.366 Y76.476 E73.00703
G1 X136.704 Y76.78 E73.02121
G1 X137.103 Y77.011 E73.03558
G1 X137.543 Y77.154 E73.05001
G1 X137.991 Y77.201 E73.06406
G0 F7800 X137.983 Y77.502
G1 F720 X138.28 Y77.486 E73.07333
G1 X138.755 Y77.385 E73.08847
G1 X139.04 Y77.274 E73.09801
G1 X139.47 Y77.026 E73.11349
G1 X139.86 Y76.675 E73.12985
G1 X140.157 Y76.268 E73.14556
G1 X140.296 Y75.993 E73.15517
G1 X140.448 Y75.521 E73.17063
G1 X140.504 Y75 E73.18697
G1 X140.448 Y74.478 E73.20334
G1 X140.286 Y73.979 E73.2197
G1 X140.022 Y73.524 E73.2361
G1 X139.669 Y73.136 E73.25246
G1 X139.254 Y72.833 E73.26848
G1 X138.791 Y72.627 E73.28428
G1 X138.496 Y72.548 E73.2938
G1 X138.002 Y72.496 E73.30929
G1 X137.48 Y72.551 E73.32566
G1 X136.98 Y72.713 E73.34205
G1 X136.526 Y72.977 E73.35842
G1 X136.136 Y73.328 E73.37478
G1 X135.828 Y73.753 E73.39115
G1 X135.619 Y74.225 E73.40724
G1 X135.509 Y74.737 E73.42357
G1 X135.509 Y75.263 E73.43997
G1 X135.619 Y75.776 E73.45633
G1 X135.834 Y76.255 E73.47271
G1 X136.142 Y76.678 E73.48902
G1 X136.526 Y77.024 E73.50514
G1 X136.98 Y77.287 E73.5215
G1 X137.48 Y77.449 E73.53789
G1 X137.983 Y77.502 E73.55366
G0 F7800 X147.869 Y72.646
G0 X147.869 Y72.646
G0 X147.897 Y72.398
; TYPE:WALL-OUTER
G1 F720 X148.271 Y72.386 E73.56533
G1 X148.639 Y72.314 E73.57702
G1 X148.974 Y72.194 E73.58811
G1 X149.304 Y72.015 E73.59982
G1 X149.587 Y71.8 E73.6109
G1 X149.848 Y71.531 E73.62259
G1 X150.064 Y71.225 E73.63427
G1 X150.221 Y70.906 E73.64536
G1 X150.336 Y70.549 E73.65705
G1 X150.393 Y70.179 E73.66872
G1 X150.393 Y69.822 E73.67986
G1 X150.337 Y69.453 E73.69149
G1 X150.229 Y69.112 E73.70265
G1 X150.064 Y68.776 E73.71432
G1 X149.848 Y68.47 E73.726
G1 X149.601 Y68.213 E73.73711
G1 X149.304 Y67.986 E73.74877
G1 X148.991 Y67.815 E73.75989
G1 X148.639 Y67.687 E73.77157
G1 X148.271 Y67.616 E73.78325
G1 X147.914 Y67.602 E73.7944
G1 X147.542 Y67.644 E73.80607
G1 X147.2 Y67.738 E73.81713
G1 X146.858 Y67.89 E73.8288
G1 X146.542 Y68.093 E73.84051
G1 X146.276 Y68.331 E73.85164
G1 X146.037 Y68.618 E73.86328
G1 X145.846 Y68.94 E73.87496
G1 X145.713 Y69.272 E73.88611
G1 X145.627 Y69.636 E73.89777
G1 X145.601 Y69.991 E73.90887
G1 X145.627 Y70.365 E73.92056
G1 X145.713 Y70.729 E73.93222
G1 X145.846 Y71.061 E73.94338
G1 X146.037 Y71.382 E73.95502
G1 X146.263 Y71.658 E73.96615
G1 X146.542 Y71.908 E73.97783
G1 X146.857 Y72.111 E73.98951
G1 X147.182 Y72.257 E74.00062
G1 X147.542 Y72.357 E74.01227
G1 X147.897 Y72.398 E74.02342
G0 F7800 X147.884 Y72.699
; TYPE:WALL-INNER
G1 F720 X148.305 Y72.685 E74.03655
G1 X148.718 Y72.604 E74.04967
G1 X149.097 Y72.469 E74.06222
G1 X149.467 Y72.268 E74.07535
G1 X149.786 Y72.025 E74.08785
G1 X150.079 Y71.724 E74.10095
G1 X150.323 Y71.379 E74.11413
G1 X150.5 Y71.019 E74.12664
G1 X150.629 Y70.618 E74.13977
G1 X150.693 Y70.202 E74.15289
G1 X150.693 Y69.799 E74.16546
G1 X150.63 Y69.384 E74.17855
G1 X150.508 Y69 E74.19111
G1 X150.323 Y68.623 E74.20421
G1 X150.08 Y68.279 E74.21734
G1 X149.802 Y67.988 E74.22989
G1 X149.468 Y67.733 E74.24299
G1 X149.115 Y67.541 E74.25552
G1 X148.72 Y67.397 E74.26863
G1 X148.306 Y67.317 E74.28178
G1 X147.903 Y67.301 E74.29435
G1 X147.485 Y67.349 E74.30747
G1 X147.099 Y67.455 E74.31996
G1 X146.715 Y67.625 E74.33305
G1 X146.36 Y67.854 E74.34622
G1 X146.059 Y68.122 E74.35879
G1 X145.791 Y68.445 E74.37188
G1 X145.576 Y68.807 E74.385
G1 X145.426 Y69.181 E74.39757
G1 X145.33 Y69.59 E74.41067
G1 X145.3 Y69.99 E74.42318
G1 X145.33 Y70.41 E74.43631
G1 X145.426 Y70.82 E74.44944
G1 X145.576 Y71.194 E74.462
G1 X145.79 Y71.555 E74.47509
G1 X146.046 Y71.866 E74.48765
G1 X146.359 Y72.147 E74.50076
G1 X146.714 Y72.376 E74.51394
G1 X147.08 Y72.54 E74.52644
G1 X147.484 Y72.652 E74.53951
G1 X147.884 Y72.699 E74.55207
G0 F7800 X147.872 Y73
G1 F720 X148.339 Y72.984 E74.56664
G1 X148.798 Y72.894 E74.58123
G1 X149.22 Y72.744 E74.59519
G1 X149.631 Y72.52 E74.60979
G1 X149.986 Y72.25 E74.62369
G1 X150.311 Y71.916 E74.63823
G1 X150.581 Y71.533 E74.65284
G1 X150.779 Y71.132 E74.66678
G1 X150.922 Y70.687 E74.68136
G1 X150.993 Y70.225 E74.69593
G1 X150.993 Y69.776 E74.70993
G1 X150.923 Y69.316 E74.72444
G1 X150.787 Y68.889 E74.73841
G1 X150.582 Y68.469 E74.75299
G1 X150.312 Y68.087 E74.76757
G1 X150.002 Y67.764 E74.78153
G1 X149.632 Y67.481 E74.79606
G1 X149.239 Y67.267 E74.81001
G1 X148.8 Y67.107 E74.82458
G1 X148.341 Y67.018 E74.83916
G1 X147.892 Y67 E74.85317
G1 X147.428 Y67.053 E74.86773
G1 X146.998 Y67.171 E74.88164
G1 X146.572 Y67.36 E74.89617
G1 X146.177 Y67.614 E74.91081
G1 X145.843 Y67.913 E74.92479
G1 X145.545 Y68.272 E74.93934
G1 X145.307 Y68.674 E74.95391
G1 X145.139 Y69.09 E74.9679
G1 X145.032 Y69.545 E74.98247
G1 X144.999 Y69.989 E74.99635
G1 X145.032 Y70.455 E75.01092
G1 X145.139 Y70.911 E75.02552
G1 X145.307 Y71.327 E75.03951
G1 X145.544 Y71.728 E75.05404
G1 X145.829 Y72.074 E75.06802
G1 X146.177 Y72.386 E75.08259
G1 X146.57 Y72.64 E75.09718
G1 X146.978 Y72.823 E75.11112
G1 X147.426 Y72.947 E75.12562
G1 X147.872 Y73 E75.13962
G1 F1800 E74.13962
G0 F7800 X139.857 Y73.774
G0 X139.5 Y73.325
G0 X139.127 Y73.052
G0 X138.706 Y72.864
G0 X138.45 Y72.796
G0 X138.002 Y72.748
G0 X137.533 Y72.799
G0 X137.083 Y72.944
G0 X136.675 Y73.181
G0 X136.325 Y73.497
G0 X136.048 Y73.88
G0 X135.952 Y74.151
G0 X107.856 Y76.868
G0 X104.99 Y77.251
G0 X105.253 Y77.12
G0 X104.972 Y77.148
G0 X104.972 Y77.148
G0 X104.998 Y76.9
; TYPE:WALL-OUTER
G1 F1800 E75.13962
G1 F720 X105.201 Y76.889 E75.14596
G1 X105.583 Y76.808 E75.15814
G1 X105.78 Y76.732 E75.16472
G1 X106.116 Y76.538 E75.17682
G1 X106.412 Y76.271 E75.18925
G1 X106.643 Y75.954 E75.20148
G1 X106.739 Y75.764 E75.20812
G1 X106.858 Y75.395 E75.22021
G1 X106.901 Y75 E75.2326
G1 X106.858 Y74.604 E75.24502
G1 X106.735 Y74.225 E75.25744
G1 X106.535 Y73.88 E75.26988
G1 X106.267 Y73.585 E75.2823
G1 X105.952 Y73.355 E75.29447
G1 X105.59 Y73.194 E75.30682
G1 X105.386 Y73.14 E75.3134
G1 X105.002 Y73.099 E75.32544
G1 X104.606 Y73.141 E75.33786
G1 X104.226 Y73.264 E75.35031
G1 X103.881 Y73.464 E75.36275
G1 X103.585 Y73.731 E75.37518
G1 X103.351 Y74.054 E75.38761
G1 X103.193 Y74.411 E75.39979
G1 X103.109 Y74.801 E75.41223
G1 X103.109 Y75.199 E75.42464
G1 X103.193 Y75.589 E75.43708
G1 X103.356 Y75.953 E75.44951
G1 X103.59 Y76.274 E75.4619
G1 X103.881 Y76.536 E75.47411
G1 X104.226 Y76.736 E75.48654
G1 X104.606 Y76.859 E75.499
G1 X104.998 Y76.9 E75.51129
G0 F7800 X104.991 Y77.201
; TYPE:WALL-INNER
G1 F720 X105.24 Y77.187 E75.51906
G1 X105.669 Y77.097 E75.53273
G1 X105.91 Y77.003 E75.5408
G1 X106.293 Y76.782 E75.55458
G1 X106.636 Y76.473 E75.56898
G1 X106.9 Y76.111 E75.58295
G1 X107.017 Y75.879 E75.59105
G1 X107.153 Y75.458 E75.60485
G1 X107.203 Y75 E75.61921
G1 X107.153 Y74.541 E75.63361
G1 X107.01 Y74.102 E75.64801
G1 X106.778 Y73.702 E75.66243
G1 X106.468 Y73.36 E75.67682
G1 X106.103 Y73.094 E75.6909
G1 X105.69 Y72.91 E75.705
G1 X105.441 Y72.844 E75.71303
G1 X105.002 Y72.797 E75.7268
G1 X104.543 Y72.846 E75.74119
G1 X104.103 Y72.989 E75.75562
G1 X103.704 Y73.22 E75.76999
G1 X103.36 Y73.53 E75.78443
G1 X103.09 Y73.903 E75.79879
G1 X102.906 Y74.318 E75.81295
G1 X102.809 Y74.769 E75.82733
G1 X102.809 Y75.231 E75.84174
G1 X102.906 Y75.683 E75.85615
G1 X103.095 Y76.104 E75.87054
G1 X103.366 Y76.476 E75.88489
G1 X103.704 Y76.78 E75.89907
G1 X104.103 Y77.011 E75.91344
G1 X104.543 Y77.154 E75.92787
G1 X104.991 Y77.201 E75.94192
G0 F7800 X104.983 Y77.502
G1 F720 X105.28 Y77.486 E75.95119
G1 X105.755 Y77.385 E75.96633
G1 X106.04 Y77.274 E75.97587
G1 X106.47 Y77.026 E75.99135
G1 X106.86 Y76.675 E76.00771
G1 X107.157 Y76.268 E76.02342
G1 X107.296 Y75.993 E76.03303
G1 X107.448 Y75.521 E76.04849
G1 X107.504 Y75 E76.06483
G1 X107.448 Y74.478 E76.0812
G1 X107.286 Y73.979 E76.09756
G1 X107.022 Y73.524 E76.11396
G1 X106.669 Y73.136 E76.13032
G1 X106.254 Y72.833 E76.14634
G1 X105.791 Y72.627 E76.16214
G1 X105.496 Y72.548 E76.17166
G1 X105.002 Y72.496 E76.18715
G1 X104.48 Y72.551 E76.20352
G1 X103.98 Y72.713 E76.21991
G1 X103.526 Y72.977 E76.23628
G1 X103.136 Y73.328 E76.25264
G1 X102.828 Y73.753 E76.26901
G1 X102.619 Y74.225 E76.2851
G1 X102.509 Y74.737 E76.30143
G1 X102.509 Y75.263 E76.31783
G1 X102.619 Y75.776 E76.33419
G1 X102.834 Y76.255 E76.35057
G1 X103.142 Y76.678 E76.36688
G1 X103.526 Y77.024 E76.383
G1 X103.98 Y77.287 E76.39936
G1 X104.48 Y77.449 E76.41575
G1 X104.983 Y77.502 E76.43152
G0 F7800 X96.564 Y77.203
G0 X96.164 Y77.189
G0 X94.972 Y77.148
G0 X94.972 Y77.148
G0 X94.998 Y76.9
; TYPE:WALL-OUTER
G1 F720 X95.201 Y76.889 E76.43786
G1 X95.583 Y76.808 E76.45003
G1 X95.78 Y76.732 E76.45662
G1 X96.116 Y76.538 E76.46872
G1 X96.412 Y76.271 E76.48115
G1 X96.643 Y75.954 E76.49338
G1 X96.739 Y75.764 E76.50001
G1 X96.858 Y75.395 E76.5121
G1 X96.901 Y75 E76.52449
G1 X96.858 Y74.604 E76.53691
G1 X96.735 Y74.225 E76.54934
G1 X96.535 Y73.88 E76.56177
G1 X96.267 Y73.585 E76.5742
G1 X95.952 Y73.355 E76.58636
G1 X95.59 Y73.194 E76.59872
G1 X95.386 Y73.14 E76.6053
G1 X95.002 Y73.099 E76.61734
G1 X94.606 Y73.141 E76.62975
G1 X94.226 Y73.264 E76.64221
G1 X93.881 Y73.464 E76.65464
G1 X93.585 Y73.731 E76.66707
G1 X93.351 Y74.054 E76.67951
G1 X93.193 Y74.411 E76.69168
G1 X93.109 Y74.801 E76.70412
G1 X93.109 Y75.199 E76.71653
G1 X93.193 Y75.589 E76.72897
G1 X93.356 Y75.953 E76.74141
G1 X93.59 Y76.274 E76.75379
G1 X93.881 Y76.536 E76.766
G1 X94.226 Y76.736 E76.77844
G1 X94.606 Y76.859 E76.79089
G1 X94.998 Y76.9 E76.80318
G0 F7800 X94.991 Y77.201
; TYPE:WALL-INNER
G1 F720 X95.24 Y77.187 E76.81096
G1 X95.669 Y77.097 E76.82463
G1 X95.91 Y77.003 E76.83269
G1 X96.293 Y76.782 E76.84648
G1 X96.636 Y76.473 E76.86088
G1 X96.9 Y76.111 E76.87485
G1 X97.017 Y75.879 E76.88295
G1 X97.153 Y75.458 E76.89674
G1 X97.203 Y75 E76.91111
G1 X97.153 Y74.541 E76.92551
G1 X97.01 Y74.102 E76.9399
G1 X96.778 Y73.702 E76.95432
G1 X96.468 Y73.36 E76.96872
G1 X96.103 Y73.094 E76.9828
G1 X95.69 Y72.91 E76.9969
G1 X95.441 Y72.844 E77.00493
G1 X95.002 Y72.797 E77.0187
G1 X94.543 Y72.846 E77.03309
G1 X94.103 Y72.989 E77.04751
G1 X93.704 Y73.22 E77.06189
G1 X93.36 Y73.53 E77.07633
G1 X93.09 Y73.903 E77.09069
G1 X92.906 Y74.318 E77.10484
G1 X92.809 Y74.769 E77.11923
G1 X92.809 Y75.231 E77.13363
G1 X92.906 Y75.683 E77.14805
G1 X93.095 Y76.104 E77.16244
G1 X93.366 Y76.476 E77.17679
G1 X93.704 Y76.78 E77.19096
G1 X94.103 Y77.011 E77.20534
G1 X94.543 Y77.154 E77.21977
G1 X94.991 Y77.201 E77.23381
G0 F7800 X94.983 Y77.502
G1 F720 X95.28 Y77.486 E77.24309
G1 X95.755 Y77.385 E77.25823
G1 X96.04 Y77.274 E77.26777
G1 X96.47 Y77.026 E77.28324
G1 X96.86 Y76.675 E77.2996
G1 X97.157 Y76.268 E77.31531
G1 X97.296 Y75.993 E77.32492
G1 X97.448 Y75.521 E77.34038
G1 X97.504 Y75 E77.35672
G1 X97.448 Y74.478 E77.37309
G1 X97.286 Y73.979 E77.38945
G1 X97.022 Y73.524 E77.40586
G1 X96.669 Y73.136 E77.42221
G1 X96.254 Y72.833 E77.43823
G1 X95.791 Y72.627 E77.45404
G1 X95.496 Y72.548 E77.46356
G1 X95.002 Y72.496 E77.47905
G1 X94.48 Y72.551 E77.49541
G1 X93.98 Y72.713 E77.5118
G1 X93.526 Y72.977 E77.52818
G1 X93.136 Y73.328 E77.54454
G1 X92.828 Y73.753 E77.5609
G1 X92.619 Y74.225 E77.577
G1 X92.509 Y74.737 E77.59333
G1 X92.509 Y75.263 E77.60973
G1 X92.619 Y75.776 E77.62609
G1 X92.834 Y76.255 E77.64246
G1 X93.142 Y76.678 E77.65878
G1 X93.526 Y77.024 E77.6749
G1 X93.98 Y77.287 E77.69126
G1 X94.48 Y77.449 E77.70764
G1 X94.983 Y77.502 E77.72342
G0 F7800 X63.218 Y77.161
G0 X62.818 Y77.157
G0 X61.972 Y77.148
G0 X61.972 Y77.148
G0 X61.998 Y76.9
; TYPE:WALL-OUTER
G1 F720 X62.201 Y76.889 E77.72975
G1 X62.583 Y76.808 E77.74193
G1 X62.78 Y76.732 E77.74851
G1 X63.116 Y76.538 E77.76061
G1 X63.412 Y76.271 E77.77304
G1 X63.643 Y75.954 E77.78527
G1 X63.739 Y75.764 E77.79191
G1 X63.858 Y75.395 E77.804
G1 X63.901 Y75 E77.81639
G1 X63.858 Y74.604 E77.82881
G1 X63.735 Y74.225 E77.84123
G1 X63.535 Y73.88 E77.85367
G1 X63.267 Y73.585 E77.8661
G1 X62.952 Y73.355 E77.87826
G1 X62.59 Y73.194 E77.89061
G1 X62.386 Y73.14 E77.89719
G1 X62.002 Y73.099 E77.90923
G1 X61.607 Y73.142 E77.92162
G1 X61.227 Y73.264 E77.93407
G1 X60.882 Y73.464 E77.9465
G1 X60.586 Y73.731 E77.95893
G1 X60.352 Y74.054 E77.97137
G1 X60.195 Y74.408 E77.98344
G1 X60.141 Y74.612 E77.99002
G1 X60.1 Y74.999 E78.00216
G1 X60.111 Y75.203 E78.00853
G1 X60.194 Y75.589 E78.02084
G1 X60.357 Y75.953 E78.03328
G1 X60.591 Y76.274 E78.04566
G1 X60.882 Y76.536 E78.05787
G1 X61.227 Y76.736 E78.07031
G1 X61.607 Y76.858 E78.08275
G1 X61.998 Y76.9 E78.09501
G0 F7800 X61.991 Y77.201
; TYPE:WALL-INNER
G1 F720 X62.24 Y77.187 E78.10279
G1 X62.669 Y77.097 E78.11646
G1 X62.91 Y77.003 E78.12452
G1 X63.293 Y76.782 E78.13831
G1 X63.636 Y76.473 E78.15271
G1 X63.9 Y76.111 E78.16668
G1 X64.017 Y75.879 E78.17478
G1 X64.153 Y75.458 E78.18857
G1 X64.203 Y75 E78.20294
G1 X64.153 Y74.541 E78.21734
G1 X64.01 Y74.102 E78.23173
G1 X63.778 Y73.702 E78.24615
G1 X63.468 Y73.36 E78.26055
G1 X63.103 Y73.094 E78.27463
G1 X62.69 Y72.91 E78.28873
G1 X62.441 Y72.844 E78.29676
G1 X62.002 Y72.797 E78.31053
G1 X61.544 Y72.847 E78.32489
G1 X61.104 Y72.989 E78.33931
G1 X60.705 Y73.22 E78.35368
G1 X60.361 Y73.53 E78.36812
G1 X60.091 Y73.903 E78.38248
G1 X59.911 Y74.308 E78.3963
G1 X59.845 Y74.557 E78.40433
G1 X59.799 Y74.991 E78.41794
G1 X59.813 Y75.243 E78.42581
G1 X59.907 Y75.683 E78.43984
G1 X60.096 Y76.104 E78.45423
G1 X60.367 Y76.476 E78.46858
G1 X60.705 Y76.78 E78.48276
G1 X61.104 Y77.011 E78.49713
G1 X61.544 Y77.153 E78.51155
G1 X61.991 Y77.201 E78.52557
G0 F7800 X61.983 Y77.502
G1 F720 X62.28 Y77.486 E78.53484
G1 X62.755 Y77.385 E78.54998
G1 X63.04 Y77.274 E78.55952
G1 X63.47 Y77.026 E78.575
G1 X63.86 Y76.675 E78.59136
G1 X64.157 Y76.268 E78.60707
G1 X64.296 Y75.993 E78.61668
G1 X64.448 Y75.521 E78.63214
G1 X64.504 Y75 E78.64848
G1 X64.448 Y74.478 E78.66485
G1 X64.286 Y73.979 E78.68121
G1 X64.022 Y73.524 E78.69761
G1 X63.669 Y73.136 E78.71397
G1 X63.254 Y72.833 E78.72999
G1 X62.791 Y72.627 E78.74579
G1 X62.496 Y72.548 E78.75531
G1 X62.002 Y72.496 E78.7708
G1 X61.481 Y72.552 E78.78714
G1 X60.981 Y72.713 E78.80352
G1 X60.527 Y72.977 E78.8199
G1 X60.137 Y73.328 E78.83626
G1 X59.829 Y73.753 E78.85262
G1 X59.627 Y74.208 E78.86815
G1 X59.549 Y74.502 E78.87763
G1 X59.498 Y74.984 E78.89274
G1 X59.514 Y75.283 E78.90208
G1 X59.62 Y75.776 E78.9178
G1 X59.835 Y76.255 E78.93418
G1 X60.143 Y76.678 E78.95049
G1 X60.527 Y77.024 E78.96661
G1 X60.981 Y77.287 E78.98297
G1 X61.481 Y77.448 E78.99935
G1 X61.983 Y77.502 E79.01509
G0 F7800 X54.988 Y74.142
G0 X54.627 Y73.969
G0 X51.87 Y72.646
G0 X51.87 Y72.646
G0 X51.898 Y72.398
; TYPE:WALL-OUTER
G1 F720 X52.272 Y72.386 E79.02676
G1 X52.64 Y72.314 E79.03845
G1 X52.975 Y72.194 E79.04955
G1 X53.305 Y72.015 E79.06125
G1 X53.588 Y71.8 E79.07233
G1 X53.849 Y71.531 E79.08402
G1 X54.065 Y71.225 E79.0957
G1 X54.222 Y70.906 E79.10679
G1 X54.337 Y70.549 E79.11848
G1 X54.394 Y70.179 E79.13016
G1 X54.394 Y69.822 E79.14129
G1 X54.338 Y69.453 E79.15292
G1 X54.23 Y69.112 E79.16408
G1 X54.065 Y68.776 E79.17575
G1 X53.849 Y68.47 E79.18743
G1 X53.602 Y68.213 E79.19854
G1 X53.305 Y67.986 E79.2102
G1 X52.992 Y67.815 E79.22132
G1 X52.64 Y67.687 E79.233
G1 X52.272 Y67.616 E79.24469
G1 X51.915 Y67.602 E79.25583
G1 X51.543 Y67.644 E79.2675
G1 X51.201 Y67.738 E79.27856
G1 X50.859 Y67.89 E79.29023
G1 X50.543 Y68.093 E79.30194
G1 X50.277 Y68.331 E79.31307
G1 X50.038 Y68.618 E79.32472
G1 X49.847 Y68.94 E79.33639
G1 X49.714 Y69.272 E79.34754
G1 X49.628 Y69.636 E79.3592
G1 X49.601 Y69.991 E79.37031
G1 X49.628 Y70.365 E79.382
G1 X49.714 Y70.729 E79.39366
G1 X49.847 Y71.061 E79.40481
G1 X50.038 Y71.382 E79.41646
G1 X50.264 Y71.658 E79.42758
G1 X50.543 Y71.908 E79.43926
G1 X50.858 Y72.111 E79.45095
G1 X51.183 Y72.257 E79.46206
G1 X51.543 Y72.357 E79.47371
G1 X51.898 Y72.398 E79.48485
G0 F7800 X51.885 Y72.699
; TYPE:WALL-INNER
G1 F720 X52.306 Y72.685 E79.49799
G1 X52.719 Y72.604 E79.51111
G1 X53.098 Y72.469 E79.52365
G1 X53.468 Y72.268 E79.53678
G1 X53.787 Y72.025 E79.54929
G1 X54.08 Y71.724 E79.56239
G1 X54.324 Y71.379 E79.57556
G1 X54.501 Y71.019 E79.58807
G1 X54.63 Y70.618 E79.60121
G1 X54.694 Y70.202 E79.61433
G1 X54.694 Y69.799 E79.6269
G1 X54.631 Y69.384 E79.63999
G1 X54.509 Y69 E79.65255
G1 X54.324 Y68.623 E79.66564
G1 X54.081 Y68.279 E79.67878
G1 X53.803 Y67.988 E79.69132
G1 X53.469 Y67.733 E79.70443
G1 X53.116 Y67.541 E79.71696
G1 X52.721 Y67.397 E79.73007
G1 X52.307 Y67.317 E79.74321
G1 X51.904 Y67.301 E79.75579
G1 X51.486 Y67.349 E79.76891
G1 X51.1 Y67.455 E79.78139
G1 X50.716 Y67.625 E79.79449
G1 X50.361 Y67.854 E79.80766
G1 X50.06 Y68.122 E79.82023
G1 X49.792 Y68.445 E79.83331
G1 X49.577 Y68.807 E79.84644
G1 X49.427 Y69.181 E79.85901
G1 X49.331 Y69.59 E79.87211
G1 X49.3 Y69.99 E79.88462
G1 X49.331 Y70.41 E79.89775
G1 X49.427 Y70.82 E79.91088
G1 X49.577 Y71.194 E79.92344
G1 X49.791 Y71.555 E79.93653
G1 X50.047 Y71.866 E79.94909
G1 X50.36 Y72.147 E79.9622
G1 X50.715 Y72.376 E79.97538
G1 X51.081 Y72.54 E79.98788
G1 X51.485 Y72.652 E80.00095
G1 X51.885 Y72.699 E80.01351
G0 F7800 X51.873 Y73
G1 F720 X52.34 Y72.984 E80.02808
G1 X52.799 Y72.894 E80.04267
G1 X53.221 Y72.744 E80.05663
G1 X53.632 Y72.52 E80.07123
G1 X53.987 Y72.25 E80.08514
G1 X54.312 Y71.916 E80.09967
G1 X54.582 Y71.533 E80.11428
G1 X54.78 Y71.132 E80.12822
G1 X54.923 Y70.687 E80.1428
G1 X54.994 Y70.225 E80.15737
G1 X54.994 Y69.776 E80.17137
G1 X54.924 Y69.316 E80.18588
G1 X54.788 Y68.889 E80.19986
G1 X54.583 Y68.469 E80.21443
G1 X54.313 Y68.087 E80.22901
G1 X54.003 Y67.764 E80.24297
G1 X53.633 Y67.481 E80.2575
G1 X53.24 Y67.267 E80.27145
G1 X52.801 Y67.107 E80.28602
G1 X52.342 Y67.018 E80.3006
G1 X51.893 Y67 E80.31461
G1 X51.429 Y67.053 E80.32917
G1 X50.999 Y67.171 E80.34308
G1 X50.573 Y67.36 E80.35761
G1 X50.178 Y67.614 E80.37225
G1 X49.844 Y67.913 E80.38623
G1 X49.546 Y68.272 E80.40078
G1 X49.308 Y68.674 E80.41535
G1 X49.14 Y69.09 E80.42934
G1 X49.034 Y69.544 E80.44387
G1 X48.999 Y69.989 E80.45779
G1 X49.033 Y70.456 E80.47239
G1 X49.14 Y70.911 E80.48697
G1 X49.308 Y71.327 E80.50096
G1 X49.545 Y71.728 E80.51548
G1 X49.83 Y72.074 E80.52946
G1 X50.178 Y72.386 E80.54403
G1 X50.571 Y72.64 E80.55862
G1 X50.979 Y72.823 E80.57257
G1 X51.427 Y72.947 E80.58706
G1 X51.873 Y73 E80.60106
G0 F7800 X52.021 Y73.235
; TYPE:BOTTOM-FILL
G1 F720 X96.498 Y117.711 E82.56235
G0 F7800 X95.724 Y117.362
G1 F720 X51.567 Y73.204 E84.50957
G0 F7800 X51.021 Y73.083
G1 F720 X95.206 Y117.268 E86.458
G0 F7800 X94.782 Y117.268
G1 F720 X50.198 Y72.684 E88.42403
G0 F7800 X49.303 Y71.789
G1 F720 X42.989 Y65.475 E88.70246
G0 F7800 X42.989 Y65.051
G1 F720 X48.906 Y70.968 E88.96338
G0 F7800 X48.791 Y70.428
G1 F720 X42.989 Y64.627 E89.21921
G0 F7800 X42.989 Y64.203
G1 F720 X48.759 Y69.973 E89.47365
G0 F7800 X48.79 Y69.579
G1 F720 X42.989 Y63.778 E89.72946
G0 F7800 X42.989 Y63.354
G1 F720 X48.861 Y69.225 E89.98837
G0 F7800 X48.957 Y68.898
G1 F720 X42.989 Y62.93 E90.25154
G0 F7800 X42.989 Y62.506
G1 F720 X49.08 Y68.596 E90.52012
G0 F7800 X49.235 Y68.327
G1 F720 X42.989 Y62.081 E90.79555
G0 F7800 X42.989 Y61.657
G1 F720 X49.402 Y68.069 E91.07832
G0 F7800 X49.593 Y67.836
G1 F720 X42.989 Y61.233 E91.36952
G0 F7800 X43.169 Y60.988
G1 F720 X49.805 Y67.624 E91.66215
G0 F7800 X50.029 Y67.424
G1 F720 X43.593 Y60.988 E91.94595
G0 F7800 X44.018 Y60.988
G1 F720 X50.287 Y67.257 E92.2224
G0 F7800 X50.557 Y67.103
G1 F720 X44.442 Y60.988 E92.49205
G0 F7800 X44.866 Y60.988
G1 F720 X50.851 Y66.973 E92.75597
G0 F7800 X51.176 Y66.873
G1 F720 X45.29 Y60.988 E93.01551
G0 F7800 X45.715 Y60.988
G1 F720 X51.526 Y66.8 E93.27178
G0 F7800 X51.91 Y66.759
G1 F720 X46.139 Y60.988 E93.52626
G0 F7800 X46.563 Y60.988
G1 F720 X52.352 Y66.777 E93.78154
G0 F7800 X52.877 Y66.878
G1 F720 X46.987 Y60.988 E94.04127
G0 F7800 X47.412 Y60.988
G1 F720 X53.629 Y67.205 E94.31543
G0 F7800 X54.809 Y68.386
G0 X54.809 Y68.386
G1 F720 X59.802 Y73.379 E94.5356
G0 F7800 X59.986 Y73.138
G1 F720 X47.836 Y60.988 E95.07138
G0 F7800 X48.26 Y60.988
G1 F720 X60.21 Y72.938 E95.59834
G0 F7800 X60.442 Y72.746
G1 F720 X48.685 Y60.988 E96.11681
G0 F7800 X49.109 Y60.988
G1 F720 X60.712 Y72.591 E96.62847
G0 F7800 X60.999 Y72.454
G1 F720 X49.533 Y60.988 E97.13409
G0 F7800 X49.957 Y60.988
G1 F720 X61.319 Y72.35 E97.63512
G0 F7800 X61.682 Y72.288
G1 F720 X50.382 Y60.988 E98.13342
G0 F7800 X50.806 Y60.988
G1 F720 X62.08 Y72.262 E98.63057
G0 F7800 X62.557 Y72.315
G1 F720 X51.23 Y60.988 E99.13006
G0 F7800 X51.654 Y60.988
G1 F720 X63.221 Y72.554 E99.64011
G0 F7800 X64.451 Y73.785
G0 X64.451 Y73.785
G1 F720 X129.676 Y139.01 E102.51634
G0 F7800 X129.252 Y139.01
G1 F720 X64.686 Y74.444 E105.36352
G0 F7800 X64.736 Y74.918
G1 F720 X128.827 Y139.01 E108.18977
G0 F7800 X128.403 Y139.01
G1 F720 X64.71 Y75.316 E110.99847
G0 F7800 X64.648 Y75.679
G1 F720 X127.979 Y139.01 E113.79119
G0 F7800 X127.554 Y139.01
G1 F720 X107.546 Y119.001 E114.6735
G0 F7800 X107.7 Y119.58
G1 F720 X127.13 Y139.01 E115.53031
G0 F7800 X126.706 Y139.01
G1 F720 X107.74 Y120.044 E116.36666
G0 F7800 X107.698 Y120.426
G1 F720 X126.282 Y139.01 E117.18616
G0 F7800 X125.857 Y139.01
G1 F720 X107.619 Y120.771 E117.99042
G0 F7800 X107.514 Y121.09
G1 F720 X125.433 Y139.01 E118.78062
G0 F7800 X125.009 Y139.01
G1 F720 X107.372 Y121.372 E119.55838
G0 F7800 X107.196 Y121.621
G1 F720 X124.585 Y139.01 E120.32519
G0 F7800 X124.16 Y139.01
G1 F720 X107.011 Y121.86 E121.08143
G0 F7800 X106.787 Y122.061
G1 F720 X123.736 Y139.01 E121.82883
G0 F7800 X123.312 Y139.01
G1 F720 X106.555 Y122.253 E122.56777
G0 F7800 X106.285 Y122.407
G1 F720 X122.888 Y139.01 E123.29991
G0 F7800 X122.463 Y139.01
G1 F720 X105.999 Y122.545 E124.02595
G0 F7800 X105.675 Y122.646
G1 F720 X122.039 Y139.01 E124.74756
G0 F7800 X121.615 Y139.01
G1 F720 X105.324 Y122.719 E125.46594
G0 F7800 X104.916 Y122.736
G1 F720 X121.191 Y139.01 E126.1836
G0 F7800 X120.766 Y139.01
G1 F720 X104.441 Y122.684 E126.90351
G0 F7800 X103.779 Y122.447
G1 F720 X120.342 Y139.01 E127.63389
G0 F7800 X119.918 Y139.01
G1 F720 X53.676 Y72.768 E130.55497
G0 F7800 X53.928 Y72.595
G1 F720 X102.559 Y121.227 E132.69948
G0 F7800 X102.331 Y120.574
G1 F720 X54.165 Y72.409 E134.82344
G0 F7800 X54.375 Y72.194
G1 F720 X102.268 Y120.087 E136.93539
G0 F7800 X102.277 Y119.672
G1 F720 X54.57 Y71.965 E139.03913
G0 F7800 X54.745 Y71.716
G1 F720 X102.352 Y119.322 E141.13844
G0 F7800 X102.454 Y119.001
G1 F720 X60.997 Y77.543 E142.96659
G0 F7800 X61.576 Y77.699
G1 F720 X102.585 Y118.707 E144.77495
G0 F7800 X102.751 Y118.449
G1 F720 X62.04 Y77.738 E146.57019
G0 F7800 X62.425 Y77.699
G1 F720 X102.929 Y118.202 E148.35628
G0 F7800 X103.144 Y117.994
G1 F720 X62.776 Y77.625 E150.13641
G0 F7800 X63.086 Y77.511
G1 F720 X103.368 Y117.793 E151.91273
G0 F7800 X103.634 Y117.634
G1 F720 X63.363 Y77.363 E153.68857
G0 F7800 X63.628 Y77.204
G1 F720 X103.906 Y117.482 E155.46471
G0 F7800 X104.226 Y117.379
G1 F720 X63.851 Y77.003 E157.24515
G0 F7800 X64.068 Y76.796
G1 F720 X104.566 Y117.294 E159.031
G0 F7800 X104.964 Y117.268
G1 F720 X64.247 Y76.551 E160.8265
G0 F7800 X64.412 Y76.291
G1 F720 X105.416 Y117.296 E162.63468
G0 F7800 X106 Y117.456
G1 F720 X64.545 Y76 E164.46275
G0 F7800 X63.986 Y76
G0 X63.942 Y76.136
G0 X63.672 Y76.506
G0 X63.321 Y76.821
G0 X62.931 Y77.047
G0 X62.683 Y77.143
G0 X62.247 Y77.236
G0 X61.99 Y77.251
G0 X61.534 Y77.201
G0 X61.084 Y77.056
G0 X60.677 Y76.819
G0 X60.331 Y76.509
G0 X60.011 Y76.007
G0 X59.462 Y76.009
G0 X59.462 Y76.009
G1 F720 X54.894 Y71.441 E164.66419
G0 F7800 X55.027 Y71.149
G1 F720 X59.298 Y75.42 E164.85253
G0 F7800 X59.259 Y74.957
G1 F720 X55.13 Y70.828 E165.0346
G0 F7800 X55.199 Y70.473
G1 F720 X59.3 Y74.573 E165.21542
G0 F7800 X59.374 Y74.223
G1 F720 X55.234 Y70.083 E165.39799
G0 F7800 X55.217 Y69.642
G1 F720 X59.493 Y73.918 E165.58654
G0 F7800 X59.625 Y73.626
G1 F720 X55.111 Y69.112 E165.7856
G0 F7800 X54.626 Y70.19
G0 X54.743 Y70.206
G0 X54.678 Y70.628
G0 X54.547 Y71.037
G0 X53.384 Y72.956
G0 X53.402 Y72.918
G0 X53.402 Y72.918
G1 F720 X119.493 Y139.01 E168.70004
G0 F7800 X119.069 Y139.01
G1 F720 X53.1 Y73.04 E171.60911
G0 F7800 X52.777 Y73.141
G1 F720 X118.645 Y139.01 E174.51372
G0 F7800 X118.221 Y139.01
G1 F720 X52.422 Y73.211 E177.41527
G0 F7800 X42.989 Y73.112
G0 X42.989 Y73.112
G1 F720 X108.887 Y139.01 E180.32118
G0 F7800 X108.463 Y139.01
G1 F720 X42.989 Y73.536 E183.2084
G0 F7800 X42.989 Y73.961
G1 F720 X108.038 Y139.01 E186.07687
G0 F7800 X107.614 Y139.01
G1 F720 X42.989 Y74.385 E188.92665
G0 F7800 X42.989 Y74.809
G1 F720 X107.19 Y139.01 E191.75773
G0 F7800 X106.766 Y139.01
G1 F720 X42.989 Y75.234 E194.57009
G0 F7800 X42.989 Y75.658
G1 F720 X106.341 Y139.01 E197.36373
G0 F7800 X105.917 Y139.01
G1 F720 X42.989 Y76.082 E200.13867
G0 F7800 X42.989 Y76.506
G1 F720 X105.493 Y139.01 E202.89492
G0 F7800 X105.068 Y139.01
G1 F720 X42.989 Y76.931 E205.63242
G0 F7800 X42.989 Y77.355
G1 F720 X104.644 Y139.01 E208.35123
G0 F7800 X104.22 Y139.01
G1 F720 X42.989 Y77.779 E211.05134
G0 F7800 X42.989 Y78.203
G1 F720 X103.796 Y139.01 E213.73276
G0 F7800 X103.371 Y139.01
G1 F720 X42.989 Y78.628 E216.39543
G0 F7800 X42.989 Y79.052
G1 F720 X102.947 Y139.01 E219.0394
G0 F7800 X102.523 Y139.01
G1 F720 X42.989 Y79.476 E221.66468
G0 F7800 X42.989 Y79.9
G1 F720 X102.099 Y139.01 E224.27126
G0 F7800 X101.674 Y139.01
G1 F720 X42.989 Y80.325 E226.8591
G0 F7800 X42.989 Y80.749
G1 F720 X101.25 Y139.01 E229.42825
G0 F7800 X100.826 Y139.01
G1 F720 X42.989 Y81.173 E231.97869
G0 F7800 X42.989 Y81.598
G1 F720 X100.402 Y139.01 E234.51042
G0 F7800 X99.977 Y139.009
G1 F720 X42.989 Y82.022 E237.0234
G0 F7800 X42.989 Y82.446
G1 F720 X99.552 Y139.009 E239.51767
G0 F7800 X99.128 Y139.009
G1 F720 X42.989 Y82.87 E241.99324
G0 F7800 X42.989 Y83.295
G1 F720 X98.704 Y139.009 E244.45009
G0 F7800 X98.28 Y139.009
G1 F720 X42.989 Y83.719 E246.88824
G0 F7800 X42.989 Y84.143
G1 F720 X97.855 Y139.009 E249.30767
G0 F7800 X97.431 Y139.009
G1 F720 X42.989 Y84.567 E251.70841
G0 F7800 X42.989 Y84.992
G1 F720 X97.007 Y139.009 E254.09042
G0 F7800 X96.583 Y139.009
G1 F720 X42.989 Y85.416 E256.45374
G0 F7800 X42.989 Y85.84
G1 F720 X96.158 Y139.009 E258.79834
G0 F7800 X95.734 Y139.009
G1 F720 X42.989 Y86.264 E261.12425
G0 F7800 X42.989 Y86.689
G1 F720 X95.31 Y139.009 E263.43143
G0 F7800 X94.885 Y139.009
G1 F720 X42.989 Y87.113 E265.71989
G0 F7800 X42.989 Y87.537
G1 F720 X94.461 Y139.009 E267.98966
G0 F7800 X94.037 Y139.009
G1 F720 X42.989 Y87.961 E270.24073
G0 F7800 X42.989 Y88.386
G1 F720 X93.613 Y139.009 E272.47308
G0 F7800 X93.188 Y139.009
G1 F720 X42.989 Y88.81 E274.68671
G0 F7800 X42.989 Y89.234
G1 F720 X92.764 Y139.009 E276.88165
G0 F7800 X92.34 Y139.009
G1 F720 X42.989 Y89.659 E279.05786
G0 F7800 X42.989 Y90.083
G1 F720 X91.916 Y139.009 E281.21538
G0 F7800 X91.491 Y139.009
G1 F720 X42.989 Y90.507 E283.35418
G0 F7800 X42.989 Y90.931
G1 F720 X91.067 Y139.009 E285.47428
G0 F7800 X90.643 Y139.009
G1 F720 X42.989 Y91.356 E287.57566
G0 F7800 X42.989 Y91.78
G1 F720 X90.219 Y139.009 E289.65835
G0 F7800 X89.794 Y139.009
G1 F720 X42.989 Y92.204 E291.72232
G0 F7800 X42.989 Y92.628
G1 F720 X89.37 Y139.009 E293.76758
G0 F7800 X88.946 Y139.009
G1 F720 X42.989 Y93.053 E295.79413
G0 F7800 X42.989 Y93.477
G1 F720 X88.521 Y139.009 E297.80196
G0 F7800 X88.097 Y139.009
G1 F720 X42.989 Y93.901 E299.7911
G0 F7800 X42.989 Y94.325
G1 F720 X87.673 Y139.009 E301.76153
G0 F7800 X87.249 Y139.009
G1 F720 X42.989 Y94.75 E303.71325
G0 F7800 X42.989 Y95.174
G1 F720 X86.824 Y139.009 E305.64625
G0 F7800 X86.4 Y139.009
G1 F720 X42.989 Y95.598 E307.56055
G0 F7800 X42.989 Y96.022
G1 F720 X85.976 Y139.009 E309.45615
G0 F7800 X85.552 Y139.009
G1 F720 X42.989 Y96.447 E311.33304
G0 F7800 X42.989 Y96.871
G1 F720 X85.127 Y139.009 E313.1912
G0 F7800 X84.703 Y139.009
G1 F720 X64.413 Y118.718 E314.08595
G0 F7800 X64.678 Y119.408
G1 F720 X84.279 Y139.009 E314.9503
G0 F7800 X83.855 Y139.009
G1 F720 X64.732 Y119.887 E315.79355
G0 F7800 X64.713 Y120.292
G1 F720 X83.43 Y139.009 E316.61891
G0 F7800 X83.006 Y139.009
G1 F720 X64.655 Y120.658 E317.42814
G0 F7800 X64.552 Y120.979
G1 F720 X82.582 Y139.009 E318.22321
G0 F7800 X82.158 Y139.009
G1 F720 X64.422 Y121.273 E319.00532
G0 F7800 X64.259 Y121.535
G1 F720 X81.733 Y139.009 E319.77587
G0 F7800 X81.309 Y139.009
G1 F720 X64.08 Y121.78 E320.53562
G0 F7800 X63.866 Y121.99
G1 F720 X80.885 Y139.009 E321.28611
G0 F7800 X80.46 Y139.009
G1 F720 X63.643 Y122.191 E322.02771
G0 F7800 X63.38 Y122.353
G1 F720 X80.036 Y139.009 E322.76219
G0 F7800 X79.612 Y139.009
G1 F720 X63.107 Y122.504 E323.49002
G0 F7800 X62.798 Y122.619
G1 F720 X79.188 Y139.009 E324.21277
G0 F7800 X78.763 Y139.009
G1 F720 X62.448 Y122.693 E324.93224
G0 F7800 X62.067 Y122.737
G1 F720 X78.339 Y139.009 E325.64978
G0 F7800 X77.915 Y139.009
G1 F720 X61.608 Y122.702 E326.36888
G0 F7800 X61.038 Y122.556
G1 F720 X77.491 Y139.009 E327.09441
G0 F7800 X77.066 Y139.009
G1 F720 X42.989 Y104.932 E328.5971
G0 F7800 X42.989 Y104.508
G1 F720 X59.439 Y120.957 E329.32248
G0 F7800 X59.29 Y120.384
G1 F720 X42.989 Y104.083 E330.04131
G0 F7800 X42.989 Y103.659
G1 F720 X59.261 Y119.931 E330.75886
G0 F7800 X59.302 Y119.548
G1 F720 X42.989 Y103.235 E331.47821
G0 F7800 X42.989 Y102.811
G1 F720 X59.379 Y119.201 E332.20096
G0 F7800 X59.501 Y118.898
G1 F720 X42.989 Y102.386 E332.9291
G0 F7800 X42.989 Y101.962
G1 F720 X59.636 Y118.609 E333.66318
G0 F7800 X59.814 Y118.362
G1 F720 X42.989 Y101.538 E334.40509
G0 F7800 X42.989 Y101.114
G1 F720 X60 Y118.125 E335.15523
G0 F7800 X60.224 Y117.924
G1 F720 X42.989 Y100.689 E335.91524
G0 F7800 X42.989 Y100.265
G1 F720 X60.459 Y117.735 E336.68562
G0 F7800 X60.729 Y117.58
G1 F720 X42.989 Y99.841 E337.46788
G0 F7800 X42.989 Y99.417
G1 F720 X61.019 Y117.446 E338.26293
G0 F7800 X61.34 Y117.342
G1 F720 X42.989 Y98.992 E339.07213
G0 F7800 X42.989 Y98.568
G1 F720 X61.695 Y117.274 E339.89701
G0 F7800 X62.113 Y117.268
G1 F720 X42.989 Y98.144 E340.74033
G0 F7800 X42.989 Y97.72
G1 F720 X62.606 Y117.336 E341.60536
G0 F7800 X63.27 Y117.576
G1 F720 X42.989 Y97.295 E342.49969
G0 F7800 X42.989 Y105.356
G1 F720 X76.642 Y139.009 E343.98369
G0 F7800 X76.218 Y139.009
G1 F720 X42.989 Y105.781 E345.44898
G0 F7800 X42.989 Y106.205
G1 F720 X75.794 Y139.009 E346.89556
G0 F7800 X75.369 Y139.009
G1 F720 X42.989 Y106.629 E348.32342
G0 F7800 X42.989 Y107.053
G1 F720 X74.945 Y139.009 E349.73259
G0 F7800 X74.521 Y139.009
G1 F720 X42.989 Y107.478 E351.12304
G0 F7800 X42.989 Y107.902
G1 F720 X74.097 Y139.009 E352.49479
G0 F7800 X73.672 Y139.009
G1 F720 X42.989 Y108.326 E353.84782
G0 F7800 X42.989 Y108.75
G1 F720 X73.248 Y139.009 E355.18216
G0 F7800 X72.824 Y139.009
G1 F720 X42.989 Y109.175 E356.49777
G0 F7800 X42.989 Y109.599
G1 F720 X72.399 Y139.009 E357.79467
G0 F7800 X71.975 Y139.009
G1 F720 X42.989 Y110.023 E359.07287
G0 F7800 X42.989 Y110.447
G1 F720 X71.551 Y139.009 E360.33237
G0 F7800 X71.127 Y139.009
G1 F720 X42.989 Y110.872 E361.57316
G0 F7800 X42.989 Y111.296
G1 F720 X70.702 Y139.009 E362.79522
G0 F7800 X70.278 Y139.009
G1 F720 X42.989 Y111.72 E363.99859
G0 F7800 X42.989 Y112.145
G1 F720 X69.854 Y139.009 E365.18323
G0 F7800 X69.43 Y139.009
G1 F720 X42.989 Y112.569 E366.34918
G0 F7800 X42.989 Y112.993
G1 F720 X69.005 Y139.009 E367.49641
G0 F7800 X68.581 Y139.009
G1 F720 X42.989 Y113.417 E368.62495
G0 F7800 X42.989 Y113.842
G1 F720 X68.157 Y139.009 E369.73476
G0 F7800 X67.733 Y139.009
G1 F720 X42.989 Y114.266 E370.82588
G0 F7800 X42.989 Y114.69
G1 F720 X67.308 Y139.009 E371.89828
G0 F7800 X66.884 Y139.009
G1 F720 X42.989 Y115.114 E372.95198
G0 F7800 X42.989 Y115.539
G1 F720 X66.46 Y139.009 E373.98696
G0 F7800 X66.035 Y139.009
G1 F720 X42.989 Y115.963 E375.00322
G0 F7800 X42.989 Y116.387
G1 F720 X65.611 Y139.009 E376.00079
G0 F7800 X65.187 Y139.009
G1 F720 X55.028 Y128.85 E376.44877
G0 F7800 X55.184 Y129.43
G1 F720 X64.763 Y139.009 E376.87118
G0 F7800 X64.338 Y139.009
G1 F720 X55.233 Y129.904 E377.27268
G0 F7800 X55.222 Y130.317
G1 F720 X63.914 Y139.009 E377.65597
G0 F7800 X63.49 Y139.009
G1 F720 X55.166 Y130.685 E378.02304
G0 F7800 X55.07 Y131.013
G1 F720 X63.066 Y139.009 E378.37564
G0 F7800 X62.641 Y139.009
G1 F720 X54.952 Y131.32 E378.7147
G0 F7800 X54.812 Y131.604
G1 F720 X62.217 Y139.009 E379.04124
G0 F7800 X61.793 Y139.009
G1 F720 X54.643 Y131.859 E379.35653
G0 F7800 X54.462 Y132.103
G1 F720 X61.369 Y139.009 E379.66109
G0 F7800 X60.944 Y139.009
G1 F720 X54.252 Y132.317 E379.95619
G0 F7800 X54.028 Y132.517
G1 F720 X60.52 Y139.009 E380.24247
G0 F7800 X60.096 Y139.009
G1 F720 X53.788 Y132.702 E380.52061
G0 F7800 X53.517 Y132.854
G1 F720 X59.672 Y139.009 E380.79203
G0 F7800 X59.247 Y139.009
G1 F720 X53.231 Y132.993 E381.05732
G0 F7800 X52.918 Y133.104
G1 F720 X58.823 Y139.009 E381.31771
G0 F7800 X58.399 Y139.009
G1 F720 X52.57 Y133.18 E381.57475
G0 F7800 X52.192 Y133.227
G1 F720 X57.974 Y139.009 E381.82972
G0 F7800 X57.55 Y139.009
G1 F720 X51.768 Y133.227 E382.08469
G0 F7800 X51.265 Y133.148
G1 F720 X57.126 Y139.009 E382.34314
G0 F7800 X56.702 Y139.009
G1 F720 X50.611 Y132.918 E382.61174
G0 F7800 X49.07 Y131.377
G0 X49.07 Y131.377
G1 F720 X42.989 Y125.297 E382.87987
G0 F7800 X42.989 Y125.721
G1 F720 X56.277 Y139.009 E383.46583
G0 F7800 X55.853 Y139.009
G1 F720 X42.989 Y126.145 E384.0331
G0 F7800 X42.989 Y126.569
G1 F720 X55.429 Y139.009 E384.58167
G0 F7800 X55.005 Y139.009
G1 F720 X42.989 Y126.994 E385.11152
G0 F7800 X42.989 Y127.418
G1 F720 X54.58 Y139.009 E385.62265
G0 F7800 X54.156 Y139.009
G1 F720 X42.989 Y127.842 E386.11508
G0 F7800 X42.989 Y128.267
G1 F720 X53.732 Y139.009 E386.58879
G0 F7800 X53.308 Y139.009
G1 F720 X42.989 Y128.691 E387.04381
G0 F7800 X42.989 Y129.115
G1 F720 X52.883 Y139.009 E387.48011
G0 F7800 X52.459 Y139.009
G1 F720 X42.989 Y129.539 E387.89771
G0 F7800 X42.989 Y129.964
G1 F720 X52.035 Y139.009 E388.29659
G0 F7800 X51.611 Y139.009
G1 F720 X42.989 Y130.388 E388.67677
G0 F7800 X42.989 Y130.812
G1 F720 X51.186 Y139.009 E389.03823
G0 F7800 X50.762 Y139.009
G1 F720 X42.989 Y131.236 E389.381
G0 F7800 X42.989 Y131.661
G1 F720 X50.338 Y139.009 E389.70505
G0 F7800 X49.913 Y139.009
G1 F720 X42.989 Y132.085 E390.01038
G0 F7800 X42.989 Y132.509
G1 F720 X49.489 Y139.009 E390.29701
G0 F7800 X49.065 Y139.009
G1 F720 X42.989 Y132.933 E390.56494
G0 F7800 X42.989 Y133.358
G1 F720 X48.641 Y139.009 E390.81416
G0 F7800 X48.216 Y139.009
G1 F720 X42.989 Y133.782 E391.04465
G0 F7800 X42.989 Y134.206
G1 F720 X47.792 Y139.009 E391.25645
G0 F7800 X47.368 Y139.009
G1 F720 X42.989 Y134.631 E391.44953
G0 F7800 X42.989 Y135.055
G1 F720 X46.944 Y139.009 E391.62391
G0 F7800 X46.519 Y139.009
G1 F720 X42.989 Y135.479 E391.77958
G0 F7800 X42.989 Y135.903
G1 F720 X46.095 Y139.009 E391.91654
G0 F7800 X45.671 Y139.009
G1 F720 X42.989 Y136.328 E392.03479
G0 F7800 X42.989 Y136.752
G1 F720 X45.247 Y139.009 E392.13434
G0 F7800 X44.822 Y139.009
G1 F720 X42.989 Y137.176 E392.21517
G0 F7800 X42.989 Y137.6
G1 F720 X44.398 Y139.009 E392.2773
G0 F7800 X43.974 Y139.009
G1 F720 X42.989 Y138.025 E392.32071
G0 F7800 X42.989 Y138.449
G1 F720 X43.549 Y139.009 E392.34541
G0 F7800 X43.125 Y139.009
G1 F720 X42.989 Y138.873 E392.35141
G0 F7800 X48.852 Y130.735
G0 X48.852 Y130.735
G1 F720 X42.989 Y124.872 E392.60995
G0 F7800 X42.989 Y124.448
G1 F720 X48.776 Y130.235 E392.86514
G0 F7800 X48.772 Y129.807
G1 F720 X42.989 Y124.024 E393.12015
G0 F7800 X42.989 Y123.6
G1 F720 X48.814 Y129.424 E393.37699
G0 F7800 X48.894 Y129.08
G1 F720 X42.989 Y123.175 E393.63739
G0 F7800 X42.989 Y122.751
G1 F720 X49.008 Y128.77 E393.90281
G0 F7800 X49.143 Y128.48
G1 F720 X42.989 Y122.327 E394.17416
G0 F7800 X42.989 Y121.903
G1 F720 X49.301 Y128.214 E394.45248
G0 F7800 X49.482 Y127.971
G1 F720 X42.989 Y121.478 E394.7388
G0 F7800 X42.989 Y121.054
G1 F720 X49.675 Y127.74 E395.03364
G0 F7800 X49.899 Y127.54
G1 F720 X42.989 Y120.63 E395.33835
G0 F7800 X42.989 Y120.206
G1 F720 X50.137 Y127.353 E395.65353
G0 F7800 X50.394 Y127.186
G1 F720 X42.989 Y119.781 E395.98007
G0 F7800 X42.989 Y119.357
G1 F720 X50.68 Y127.047 E396.3192
G0 F7800 X50.982 Y126.925
G1 F720 X42.989 Y118.933 E396.67165
G0 F7800 X42.989 Y118.508
G1 F720 X51.315 Y126.834 E397.0388
G0 F7800 X51.685 Y126.78
G1 F720 X42.989 Y118.084 E397.42227
G0 F7800 X42.989 Y117.66
G1 F720 X52.095 Y126.765 E397.82379
G0 F7800 X52.569 Y126.816
G1 F720 X42.989 Y117.236 E398.24624
G0 F7800 X42.989 Y116.811
G1 F720 X53.157 Y126.979 E398.69462
G0 F7800 X92.268 Y120.27
G0 X92.268 Y120.27
G1 F720 X42.989 Y70.991 E400.86768
G0 F7800 X42.989 Y70.567
G1 F720 X92.268 Y119.846 E403.04075
G0 F7800 X92.319 Y119.472
G1 F720 X42.989 Y70.142 E405.21606
G0 F7800 X42.989 Y69.718
G1 F720 X92.398 Y119.126 E407.39483
G0 F7800 X92.529 Y118.833
G1 F720 X42.989 Y69.294 E409.57938
G0 F7800 X42.989 Y68.87
G1 F720 X92.675 Y118.555 E411.77037
G0 F7800 X92.853 Y118.308
G1 F720 X42.989 Y68.445 E413.96921
G0 F7800 X42.989 Y68.021
G1 F720 X93.048 Y118.08 E416.17666
G0 F7800 X93.272 Y117.879
G1 F720 X42.989 Y67.597 E418.39398
G0 F7800 X42.989 Y67.173
G1 F720 X93.518 Y117.701 E420.62214
G0 F7800 X93.787 Y117.545
G1 F720 X42.989 Y66.748 E422.86216
G0 F7800 X42.989 Y66.324
G1 F720 X94.089 Y117.423 E425.1155
G0 F7800 X94.41 Y117.32
G1 F720 X42.989 Y65.9 E427.383
G0 F7800 X42.989 Y71.415
G0 X42.989 Y71.415
G1 F720 X92.381 Y120.807 E429.56105
G0 F7800 X92.891 Y121.741
G1 F720 X42.989 Y71.839 E431.76158
G0 F7800 X42.989 Y72.264
G1 F720 X109.735 Y139.01 E434.70489
G0 F7800 X109.311 Y139.01
G1 F720 X42.989 Y72.688 E437.6295
G0 F7800 X52.079 Y60.988
G0 X52.079 Y60.988
G1 F720 X130.1 Y139.01 E441.07002
G0 F7800 X130.524 Y139.01
G1 F720 X52.503 Y60.988 E444.51054
G0 F7800 X52.927 Y60.988
G1 F720 X130.949 Y139.01 E447.95109
G0 F7800 X131.373 Y139.01
G1 F720 X53.351 Y60.988 E451.39164
G0 F7800 X53.776 Y60.988
G1 F720 X131.797 Y139.01 E454.83216
G0 F7800 X132.221 Y139.01
G1 F720 X54.2 Y60.988 E458.27268
G0 F7800 X54.624 Y60.988
G1 F720 X132.646 Y139.01 E461.71323
G0 F7800 X133.07 Y139.01
G1 F720 X55.048 Y60.988 E465.15378
G0 F7800 X55.473 Y60.988
G1 F720 X133.494 Y139.01 E468.5943
G0 F7800 X133.918 Y139.01
G1 F720 X55.897 Y60.988 E472.03482
G0 F7800 X56.321 Y60.988
G1 F720 X134.343 Y139.01 E475.47537
G0 F7800 X134.767 Y139.01
G1 F720 X56.746 Y60.988 E478.91589
G0 F7800 X57.17 Y60.988
G1 F720 X135.191 Y139.01 E482.35642
G0 F7800 X135.616 Y139.01
G1 F720 X57.594 Y60.988 E485.79696
G0 F7800 X58.018 Y60.988
G1 F720 X136.04 Y139.01 E489.23751
G0 F7800 X136.464 Y139.01
G1 F720 X58.443 Y60.988 E492.67803
G0 F7800 X58.867 Y60.988
G1 F720 X136.888 Y139.01 E496.11856
G0 F7800 X137.313 Y139.01
G1 F720 X59.291 Y60.988 E499.5591
G0 F7800 X59.715 Y60.988
G1 F720 X137.737 Y139.01 E502.99965
G0 F7800 X138.161 Y139.01
G1 F720 X60.14 Y60.988 E506.44017
G0 F7800 X60.564 Y60.988
G1 F720 X138.585 Y139.01 E509.8807
G0 F7800 X139.01 Y139.01
G1 F720 X60.988 Y60.988 E513.32124
G0 F7800 X61.412 Y60.988
G1 F720 X139.434 Y139.01 E516.76179
G0 F7800 X139.858 Y139.01
G1 F720 X61.837 Y60.988 E520.20231
G0 F7800 X62.261 Y60.988
G1 F720 X140.282 Y139.01 E523.64284
G0 F7800 X140.707 Y139.01
G1 F720 X62.685 Y60.988 E527.08338
G0 F7800 X63.109 Y60.988
G1 F720 X141.131 Y139.01 E530.52393
G0 F7800 X141.555 Y139.01
G1 F720 X63.534 Y60.988 E533.96445
G0 F7800 X63.958 Y60.988
G1 F720 X141.979 Y139.01 E537.40498
G0 F7800 X142.404 Y139.01
G1 F720 X64.382 Y60.988 E540.84552
G0 F7800 X64.807 Y60.988
G1 F720 X142.828 Y139.01 E544.28605
G0 F7800 X143.252 Y139.01
G1 F720 X65.231 Y60.988 E547.72657
G0 F7800 X65.655 Y60.988
G1 F720 X143.677 Y139.01 E551.16712
G0 F7800 X144.101 Y139.01
G1 F720 X66.079 Y60.988 E554.60766
G0 F7800 X66.504 Y60.988
G1 F720 X144.525 Y139.01 E558.04819
G0 F7800 X144.949 Y139.01
G1 F720 X66.928 Y60.988 E561.48871
G0 F7800 X67.352 Y60.988
G1 F720 X145.374 Y139.01 E564.92926
G0 F7800 X145.798 Y139.01
G1 F720 X67.776 Y60.988 E568.3698
G0 F7800 X68.201 Y60.988
G1 F720 X146.222 Y139.01 E571.81033
G0 F7800 X146.646 Y139.01
G1 F720 X68.625 Y60.988 E575.25085
G0 F7800 X69.049 Y60.988
G1 F720 X147.071 Y139.01 E578.69139
G0 F7800 X147.495 Y139.01
G1 F720 X69.473 Y60.988 E582.13194
G0 F7800 X69.898 Y60.988
G1 F720 X147.919 Y139.01 E585.57246
G0 F7800 X148.343 Y139.01
G1 F720 X70.322 Y60.988 E589.01299
G0 F7800 X70.746 Y60.988
G1 F720 X148.768 Y139.01 E592.45353
G0 F7800 X149.192 Y139.01
G1 F720 X71.171 Y60.988 E595.89406
G0 F7800 X71.595 Y60.989
G1 F720 X149.616 Y139.01 E599.33456
G0 F7800 X150.04 Y139.01
G1 F720 X72.02 Y60.989 E602.77504
G0 F7800 X72.444 Y60.989
G1 F720 X150.465 Y139.01 E606.21554
G0 F7800 X150.889 Y139.01
G1 F720 X72.868 Y60.989 E609.65604
G0 F7800 X73.293 Y60.989
G1 F720 X151.313 Y139.01 E613.09652
G0 F7800 X151.738 Y139.01
G1 F720 X73.717 Y60.989 E616.53703
G0 F7800 X74.141 Y60.989
G1 F720 X152.162 Y139.01 E619.97753
G0 F7800 X152.586 Y139.01
G1 F720 X146.378 Y132.801 E620.2513
G0 F7800 X147.107 Y133.107
G1 F720 X153.01 Y139.01 E620.51161
G0 F7800 X153.435 Y139.01
G1 F720 X147.638 Y133.213 E620.76724
G0 F7800 X148.081 Y133.232
G1 F720 X153.859 Y139.01 E621.02203
G0 F7800 X154.283 Y139.01
G1 F720 X148.474 Y133.2 E621.27822
G0 F7800 X148.829 Y133.131
G1 F720 X154.707 Y139.01 E621.53744
G0 F7800 X155.132 Y139.01
G1 F720 X149.145 Y133.023 E621.80145
G0 F7800 X149.441 Y132.895
G1 F720 X155.556 Y139.01 E622.0711
G0 F7800 X155.98 Y139.01
G1 F720 X149.716 Y132.745 E622.34735
G0 F7800 X149.962 Y132.567
G1 F720 X156.404 Y139.01 E622.63145
G0 F7800 X156.829 Y139.01
G1 F720 X150.195 Y132.376 E622.92399
G0 F7800 X150.405 Y132.161
G1 F720 X157.008 Y138.765 E623.21518
G0 F7800 X157.008 Y138.341
G1 F720 X150.594 Y131.927 E623.49802
G0 F7800 X150.77 Y131.678
G1 F720 X157.008 Y137.916 E623.7731
G0 F7800 X157.008 Y137.492
G1 F720 X150.914 Y131.398 E624.04183
G0 F7800 X151.04 Y131.1
G1 F720 X157.008 Y137.068 E624.305
G0 F7800 X157.008 Y136.644
G1 F720 X151.144 Y130.779 E624.56361
G0 F7800 X151.206 Y130.417
G1 F720 X157.008 Y136.219 E624.81946
G0 F7800 X157.008 Y135.795
G1 F720 X151.232 Y130.019 E625.07416
G0 F7800 X151.204 Y129.566
G1 F720 X157.008 Y135.371 E625.33012
G0 F7800 X157.008 Y134.947
G1 F720 X151.08 Y129.018 E625.59155
G0 F7800 X150.683 Y128.197
G1 F720 X157.008 Y134.522 E625.87047
G0 F7800 X157.008 Y134.098
G1 F720 X97.724 Y74.814 E628.48472
G0 F7800 X97.719 Y75.233
G1 F720 X149.766 Y127.28 E630.77985
G0 F7800 X148.976 Y126.915
G1 F720 X97.671 Y75.609 E633.04227
G0 F7800 X97.567 Y75.929
G1 F720 X139.169 Y117.532 E634.87682
G0 F7800 X138.535 Y117.322
G1 F720 X97.443 Y76.23 E636.68886
G0 F7800 X97.286 Y76.497
G1 F720 X138.057 Y117.268 E638.48674
G0 F7800 X137.648 Y117.283
G1 F720 X97.107 Y76.743 E640.27446
G0 F7800 X96.9 Y76.96
G1 F720 X137.297 Y117.357 E642.05586
G0 F7800 X136.976 Y117.46
G1 F720 X96.677 Y77.161 E643.83293
G0 F7800 X96.421 Y77.329
G1 F720 X136.692 Y117.601 E645.60878
G0 F7800 X136.424 Y117.756
G1 F720 X96.152 Y77.484 E647.38466
G0 F7800 X95.849 Y77.605
G1 F720 X136.194 Y117.951 E649.16378
G0 F7800 X135.97 Y118.151
G1 F720 X95.501 Y77.682 E650.94835
G0 F7800 X95.129 Y77.734
G1 F720 X135.79 Y118.395 E652.74138
G0 F7800 X135.614 Y118.644
G1 F720 X94.681 Y77.711 E654.54641
G0 F7800 X94.136 Y77.59
G1 F720 X135.483 Y118.936 E656.36967
G0 F7800 X135.367 Y119.245
G1 F720 X77.111 Y60.989 E658.93859
G0 F7800 X76.687 Y60.989
G1 F720 X135.292 Y119.595 E661.52293
G0 F7800 X135.268 Y119.994
G1 F720 X76.262 Y60.989 E664.1249
G0 F7800 X75.838 Y60.989
G1 F720 X135.304 Y120.454 E666.74716
G0 F7800 X135.481 Y121.056
G1 F720 X75.414 Y60.989 E669.39594
G0 F7800 X74.99 Y60.989
G1 F720 X144.885 Y130.884 E672.47811
G0 F7800 X144.783 Y130.358
G1 F720 X136.957 Y122.532 E672.82321
G0 F7800 X137.546 Y122.697
G1 F720 X144.763 Y129.913 E673.14144
G0 F7800 X144.792 Y129.519
G1 F720 X138.014 Y122.741 E673.44033
G0 F7800 X138.402 Y122.704
G1 F720 X144.871 Y129.173 E673.7256
G0 F7800 X144.974 Y128.852
G1 F720 X138.752 Y122.629 E673.99999
G0 F7800 X139.066 Y122.52
G1 F720 X145.099 Y128.552 E674.26601
G0 F7800 X145.256 Y128.286
G1 F720 X139.344 Y122.374 E674.52671
G0 F7800 X139.613 Y122.218
G1 F720 X145.428 Y128.033 E674.78313
G0 F7800 X145.62 Y127.801
G1 F720 X139.836 Y122.017 E675.03819
G0 F7800 X140.056 Y121.813
G1 F720 X145.837 Y127.594 E675.29312
G0 F7800 X146.067 Y127.399
G1 F720 X140.235 Y121.567 E675.55029
G0 F7800 X140.403 Y121.311
G1 F720 X146.324 Y127.232 E675.81139
G0 F7800 X146.599 Y127.083
G1 F720 X140.538 Y121.022 E676.07866
G0 F7800 X140.641 Y120.701
G1 F720 X146.893 Y126.953 E676.35436
G0 F7800 X147.224 Y126.859
G1 F720 X140.707 Y120.342 E676.64174
G0 F7800 X140.738 Y119.949
G1 F720 X147.582 Y126.793 E676.94354
G0 F7800 X147.974 Y126.761
G1 F720 X140.688 Y119.474 E677.26485
G0 F7800 X140.489 Y118.851
G1 F720 X148.426 Y126.789 E677.61487
G0 F7800 X148.095 Y127.285
G0 X147.902 Y127.251
G0 X147.477 Y127.3
G0 X147.083 Y127.408
G0 X146.692 Y127.58
G0 X146.33 Y127.814
G0 X146.025 Y128.087
G0 X145.751 Y128.416
G0 X145.532 Y128.785
G0 X145.379 Y129.165
G0 X145.282 Y129.582
G0 X145.25 Y129.99
G0 X145.281 Y130.415
G0 X145.379 Y130.834
G0 X145.537 Y131.135
G0 X145.209 Y131.632
G0 X145.209 Y131.632
G1 F720 X74.565 Y60.989 E680.73005
G0 F7800 X77.535 Y60.989
G1 F720 X92.387 Y75.84 E681.38496
G0 F7800 X92.271 Y75.3
G1 F720 X77.959 Y60.989 E682.01605
G0 F7800 X78.384 Y60.989
G1 F720 X92.268 Y74.873 E682.6283
G0 F7800 X92.314 Y74.495
G1 F720 X78.808 Y60.989 E683.22387
G0 F7800 X79.232 Y60.989
G1 F720 X92.389 Y74.146 E683.80406
G0 F7800 X92.52 Y73.853
G1 F720 X79.656 Y60.989 E684.37133
G0 F7800 X80.081 Y60.989
G1 F720 X92.663 Y73.571 E684.92616
G0 F7800 X92.84 Y73.324
G1 F720 X80.505 Y60.989 E685.47009
G0 F7800 X80.929 Y60.989
G1 F720 X93.035 Y73.095 E686.00393
G0 F7800 X93.258 Y72.893
G1 F720 X81.354 Y60.989 E686.52887
G0 F7800 X81.778 Y60.989
G1 F720 X93.501 Y72.712 E687.04582
G0 F7800 X93.77 Y72.556
G1 F720 X82.202 Y60.989 E687.55591
G0 F7800 X82.626 Y60.989
G1 F720 X94.069 Y72.431 E688.06049
G0 F7800 X94.389 Y72.327
G1 F720 X83.051 Y60.989 E688.56046
G0 F7800 X83.475 Y60.989
G1 F720 X94.765 Y72.279 E689.05832
G0 F7800 X95.184 Y72.274
G1 F720 X83.899 Y60.989 E689.55596
G0 F7800 X84.323 Y60.989
G1 F720 X95.684 Y72.35 E690.05694
G0 F7800 X96.402 Y72.643
G1 F720 X84.748 Y60.989 E690.57085
G0 F7800 X85.172 Y60.989
G1 F720 X157.008 Y132.825 E693.73861
G0 F7800 X157.008 Y132.401
G1 F720 X85.596 Y60.989 E696.88768
G0 F7800 X86.02 Y60.989
G1 F720 X157.008 Y131.977 E700.01804
G0 F7800 X157.008 Y131.552
G1 F720 X86.445 Y60.989 E703.12967
G0 F7800 X86.869 Y60.989
G1 F720 X157.008 Y131.128 E706.2226
G0 F7800 X157.008 Y130.704
G1 F720 X103.717 Y77.413 E708.57258
G0 F7800 X104.405 Y77.676
G1 F720 X157.008 Y130.28 E710.89224
G0 F7800 X157.008 Y129.855
G1 F720 X104.885 Y77.732 E713.19072
G0 F7800 X105.301 Y77.724
G1 F720 X157.008 Y129.431 E715.47085
G0 F7800 X157.008 Y129.007
G1 F720 X105.652 Y77.65 E717.73552
G0 F7800 X105.979 Y77.554
G1 F720 X157.008 Y128.583 E719.98575
G0 F7800 X157.008 Y128.158
G1 F720 X106.268 Y77.418 E722.22324
G0 F7800 X106.537 Y77.263
G1 F720 X157.008 Y127.734 E724.44887
G0 F7800 X157.008 Y127.31
G1 F720 X106.773 Y77.074 E726.66411
G0 F7800 X106.996 Y76.873
G1 F720 X157.008 Y126.886 E728.86951
G0 F7800 X157.008 Y126.461
G1 F720 X107.184 Y76.637 E731.06661
G0 F7800 X107.362 Y76.391
G1 F720 X157.008 Y126.037 E733.25586
G0 F7800 X157.008 Y125.613
G1 F720 X107.504 Y76.108 E735.43886
G0 F7800 X107.611 Y75.791
G1 F720 X157.008 Y125.189 E737.61715
G0 F7800 X157.008 Y124.764
G1 F720 X107.695 Y75.451 E739.79171
G0 F7800 X107.736 Y75.068
G1 F720 X157.008 Y124.34 E741.96446
G0 F7800 X157.008 Y123.916
G1 F720 X107.702 Y74.61 E744.13872
G0 F7800 X107.558 Y74.041
G1 F720 X157.008 Y123.491 E746.31932
G0 F7800 X157.008 Y123.067
G1 F720 X94.93 Y60.989 E749.05678
G0 F7800 X94.506 Y60.989
G1 F720 X105.952 Y72.436 E749.56154
G0 F7800 X105.388 Y72.296
G1 F720 X94.081 Y60.989 E750.06015
G0 F7800 X93.657 Y60.989
G1 F720 X104.93 Y72.262 E750.55725
G0 F7800 X104.546 Y72.302
G1 F720 X93.233 Y60.989 E751.05612
G0 F7800 X92.809 Y60.989
G1 F720 X104.206 Y72.386 E751.5587
G0 F7800 X103.886 Y72.491
G1 F720 X92.384 Y60.989 E752.0659
G0 F7800 X91.96 Y60.989
G1 F720 X103.617 Y72.646 E752.57994
G0 F7800 X103.354 Y72.807
G1 F720 X91.536 Y60.989 E753.10108
G0 F7800 X91.112 Y60.989
G1 F720 X103.13 Y73.008 E753.63106
G0 F7800 X102.917 Y73.218
G1 F720 X90.687 Y60.989 E754.17035
G0 F7800 X90.263 Y60.989
G1 F720 X102.739 Y73.465 E754.72051
G0 F7800 X102.576 Y73.726
G1 F720 X89.839 Y60.989 E755.28217
G0 F7800 X89.415 Y60.989
G1 F720 X102.446 Y74.02 E755.8568
G0 F7800 X102.347 Y74.345
G1 F720 X88.99 Y60.989 E756.44578
G0 F7800 X88.566 Y60.989
G1 F720 X102.272 Y74.695 E757.05018
G0 F7800 X102.268 Y75.115
G1 F720 X88.142 Y60.989 E757.6731
G0 F7800 X87.718 Y60.989
G1 F720 X102.337 Y75.608 E758.31775
G0 F7800 X102.579 Y76.275
G1 F720 X87.293 Y60.989 E758.99182
G0 F7800 X95.354 Y60.989
G1 F720 X157.008 Y122.643 E761.71058
G0 F7800 X157.008 Y122.219
G1 F720 X95.779 Y60.989 E764.41063
G0 F7800 X96.203 Y60.989
G1 F720 X157.008 Y121.794 E767.09195
G0 F7800 X157.008 Y121.37
G1 F720 X96.627 Y60.989 E769.75458
G0 F7800 X97.051 Y60.989
G1 F720 X157.008 Y120.946 E772.39851
G0 F7800 X157.008 Y120.522
G1 F720 X97.476 Y60.989 E775.02373
G0 F7800 X97.9 Y60.989
G1 F720 X157.008 Y120.097 E777.63022
G0 F7800 X157.008 Y119.673
G1 F720 X98.324 Y60.989 E780.21802
G0 F7800 X98.748 Y60.989
G1 F720 X157.008 Y119.249 E782.78711
G0 F7800 X157.008 Y118.825
G1 F720 X99.173 Y60.989 E785.33749
G0 F7800 X99.597 Y60.989
G1 F720 X157.008 Y118.4 E787.86915
G0 F7800 X157.008 Y117.976
G1 F720 X100.021 Y60.989 E790.38212
G0 F7800 X100.445 Y60.989
G1 F720 X157.008 Y117.552 E792.87638
G0 F7800 X157.008 Y117.127
G1 F720 X100.87 Y60.989 E795.35191
G0 F7800 X101.294 Y60.989
G1 F720 X157.008 Y116.703 E797.80873
G0 F7800 X157.008 Y116.279
G1 F720 X101.718 Y60.989 E800.24686
G0 F7800 X102.142 Y60.989
G1 F720 X157.008 Y115.855 E802.6663
G0 F7800 X157.008 Y115.43
G1 F720 X102.567 Y60.989 E805.06699
G0 F7800 X102.991 Y60.989
G1 F720 X157.008 Y115.006 E807.44898
G0 F7800 X157.008 Y114.582
G1 F720 X103.415 Y60.989 E809.81228
G0 F7800 X103.84 Y60.989
G1 F720 X157.008 Y114.158 E812.15686
G0 F7800 X157.008 Y113.733
G1 F720 X104.264 Y60.989 E814.48272
G0 F7800 X104.688 Y60.989
G1 F720 X157.008 Y113.309 E816.78988
G0 F7800 X157.008 Y112.885
G1 F720 X105.112 Y60.989 E819.07834
G0 F7800 X105.537 Y60.989
G1 F720 X157.008 Y112.461 E821.34809
G0 F7800 X157.008 Y112.036
G1 F720 X105.961 Y60.989 E823.59911
G0 F7800 X106.385 Y60.989
G1 F720 X157.008 Y111.612 E825.83144
G0 F7800 X157.008 Y111.188
G1 F720 X106.809 Y60.989 E828.04507
G0 F7800 X107.234 Y60.989
G1 F720 X157.008 Y110.764 E830.23999
G0 F7800 X157.008 Y110.339
G1 F720 X107.658 Y60.989 E832.41618
G0 F7800 X108.082 Y60.989
G1 F720 X157.008 Y109.915 E834.57368
G0 F7800 X157.008 Y109.491
G1 F720 X108.506 Y60.989 E836.71247
G0 F7800 X108.931 Y60.989
G1 F720 X157.008 Y109.066 E838.83253
G0 F7800 X157.008 Y108.642
G1 F720 X109.355 Y60.989 E840.93389
G0 F7800 X109.779 Y60.989
G1 F720 X157.008 Y108.218 E843.01656
G0 F7800 X157.008 Y107.794
G1 F720 X110.204 Y60.989 E845.0805
G0 F7800 X110.628 Y60.989
G1 F720 X157.008 Y107.369 E847.12572
G0 F7800 X157.008 Y106.945
G1 F720 X111.052 Y60.989 E849.15225
G0 F7800 X111.476 Y60.989
G1 F720 X157.008 Y106.521 E851.16008
G0 F7800 X157.008 Y106.097
G1 F720 X111.901 Y60.989 E853.14919
G0 F7800 X112.325 Y60.989
G1 F720 X157.008 Y105.672 E855.11959
G0 F7800 X157.008 Y105.248
G1 F720 X112.749 Y60.989 E857.07128
G0 F7800 X113.173 Y60.989
G1 F720 X157.008 Y104.824 E859.00428
G0 F7800 X157.008 Y104.4
G1 F720 X113.598 Y60.989 E860.91856
G0 F7800 X114.022 Y60.989
G1 F720 X157.008 Y103.975 E862.81411
G0 F7800 X157.008 Y103.551
G1 F720 X114.446 Y60.989 E864.69098
G0 F7800 X114.87 Y60.989
G1 F720 X157.008 Y103.127 E866.54914
G0 F7800 X157.008 Y102.703
G1 F720 X115.295 Y60.989 E868.38859
G0 F7800 X115.719 Y60.989
G1 F720 X157.008 Y102.278 E870.20931
G0 F7800 X157.008 Y101.854
G1 F720 X116.143 Y60.989 E872.01134
G0 F7800 X116.567 Y60.989
G1 F720 X157.008 Y101.43 E873.79467
G0 F7800 X157.008 Y101.005
G1 F720 X116.992 Y60.989 E875.55926
G0 F7800 X117.416 Y60.989
G1 F720 X157.008 Y100.581 E877.30516
G0 F7800 X157.008 Y100.157
G1 F720 X117.84 Y60.989 E879.03235
G0 F7800 X118.265 Y60.989
G1 F720 X157.009 Y99.733 E880.74085
G0 F7800 X157.009 Y99.309
G1 F720 X118.689 Y60.989 E882.43065
G0 F7800 X119.113 Y60.989
G1 F720 X157.009 Y98.885 E884.10176
G0 F7800 X157.009 Y98.461
G1 F720 X119.537 Y60.989 E885.75417
G0 F7800 X119.962 Y60.989
G1 F720 X157.009 Y98.036 E887.38783
G0 F7800 X157.009 Y97.612
G1 F720 X136.915 Y77.518 E888.27392
G0 F7800 X137.514 Y77.693
G1 F720 X157.009 Y97.188 E889.13359
G0 F7800 X157.009 Y96.764
G1 F720 X137.987 Y77.742 E889.97241
G0 F7800 X138.379 Y77.709
G1 F720 X157.009 Y96.339 E890.79394
G0 F7800 X157.009 Y95.915
G1 F720 X138.729 Y77.635 E891.60003
G0 F7800 X139.046 Y77.528
G1 F720 X157.009 Y95.491 E892.39215
G0 F7800 X157.009 Y95.066
G1 F720 X139.327 Y77.385 E893.17185
G0 F7800 X139.597 Y77.23
G1 F720 X157.009 Y94.642 E893.93967
G0 F7800 X157.009 Y94.218
G1 F720 X139.822 Y77.031 E894.69757
G0 F7800 X140.044 Y76.829
G1 F720 X157.009 Y93.794 E895.44568
G0 F7800 X157.009 Y93.369
G1 F720 X140.223 Y76.583 E896.18589
G0 F7800 X140.393 Y76.33
G1 F720 X157.009 Y92.945 E896.91859
G0 F7800 X157.009 Y92.521
G1 F720 X140.531 Y76.042 E897.64524
G0 F7800 X140.634 Y75.721
G1 F720 X157.009 Y92.097 E898.36736
G0 F7800 X157.009 Y91.672
G1 F720 X140.704 Y75.367 E899.08636
G0 F7800 X140.741 Y74.98
G1 F720 X157.009 Y91.248 E899.80373
G0 F7800 X157.009 Y90.824
G1 F720 X140.691 Y74.506 E900.52331
G0 F7800 X140.512 Y73.903
G1 F720 X157.009 Y90.4 E901.25078
G0 F7800 X157.009 Y89.975
G1 F720 X128.023 Y60.989 E902.52898
G0 F7800 X128.447 Y60.989
G1 F720 X157.009 Y89.551 E903.78848
G0 F7800 X157.009 Y89.127
G1 F720 X128.872 Y60.99 E905.02924
G0 F7800 X129.296 Y60.99
G1 F720 X157.009 Y88.703 E906.2513
G0 F7800 X157.009 Y88.278
G1 F720 X129.72 Y60.99 E907.45465
G0 F7800 X130.145 Y60.99
G1 F720 X157.009 Y87.854 E908.63927
G0 F7800 X157.009 Y87.43
G1 F720 X130.569 Y60.99 E909.8052
G0 F7800 X130.993 Y60.99
G1 F720 X157.009 Y87.005 E910.95241
G0 F7800 X157.009 Y86.581
G1 F720 X131.417 Y60.99 E912.08092
G0 F7800 X131.842 Y60.99
G1 F720 X157.009 Y86.157 E913.19072
G0 F7800 X157.009 Y85.733
G1 F720 X132.266 Y60.99 E914.28181
G0 F7800 X132.69 Y60.99
G1 F720 X157.009 Y85.308 E915.35419
G0 F7800 X157.009 Y84.884
G1 F720 X133.114 Y60.99 E916.40786
G0 F7800 X133.539 Y60.99
G1 F720 X157.009 Y84.46 E917.44282
G0 F7800 X157.009 Y84.036
G1 F720 X133.963 Y60.99 E918.45909
G0 F7800 X134.387 Y60.99
G1 F720 X157.009 Y83.611 E919.45663
G0 F7800 X157.009 Y83.187
G1 F720 X146.851 Y73.029 E919.90457
G0 F7800 X147.435 Y73.189
G1 F720 X157.009 Y82.763 E920.32675
G0 F7800 X157.009 Y82.339
G1 F720 X147.909 Y73.239 E920.72804
G0 F7800 X148.319 Y73.224
G1 F720 X157.009 Y81.914 E921.11124
G0 F7800 X157.009 Y81.49
G1 F720 X148.68 Y73.161 E921.47853
G0 F7800 X149.014 Y73.071
G1 F720 X157.009 Y81.066 E921.83108
G0 F7800 X157.009 Y80.641
G1 F720 X149.326 Y72.959 E922.16986
G0 F7800 X149.601 Y72.809
G1 F720 X157.009 Y80.217 E922.49653
G0 F7800 X157.009 Y79.793
G1 F720 X149.862 Y72.646 E922.81169
G0 F7800 X150.101 Y72.461
G1 F720 X157.009 Y79.369 E923.11632
G0 F7800 X157.009 Y78.944
G1 F720 X150.316 Y72.252 E923.41144
G0 F7800 X150.521 Y72.032
G1 F720 X157.009 Y78.52 E923.69754
G0 F7800 X157.009 Y78.096
G1 F720 X150.696 Y71.783 E923.97592
G0 F7800 X150.854 Y71.517
G1 F720 X157.009 Y77.672 E924.24734
G0 F7800 X157.009 Y77.247
G1 F720 X150.995 Y71.233 E924.51254
G0 F7800 X151.1 Y70.915
G1 F720 X157.009 Y76.823 E924.77309
G0 F7800 X157.009 Y76.399
G1 F720 X151.182 Y70.572 E925.03004
G0 F7800 X151.232 Y70.198
G1 F720 X157.009 Y75.975 E925.28479
G0 F7800 X157.009 Y75.55
G1 F720 X151.232 Y69.773 E925.53954
G0 F7800 X151.158 Y69.275
G1 F720 X157.009 Y75.126 E925.79755
G0 F7800 X157.009 Y74.702
G1 F720 X150.917 Y68.609 E926.06622
G0 F7800 X149.377 Y67.069
G0 X149.377 Y67.069
G1 F720 X143.297 Y60.99 E926.3343
G0 F7800 X142.873 Y60.99
G1 F720 X148.732 Y66.849 E926.59267
G0 F7800 X148.232 Y66.773
G1 F720 X142.448 Y60.99 E926.84771
G0 F7800 X142.024 Y60.99
G1 F720 X147.802 Y66.768 E927.1025
G0 F7800 X147.423 Y66.813
G1 F720 X141.6 Y60.99 E927.35928
G0 F7800 X141.175 Y60.99
G1 F720 X147.084 Y66.898 E927.61982
G0 F7800 X146.77 Y67.008
G1 F720 X140.751 Y60.99 E927.88522
G0 F7800 X140.327 Y60.99
G1 F720 X146.476 Y67.139 E928.15638
G0 F7800 X146.216 Y67.303
G1 F720 X139.903 Y60.99 E928.43476
G0 F7800 X139.478 Y60.99
G1 F720 X145.968 Y67.479 E928.72093
G0 F7800 X145.743 Y67.679
G1 F720 X139.054 Y60.99 E929.01589
G0 F7800 X138.63 Y60.99
G1 F720 X145.54 Y67.899 E929.32058
G0 F7800 X145.348 Y68.132
G1 F720 X138.206 Y60.99 E929.63553
G0 F7800 X137.781 Y60.99
G1 F720 X145.19 Y68.399 E929.96224
G0 F7800 X145.045 Y68.678
G1 F720 X137.357 Y60.99 E930.30126
G0 F7800 X136.933 Y60.99
G1 F720 X144.923 Y68.98 E930.6536
G0 F7800 X144.837 Y69.318
G1 F720 X136.509 Y60.99 E931.02084
G0 F7800 X136.084 Y60.99
G1 F720 X144.78 Y69.686 E931.40431
G0 F7800 X144.765 Y70.094
G1 F720 X135.66 Y60.99 E931.80579
G0 F7800 X135.236 Y60.99
G1 F720 X144.809 Y70.563 E932.22793
G0 F7800 X144.978 Y71.156
G1 F720 X134.812 Y60.99 E932.67622
G0 F7800 X127.598 Y60.989
G1 F720 X139.121 Y72.511 E933.18433
G0 F7800 X138.492 Y72.307
G1 F720 X127.174 Y60.989 E933.68342
G0 F7800 X126.75 Y60.989
G1 F720 X138.017 Y72.256 E934.18026
G0 F7800 X137.63 Y72.293
G1 F720 X126.326 Y60.989 E934.67874
G0 F7800 X125.901 Y60.989
G1 F720 X137.276 Y72.363 E935.18032
G0 F7800 X136.955 Y72.467
G1 F720 X125.477 Y60.989 E935.68647
G0 F7800 X125.053 Y60.989
G1 F720 X136.675 Y72.611 E936.19896
G0 F7800 X136.406 Y72.766
G1 F720 X124.628 Y60.989 E936.71832
G0 F7800 X124.204 Y60.989
G1 F720 X136.179 Y72.964 E937.24638
G0 F7800 X135.956 Y73.165
G1 F720 X123.78 Y60.989 E937.78331
G0 F7800 X123.356 Y60.989
G1 F720 X135.778 Y73.411 E938.33108
G0 F7800 X135.605 Y73.662
G1 F720 X122.931 Y60.989 E938.88995
G0 F7800 X122.507 Y60.989
G1 F720 X135.474 Y73.956 E939.46175
G0 F7800 X135.363 Y74.269
G1 F720 X122.083 Y60.989 E940.04736
G0 F7800 X121.659 Y60.989
G1 F720 X135.288 Y74.618 E940.64836
G0 F7800 X135.268 Y75.022
G1 F720 X121.234 Y60.989 E941.2672
G0 F7800 X120.81 Y60.989
G1 F720 X135.311 Y75.49 E941.90665
G0 F7800 X135.504 Y76.108
G1 F720 X120.386 Y60.989 E942.57334
G0 F7800 X143.721 Y60.99
G1 F720 X157.009 Y74.278 E943.1593
G0 F7800 X157.009 Y73.853
G1 F720 X144.145 Y60.99 E943.72654
G0 F7800 X144.57 Y60.99
G1 F720 X157.009 Y73.429 E944.27507
G0 F7800 X157.009 Y73.005
G1 F720 X144.994 Y60.99 E944.80489
G0 F7800 X145.418 Y60.99
G1 F720 X157.009 Y72.58 E945.316
G0 F7800 X157.009 Y72.156
G1 F720 X145.842 Y60.99 E945.80841
G0 F7800 X146.267 Y60.99
G1 F720 X157.009 Y71.732 E946.2821
G0 F7800 X157.009 Y71.308
G1 F720 X146.691 Y60.99 E946.7371
G0 F7800 X147.115 Y60.99
G1 F720 X157.009 Y70.883 E947.17337
G0 F7800 X157.009 Y70.459
G1 F720 X147.539 Y60.99 E947.59095
G0 F7800 X147.964 Y60.99
G1 F720 X157.009 Y70.035 E947.98981
G0 F7800 X157.009 Y69.611
G1 F720 X148.388 Y60.99 E948.36997
G0 F7800 X148.812 Y60.99
G1 F720 X157.009 Y69.186 E948.73141
G0 F7800 X157.009 Y68.762
G1 F720 X149.237 Y60.99 E949.07413
G0 F7800 X149.661 Y60.99
G1 F720 X157.009 Y68.338 E949.39816
G0 F7800 X157.009 Y67.914
G1 F720 X150.085 Y60.99 E949.70349
G0 F7800 X150.509 Y60.99
G1 F720 X157.009 Y67.489 E949.9901
G0 F7800 X157.009 Y67.065
G1 F720 X150.934 Y60.99 E950.25799
G0 F7800 X151.358 Y60.99
G1 F720 X157.009 Y66.641 E950.50718
G0 F7800 X157.009 Y66.217
G1 F720 X151.782 Y60.99 E950.73768
G0 F7800 X152.206 Y60.99
G1 F720 X157.009 Y65.792 E950.94945
G0 F7800 X157.009 Y65.368
G1 F720 X152.631 Y60.99 E951.14251
G0 F7800 X153.055 Y60.99
G1 F720 X157.009 Y64.944 E951.31687
G0 F7800 X157.009 Y64.519
G1 F720 X153.479 Y60.99 E951.47251
G0 F7800 X153.903 Y60.99
G1 F720 X157.009 Y64.095 E951.60945
G0 F7800 X157.009 Y63.671
G1 F720 X154.328 Y60.99 E951.72768
G0 F7800 X154.752 Y60.99
G1 F720 X157.009 Y63.247 E951.82721
G0 F7800 X157.009 Y62.822
G1 F720 X155.176 Y60.99 E951.90801
G0 F7800 X155.6 Y60.99
G1 F720 X157.009 Y62.398 E951.97012
G0 F7800 X157.009 Y61.974
G1 F720 X156.025 Y60.99 E952.01352
G0 F7800 X156.449 Y60.99
G1 F720 X157.009 Y61.55 E952.03821
G0 F7800 X157.009 Y61.125
G1 F720 X156.873 Y60.99 E952.04419
G0 F7800 X97.645 Y74.311
G0 X97.645 Y74.311
G1 F720 X157.008 Y133.674 E954.66192
G0 F7800 X157.008 Y133.25
G1 F720 X97.32 Y73.561 E957.29401
G0 F7800 X97.285 Y118.499
G0 X97.285 Y118.499
G1 F720 X117.796 Y139.01 E958.19849
G0 F7800 X117.372 Y139.01
G1 F720 X97.634 Y119.271 E959.0689
G0 F7800 X97.722 Y119.783
G1 F720 X116.948 Y139.01 E959.91674
G0 F7800 X116.524 Y139.01
G1 F720 X97.722 Y120.208 E960.74585
G0 F7800 X97.678 Y120.588
G1 F720 X116.099 Y139.01 E961.55818
G0 F7800 X115.675 Y139.01
G1 F720 X97.575 Y120.909 E962.35636
G0 F7800 X97.453 Y121.212
G1 F720 X115.251 Y139.01 E963.14121
G0 F7800 X114.827 Y139.01
G1 F720 X97.298 Y121.481 E963.91418
G0 F7800 X97.119 Y121.727
G1 F720 X114.402 Y139.01 E964.67631
G0 F7800 X113.978 Y139.01
G1 F720 X96.915 Y121.946 E965.42877
G0 F7800 X96.692 Y122.148
G1 F720 X113.554 Y139.01 E966.17233
G0 F7800 X113.13 Y139.01
G1 F720 X96.439 Y122.319 E966.90836
G0 F7800 X96.17 Y122.475
G1 F720 X112.705 Y139.01 E967.6375
G0 F7800 X112.281 Y139.01
G1 F720 X95.868 Y122.597 E968.36127
G0 F7800 X95.525 Y122.678
G1 F720 X111.857 Y139.01 E969.08146
G0 F7800 X111.432 Y139.01
G1 F720 X95.154 Y122.731 E969.7993
G0 F7800 X94.712 Y122.713
G1 F720 X111.008 Y139.01 E970.51793
G0 F7800 X110.584 Y139.01
G1 F720 X94.176 Y122.601 E971.24149
G0 F7800 X93.238 Y122.088
G1 F720 X110.16 Y139.01 E971.98771
; Layer Change GCode
; LAYER:1
G4 P0
M106 S89
G0 F7800 X42.498 Y139.597 Z0.45
G0 X42.098 Y139.601
G0 X42.31 Y139.6
G0 X42.31 Y139.6
G0 X42.15 Y139.85
G0 X42.15 Y139.85
G0 X42.75 Y139.25
; TYPE:WALL-INNER
G1 F1800 X42.75 Y60.75 E973.9459
G1 X157.25 Y60.75 E976.80211
G1 X157.25 Y139.25 E978.7603
G1 X42.75 Y139.25 E981.61651
G0 F7800 X42.45 Y139.55
G1 F1800 X42.45 Y60.45 E983.58967
G1 X157.55 Y60.45 E986.46085
G1 X157.55 Y139.55 E988.43401
G1 X42.45 Y139.55 E991.30519
G0 F7800 X42.15 Y139.85
; TYPE:WALL-OUTER
G1 F1260 X42.15 Y60.15 E993.29332
G1 X157.85 Y60.15 E996.17947
G1 X157.85 Y139.85 E998.16759
G1 X42.15 Y139.85 E1001.05374
G0 F7800 X42.31 Y139.6
G0 X49.817 Y132.057
G0 X49.817 Y132.057
; TYPE:WALL-INNER
G1 F1800 X50.171 Y132.38 E1001.06569
G1 X50.577 Y132.642 E1001.07775
G1 X50.967 Y132.817 E1001.08841
G1 X51.427 Y132.946 E1001.10033
G1 X51.85 Y132.996 E1001.11095
G1 X52.331 Y132.984 E1001.12295
G1 X52.805 Y132.891 E1001.135
G1 X53.206 Y132.749 E1001.14561
G1 X53.629 Y132.522 E1001.15759
G1 X53.968 Y132.263 E1001.16823
G1 X54.304 Y131.925 E1001.18012
G1 X54.585 Y131.528 E1001.19225
G1 X54.773 Y131.146 E1001.20287
G1 X54.922 Y130.69 E1001.21484
G1 X54.995 Y130.214 E1001.22685
G1 X54.995 Y129.785 E1001.23755
G1 X54.923 Y129.312 E1001.24949
G1 X54.794 Y128.906 E1001.26012
G1 X54.587 Y128.475 E1001.27204
G1 X54.308 Y128.079 E1001.28413
G1 X54.012 Y127.772 E1001.29477
G1 X53.633 Y127.48 E1001.3067
G1 X53.258 Y127.275 E1001.31736
G1 X52.81 Y127.109 E1001.32928
G1 X52.336 Y127.016 E1001.34133
G1 X51.907 Y126.999 E1001.35204
G1 X51.432 Y127.052 E1001.36396
G1 X51.021 Y127.165 E1001.37459
G1 X50.582 Y127.354 E1001.38652
G1 X50.175 Y127.616 E1001.39859
G1 X49.855 Y127.901 E1001.40928
G1 X49.547 Y128.269 E1001.42125
G1 X49.302 Y128.684 E1001.43327
G1 X49.143 Y129.08 E1001.44392
G1 X49.033 Y129.545 E1001.45584
G1 X49 Y129.971 E1001.46649
G1 X49.032 Y130.45 E1001.47847
G1 X49.143 Y130.919 E1001.49049
G1 X49.302 Y131.315 E1001.50114
G1 X49.546 Y131.728 E1001.5131
G1 X49.817 Y132.057 E1001.52374
G0 F7800 X50.035 Y131.85
G1 F1800 X50.354 Y132.142 E1001.53452
G1 X50.721 Y132.378 E1001.54541
G1 X51.069 Y132.534 E1001.55492
G1 X51.485 Y132.651 E1001.5657
G1 X51.864 Y132.696 E1001.57522
G1 X52.298 Y132.685 E1001.58605
G1 X52.725 Y132.601 E1001.59691
G1 X53.084 Y132.474 E1001.60641
G1 X53.466 Y132.269 E1001.61722
G1 X53.769 Y132.037 E1001.62674
G1 X54.074 Y131.731 E1001.63752
G1 X54.326 Y131.374 E1001.64842
G1 X54.495 Y131.032 E1001.65793
G1 X54.629 Y130.621 E1001.66872
G1 X54.695 Y130.191 E1001.67957
G1 X54.695 Y129.808 E1001.68912
G1 X54.63 Y129.38 E1001.69992
G1 X54.514 Y129.017 E1001.70943
G1 X54.327 Y128.627 E1001.72022
G1 X54.076 Y128.27 E1001.7311
G1 X53.811 Y127.996 E1001.74061
G1 X53.469 Y127.732 E1001.75139
G1 X53.133 Y127.548 E1001.76095
G1 X52.728 Y127.398 E1001.77172
G1 X52.301 Y127.315 E1001.78257
G1 X51.918 Y127.3 E1001.79213
G1 X51.488 Y127.348 E1001.80292
G1 X51.121 Y127.448 E1001.81241
G1 X50.724 Y127.619 E1001.8232
G1 X50.357 Y127.856 E1001.83409
G1 X50.071 Y128.11 E1001.84364
G1 X49.793 Y128.443 E1001.85446
G1 X49.572 Y128.817 E1001.86529
G1 X49.43 Y129.171 E1001.87481
G1 X49.33 Y129.591 E1001.88558
G1 X49.301 Y129.973 E1001.89513
G1 X49.329 Y130.405 E1001.90593
G1 X49.43 Y130.828 E1001.91678
G1 X49.572 Y131.182 E1001.9263
G1 X49.792 Y131.555 E1001.9371
G1 X50.035 Y131.85 E1001.94663
G0 F7800 X50.293 Y131.962
G0 X50.698 Y132.42
G0 X51.052 Y132.581
G0 X51.477 Y132.699
G0 X51.862 Y132.744
G0 X51.825 Y132.63
G0 X51.85 Y132.642
G0 X51.85 Y132.642
G0 X51.878 Y132.395
; TYPE:WALL-OUTER
G1 F1260 X52.265 Y132.386 E1001.95629
G1 X52.646 Y132.311 E1001.96597
G1 X52.962 Y132.199 E1001.97434
G1 X53.303 Y132.016 E1001.98399
G1 X53.571 Y131.811 E1001.99241
G1 X53.843 Y131.538 E1002.00202
G1 X54.067 Y131.22 E1002.01172
G1 X54.216 Y130.919 E1002.0201
G1 X54.336 Y130.551 E1002.02976
G1 X54.395 Y130.168 E1002.03943
G1 X54.395 Y129.831 E1002.04783
G1 X54.337 Y129.449 E1002.05747
G1 X54.235 Y129.128 E1002.06587
G1 X54.068 Y128.78 E1002.0755
G1 X53.844 Y128.462 E1002.0852
G1 X53.61 Y128.22 E1002.0936
G1 X53.304 Y127.984 E1002.10324
G1 X53.008 Y127.822 E1002.11166
G1 X52.647 Y127.688 E1002.12126
G1 X52.266 Y127.614 E1002.13094
G1 X51.929 Y127.601 E1002.13936
G1 X51.545 Y127.643 E1002.14899
G1 X51.22 Y127.732 E1002.1574
G1 X50.865 Y127.885 E1002.16704
G1 X50.539 Y128.095 E1002.17672
G1 X50.287 Y128.319 E1002.18513
G1 X50.039 Y128.616 E1002.19478
G1 X49.842 Y128.95 E1002.20445
G1 X49.717 Y129.262 E1002.21284
G1 X49.627 Y129.638 E1002.22248
G1 X49.602 Y129.974 E1002.23088
G1 X49.627 Y130.36 E1002.24053
G1 X49.717 Y130.737 E1002.2502
G1 X49.842 Y131.049 E1002.25859
G1 X50.039 Y131.382 E1002.26824
G1 X50.253 Y131.643 E1002.27666
G1 X50.538 Y131.903 E1002.28628
G1 X50.864 Y132.113 E1002.29595
G1 X51.172 Y132.251 E1002.30437
G1 X51.544 Y132.356 E1002.31401
G1 X51.878 Y132.395 E1002.3224
G0 F7800 X51.85 Y132.642
G0 X51.804 Y132.7
G0 X52.303 Y132.733
G0 X52.738 Y132.648
G0 X53.104 Y132.518
G0 X53.493 Y132.31
G0 X53.801 Y132.074
G0 X54.112 Y131.763
G0 X54.369 Y131.399
G0 X54.54 Y131.051
G0 X54.677 Y130.632
G0 X54.744 Y130.195
G0 X54.744 Y129.804
G0 X54.677 Y129.37
G0 X54.579 Y129.171
G0 X60.328 Y121.863
G0 X60.328 Y121.863
; TYPE:WALL-INNER
G1 F1800 X60.74 Y122.161 E1002.33509
G1 X61.002 Y122.293 E1002.34241
G1 X61.482 Y122.448 E1002.35499
G1 X62.007 Y122.504 E1002.36816
G1 X62.53 Y122.446 E1002.38128
G1 X63.009 Y122.291 E1002.39384
G1 X63.466 Y122.029 E1002.40698
G1 X63.858 Y121.677 E1002.42013
G1 X64.158 Y121.266 E1002.43282
G1 X64.29 Y121.004 E1002.44014
G1 X64.447 Y120.525 E1002.45271
G1 X64.502 Y120.019 E1002.46541
G1 X64.486 Y119.727 E1002.4727
G1 X64.383 Y119.234 E1002.48527
G1 X64.177 Y118.766 E1002.49802
G1 X64.004 Y118.504 E1002.50585
G1 X63.681 Y118.145 E1002.5179
G1 X63.257 Y117.834 E1002.53102
G1 X62.773 Y117.618 E1002.54424
G1 X62.256 Y117.509 E1002.55742
G1 X61.732 Y117.51 E1002.57049
G1 X61.238 Y117.615 E1002.58309
G1 X60.774 Y117.819 E1002.59573
G1 X60.51 Y117.99 E1002.60358
G1 X60.15 Y118.315 E1002.61568
G1 X59.838 Y118.737 E1002.62877
G1 X59.622 Y119.219 E1002.64194
G1 X59.51 Y119.735 E1002.65511
G1 X59.51 Y120.264 E1002.66831
G1 X59.621 Y120.779 E1002.68145
G1 X59.818 Y121.222 E1002.69355
G1 X59.987 Y121.485 E1002.70134
G1 X60.328 Y121.863 E1002.71404
G0 F7800 X60.53 Y121.639
G1 F1800 X60.897 Y121.904 E1002.72534
G1 X61.116 Y122.014 E1002.73145
G1 X61.545 Y122.153 E1002.7427
G1 X62.006 Y122.203 E1002.75427
G1 X62.466 Y122.151 E1002.76581
G1 X62.887 Y122.015 E1002.77685
G1 X63.289 Y121.785 E1002.7884
G1 X63.635 Y121.474 E1002.80001
G1 X63.901 Y121.109 E1002.81127
G1 X64.012 Y120.889 E1002.81742
G1 X64.152 Y120.462 E1002.82863
G1 X64.201 Y120.012 E1002.83992
G1 X64.187 Y119.766 E1002.84607
G1 X64.096 Y119.326 E1002.85728
G1 X63.912 Y118.91 E1002.86862
G1 X63.766 Y118.688 E1002.87525
G1 X63.479 Y118.369 E1002.88596
G1 X63.105 Y118.095 E1002.89752
G1 X62.68 Y117.905 E1002.90913
G1 X62.225 Y117.809 E1002.92073
G1 X61.764 Y117.81 E1002.93223
G1 X61.33 Y117.902 E1002.9433
G1 X60.917 Y118.084 E1002.95456
G1 X60.693 Y118.229 E1002.96121
G1 X60.373 Y118.517 E1002.97195
G1 X60.098 Y118.89 E1002.98351
G1 X59.908 Y119.313 E1002.99508
G1 X59.81 Y119.767 E1003.00667
G1 X59.81 Y120.232 E1003.01827
G1 X59.908 Y120.685 E1003.02983
G1 X60.083 Y121.079 E1003.04058
G1 X60.226 Y121.302 E1003.04719
G1 X60.53 Y121.639 E1003.05851
G0 F7800 X62.005 Y121.901
; TYPE:WALL-OUTER
G1 F1260 X62.403 Y121.856 E1003.0685
G1 X62.765 Y121.739 E1003.07799
G1 X63.112 Y121.54 E1003.08797
G1 X63.411 Y121.272 E1003.09799
G1 X63.644 Y120.952 E1003.10786
G1 X63.734 Y120.774 E1003.11284
G1 X63.857 Y120.398 E1003.12271
G1 X63.9 Y120.004 E1003.13259
G1 X63.889 Y119.805 E1003.13756
G1 X63.809 Y119.418 E1003.14742
G1 X63.648 Y119.054 E1003.15735
G1 X63.528 Y118.872 E1003.16279
G1 X63.276 Y118.592 E1003.17219
G1 X62.954 Y118.356 E1003.18214
G1 X62.587 Y118.192 E1003.19217
G1 X62.194 Y118.109 E1003.20219
G1 X61.796 Y118.11 E1003.21212
G1 X61.423 Y118.189 E1003.22163
G1 X61.06 Y118.349 E1003.23153
G1 X60.876 Y118.468 E1003.23699
G1 X60.596 Y118.72 E1003.24639
G1 X60.359 Y119.042 E1003.25636
G1 X60.195 Y119.407 E1003.26634
G1 X60.11 Y119.799 E1003.27635
G1 X60.11 Y120.2 E1003.28635
G1 X60.195 Y120.592 E1003.29636
G1 X60.348 Y120.936 E1003.30575
G1 X60.465 Y121.119 E1003.31117
G1 X60.731 Y121.414 E1003.32108
G1 X61.053 Y121.647 E1003.33099
G1 X61.231 Y121.736 E1003.33596
G1 X61.608 Y121.858 E1003.34584
G1 X62.005 Y121.901 E1003.3558
G1 F1800 E1002.3558
G0 F7800 X61.979 Y122.149
G0 X62.364 Y122.124
G0 X62.763 Y122.1
G0 X92.509 Y120.264
G0 X92.509 Y120.264
; TYPE:WALL-INNER
G1 F1800 E1003.3558
G1 X92.62 Y120.779 E1003.36894
G1 X92.817 Y121.222 E1003.38104
G1 X92.986 Y121.485 E1003.38884
G1 X93.328 Y121.864 E1003.40157
G1 X93.74 Y122.161 E1003.41424
G1 X94 Y122.292 E1003.4215
G1 X94.481 Y122.449 E1003.43412
G1 X95.007 Y122.504 E1003.44732
G1 X95.53 Y122.446 E1003.46044
G1 X96.009 Y122.291 E1003.473
G1 X96.466 Y122.029 E1003.48614
G1 X96.858 Y121.677 E1003.49928
G1 X97.158 Y121.266 E1003.51198
G1 X97.29 Y121.004 E1003.5193
G1 X97.447 Y120.525 E1003.53187
G1 X97.502 Y120.019 E1003.54457
G1 X97.486 Y119.727 E1003.55186
G1 X97.383 Y119.234 E1003.56442
G1 X97.177 Y118.766 E1003.57718
G1 X97.004 Y118.504 E1003.58501
G1 X96.681 Y118.145 E1003.59706
G1 X96.257 Y117.834 E1003.61018
G1 X95.773 Y117.618 E1003.6234
G1 X95.257 Y117.509 E1003.63655
G1 X94.774 Y117.509 E1003.6486
G1 X94.465 Y117.556 E1003.6564
G1 X93.98 Y117.713 E1003.66911
G1 X93.524 Y117.977 E1003.68226
G1 X93.149 Y118.315 E1003.69485
G1 X92.837 Y118.737 E1003.70794
G1 X92.621 Y119.219 E1003.72112
G1 X92.509 Y119.735 E1003.73429
G1 X92.509 Y120.264 E1003.74749
G0 F7800 X92.809 Y120.232
G1 F1800 X92.907 Y120.685 E1003.75905
G1 X93.082 Y121.079 E1003.7698
G1 X93.225 Y121.302 E1003.77641
G1 X93.529 Y121.639 E1003.78773
G1 X93.896 Y121.904 E1003.79902
G1 X94.115 Y122.014 E1003.80514
G1 X94.544 Y122.154 E1003.81639
G1 X95.006 Y122.203 E1003.82798
G1 X95.466 Y122.151 E1003.83953
G1 X95.887 Y122.015 E1003.85057
G1 X96.289 Y121.785 E1003.86212
G1 X96.635 Y121.474 E1003.87373
G1 X96.901 Y121.109 E1003.88499
G1 X97.012 Y120.889 E1003.89114
G1 X97.152 Y120.462 E1003.90235
G1 X97.201 Y120.012 E1003.91364
G1 X97.187 Y119.766 E1003.91979
G1 X97.096 Y119.326 E1003.93099
G1 X96.912 Y118.91 E1003.94234
G1 X96.766 Y118.688 E1003.94897
G1 X96.479 Y118.369 E1003.95967
G1 X96.105 Y118.095 E1003.97124
G1 X95.68 Y117.905 E1003.98285
G1 X95.226 Y117.809 E1003.99443
G1 X94.796 Y117.809 E1004.00515
G1 X94.534 Y117.849 E1004.01176
G1 X94.103 Y117.989 E1004.02307
G1 X93.701 Y118.221 E1004.03465
G1 X93.372 Y118.517 E1004.04569
G1 X93.097 Y118.89 E1004.05725
G1 X92.907 Y119.313 E1004.06881
G1 X92.809 Y119.767 E1004.0804
G1 X92.809 Y120.232 E1004.092
G0 F7800 X92.847 Y120.265
G0 X92.86 Y120.699
G0 X93.038 Y121.102
G0 X93.187 Y121.332
G0 X93.497 Y121.676
G0 X93.872 Y121.945
G0 X94.096 Y122.059
G0 X94.534 Y122.201
G0 X95.006 Y122.252
G0 X95.034 Y122.197
G0 X94.979 Y122.149
G0 X94.979 Y122.149
G0 X95.005 Y121.901
; TYPE:WALL-OUTER
G1 F1260 X95.403 Y121.856 E1004.10199
G1 X95.765 Y121.739 E1004.11148
G1 X96.112 Y121.54 E1004.12146
G1 X96.411 Y121.272 E1004.13147
G1 X96.644 Y120.952 E1004.14135
G1 X96.734 Y120.774 E1004.14632
G1 X96.857 Y120.398 E1004.15619
G1 X96.9 Y120.004 E1004.16608
G1 X96.889 Y119.805 E1004.17105
G1 X96.809 Y119.418 E1004.18091
G1 X96.648 Y119.054 E1004.19084
G1 X96.528 Y118.872 E1004.19628
G1 X96.276 Y118.592 E1004.20567
G1 X95.954 Y118.356 E1004.21563
G1 X95.587 Y118.192 E1004.22566
G1 X95.195 Y118.109 E1004.23565
G1 X94.819 Y118.109 E1004.24503
G1 X94.603 Y118.142 E1004.25048
G1 X94.226 Y118.264 E1004.26037
G1 X93.878 Y118.465 E1004.27039
G1 X93.595 Y118.72 E1004.2799
G1 X93.358 Y119.042 E1004.28987
G1 X93.194 Y119.407 E1004.29985
G1 X93.109 Y119.799 E1004.30986
G1 X93.109 Y120.2 E1004.31986
G1 X93.194 Y120.592 E1004.32987
G1 X93.347 Y120.936 E1004.33926
G1 X93.464 Y121.119 E1004.34468
G1 X93.73 Y121.414 E1004.35458
G1 X94.053 Y121.647 E1004.36452
G1 X94.23 Y121.736 E1004.36946
G1 X94.607 Y121.859 E1004.37935
G1 X95.005 Y121.901 E1004.38934
G0 F7800 X94.979 Y122.149
G0 X94.822 Y122.187
G0 X95.906 Y122.06
G0 X95.835 Y121.934
G0 X102.509 Y120.264
G0 X102.509 Y120.264
; TYPE:WALL-INNER
G1 F1800 X102.62 Y120.779 E1004.40248
G1 X102.817 Y121.222 E1004.41457
G1 X102.986 Y121.485 E1004.42237
G1 X103.328 Y121.864 E1004.4351
G1 X103.74 Y122.161 E1004.44777
G1 X104 Y122.292 E1004.45504
G1 X104.481 Y122.449 E1004.46766
G1 X105.007 Y122.504 E1004.48085
G1 X105.53 Y122.446 E1004.49398
G1 X106.009 Y122.291 E1004.50654
G1 X106.466 Y122.029 E1004.51968
G1 X106.858 Y121.677 E1004.53282
G1 X107.158 Y121.266 E1004.54551
G1 X107.29 Y121.004 E1004.55283
G1 X107.447 Y120.525 E1004.5654
G1 X107.502 Y120.019 E1004.5781
G1 X107.486 Y119.727 E1004.5854
G1 X107.383 Y119.234 E1004.59796
G1 X107.177 Y118.766 E1004.61071
G1 X107.004 Y118.504 E1004.61855
G1 X106.681 Y118.145 E1004.63059
G1 X106.257 Y117.834 E1004.64371
G1 X105.773 Y117.618 E1004.65693
G1 X105.257 Y117.509 E1004.67009
G1 X104.774 Y117.509 E1004.68214
G1 X104.465 Y117.556 E1004.68993
G1 X103.98 Y117.713 E1004.70265
G1 X103.524 Y117.977 E1004.71579
G1 X103.149 Y118.315 E1004.72839
G1 X102.837 Y118.737 E1004.74148
G1 X102.621 Y119.219 E1004.75465
G1 X102.509 Y119.735 E1004.76782
G1 X102.509 Y120.264 E1004.78102
G0 F7800 X102.809 Y120.232
G1 F1800 X102.907 Y120.685 E1004.79258
G1 X103.082 Y121.079 E1004.80334
G1 X103.225 Y121.302 E1004.80994
G1 X103.529 Y121.639 E1004.82127
G1 X103.896 Y121.904 E1004.83256
G1 X104.115 Y122.014 E1004.83867
G1 X104.544 Y122.154 E1004.84993
G1 X105.006 Y122.203 E1004.86152
G1 X105.466 Y122.151 E1004.87306
G1 X105.887 Y122.015 E1004.8841
G1 X106.289 Y121.785 E1004.89565
G1 X106.635 Y121.474 E1004.90726
G1 X106.901 Y121.109 E1004.91853
G1 X107.012 Y120.889 E1004.92467
G1 X107.152 Y120.462 E1004.93588
G1 X107.201 Y120.012 E1004.94717
G1 X107.187 Y119.766 E1004.95332
G1 X107.096 Y119.326 E1004.96453
G1 X106.912 Y118.91 E1004.97588
G1 X106.766 Y118.688 E1004.9825
G1 X106.479 Y118.369 E1004.99321
G1 X106.105 Y118.095 E1005.00477
G1 X105.68 Y117.905 E1005.01639
G1 X105.226 Y117.809 E1005.02796
G1 X104.796 Y117.809 E1005.03869
G1 X104.534 Y117.849 E1005.0453
G1 X104.103 Y117.989 E1005.0566
G1 X103.701 Y118.221 E1005.06818
G1 X103.372 Y118.517 E1005.07922
G1 X103.097 Y118.89 E1005.09078
G1 X102.907 Y119.313 E1005.10235
G1 X102.809 Y119.767 E1005.11393
G1 X102.809 Y120.232 E1005.12553
G0 F7800 X102.848 Y120.265
G0 X102.86 Y120.699
G0 X103.038 Y121.102
G0 X103.187 Y121.332
G0 X103.497 Y121.676
G0 X103.872 Y121.945
G0 X104.096 Y122.059
G0 X104.534 Y122.201
G0 X105.006 Y122.252
G0 X105.035 Y122.197
G0 X104.979 Y122.149
G0 X104.979 Y122.149
G0 X105.005 Y121.901
