; Generated with MatterSlice 1.0
; filamentDiameter = 1.75
; extrusionWidth = 0.3
; firstLayerExtrusionWidth = 0.3
; layerThickness = 0.2
; firstLayerThickness = 0.25
; automatic settings before start_gcode
G21 ; set units to millimeters
M107 ; fan off
M190 S75 ; wait for bed temperature to be reached
M104 T0 S210 ; start heating extruder 1
T0 ; set the active extruder to 0
; settings from start_gcode
G28 ; home all axes
G1 Z5 F5000 ; lift nozzle
; automatic settings after start_gcode
M109 T0 S210 ; wait for extruder 1 to reach temperature
T0 ; set the active extruder to 0
G90 ; use absolute coordinates
G92 E0 ; reset the expected extruder position
M82 ; use absolute distance for extrusion
; Layer count: 30
; Layer Change GCode
; LAYER:0
G4 P0
M107
G0 F7800 X160.4 Y136.4 Z0.25
; TYPE:SKIRT
G1 F1800 E0
G1 F720 X39.6 Y136.4 E3.76671
G1 X39.6 Y63.6 E6.03671
G1 X160.4 Y63.6 E9.80342
G1 X160.4 Y136.4 E12.07343
G0 F7800 X160.1 Y136.1
G1 F720 X39.9 Y136.1 E15.82143
G1 X39.9 Y63.9 E18.07273
G1 X160.1 Y63.9 E21.82073
G1 X160.1 Y136.1 E24.07202
G0 F7800 X153.95 Y129.95
G1 F720 X46.05 Y129.95 E27.43649
G1 X46.05 Y70.05 E29.30426
G1 X153.95 Y70.05 E32.66873
G1 X153.95 Y129.95 E34.53649
G0 F7800 X153.65 Y129.65
G1 F720 X46.35 Y129.65 E37.88225
G1 X46.35 Y70.35 E39.73131
G1 X153.65 Y70.35 E43.07707
G1 X153.65 Y129.65 E44.92613
G1 F1800 E43.92613
G0 F7800 X153.1 Y129.19
G0 X46.81 Y129.1
G0 X46.81 Y129.1
G0 X46.65 Y129.35
; TYPE:WALL-OUTER
G1 F1800 E44.92613
G1 F720 X46.65 Y70.65 E46.75647
G1 X153.35 Y70.65 E50.08353
G1 X153.35 Y129.35 E51.91387
G1 X46.65 Y129.35 E55.24093
G0 F7800 X46.95 Y129.05
; TYPE:WALL-INNER
G1 F720 X46.95 Y70.95 E57.05256
G1 X153.05 Y70.95 E60.36091
G1 X153.05 Y129.05 E62.17255
G1 X46.95 Y129.05 E65.48089
G0 F7800 X47.25 Y128.75
G1 F720 X47.25 Y71.25 E67.27382
G1 X152.75 Y71.25 E70.56346
G1 X152.75 Y128.75 E72.35638
G1 X47.25 Y128.75 E75.64602
G0 F7800 X52.37 Y123.145
G0 X52.37 Y123.145
G0 X52.398 Y122.897
; TYPE:WALL-OUTER
G1 F720 X52.772 Y122.885 E75.65769
G1 X53.14 Y122.813 E75.66938
G1 X53.475 Y122.693 E75.68048
G1 X53.805 Y122.514 E75.69218
G1 X54.088 Y122.299 E75.70326
G1 X54.349 Y122.03 E75.71495
G1 X54.565 Y121.724 E75.72663
G1 X54.722 Y121.405 E75.73772
G1 X54.837 Y121.048 E75.74941
G1 X54.894 Y120.678 E75.76108
G1 X54.894 Y120.321 E75.77222
G1 X54.838 Y119.952 E75.78385
G1 X54.73 Y119.611 E75.79501
G1 X54.565 Y119.275 E75.80668
G1 X54.349 Y118.969 E75.81836
G1 X54.102 Y118.712 E75.82947
G1 X53.805 Y118.485 E75.84113
G1 X53.492 Y118.314 E75.85225
G1 X53.14 Y118.186 E75.86393
G1 X52.772 Y118.115 E75.87562
G1 X52.415 Y118.101 E75.88676
G1 X52.043 Y118.143 E75.89843
G1 X51.701 Y118.237 E75.90949
G1 X51.359 Y118.389 E75.92116
G1 X51.043 Y118.592 E75.93287
G1 X50.777 Y118.83 E75.944
G1 X50.538 Y119.117 E75.95565
G1 X50.347 Y119.439 E75.96732
G1 X50.214 Y119.771 E75.97847
G1 X50.128 Y120.135 E75.99013
G1 X50.101 Y120.491 E76.00127
G1 X50.128 Y120.864 E76.01293
G1 X50.214 Y121.228 E76.02459
G1 X50.347 Y121.56 E76.03574
G1 X50.538 Y121.881 E76.04739
G1 X50.764 Y122.157 E76.05851
G1 X51.043 Y122.407 E76.07019
G1 X51.358 Y122.61 E76.08188
G1 X51.683 Y122.756 E76.09299
G1 X52.043 Y122.856 E76.10464
G1 X52.398 Y122.897 E76.11578
G0 F7800 X52.385 Y123.198
; TYPE:WALL-INNER
G1 F720 X52.806 Y123.184 E76.12892
G1 X53.219 Y123.103 E76.14204
G1 X53.598 Y122.968 E76.15458
G1 X53.968 Y122.767 E76.16771
G1 X54.287 Y122.524 E76.18022
G1 X54.58 Y122.223 E76.19332
G1 X54.824 Y121.878 E76.20649
G1 X55.001 Y121.518 E76.219
G1 X55.13 Y121.117 E76.23214
G1 X55.194 Y120.701 E76.24526
G1 X55.194 Y120.298 E76.25783
G1 X55.131 Y119.883 E76.27091
G1 X55.009 Y119.499 E76.28348
G1 X54.824 Y119.122 E76.29657
G1 X54.581 Y118.778 E76.3097
G1 X54.303 Y118.487 E76.32225
G1 X53.969 Y118.232 E76.33536
G1 X53.616 Y118.04 E76.34789
G1 X53.221 Y117.896 E76.361
G1 X52.807 Y117.816 E76.37414
G1 X52.404 Y117.8 E76.38672
G1 X51.986 Y117.848 E76.39984
G1 X51.6 Y117.954 E76.41232
G1 X51.216 Y118.124 E76.42542
G1 X50.861 Y118.353 E76.43859
G1 X50.56 Y118.621 E76.45115
G1 X50.292 Y118.944 E76.46424
G1 X50.077 Y119.306 E76.47737
G1 X49.927 Y119.68 E76.48993
G1 X49.831 Y120.089 E76.50303
G1 X49.8 Y120.49 E76.51558
G1 X49.831 Y120.909 E76.52868
G1 X49.927 Y121.319 E76.54181
G1 X50.077 Y121.693 E76.55437
G1 X50.291 Y122.054 E76.56746
G1 X50.547 Y122.365 E76.58002
G1 X50.86 Y122.646 E76.59313
G1 X51.215 Y122.875 E76.60631
G1 X51.581 Y123.039 E76.61881
G1 X51.985 Y123.151 E76.63188
G1 X52.385 Y123.198 E76.64444
G0 F7800 X52.373 Y123.499
G1 F720 X52.84 Y123.483 E76.65901
G1 X53.299 Y123.393 E76.6736
G1 X53.721 Y123.243 E76.68756
G1 X54.132 Y123.019 E76.70216
G1 X54.487 Y122.749 E76.71606
G1 X54.812 Y122.415 E76.7306
G1 X55.082 Y122.032 E76.74521
G1 X55.28 Y121.631 E76.75915
G1 X55.423 Y121.186 E76.77373
G1 X55.494 Y120.724 E76.7883
G1 X55.494 Y120.275 E76.8023
G1 X55.424 Y119.815 E76.81681
G1 X55.288 Y119.388 E76.83078
G1 X55.083 Y118.968 E76.84536
G1 X54.813 Y118.586 E76.85994
G1 X54.503 Y118.263 E76.8739
G1 X54.133 Y117.98 E76.88843
G1 X53.74 Y117.766 E76.90238
G1 X53.301 Y117.606 E76.91695
G1 X52.842 Y117.517 E76.93153
G1 X52.393 Y117.499 E76.94554
G1 X51.929 Y117.552 E76.9601
G1 X51.499 Y117.67 E76.97401
G1 X51.073 Y117.859 E76.98854
G1 X50.678 Y118.113 E77.00318
G1 X50.344 Y118.412 E77.01716
G1 X50.046 Y118.771 E77.03171
G1 X49.808 Y119.173 E77.04628
G1 X49.64 Y119.589 E77.06027
G1 X49.534 Y120.043 E77.0748
G1 X49.499 Y120.49 E77.08878
G1 X49.533 Y120.955 E77.10332
G1 X49.64 Y121.41 E77.1179
G1 X49.808 Y121.826 E77.13189
G1 X50.045 Y122.227 E77.14641
G1 X50.33 Y122.573 E77.16039
G1 X50.678 Y122.885 E77.17496
G1 X51.071 Y123.139 E77.18955
G1 X51.479 Y123.322 E77.20349
G1 X51.927 Y123.446 E77.21799
G1 X52.373 Y123.499 E77.23199
G0 F7800 X61.813 Y122.702
G0 X62.212 Y122.669
G0 X62.472 Y122.648
G0 X62.472 Y122.648
G0 X62.498 Y122.4
; TYPE:WALL-OUTER
G1 F720 X62.7 Y122.389 E77.2383
G1 X63.083 Y122.308 E77.25051
G1 X63.281 Y122.231 E77.25713
G1 X63.615 Y122.038 E77.26916
G1 X63.911 Y121.772 E77.28157
G1 X64.144 Y121.452 E77.29391
G1 X64.239 Y121.262 E77.30054
G1 X64.358 Y120.897 E77.31251
G1 X64.4 Y120.504 E77.32483
G1 X64.388 Y120.292 E77.33145
G1 X64.309 Y119.918 E77.34337
G1 X64.233 Y119.72 E77.34998
G1 X64.034 Y119.378 E77.36232
G1 X63.766 Y119.083 E77.37475
G1 X63.451 Y118.854 E77.38689
G1 X63.087 Y118.692 E77.39932
G1 X62.696 Y118.609 E77.41178
G1 X62.303 Y118.609 E77.42403
G1 X62.103 Y118.642 E77.43036
G1 X61.73 Y118.762 E77.44257
G1 X61.541 Y118.859 E77.4492
G1 X61.23 Y119.086 E77.4612
G1 X60.963 Y119.382 E77.47363
G1 X60.763 Y119.728 E77.48609
G1 X60.64 Y120.108 E77.49855
G1 X60.599 Y120.506 E77.51102
G1 X60.644 Y120.901 E77.52342
G1 X60.762 Y121.268 E77.53544
G1 X60.859 Y121.457 E77.54207
G1 X61.092 Y121.775 E77.55436
G1 X61.381 Y122.036 E77.5665
G1 X61.727 Y122.236 E77.57896
G1 X62.107 Y122.358 E77.59141
G1 X62.498 Y122.4 E77.60367
G0 F7800 X62.491 Y122.701
; TYPE:WALL-INNER
G1 F720 X62.739 Y122.687 E77.61141
G1 X63.169 Y122.597 E77.62511
G1 X63.412 Y122.502 E77.63325
G1 X63.792 Y122.282 E77.64694
G1 X64.135 Y121.974 E77.66131
G1 X64.401 Y121.609 E77.6754
G1 X64.517 Y121.377 E77.68348
G1 X64.653 Y120.96 E77.69716
G1 X64.701 Y120.511 E77.71124
G1 X64.686 Y120.252 E77.71933
G1 X64.598 Y119.833 E77.73268
G1 X64.504 Y119.59 E77.74081
G1 X64.277 Y119.2 E77.75488
G1 X63.967 Y118.858 E77.76927
G1 X63.602 Y118.593 E77.78333
G1 X63.18 Y118.405 E77.79774
G1 X62.727 Y118.309 E77.81218
G1 X62.278 Y118.309 E77.82618
G1 X62.032 Y118.349 E77.83395
G1 X61.615 Y118.484 E77.84762
G1 X61.383 Y118.603 E77.85575
G1 X61.028 Y118.862 E77.86945
G1 X60.719 Y119.205 E77.88384
G1 X60.487 Y119.605 E77.89826
G1 X60.345 Y120.046 E77.91271
G1 X60.297 Y120.507 E77.92716
G1 X60.349 Y120.964 E77.9415
G1 X60.484 Y121.383 E77.95523
G1 X60.603 Y121.615 E77.96336
G1 X60.868 Y121.977 E77.97735
G1 X61.204 Y122.28 E77.99146
G1 X61.604 Y122.512 E78.00587
G1 X62.044 Y122.653 E78.02028
G1 X62.491 Y122.701 E78.0343
G0 F7800 X62.483 Y123.002
G1 F720 X62.779 Y122.986 E78.04354
G1 X63.256 Y122.885 E78.05875
G1 X63.542 Y122.773 E78.06832
G1 X63.969 Y122.526 E78.08371
G1 X64.359 Y122.176 E78.10005
G1 X64.658 Y121.766 E78.11587
G1 X64.795 Y121.491 E78.12545
G1 X64.948 Y121.023 E78.1408
G1 X65.002 Y120.518 E78.15664
G1 X64.984 Y120.212 E78.1662
G1 X64.886 Y119.747 E78.18101
G1 X64.775 Y119.459 E78.19064
G1 X64.52 Y119.021 E78.20644
G1 X64.168 Y118.634 E78.22275
G1 X63.753 Y118.332 E78.23876
G1 X63.273 Y118.118 E78.25514
G1 X62.758 Y118.009 E78.27156
G1 X62.254 Y118.009 E78.28727
G1 X61.961 Y118.057 E78.29653
G1 X61.5 Y118.206 E78.31164
G1 X61.226 Y118.346 E78.32123
G1 X60.826 Y118.638 E78.33667
G1 X60.475 Y119.027 E78.35301
G1 X60.212 Y119.483 E78.36943
G1 X60.05 Y119.983 E78.38582
G1 X59.996 Y120.508 E78.40227
G1 X60.054 Y121.028 E78.41859
G1 X60.206 Y121.498 E78.43399
G1 X60.347 Y121.773 E78.44363
G1 X60.645 Y122.179 E78.45933
G1 X61.026 Y122.524 E78.47536
G1 X61.482 Y122.787 E78.49177
G1 X61.981 Y122.948 E78.50812
G1 X62.483 Y123.002 E78.52386
G0 F7800 X93.102 Y122.673
G0 X93.502 Y122.668
G0 X95.472 Y122.648
G0 X95.472 Y122.648
G0 X95.498 Y122.4
; TYPE:WALL-OUTER
G1 F720 X95.7 Y122.389 E78.53017
G1 X96.083 Y122.308 E78.54238
G1 X96.281 Y122.231 E78.549
G1 X96.615 Y122.038 E78.56103
G1 X96.911 Y121.772 E78.57344
G1 X97.144 Y121.452 E78.58578
G1 X97.239 Y121.262 E78.59241
G1 X97.358 Y120.897 E78.60438
G1 X97.4 Y120.504 E78.6167
G1 X97.388 Y120.292 E78.62332
G1 X97.309 Y119.918 E78.63524
G1 X97.233 Y119.72 E78.64185
G1 X97.034 Y119.378 E78.65419
G1 X96.766 Y119.083 E78.66662
G1 X96.451 Y118.854 E78.67876
G1 X96.087 Y118.692 E78.69119
G1 X95.696 Y118.609 E78.70365
G1 X95.302 Y118.609 E78.71594
G1 X95.102 Y118.642 E78.72226
G1 X94.729 Y118.762 E78.73447
G1 X94.541 Y118.859 E78.74107
G1 X94.229 Y119.086 E78.7531
G1 X93.962 Y119.382 E78.76553
G1 X93.764 Y119.724 E78.77785
G1 X93.692 Y119.914 E78.78419
G1 X93.609 Y120.3 E78.7965
G1 X93.609 Y120.695 E78.80882
G1 X93.644 Y120.905 E78.81545
G1 X93.761 Y121.268 E78.82735
G1 X93.858 Y121.457 E78.83397
G1 X94.091 Y121.775 E78.84626
G1 X94.38 Y122.036 E78.85841
G1 X94.726 Y122.236 E78.87087
G1 X95.106 Y122.359 E78.88332
G1 X95.498 Y122.4 E78.89561
G0 F7800 X95.491 Y122.701
; TYPE:WALL-INNER
G1 F720 X95.739 Y122.687 E78.90336
G1 X96.169 Y122.597 E78.91706
G1 X96.412 Y122.502 E78.92519
G1 X96.792 Y122.282 E78.93888
G1 X97.135 Y121.974 E78.95326
G1 X97.401 Y121.609 E78.96734
G1 X97.517 Y121.377 E78.97543
G1 X97.653 Y120.96 E78.9891
G1 X97.701 Y120.511 E79.00318
G1 X97.686 Y120.252 E79.01127
G1 X97.598 Y119.833 E79.02462
G1 X97.504 Y119.59 E79.03275
G1 X97.277 Y119.2 E79.04682
G1 X96.967 Y118.858 E79.06121
G1 X96.602 Y118.593 E79.07528
G1 X96.18 Y118.405 E79.08968
G1 X95.727 Y118.309 E79.10412
G1 X95.277 Y118.309 E79.11815
G1 X95.031 Y118.349 E79.12592
G1 X94.614 Y118.484 E79.13959
G1 X94.383 Y118.603 E79.14769
G1 X94.027 Y118.862 E79.16142
G1 X93.718 Y119.205 E79.17582
G1 X93.492 Y119.595 E79.18987
G1 X93.403 Y119.829 E79.19768
G1 X93.309 Y120.268 E79.21168
G1 X93.309 Y120.72 E79.22577
G1 X93.352 Y120.976 E79.23386
G1 X93.483 Y121.383 E79.2472
G1 X93.602 Y121.615 E79.25533
G1 X93.867 Y121.977 E79.26932
G1 X94.203 Y122.28 E79.28342
G1 X94.603 Y122.512 E79.29784
G1 X95.043 Y122.654 E79.31226
G1 X95.491 Y122.701 E79.3263
G0 F7800 X95.483 Y123.002
G1 F720 X95.779 Y122.986 E79.33555
G1 X96.256 Y122.885 E79.35075
G1 X96.542 Y122.773 E79.36033
G1 X96.969 Y122.526 E79.37571
G1 X97.359 Y122.176 E79.39205
G1 X97.658 Y121.766 E79.40787
G1 X97.795 Y121.491 E79.41745
G1 X97.948 Y121.023 E79.4328
G1 X98.002 Y120.518 E79.44864
G1 X97.984 Y120.212 E79.4582
G1 X97.886 Y119.747 E79.47302
G1 X97.775 Y119.459 E79.48264
G1 X97.52 Y119.021 E79.49844
G1 X97.168 Y118.634 E79.51476
G1 X96.753 Y118.332 E79.53076
G1 X96.273 Y118.118 E79.54715
G1 X95.758 Y118.009 E79.56356
G1 X95.253 Y118.009 E79.57931
G1 X94.96 Y118.057 E79.58857
G1 X94.498 Y118.206 E79.6037
G1 X94.225 Y118.347 E79.61328
G1 X93.825 Y118.638 E79.62871
G1 X93.474 Y119.027 E79.64505
G1 X93.221 Y119.466 E79.66084
G1 X93.115 Y119.744 E79.67012
G1 X93.009 Y120.236 E79.68581
G1 X93.009 Y120.745 E79.70169
G1 X93.059 Y121.047 E79.71123
G1 X93.205 Y121.498 E79.72601
G1 X93.346 Y121.773 E79.73565
G1 X93.644 Y122.179 E79.75135
G1 X94.025 Y122.524 E79.76738
G1 X94.481 Y122.787 E79.78379
G1 X94.98 Y122.949 E79.80015
G1 X95.483 Y123.002 E79.81592
G0 F7800 X100.96 Y122.807
G0 X101.36 Y122.793
G0 X105.472 Y122.648
G0 X105.472 Y122.648
G0 X105.498 Y122.4
; TYPE:WALL-OUTER
G1 F720 X105.7 Y122.389 E79.82223
G1 X106.083 Y122.308 E79.83444
G1 X106.281 Y122.231 E79.84106
G1 X106.615 Y122.038 E79.85309
G1 X106.911 Y121.772 E79.8655
G1 X107.144 Y121.452 E79.87784
G1 X107.239 Y121.262 E79.88447
G1 X107.358 Y120.897 E79.89644
G1 X107.4 Y120.504 E79.90876
G1 X107.388 Y120.292 E79.91538
G1 X107.309 Y119.918 E79.9273
G1 X107.233 Y119.72 E79.93391
G1 X107.034 Y119.378 E79.94625
G1 X106.766 Y119.083 E79.95868
G1 X106.451 Y118.854 E79.97082
G1 X106.087 Y118.692 E79.98325
G1 X105.696 Y118.609 E79.99571
G1 X105.302 Y118.609 E80.008
G1 X105.102 Y118.642 E80.01432
G1 X104.729 Y118.762 E80.02653
G1 X104.541 Y118.859 E80.03313
G1 X104.229 Y119.086 E80.04516
G1 X103.962 Y119.382 E80.05759
G1 X103.764 Y119.724 E80.06991
G1 X103.692 Y119.914 E80.07625
G1 X103.609 Y120.3 E80.08856
G1 X103.609 Y120.695 E80.10088
G1 X103.644 Y120.905 E80.10752
G1 X103.761 Y121.268 E80.11941
G1 X103.858 Y121.457 E80.12603
G1 X104.091 Y121.775 E80.13832
G1 X104.38 Y122.036 E80.15047
G1 X104.726 Y122.236 E80.16293
G1 X105.106 Y122.359 E80.17538
G1 X105.498 Y122.4 E80.18767
G0 F7800 X105.491 Y122.701
; TYPE:WALL-INNER
G1 F720 X105.739 Y122.687 E80.19542
G1 X106.169 Y122.597 E80.20912
G1 X106.412 Y122.502 E80.21725
G1 X106.792 Y122.282 E80.23094
G1 X107.135 Y121.974 E80.24532
G1 X107.401 Y121.609 E80.2594
G1 X107.517 Y121.377 E80.26749
G1 X107.653 Y120.96 E80.28116
G1 X107.701 Y120.511 E80.29524
G1 X107.686 Y120.252 E80.30333
G1 X107.598 Y119.833 E80.31668
G1 X107.504 Y119.59 E80.32481
G1 X107.277 Y119.2 E80.33888
G1 X106.967 Y118.858 E80.35327
G1 X106.602 Y118.593 E80.36734
G1 X106.18 Y118.405 E80.38174
G1 X105.727 Y118.309 E80.39618
G1 X105.277 Y118.309 E80.41021
G1 X105.031 Y118.349 E80.41798
G1 X104.614 Y118.484 E80.43165
G1 X104.383 Y118.603 E80.43975
G1 X104.027 Y118.862 E80.45348
G1 X103.718 Y119.205 E80.46788
G1 X103.492 Y119.595 E80.48193
G1 X103.403 Y119.829 E80.48974
G1 X103.309 Y120.268 E80.50374
G1 X103.309 Y120.72 E80.51783
G1 X103.352 Y120.976 E80.52592
G1 X103.483 Y121.383 E80.53926
G1 X103.602 Y121.615 E80.54739
G1 X103.867 Y121.977 E80.56138
G1 X104.203 Y122.28 E80.57548
G1 X104.603 Y122.512 E80.5899
G1 X105.043 Y122.654 E80.60432
G1 X105.491 Y122.701 E80.61836
G0 F7800 X105.483 Y123.002
G1 F720 X105.779 Y122.986 E80.62761
G1 X106.256 Y122.885 E80.64281
G1 X106.542 Y122.773 E80.65239
G1 X106.969 Y122.526 E80.66777
G1 X107.359 Y122.176 E80.68411
G1 X107.658 Y121.766 E80.69993
G1 X107.795 Y121.491 E80.70951
G1 X107.948 Y121.023 E80.72487
G1 X108.002 Y120.518 E80.7407
G1 X107.984 Y120.212 E80.75026
G1 X107.886 Y119.747 E80.76508
G1 X107.775 Y119.459 E80.7747
G1 X107.52 Y119.021 E80.79051
G1 X107.168 Y118.634 E80.80682
G1 X106.753 Y118.332 E80.82282
G1 X106.273 Y118.118 E80.83921
G1 X105.758 Y118.009 E80.85562
G1 X105.253 Y118.009 E80.87137
G1 X104.96 Y118.057 E80.88063
G1 X104.498 Y118.206 E80.89576
G1 X104.225 Y118.347 E80.90534
G1 X103.825 Y118.638 E80.92077
G1 X103.474 Y119.027 E80.93711
G1 X103.221 Y119.466 E80.95291
G1 X103.115 Y119.744 E80.96218
G1 X103.009 Y120.236 E80.97788
G1 X103.009 Y120.745 E80.99375
G1 X103.059 Y121.047 E81.00329
G1 X103.205 Y121.498 E81.01807
G1 X103.346 Y121.773 E81.02771
G1 X103.644 Y122.179 E81.04341
G1 X104.025 Y122.524 E81.05944
G1 X104.481 Y122.787 E81.07585
G1 X104.98 Y122.949 E81.09221
G1 X105.483 Y123.002 E81.10798
G0 F7800 X136.323 Y122.67
G0 X136.723 Y122.665
G0 X138.472 Y122.648
G0 X138.472 Y122.648
G0 X138.498 Y122.4
; TYPE:WALL-OUTER
G1 F720 X138.7 Y122.389 E81.11429
G1 X139.083 Y122.308 E81.1265
G1 X139.281 Y122.231 E81.13312
G1 X139.615 Y122.038 E81.14515
G1 X139.911 Y121.772 E81.15756
G1 X140.144 Y121.452 E81.1699
G1 X140.239 Y121.262 E81.17653
G1 X140.358 Y120.897 E81.1885
G1 X140.4 Y120.504 E81.20082
G1 X140.388 Y120.292 E81.20744
G1 X140.309 Y119.918 E81.21936
G1 X140.233 Y119.72 E81.22598
G1 X140.034 Y119.378 E81.23831
G1 X139.766 Y119.083 E81.25074
G1 X139.451 Y118.854 E81.26288
G1 X139.087 Y118.692 E81.27531
G1 X138.696 Y118.609 E81.28777
G1 X138.302 Y118.609 E81.30006
G1 X138.102 Y118.642 E81.30638
G1 X137.729 Y118.762 E81.31859
G1 X137.541 Y118.859 E81.32519
G1 X137.229 Y119.086 E81.33722
G1 X136.962 Y119.382 E81.34965
G1 X136.764 Y119.724 E81.36197
G1 X136.692 Y119.914 E81.36831
G1 X136.609 Y120.3 E81.38062
G1 X136.609 Y120.695 E81.39294
G1 X136.644 Y120.905 E81.39958
G1 X136.761 Y121.268 E81.41147
G1 X136.858 Y121.457 E81.41809
G1 X137.091 Y121.775 E81.43038
G1 X137.38 Y122.036 E81.44253
G1 X137.726 Y122.236 E81.45499
G1 X138.106 Y122.359 E81.46744
G1 X138.498 Y122.4 E81.47973
G0 F7800 X138.491 Y122.701
; TYPE:WALL-INNER
G1 F720 X138.739 Y122.687 E81.48748
G1 X139.169 Y122.597 E81.50118
G1 X139.412 Y122.502 E81.50931
G1 X139.792 Y122.282 E81.523
G1 X140.135 Y121.974 E81.53738
G1 X140.401 Y121.609 E81.55146
G1 X140.517 Y121.377 E81.55955
G1 X140.653 Y120.96 E81.57323
G1 X140.701 Y120.511 E81.58731
G1 X140.686 Y120.252 E81.5954
G1 X140.598 Y119.833 E81.60875
G1 X140.504 Y119.59 E81.61687
G1 X140.277 Y119.2 E81.63094
G1 X139.967 Y118.858 E81.64533
G1 X139.602 Y118.593 E81.6594
G1 X139.18 Y118.405 E81.6738
G1 X138.727 Y118.309 E81.68824
G1 X138.277 Y118.309 E81.70227
G1 X138.031 Y118.349 E81.71004
G1 X137.614 Y118.484 E81.72371
G1 X137.383 Y118.603 E81.73181
G1 X137.027 Y118.862 E81.74554
G1 X136.718 Y119.205 E81.75994
G1 X136.492 Y119.595 E81.77399
G1 X136.403 Y119.829 E81.7818
G1 X136.309 Y120.268 E81.7958
G1 X136.309 Y120.72 E81.80989
G1 X136.352 Y120.976 E81.81799
G1 X136.483 Y121.383 E81.83132
G1 X136.602 Y121.615 E81.83945
G1 X136.867 Y121.977 E81.85344
G1 X137.203 Y122.28 E81.86754
G1 X137.603 Y122.512 E81.88196
G1 X138.043 Y122.654 E81.89638
G1 X138.491 Y122.701 E81.91043
G0 F7800 X138.483 Y123.002
G1 F720 X138.779 Y122.986 E81.91967
G1 X139.256 Y122.885 E81.93487
G1 X139.542 Y122.773 E81.94445
G1 X139.969 Y122.526 E81.95983
G1 X140.359 Y122.176 E81.97617
G1 X140.658 Y121.766 E81.99199
G1 X140.795 Y121.491 E82.00157
G1 X140.948 Y121.023 E82.01693
G1 X141.002 Y120.518 E82.03276
G1 X140.984 Y120.212 E82.04232
G1 X140.886 Y119.747 E82.05714
G1 X140.775 Y119.459 E82.06676
G1 X140.52 Y119.021 E82.08257
G1 X140.168 Y118.634 E82.09888
G1 X139.753 Y118.332 E82.11488
G1 X139.273 Y118.118 E82.13127
G1 X138.758 Y118.009 E82.14768
G1 X138.253 Y118.009 E82.16343
G1 X137.96 Y118.057 E82.17269
G1 X137.498 Y118.206 E82.18782
G1 X137.225 Y118.347 E82.19741
G1 X136.825 Y118.638 E82.21283
G1 X136.474 Y119.027 E82.22917
G1 X136.221 Y119.466 E82.24497
G1 X136.115 Y119.744 E82.25424
G1 X136.009 Y120.236 E82.26994
G1 X136.009 Y120.745 E82.28581
G1 X136.059 Y121.047 E82.29535
G1 X136.205 Y121.498 E82.31013
G1 X136.346 Y121.773 E82.31977
G1 X136.644 Y122.179 E82.33547
G1 X137.025 Y122.524 E82.3515
G1 X137.481 Y122.787 E82.36792
G1 X137.98 Y122.949 E82.38427
G1 X138.483 Y123.002 E82.40005
G0 F7800 X146.147 Y123.112
G0 X146.547 Y123.118
G0 X148.369 Y123.145
G0 X148.369 Y123.145
G0 X148.397 Y122.897
; TYPE:WALL-OUTER
G1 F720 X148.771 Y122.885 E82.41171
G1 X149.139 Y122.813 E82.42341
G1 X149.474 Y122.693 E82.4345
G1 X149.804 Y122.514 E82.44621
G1 X150.087 Y122.299 E82.45729
G1 X150.348 Y122.03 E82.46898
G1 X150.564 Y121.724 E82.48066
G1 X150.721 Y121.405 E82.49174
G1 X150.836 Y121.048 E82.50344
G1 X150.893 Y120.678 E82.51511
G1 X150.893 Y120.321 E82.52624
G1 X150.837 Y119.952 E82.53788
G1 X150.729 Y119.611 E82.54903
G1 X150.564 Y119.275 E82.5607
G1 X150.348 Y118.969 E82.57238
G1 X150.101 Y118.712 E82.5835
G1 X149.804 Y118.485 E82.59515
G1 X149.491 Y118.314 E82.60628
G1 X149.139 Y118.186 E82.61795
G1 X148.771 Y118.115 E82.62964
G1 X148.414 Y118.101 E82.64078
G1 X148.042 Y118.143 E82.65245
G1 X147.7 Y118.237 E82.66351
G1 X147.358 Y118.389 E82.67518
G1 X147.042 Y118.592 E82.6869
G1 X146.776 Y118.83 E82.69803
G1 X146.537 Y119.117 E82.70967
G1 X146.346 Y119.439 E82.72134
G1 X146.213 Y119.771 E82.7325
G1 X146.127 Y120.135 E82.74416
G1 X146.101 Y120.491 E82.75529
G1 X146.127 Y120.864 E82.76695
G1 X146.213 Y121.228 E82.77861
G1 X146.346 Y121.56 E82.78976
G1 X146.537 Y121.881 E82.80141
G1 X146.763 Y122.157 E82.81253
G1 X147.042 Y122.407 E82.82421
G1 X147.357 Y122.61 E82.8359
G1 X147.682 Y122.756 E82.84701
G1 X148.042 Y122.856 E82.85866
G1 X148.397 Y122.897 E82.8698
G0 F7800 X148.384 Y123.198
; TYPE:WALL-INNER
G1 F720 X148.805 Y123.184 E82.88294
G1 X149.218 Y123.103 E82.89606
G1 X149.597 Y122.968 E82.9086
G1 X149.967 Y122.767 E82.92173
G1 X150.286 Y122.524 E82.93424
G1 X150.579 Y122.223 E82.94734
G1 X150.823 Y121.878 E82.96051
G1 X151 Y121.518 E82.97302
G1 X151.129 Y121.117 E82.98616
G1 X151.193 Y120.701 E82.99928
G1 X151.193 Y120.298 E83.01185
G1 X151.13 Y119.883 E83.02493
G1 X151.008 Y119.499 E83.0375
G1 X150.823 Y119.122 E83.05059
G1 X150.58 Y118.778 E83.06373
G1 X150.302 Y118.487 E83.07627
G1 X149.968 Y118.232 E83.08938
G1 X149.615 Y118.04 E83.10191
G1 X149.22 Y117.896 E83.11502
G1 X148.806 Y117.816 E83.12816
G1 X148.403 Y117.8 E83.14074
G1 X147.985 Y117.848 E83.15386
G1 X147.599 Y117.954 E83.16634
G1 X147.215 Y118.124 E83.17944
G1 X146.86 Y118.353 E83.19261
G1 X146.559 Y118.621 E83.20518
G1 X146.291 Y118.944 E83.21826
G1 X146.076 Y119.306 E83.23139
G1 X145.926 Y119.68 E83.24396
G1 X145.83 Y120.089 E83.25706
G1 X145.8 Y120.49 E83.26959
G1 X145.83 Y120.909 E83.28269
G1 X145.926 Y121.319 E83.29582
G1 X146.076 Y121.693 E83.30839
G1 X146.29 Y122.054 E83.32147
G1 X146.546 Y122.365 E83.33403
G1 X146.859 Y122.646 E83.34715
G1 X147.214 Y122.875 E83.36032
G1 X147.58 Y123.039 E83.37283
G1 X147.984 Y123.151 E83.3859
G1 X148.384 Y123.198 E83.39846
G0 F7800 X148.372 Y123.499
G1 F720 X148.839 Y123.483 E83.41303
G1 X149.298 Y123.393 E83.42761
G1 X149.72 Y123.243 E83.44158
G1 X150.131 Y123.019 E83.45617
G1 X150.486 Y122.749 E83.47008
G1 X150.811 Y122.415 E83.48461
G1 X151.081 Y122.032 E83.49922
G1 X151.279 Y121.631 E83.51317
G1 X151.422 Y121.186 E83.52774
G1 X151.493 Y120.724 E83.54232
G1 X151.493 Y120.275 E83.55632
G1 X151.423 Y119.815 E83.57083
G1 X151.287 Y119.388 E83.5848
G1 X151.082 Y118.968 E83.59937
G1 X150.812 Y118.586 E83.61396
G1 X150.502 Y118.263 E83.62792
G1 X150.132 Y117.98 E83.64244
G1 X149.739 Y117.766 E83.6564
G1 X149.3 Y117.606 E83.67097
G1 X148.841 Y117.517 E83.68555
G1 X148.392 Y117.499 E83.69956
G1 X147.928 Y117.552 E83.71412
G1 X147.498 Y117.67 E83.72802
G1 X147.072 Y117.859 E83.74256
G1 X146.677 Y118.113 E83.7572
G1 X146.343 Y118.412 E83.77118
G1 X146.045 Y118.771 E83.78573
G1 X145.807 Y119.173 E83.80029
G1 X145.639 Y119.589 E83.81428
G1 X145.532 Y120.044 E83.82886
G1 X145.499 Y120.49 E83.8428
G1 X145.532 Y120.954 E83.85731
G1 X145.639 Y121.41 E83.87191
G1 X145.807 Y121.826 E83.8859
G1 X146.044 Y122.227 E83.90042
G1 X146.329 Y122.573 E83.9144
G1 X146.677 Y122.885 E83.92898
G1 X147.07 Y123.139 E83.94357
G1 X147.478 Y123.322 E83.95751
G1 X147.926 Y123.446 E83.972
G1 X148.372 Y123.499 E83.98601
G1 F1800 E82.98601
G0 F7800 X148.371 Y123.247
G0 X148.81 Y123.232
G0 X149.23 Y123.15
G0 X149.617 Y123.013
G0 X149.994 Y122.808
G0 X150.319 Y122.56
G0 X150.616 Y122.253
G0 X150.865 Y121.903
G0 X151.046 Y121.536
G0 X151.177 Y121.127
G0 X151.242 Y120.705
G0 X151.242 Y120.294
G0 X151.177 Y119.873
G0 X151.053 Y119.481
G0 X150.866 Y119.097
G0 X150.618 Y118.747
G0 X150.335 Y118.451
G0 X149.994 Y118.192
G0 X149.635 Y117.995
G0 X149.232 Y117.849
G0 X148.812 Y117.767
G0 X148.37 Y117.748
G0 X148.368 Y78.248
G0 X148.368 Y77.848
G0 X148.369 Y78.146
G0 X148.369 Y78.146
G0 X148.397 Y77.898
; TYPE:WALL-OUTER
G1 F1800 E83.98601
G1 F720 X148.771 Y77.886 E83.99768
G1 X149.139 Y77.814 E84.00937
G1 X149.474 Y77.694 E84.02046
G1 X149.804 Y77.515 E84.03217
G1 X150.087 Y77.3 E84.04325
G1 X150.348 Y77.031 E84.05494
G1 X150.564 Y76.725 E84.06662
G1 X150.721 Y76.406 E84.07771
G1 X150.836 Y76.049 E84.0894
G1 X150.893 Y75.679 E84.10107
G1 X150.893 Y75.322 E84.11221
G1 X150.837 Y74.953 E84.12384
G1 X150.729 Y74.612 E84.135
G1 X150.564 Y74.276 E84.14667
G1 X150.348 Y73.97 E84.15835
G1 X150.101 Y73.713 E84.16946
G1 X149.804 Y73.486 E84.18112
G1 X149.491 Y73.315 E84.19224
G1 X149.139 Y73.187 E84.20392
G1 X148.771 Y73.116 E84.21561
G1 X148.414 Y73.102 E84.22675
G1 X148.042 Y73.144 E84.23842
G1 X147.7 Y73.238 E84.24948
G1 X147.358 Y73.39 E84.26115
G1 X147.042 Y73.593 E84.27286
G1 X146.776 Y73.831 E84.28399
G1 X146.537 Y74.118 E84.29563
G1 X146.346 Y74.44 E84.30731
G1 X146.213 Y74.772 E84.31846
G1 X146.127 Y75.136 E84.33012
G1 X146.101 Y75.491 E84.34122
G1 X146.127 Y75.865 E84.35291
G1 X146.213 Y76.229 E84.36457
G1 X146.346 Y76.561 E84.37573
G1 X146.537 Y76.882 E84.38737
G1 X146.763 Y77.158 E84.3985
G1 X147.042 Y77.408 E84.41018
G1 X147.357 Y77.611 E84.42186
G1 X147.682 Y77.757 E84.43297
G1 X148.042 Y77.857 E84.44462
G1 X148.397 Y77.898 E84.45577
G0 F7800 X148.384 Y78.199
; TYPE:WALL-INNER
G1 F720 X148.805 Y78.185 E84.4689
G1 X149.218 Y78.104 E84.48202
G1 X149.597 Y77.969 E84.49457
G1 X149.967 Y77.768 E84.5077
G1 X150.286 Y77.525 E84.5202
G1 X150.579 Y77.224 E84.5333
G1 X150.823 Y76.879 E84.54648
G1 X151 Y76.519 E84.55899
G1 X151.129 Y76.118 E84.57212
G1 X151.193 Y75.702 E84.58524
G1 X151.193 Y75.299 E84.59781
G1 X151.13 Y74.884 E84.6109
G1 X151.008 Y74.5 E84.62346
G1 X150.823 Y74.123 E84.63656
G1 X150.58 Y73.779 E84.64969
G1 X150.302 Y73.488 E84.66224
G1 X149.968 Y73.233 E84.67534
G1 X149.615 Y73.041 E84.68787
G1 X149.22 Y72.897 E84.70098
G1 X148.806 Y72.817 E84.71413
G1 X148.403 Y72.801 E84.7267
G1 X147.985 Y72.849 E84.73982
G1 X147.599 Y72.955 E84.75231
G1 X147.215 Y73.125 E84.7654
G1 X146.86 Y73.354 E84.77857
G1 X146.559 Y73.622 E84.79114
G1 X146.291 Y73.945 E84.80423
G1 X146.076 Y74.307 E84.81735
G1 X145.926 Y74.681 E84.82992
G1 X145.83 Y75.09 E84.84302
G1 X145.8 Y75.49 E84.85553
G1 X145.83 Y75.91 E84.86866
G1 X145.926 Y76.32 E84.88179
G1 X146.076 Y76.694 E84.89435
G1 X146.29 Y77.055 E84.90744
G1 X146.546 Y77.366 E84.92
G1 X146.859 Y77.647 E84.93311
G1 X147.214 Y77.876 E84.94629
G1 X147.58 Y78.04 E84.95879
G1 X147.984 Y78.152 E84.97186
G1 X148.384 Y78.199 E84.98442
G0 F7800 X148.372 Y78.5
G1 F720 X148.839 Y78.484 E84.99899
G1 X149.298 Y78.394 E85.01358
G1 X149.72 Y78.244 E85.02754
G1 X150.131 Y78.02 E85.04214
G1 X150.486 Y77.75 E85.05604
G1 X150.811 Y77.416 E85.07058
G1 X151.081 Y77.033 E85.08519
G1 X151.279 Y76.632 E85.09913
G1 X151.422 Y76.187 E85.11371
G1 X151.493 Y75.725 E85.12828
G1 X151.493 Y75.276 E85.14228
G1 X151.423 Y74.816 E85.15679
G1 X151.287 Y74.389 E85.17076
G1 X151.082 Y73.969 E85.18534
G1 X150.812 Y73.587 E85.19992
G1 X150.502 Y73.264 E85.21388
G1 X150.132 Y72.981 E85.22841
G1 X149.739 Y72.767 E85.24236
G1 X149.3 Y72.607 E85.25693
G1 X148.841 Y72.518 E85.27151
G1 X148.392 Y72.5 E85.28552
G1 X147.928 Y72.553 E85.30008
G1 X147.498 Y72.671 E85.31399
G1 X147.072 Y72.86 E85.32852
G1 X146.677 Y73.114 E85.34316
G1 X146.343 Y73.413 E85.35714
G1 X146.045 Y73.772 E85.37169
G1 X145.807 Y74.174 E85.38626
G1 X145.639 Y74.59 E85.40025
G1 X145.532 Y75.045 E85.41482
G1 X145.499 Y75.489 E85.4287
G1 X145.532 Y75.955 E85.44327
G1 X145.639 Y76.411 E85.45787
G1 X145.807 Y76.827 E85.47186
G1 X146.044 Y77.228 E85.48639
G1 X146.329 Y77.574 E85.50037
G1 X146.677 Y77.886 E85.51494
G1 X147.07 Y78.14 E85.52953
G1 X147.478 Y78.323 E85.54347
G1 X147.926 Y78.447 E85.55797
G1 X148.372 Y78.5 E85.57197
G0 F7800 X139.284 Y77.723
G0 X138.886 Y77.689
G0 X138.308 Y77.641
G0 X138.308 Y77.641
G0 X138.308 Y77.391
; TYPE:WALL-OUTER
G1 F720 X138.696 Y77.391 E85.58407
G1 X139.083 Y77.309 E85.59641
G1 X139.281 Y77.232 E85.60303
G1 X139.615 Y77.039 E85.61506
G1 X139.908 Y76.775 E85.62736
G1 X140.041 Y76.61 E85.63396
G1 X140.238 Y76.267 E85.6463
G1 X140.358 Y75.898 E85.6584
G1 X140.4 Y75.504 E85.67075
G1 X140.388 Y75.293 E85.67734
G1 X140.309 Y74.919 E85.68926
G1 X140.233 Y74.721 E85.69587
G1 X140.034 Y74.379 E85.70821
G1 X139.766 Y74.084 E85.72064
G1 X139.451 Y73.855 E85.73278
G1 X139.09 Y73.694 E85.74511
G1 X138.885 Y73.64 E85.75172
G1 X138.506 Y73.6 E85.7636
G1 X138.298 Y73.611 E85.7701
G1 X138.102 Y73.643 E85.77629
G1 X137.729 Y73.763 E85.78851
G1 X137.541 Y73.86 E85.7951
G1 X137.229 Y74.087 E85.80713
G1 X136.965 Y74.381 E85.81946
G1 X136.85 Y74.558 E85.82604
G1 X136.693 Y74.911 E85.83808
G1 X136.609 Y75.301 E85.85052
G1 X136.609 Y75.696 E85.86284
G1 X136.644 Y75.906 E85.86948
G1 X136.761 Y76.269 E85.88137
G1 X136.858 Y76.457 E85.88797
G1 X137.091 Y76.776 E85.90028
G1 X137.38 Y77.037 E85.91243
G1 X137.722 Y77.235 E85.92475
G1 X137.921 Y77.31 E85.93138
G1 X138.308 Y77.391 E85.94371
G0 F7800 X138.277 Y77.691
; TYPE:WALL-INNER
G1 F720 X138.727 Y77.691 E85.95774
G1 X139.169 Y77.598 E85.97182
G1 X139.412 Y77.503 E85.97996
G1 X139.792 Y77.283 E85.99365
G1 X140.127 Y76.982 E86.00769
G1 X140.29 Y76.779 E86.01581
G1 X140.513 Y76.39 E86.02979
G1 X140.653 Y75.961 E86.04387
G1 X140.701 Y75.511 E86.05798
G1 X140.686 Y75.253 E86.06603
G1 X140.598 Y74.834 E86.07938
G1 X140.504 Y74.591 E86.08751
G1 X140.277 Y74.201 E86.10158
G1 X139.967 Y73.859 E86.11597
G1 X139.602 Y73.594 E86.13004
G1 X139.19 Y73.41 E86.14411
G1 X138.94 Y73.344 E86.15217
G1 X138.514 Y73.299 E86.16553
G1 X138.266 Y73.312 E86.17327
G1 X138.031 Y73.35 E86.18069
G1 X137.614 Y73.485 E86.19436
G1 X137.383 Y73.604 E86.20246
G1 X137.027 Y73.863 E86.21619
G1 X136.726 Y74.198 E86.23023
G1 X136.585 Y74.415 E86.2383
G1 X136.406 Y74.818 E86.25205
G1 X136.309 Y75.269 E86.26644
G1 X136.309 Y75.721 E86.28053
G1 X136.352 Y75.977 E86.28862
G1 X136.483 Y76.384 E86.30196
G1 X136.602 Y76.615 E86.31006
G1 X136.867 Y76.978 E86.32407
G1 X137.203 Y77.281 E86.33818
G1 X137.593 Y77.507 E86.35224
G1 X137.836 Y77.599 E86.36034
G1 X138.277 Y77.691 E86.37438
G0 F7800 X138.246 Y77.991
G1 F720 X138.758 Y77.991 E86.39035
G1 X139.256 Y77.886 E86.40622
G1 X139.542 Y77.774 E86.4158
G1 X139.969 Y77.527 E86.43118
G1 X140.346 Y77.189 E86.44697
G1 X140.538 Y76.949 E86.45655
G1 X140.789 Y76.512 E86.47226
G1 X140.948 Y76.024 E86.48827
G1 X141.002 Y75.518 E86.50414
G1 X140.984 Y75.213 E86.51366
G1 X140.886 Y74.748 E86.52848
G1 X140.775 Y74.46 E86.5381
G1 X140.52 Y74.022 E86.55391
G1 X140.168 Y73.635 E86.57022
G1 X139.753 Y73.333 E86.58622
G1 X139.29 Y73.126 E86.60204
G1 X138.994 Y73.048 E86.61158
G1 X138.522 Y72.998 E86.62638
G1 X138.233 Y73.013 E86.63541
G1 X137.96 Y73.058 E86.64403
G1 X137.498 Y73.207 E86.65917
G1 X137.225 Y73.348 E86.66875
G1 X136.825 Y73.639 E86.68417
G1 X136.487 Y74.015 E86.69994
G1 X136.32 Y74.272 E86.7095
G1 X136.119 Y74.724 E86.72492
G1 X136.009 Y75.237 E86.74128
G1 X136.009 Y75.746 E86.75715
G1 X136.059 Y76.048 E86.7667
G1 X136.205 Y76.5 E86.78151
G1 X136.346 Y76.773 E86.79109
G1 X136.643 Y77.18 E86.8068
G1 X137.025 Y77.525 E86.82285
G1 X137.464 Y77.778 E86.83865
G1 X137.752 Y77.888 E86.84826
G1 X138.246 Y77.991 E86.864
G0 F7800 X105.998 Y77.647
G0 X105.598 Y77.643
G0 X105.308 Y77.641
G0 X105.308 Y77.641
G0 X105.308 Y77.391
; TYPE:WALL-OUTER
G1 F720 X105.696 Y77.391 E86.87609
G1 X106.083 Y77.309 E86.88843
G1 X106.281 Y77.232 E86.89505
G1 X106.615 Y77.039 E86.90708
G1 X106.908 Y76.775 E86.91938
G1 X107.041 Y76.61 E86.92599
G1 X107.238 Y76.267 E86.93832
G1 X107.358 Y75.898 E86.95042
G1 X107.4 Y75.504 E86.96278
G1 X107.388 Y75.293 E86.96937
G1 X107.309 Y74.919 E86.98129
G1 X107.233 Y74.721 E86.9879
G1 X107.034 Y74.379 E87.00024
G1 X106.766 Y74.084 E87.01266
G1 X106.451 Y73.855 E87.02481
G1 X106.09 Y73.694 E87.03713
G1 X105.885 Y73.64 E87.04374
G1 X105.506 Y73.6 E87.05563
G1 X105.298 Y73.611 E87.06212
G1 X105.102 Y73.643 E87.06831
G1 X104.729 Y73.763 E87.08053
G1 X104.541 Y73.86 E87.08713
G1 X104.229 Y74.087 E87.09916
G1 X103.965 Y74.381 E87.11148
G1 X103.85 Y74.558 E87.11806
G1 X103.693 Y74.911 E87.13011
G1 X103.609 Y75.301 E87.14255
G1 X103.609 Y75.696 E87.15486
G1 X103.644 Y75.906 E87.1615
G1 X103.761 Y76.269 E87.17339
G1 X103.858 Y76.457 E87.17999
G1 X104.091 Y76.776 E87.19231
G1 X104.38 Y77.037 E87.20445
G1 X104.722 Y77.235 E87.21677
G1 X104.921 Y77.31 E87.2234
G1 X105.308 Y77.391 E87.23573
G0 F7800 X105.277 Y77.691
; TYPE:WALL-INNER
G1 F720 X105.727 Y77.691 E87.24976
G1 X106.169 Y77.598 E87.26385
G1 X106.412 Y77.503 E87.27198
G1 X106.792 Y77.283 E87.28568
G1 X107.127 Y76.982 E87.29972
G1 X107.29 Y76.779 E87.30784
G1 X107.513 Y76.39 E87.32182
G1 X107.653 Y75.961 E87.33589
G1 X107.701 Y75.511 E87.35
G1 X107.686 Y75.253 E87.35806
G1 X107.598 Y74.834 E87.37141
G1 X107.504 Y74.591 E87.37953
G1 X107.277 Y74.201 E87.3936
G1 X106.967 Y73.859 E87.408
G1 X106.602 Y73.594 E87.42206
G1 X106.19 Y73.41 E87.43613
G1 X105.94 Y73.344 E87.44419
G1 X105.514 Y73.299 E87.45755
G1 X105.266 Y73.312 E87.46529
G1 X105.031 Y73.35 E87.47272
G1 X104.614 Y73.485 E87.48638
G1 X104.383 Y73.604 E87.49449
G1 X104.027 Y73.863 E87.50821
G1 X103.726 Y74.198 E87.52226
G1 X103.585 Y74.415 E87.53033
G1 X103.406 Y74.818 E87.54408
G1 X103.309 Y75.269 E87.55846
G1 X103.309 Y75.721 E87.57255
G1 X103.352 Y75.977 E87.58065
G1 X103.483 Y76.384 E87.59398
G1 X103.602 Y76.615 E87.60208
G1 X103.867 Y76.978 E87.6161
G1 X104.203 Y77.281 E87.6302
G1 X104.593 Y77.507 E87.64426
G1 X104.836 Y77.599 E87.65236
G1 X105.277 Y77.691 E87.66641
G0 F7800 X105.246 Y77.991
G1 F720 X105.758 Y77.991 E87.68237
G1 X106.256 Y77.886 E87.69824
G1 X106.542 Y77.774 E87.70782
G1 X106.969 Y77.527 E87.7232
G1 X107.346 Y77.189 E87.73899
G1 X107.538 Y76.949 E87.74857
G1 X107.789 Y76.512 E87.76429
G1 X107.948 Y76.024 E87.78029
G1 X108.002 Y75.518 E87.79616
G1 X107.984 Y75.213 E87.80569
G1 X107.886 Y74.748 E87.8205
G1 X107.775 Y74.46 E87.83013
G1 X107.52 Y74.022 E87.84593
G1 X107.168 Y73.635 E87.86224
G1 X106.753 Y73.333 E87.87825
G1 X106.29 Y73.126 E87.89406
G1 X105.994 Y73.048 E87.90361
G1 X105.522 Y72.998 E87.91841
G1 X105.233 Y73.013 E87.92743
G1 X104.96 Y73.058 E87.93606
G1 X104.498 Y73.207 E87.95119
G1 X104.225 Y73.348 E87.96077
G1 X103.825 Y73.639 E87.9762
G1 X103.487 Y74.015 E87.99196
G1 X103.32 Y74.272 E88.00152
G1 X103.119 Y74.724 E88.01695
G1 X103.009 Y75.237 E88.0333
G1 X103.009 Y75.746 E88.04918
G1 X103.059 Y76.048 E88.05872
G1 X103.205 Y76.5 E88.07353
G1 X103.346 Y76.773 E88.08311
G1 X103.643 Y77.18 E88.09882
G1 X104.025 Y77.525 E88.11487
G1 X104.464 Y77.778 E88.13067
G1 X104.752 Y77.888 E88.14029
G1 X105.246 Y77.991 E88.15602
G0 F7800 X96.059 Y77.667
G0 X95.66 Y77.653
G0 X95.308 Y77.641
G0 X95.308 Y77.641
G0 X95.308 Y77.391
; TYPE:WALL-OUTER
G1 F720 X95.696 Y77.391 E88.16812
G1 X96.083 Y77.309 E88.18045
G1 X96.281 Y77.232 E88.18708
G1 X96.615 Y77.039 E88.19911
G1 X96.908 Y76.775 E88.2114
G1 X97.041 Y76.61 E88.21801
G1 X97.238 Y76.267 E88.23035
G1 X97.358 Y75.898 E88.24245
G1 X97.4 Y75.504 E88.2548
G1 X97.388 Y75.293 E88.26139
G1 X97.309 Y74.919 E88.27331
G1 X97.233 Y74.721 E88.27992
G1 X97.034 Y74.379 E88.29226
G1 X96.766 Y74.084 E88.30469
G1 X96.451 Y73.855 E88.31683
G1 X96.09 Y73.694 E88.32916
G1 X95.885 Y73.64 E88.33577
G1 X95.506 Y73.6 E88.34765
G1 X95.298 Y73.611 E88.35415
G1 X95.102 Y73.643 E88.36034
G1 X94.729 Y73.763 E88.37256
G1 X94.541 Y73.86 E88.37915
G1 X94.229 Y74.087 E88.39118
G1 X93.965 Y74.381 E88.4035
G1 X93.85 Y74.558 E88.41009
G1 X93.693 Y74.911 E88.42213
G1 X93.609 Y75.301 E88.43457
G1 X93.609 Y75.696 E88.44689
G1 X93.644 Y75.906 E88.45353
G1 X93.761 Y76.269 E88.46542
G1 X93.858 Y76.457 E88.47202
G1 X94.091 Y76.776 E88.48433
G1 X94.38 Y77.037 E88.49648
G1 X94.722 Y77.235 E88.5088
G1 X94.921 Y77.31 E88.51543
G1 X95.308 Y77.391 E88.52776
G0 F7800 X95.277 Y77.691
; TYPE:WALL-INNER
G1 F720 X95.727 Y77.691 E88.54179
G1 X96.169 Y77.598 E88.55587
G1 X96.412 Y77.503 E88.56401
G1 X96.792 Y77.283 E88.5777
G1 X97.127 Y76.982 E88.59174
G1 X97.29 Y76.779 E88.59986
G1 X97.513 Y76.39 E88.61384
G1 X97.653 Y75.961 E88.62791
G1 X97.701 Y75.511 E88.64202
G1 X97.686 Y75.253 E88.65008
G1 X97.598 Y74.834 E88.66343
G1 X97.504 Y74.591 E88.67156
G1 X97.277 Y74.201 E88.68563
G1 X96.967 Y73.859 E88.70002
G1 X96.602 Y73.594 E88.71408
G1 X96.19 Y73.41 E88.72815
G1 X95.94 Y73.344 E88.73622
G1 X95.514 Y73.299 E88.74957
G1 X95.266 Y73.312 E88.75732
G1 X95.031 Y73.35 E88.76474
G1 X94.614 Y73.485 E88.77841
G1 X94.383 Y73.604 E88.78651
G1 X94.027 Y73.863 E88.80024
G1 X93.726 Y74.198 E88.81428
G1 X93.585 Y74.415 E88.82235
G1 X93.406 Y74.818 E88.8361
G1 X93.309 Y75.269 E88.85048
G1 X93.309 Y75.721 E88.86458
G1 X93.352 Y75.977 E88.87267
G1 X93.483 Y76.384 E88.886
G1 X93.602 Y76.615 E88.89411
G1 X93.867 Y76.978 E88.90812
G1 X94.203 Y77.281 E88.92223
G1 X94.593 Y77.507 E88.93628
G1 X94.836 Y77.599 E88.94439
G1 X95.277 Y77.691 E88.95843
G0 F7800 X95.246 Y77.991
G1 F720 X95.758 Y77.991 E88.9744
G1 X96.256 Y77.886 E88.99027
G1 X96.542 Y77.774 E88.99984
G1 X96.969 Y77.527 E89.01523
G1 X97.346 Y77.189 E89.03101
G1 X97.538 Y76.949 E89.0406
G1 X97.789 Y76.512 E89.05631
G1 X97.948 Y76.024 E89.07232
G1 X98.002 Y75.518 E89.08818
G1 X97.984 Y75.213 E89.09771
G1 X97.886 Y74.748 E89.11253
G1 X97.775 Y74.46 E89.12215
G1 X97.52 Y74.022 E89.13796
G1 X97.168 Y73.635 E89.15427
G1 X96.753 Y73.333 E89.17027
G1 X96.29 Y73.126 E89.18609
G1 X95.994 Y73.048 E89.19563
G1 X95.522 Y72.998 E89.21043
G1 X95.233 Y73.013 E89.21945
G1 X94.96 Y73.058 E89.22808
G1 X94.498 Y73.207 E89.24322
G1 X94.225 Y73.348 E89.2528
G1 X93.825 Y73.639 E89.26822
G1 X93.487 Y74.015 E89.28399
G1 X93.32 Y74.272 E89.29354
G1 X93.119 Y74.724 E89.30897
G1 X93.009 Y75.237 E89.32533
G1 X93.009 Y75.746 E89.3412
G1 X93.059 Y76.048 E89.35075
G1 X93.205 Y76.5 E89.36556
G1 X93.346 Y76.773 E89.37514
G1 X93.643 Y77.18 E89.39085
G1 X94.025 Y77.525 E89.4069
G1 X94.464 Y77.778 E89.4227
G1 X94.752 Y77.888 E89.43231
G1 X95.246 Y77.991 E89.44804
G0 F7800 X63.002 Y77.647
G0 X62.602 Y77.643
G0 X62.309 Y77.641
G0 X62.309 Y77.641
G0 X62.309 Y77.391
; TYPE:WALL-OUTER
G1 F720 X62.696 Y77.391 E89.46011
G1 X63.083 Y77.309 E89.47245
G1 X63.281 Y77.232 E89.47907
G1 X63.615 Y77.039 E89.4911
G1 X63.908 Y76.775 E89.5034
G1 X64.041 Y76.61 E89.51001
G1 X64.238 Y76.267 E89.52234
G1 X64.358 Y75.898 E89.53444
G1 X64.4 Y75.504 E89.54679
G1 X64.388 Y75.293 E89.55338
G1 X64.309 Y74.919 E89.5653
G1 X64.233 Y74.721 E89.57192
G1 X64.034 Y74.379 E89.58425
G1 X63.766 Y74.084 E89.59668
G1 X63.451 Y73.855 E89.60882
G1 X63.09 Y73.694 E89.62115
G1 X62.885 Y73.64 E89.62776
G1 X62.502 Y73.599 E89.63977
G1 X62.107 Y73.642 E89.65216
G1 X61.73 Y73.763 E89.66451
G1 X61.541 Y73.86 E89.67113
G1 X61.23 Y74.087 E89.68314
G1 X60.963 Y74.383 E89.69557
G1 X60.763 Y74.729 E89.70803
G1 X60.64 Y75.109 E89.72048
G1 X60.6 Y75.501 E89.73277
G1 X60.611 Y75.701 E89.73901
G1 X60.645 Y75.906 E89.74549
G1 X60.762 Y76.269 E89.75739
G1 X60.859 Y76.457 E89.76398
G1 X61.092 Y76.776 E89.7763
G1 X61.381 Y77.037 E89.78844
G1 X61.723 Y77.235 E89.80076
G1 X61.922 Y77.31 E89.8074
G1 X62.309 Y77.391 E89.81972
G0 F7800 X62.278 Y77.691
; TYPE:WALL-INNER
G1 F720 X62.727 Y77.691 E89.83372
G1 X63.169 Y77.598 E89.84781
G1 X63.412 Y77.503 E89.85594
G1 X63.792 Y77.283 E89.86964
G1 X64.127 Y76.982 E89.88368
G1 X64.29 Y76.779 E89.8918
G1 X64.513 Y76.39 E89.90578
G1 X64.653 Y75.961 E89.91985
G1 X64.701 Y75.511 E89.93396
G1 X64.686 Y75.253 E89.94202
G1 X64.598 Y74.834 E89.95537
G1 X64.504 Y74.591 E89.96349
G1 X64.277 Y74.201 E89.97756
G1 X63.967 Y73.859 E89.99196
G1 X63.602 Y73.594 E90.00602
G1 X63.19 Y73.41 E90.02009
G1 X62.94 Y73.344 E90.02815
G1 X62.502 Y73.297 E90.04189
G1 X62.044 Y73.347 E90.05625
G1 X61.615 Y73.485 E90.07031
G1 X61.383 Y73.604 E90.07844
G1 X61.028 Y73.863 E90.09214
G1 X60.719 Y74.206 E90.10653
G1 X60.487 Y74.606 E90.12095
G1 X60.345 Y75.047 E90.1354
G1 X60.299 Y75.494 E90.14941
G1 X60.312 Y75.734 E90.1569
G1 X60.353 Y75.977 E90.16459
G1 X60.484 Y76.384 E90.17792
G1 X60.603 Y76.615 E90.18602
G1 X60.868 Y76.978 E90.20004
G1 X61.204 Y77.281 E90.21415
G1 X61.594 Y77.507 E90.2282
G1 X61.837 Y77.599 E90.2363
G1 X62.278 Y77.691 E90.25035
G0 F7800 X62.247 Y77.991
G1 F720 X62.758 Y77.991 E90.26628
G1 X63.256 Y77.886 E90.28215
G1 X63.542 Y77.774 E90.29173
G1 X63.969 Y77.527 E90.30711
G1 X64.346 Y77.189 E90.3229
G1 X64.538 Y76.949 E90.33248
G1 X64.789 Y76.512 E90.3482
G1 X64.948 Y76.024 E90.3642
G1 X65.002 Y75.518 E90.38007
G1 X64.984 Y75.213 E90.3896
G1 X64.886 Y74.748 E90.40441
G1 X64.775 Y74.46 E90.41404
G1 X64.52 Y74.022 E90.42984
G1 X64.168 Y73.635 E90.44615
G1 X63.753 Y73.333 E90.46216
G1 X63.29 Y73.126 E90.47797
G1 X62.994 Y73.048 E90.48752
G1 X62.502 Y72.996 E90.50294
G1 X61.981 Y73.052 E90.51928
G1 X61.5 Y73.207 E90.53504
G1 X61.226 Y73.347 E90.54463
G1 X60.826 Y73.639 E90.56008
G1 X60.475 Y74.028 E90.57641
G1 X60.212 Y74.484 E90.59283
G1 X60.05 Y74.984 E90.60922
G1 X59.998 Y75.487 E90.62498
G1 X60.013 Y75.767 E90.63373
G1 X60.06 Y76.048 E90.64261
G1 X60.206 Y76.5 E90.65742
G1 X60.347 Y76.773 E90.667
G1 X60.644 Y77.18 E90.68271
G1 X61.026 Y77.525 E90.69876
G1 X61.465 Y77.778 E90.71456
G1 X61.753 Y77.888 E90.72418
G1 X62.247 Y77.991 E90.73991
G0 F7800 X53.309 Y78.131
G0 X52.909 Y78.137
G0 X52.37 Y78.146
G0 X52.37 Y78.146
G0 X52.398 Y77.898
; TYPE:WALL-OUTER
G1 F720 X52.772 Y77.886 E90.75158
G1 X53.14 Y77.814 E90.76327
G1 X53.475 Y77.694 E90.77437
G1 X53.805 Y77.515 E90.78607
G1 X54.088 Y77.3 E90.79715
G1 X54.349 Y77.031 E90.80884
G1 X54.565 Y76.725 E90.82052
G1 X54.722 Y76.406 E90.83161
G1 X54.837 Y76.049 E90.8433
G1 X54.894 Y75.679 E90.85498
G1 X54.894 Y75.322 E90.86611
G1 X54.838 Y74.953 E90.87774
G1 X54.73 Y74.612 E90.8889
G1 X54.565 Y74.276 E90.90057
G1 X54.349 Y73.97 E90.91225
G1 X54.102 Y73.713 E90.92336
G1 X53.805 Y73.486 E90.93502
G1 X53.492 Y73.315 E90.94614
G1 X53.14 Y73.187 E90.95782
G1 X52.772 Y73.116 E90.96951
G1 X52.415 Y73.102 E90.98065
G1 X52.043 Y73.144 E90.99232
G1 X51.701 Y73.238 E91.00338
G1 X51.359 Y73.39 E91.01505
G1 X51.043 Y73.593 E91.02676
G1 X50.777 Y73.831 E91.03789
G1 X50.538 Y74.118 E91.04954
G1 X50.347 Y74.44 E91.06121
G1 X50.214 Y74.772 E91.07236
G1 X50.128 Y75.136 E91.08402
G1 X50.101 Y75.491 E91.09513
G1 X50.128 Y75.865 E91.10682
G1 X50.214 Y76.229 E91.11848
G1 X50.347 Y76.561 E91.12963
G1 X50.538 Y76.882 E91.14128
G1 X50.764 Y77.158 E91.1524
G1 X51.043 Y77.408 E91.16408
G1 X51.358 Y77.611 E91.17577
G1 X51.683 Y77.757 E91.18688
G1 X52.043 Y77.857 E91.19853
G1 X52.398 Y77.898 E91.20967
G0 F7800 X52.385 Y78.199
; TYPE:WALL-INNER
G1 F720 X52.806 Y78.185 E91.22281
G1 X53.219 Y78.104 E91.23593
G1 X53.598 Y77.969 E91.24847
G1 X53.968 Y77.768 E91.2616
G1 X54.287 Y77.525 E91.27411
G1 X54.58 Y77.224 E91.28721
G1 X54.824 Y76.879 E91.30038
G1 X55.001 Y76.519 E91.31289
G1 X55.13 Y76.118 E91.32603
G1 X55.194 Y75.702 E91.33915
G1 X55.194 Y75.299 E91.35172
G1 X55.131 Y74.884 E91.3648
G1 X55.009 Y74.5 E91.37737
G1 X54.824 Y74.123 E91.39046
G1 X54.581 Y73.779 E91.4036
G1 X54.303 Y73.488 E91.41614
G1 X53.969 Y73.233 E91.42925
G1 X53.616 Y73.041 E91.44178
G1 X53.221 Y72.897 E91.45489
G1 X52.807 Y72.817 E91.46803
G1 X52.404 Y72.801 E91.48061
G1 X51.986 Y72.849 E91.49373
G1 X51.6 Y72.955 E91.50621
G1 X51.216 Y73.125 E91.51931
G1 X50.861 Y73.354 E91.53248
G1 X50.56 Y73.622 E91.54505
G1 X50.292 Y73.945 E91.55813
G1 X50.077 Y74.307 E91.57126
G1 X49.927 Y74.681 E91.58383
G1 X49.831 Y75.09 E91.59693
G1 X49.8 Y75.49 E91.60944
G1 X49.831 Y75.91 E91.62257
G1 X49.927 Y76.32 E91.6357
G1 X50.077 Y76.694 E91.64826
G1 X50.291 Y77.055 E91.66135
G1 X50.547 Y77.366 E91.67391
G1 X50.86 Y77.647 E91.68702
G1 X51.215 Y77.876 E91.7002
G1 X51.581 Y78.04 E91.7127
G1 X51.985 Y78.152 E91.72577
G1 X52.385 Y78.199 E91.73833
G0 F7800 X52.373 Y78.5
G1 F720 X52.84 Y78.484 E91.7529
G1 X53.299 Y78.394 E91.76749
G1 X53.721 Y78.244 E91.78145
G1 X54.132 Y78.02 E91.79605
G1 X54.487 Y77.75 E91.80996
G1 X54.812 Y77.416 E91.82449
G1 X55.082 Y77.033 E91.8391
G1 X55.28 Y76.632 E91.85304
G1 X55.423 Y76.187 E91.86762
G1 X55.494 Y75.725 E91.88219
G1 X55.494 Y75.276 E91.89619
G1 X55.424 Y74.816 E91.9107
G1 X55.288 Y74.389 E91.92468
G1 X55.083 Y73.969 E91.93925
G1 X54.813 Y73.587 E91.95383
G1 X54.503 Y73.264 E91.96779
G1 X54.133 Y72.981 E91.98232
G1 X53.74 Y72.767 E91.99627
G1 X53.301 Y72.607 E92.01084
G1 X52.842 Y72.518 E92.02542
G1 X52.393 Y72.5 E92.03943
G1 X51.929 Y72.553 E92.05399
G1 X51.499 Y72.671 E92.0679
G1 X51.073 Y72.86 E92.08243
G1 X50.678 Y73.114 E92.09707
G1 X50.344 Y73.413 E92.11105
G1 X50.046 Y73.772 E92.1256
G1 X49.808 Y74.174 E92.14017
G1 X49.64 Y74.59 E92.15416
G1 X49.534 Y75.044 E92.16869
G1 X49.499 Y75.489 E92.18261
G1 X49.533 Y75.956 E92.19721
G1 X49.64 Y76.411 E92.21179
G1 X49.808 Y76.827 E92.22578
G1 X50.045 Y77.228 E92.2403
G1 X50.33 Y77.574 E92.25428
G1 X50.678 Y77.886 E92.26885
G1 X51.071 Y78.14 E92.28344
G1 X51.479 Y78.323 E92.29739
G1 X51.927 Y78.447 E92.31188
G1 X52.373 Y78.5 E92.32588
G0 F7800 X52.433 Y78.737
; TYPE:BOTTOM-FILL
G1 F720 X93.023 Y119.327 E94.11579
G0 F7800 X93.178 Y119.058
G1 F720 X52.842 Y78.722 E95.89449
G0 F7800 X53.2 Y78.656
G1 F720 X93.349 Y118.805 E97.66494
G0 F7800 X93.55 Y118.582
G1 F720 X53.532 Y78.564 E99.42962
G0 F7800 X53.843 Y78.45
G1 F720 X93.771 Y118.378 E101.19033
G0 F7800 X94.017 Y118.2
G1 F720 X54.117 Y78.3 E102.94981
G0 F7800 X54.376 Y78.135
G1 F720 X94.285 Y118.044 E104.70968
G0 F7800 X94.588 Y117.923
G1 F720 X54.616 Y77.95 E106.47235
G0 F7800 X54.829 Y77.74
G1 F720 X94.909 Y117.82 E108.23977
G0 F7800 X95.282 Y117.768
G1 F720 X55.032 Y77.518 E110.01467
G0 F7800 X55.208 Y77.269
G1 F720 X95.706 Y117.768 E111.80054
G0 F7800 X96.224 Y117.861
G1 F720 X55.364 Y77.001 E113.60235
G0 F7800 X55.504 Y76.717
G1 F720 X97.005 Y118.219 E115.43245
G0 F7800 X97.784 Y118.997
G1 F720 X107.296 Y128.509 E115.8519
G0 F7800 X106.872 Y128.509
G1 F720 X98.137 Y119.774 E116.23709
G0 F7800 X98.228 Y120.29
G1 F720 X106.447 Y128.509 E116.59952
G0 F7800 X106.023 Y128.509
G1 F720 X98.222 Y120.708 E116.94352
G0 F7800 X98.178 Y121.089
G1 F720 X105.599 Y128.509 E117.27075
G0 F7800 X105.175 Y128.509
G1 F720 X98.074 Y121.408 E117.58388
G0 F7800 X97.951 Y121.71
G1 F720 X104.75 Y128.509 E117.8837
G0 F7800 X104.326 Y128.509
G1 F720 X97.797 Y121.98 E118.17161
G0 F7800 X97.618 Y122.226
G1 F720 X103.902 Y128.509 E118.44869
G0 F7800 X103.478 Y128.509
G1 F720 X97.415 Y122.446 E118.71605
G0 F7800 X97.191 Y122.647
G1 F720 X103.053 Y128.509 E118.97455
G0 F7800 X102.629 Y128.509
G1 F720 X96.939 Y122.819 E119.22546
G0 F7800 X96.67 Y122.975
G1 F720 X102.205 Y128.509 E119.46952
G0 F7800 X101.78 Y128.509
G1 F720 X96.368 Y123.097 E119.70817
G0 F7800 X96.025 Y123.178
G1 F720 X101.356 Y128.509 E119.94325
G0 F7800 X100.932 Y128.509
G1 F720 X95.655 Y123.232 E120.17595
G0 F7800 X95.211 Y123.213
G1 F720 X100.508 Y128.509 E120.40951
G0 F7800 X100.083 Y128.509
G1 F720 X94.676 Y123.102 E120.64795
G0 F7800 X93.746 Y122.596
G1 F720 X99.659 Y128.509 E120.90869
G0 F7800 X99.235 Y128.509
G1 F720 X47.489 Y76.764 E123.19052
G0 F7800 X47.489 Y77.188
G1 F720 X98.811 Y128.509 E125.45365
G0 F7800 X98.386 Y128.509
G1 F720 X47.489 Y77.612 E127.69806
G0 F7800 X47.489 Y78.037
G1 F720 X97.962 Y128.509 E129.92376
G0 F7800 X97.538 Y128.509
G1 F720 X47.489 Y78.461 E132.13075
G0 F7800 X47.489 Y78.885
G1 F720 X97.114 Y128.509 E134.31905
G0 F7800 X96.689 Y128.509
G1 F720 X47.489 Y79.309 E136.48863
G0 F7800 X47.489 Y79.734
G1 F720 X96.265 Y128.509 E138.63949
G0 F7800 X95.841 Y128.509
G1 F720 X47.489 Y80.158 E140.77165
G0 F7800 X47.489 Y80.582
G1 F720 X95.416 Y128.509 E142.88509
G0 F7800 X94.992 Y128.509
G1 F720 X47.489 Y81.006 E144.97984
G0 F7800 X47.489 Y81.431
G1 F720 X94.568 Y128.509 E147.05586
G0 F7800 X94.144 Y128.509
G1 F720 X47.489 Y81.855 E149.11319
G0 F7800 X47.489 Y82.279
G1 F720 X93.719 Y128.509 E151.1518
G0 F7800 X93.295 Y128.509
G1 F720 X47.489 Y82.703 E153.17172
G0 F7800 X47.489 Y83.128
G1 F720 X92.871 Y128.509 E155.17291
G0 F7800 X92.447 Y128.509
G1 F720 X47.489 Y83.552 E157.15541
G0 F7800 X47.489 Y83.976
G1 F720 X92.022 Y128.509 E159.11918
G0 F7800 X91.598 Y128.509
G1 F720 X47.489 Y84.4 E161.06426
G0 F7800 X47.489 Y84.825
G1 F720 X91.174 Y128.509 E162.99062
G0 F7800 X90.75 Y128.509
G1 F720 X47.489 Y85.249 E164.89829
G0 F7800 X47.489 Y85.673
G1 F720 X90.325 Y128.509 E166.78723
G0 F7800 X89.901 Y128.509
G1 F720 X47.489 Y86.098 E168.65746
G0 F7800 X47.489 Y86.522
G1 F720 X89.477 Y128.509 E170.50899
G0 F7800 X89.053 Y128.509
G1 F720 X47.489 Y86.946 E172.34182
G0 F7800 X47.489 Y87.37
G1 F720 X88.628 Y128.509 E174.15593
G0 F7800 X88.204 Y128.509
G1 F720 X47.489 Y87.795 E175.95132
G0 F7800 X47.489 Y88.219
G1 F720 X87.78 Y128.509 E177.72802
G0 F7800 X87.355 Y128.509
G1 F720 X47.489 Y88.643 E179.48599
G0 F7800 X47.489 Y89.067
G1 F720 X86.931 Y128.509 E181.22527
G0 F7800 X86.507 Y128.509
G1 F720 X47.489 Y89.492 E182.94583
G0 F7800 X47.489 Y89.916
G1 F720 X86.083 Y128.509 E184.64769
G0 F7800 X85.658 Y128.509
G1 F720 X47.489 Y90.34 E186.33084
G0 F7800 X47.489 Y90.764
G1 F720 X85.234 Y128.509 E187.99528
G0 F7800 X84.81 Y128.509
G1 F720 X47.489 Y91.189 E189.64101
G0 F7800 X47.489 Y91.613
G1 F720 X84.386 Y128.509 E191.26804
G0 F7800 X83.961 Y128.509
G1 F720 X47.489 Y92.037 E192.87635
G0 F7800 X47.489 Y92.461
G1 F720 X83.537 Y128.509 E194.46596
G0 F7800 X83.113 Y128.509
G1 F720 X47.489 Y92.886 E196.03686
G0 F7800 X47.489 Y93.31
G1 F720 X82.689 Y128.509 E197.58905
G0 F7800 X82.264 Y128.509
G1 F720 X47.489 Y93.734 E199.12253
G0 F7800 X47.489 Y94.159
G1 F720 X81.84 Y128.509 E200.63729
G0 F7800 X81.416 Y128.509
G1 F720 X47.489 Y94.583 E202.13335
G0 F7800 X47.489 Y95.007
G1 F720 X80.992 Y128.509 E203.61071
G0 F7800 X80.567 Y128.509
G1 F720 X47.489 Y95.431 E205.06936
G0 F7800 X47.489 Y95.856
G1 F720 X80.143 Y128.509 E206.50928
G0 F7800 X79.719 Y128.509
G1 F720 X47.489 Y96.28 E207.93051
G0 F7800 X47.489 Y96.704
G1 F720 X79.294 Y128.509 E209.33302
G0 F7800 X78.87 Y128.509
G1 F720 X47.489 Y97.128 E210.71683
G0 F7800 X47.489 Y97.553
G1 F720 X78.446 Y128.509 E212.08193
G0 F7800 X78.022 Y128.509
G1 F720 X47.489 Y97.977 E213.42832
G0 F7800 X47.489 Y98.401
G1 F720 X77.597 Y128.509 E214.756
G0 F7800 X77.173 Y128.509
G1 F720 X47.489 Y98.825 E216.06498
G0 F7800 X47.489 Y99.25
G1 F720 X76.749 Y128.509 E217.35524
G0 F7800 X76.325 Y128.509
G1 F720 X47.489 Y99.674 E218.6268
G0 F7800 X47.489 Y100.098
G1 F720 X75.9 Y128.509 E219.87964
G0 F7800 X75.476 Y128.509
G1 F720 X47.489 Y100.523 E221.11377
G0 F7800 X47.489 Y100.947
G1 F720 X75.052 Y128.509 E222.32919
G0 F7800 X74.628 Y128.509
G1 F720 X47.489 Y101.371 E223.52592
G0 F7800 X47.489 Y101.795
G1 F720 X63.771 Y118.076 E224.24389
G0 F7800 X63.107 Y117.837
G1 F720 X47.489 Y102.22 E224.93258
G0 F7800 X47.489 Y102.644
G1 F720 X62.613 Y117.767 E225.59948
G0 F7800 X62.196 Y117.774
G1 F720 X47.489 Y103.068 E226.248
G0 F7800 X47.489 Y103.492
G1 F720 X61.84 Y117.842 E226.88081
G0 F7800 X61.518 Y117.946
G1 F720 X47.489 Y103.917 E227.49945
G0 F7800 X47.489 Y104.341
G1 F720 X61.224 Y118.075 E228.1051
G0 F7800 X60.963 Y118.238
G1 F720 X47.489 Y104.765 E228.69924
G0 F7800 X47.489 Y105.189
G1 F720 X60.718 Y118.418 E229.28261
G0 F7800 X60.507 Y118.632
G1 F720 X47.489 Y105.614 E229.85666
G0 F7800 X47.489 Y106.038
G1 F720 X60.306 Y118.854 E230.42183
G0 F7800 X60.145 Y119.117
G1 F720 X47.489 Y106.462 E230.9799
G0 F7800 X47.489 Y106.886
G1 F720 X59.99 Y119.387 E231.53116
G0 F7800 X59.886 Y119.708
G1 F720 X47.489 Y107.311 E232.07783
G0 F7800 X47.489 Y107.735
G1 F720 X59.802 Y120.048 E232.6208
G0 F7800 X59.763 Y120.433
G1 F720 X47.489 Y108.159 E233.16205
G0 F7800 X47.489 Y108.584
G1 F720 X59.798 Y120.892 E233.70482
G0 F7800 X59.941 Y121.459
G1 F720 X47.489 Y109.008 E234.25389
G0 F7800 X47.489 Y109.432
G1 F720 X66.566 Y128.508 E235.09511
G0 F7800 X66.99 Y128.508
G1 F720 X61.538 Y123.056 E235.33553
G0 F7800 X62.108 Y123.202
G1 F720 X67.414 Y128.508 E235.56951
G0 F7800 X67.839 Y128.508
G1 F720 X62.567 Y123.237 E235.80197
G0 F7800 X62.948 Y123.193
G1 F720 X68.263 Y128.508 E236.03634
G0 F7800 X68.687 Y128.508
G1 F720 X63.298 Y123.119 E236.27398
G0 F7800 X63.607 Y123.004
G1 F720 X69.111 Y128.508 E236.51669
G0 F7800 X69.536 Y128.508
G1 F720 X63.881 Y122.854 E236.76604
G0 F7800 X64.143 Y122.691
G1 F720 X69.96 Y128.508 E237.02255
G0 F7800 X70.384 Y128.508
G1 F720 X64.366 Y122.49 E237.28793
G0 F7800 X64.579 Y122.279
G1 F720 X70.808 Y128.508 E237.56261
G0 F7800 X71.233 Y128.508
G1 F720 X64.758 Y122.033 E237.84814
G0 F7800 X64.921 Y121.772
G1 F720 X71.657 Y128.508 E238.14518
G0 F7800 X72.081 Y128.508
G1 F720 X65.051 Y121.478 E238.45518
G0 F7800 X65.155 Y121.158
G1 F720 X72.506 Y128.508 E238.77932
G0 F7800 X72.93 Y128.508
G1 F720 X65.214 Y120.792 E239.11957
G0 F7800 X65.234 Y120.389
G1 F720 X73.354 Y128.508 E239.47762
G0 F7800 X73.779 Y128.509
G1 F720 X65.161 Y119.891 E239.85765
G0 F7800 X64.912 Y119.218
G1 F720 X74.203 Y128.509 E240.26735
G0 F7800 X66.142 Y128.508
G1 F720 X47.489 Y109.856 E241.08988
G0 F7800 X47.489 Y110.281
G1 F720 X65.717 Y128.508 E241.89366
G0 F7800 X65.293 Y128.508
G1 F720 X47.489 Y110.705 E242.67874
G0 F7800 X47.489 Y111.129
G1 F720 X53.987 Y117.627 E242.96528
G0 F7800 X53.296 Y117.359
G1 F720 X47.489 Y111.553 E243.22133
G0 F7800 X47.489 Y111.978
G1 F720 X52.785 Y117.273 E243.45485
G0 F7800 X52.349 Y117.261
G1 F720 X47.489 Y112.402 E243.66914
G0 F7800 X47.489 Y112.826
G1 F720 X51.969 Y117.306 E243.86669
G0 F7800 X51.625 Y117.386
G1 F720 X47.489 Y113.25 E244.04908
G0 F7800 X47.489 Y113.675
G1 F720 X51.306 Y117.492 E244.2174
G0 F7800 X51.012 Y117.622
G1 F720 X47.489 Y114.099 E244.37275
G0 F7800 X47.489 Y114.523
G1 F720 X50.748 Y117.782 E244.51646
G0 F7800 X50.495 Y117.953
G1 F720 X47.489 Y114.947 E244.64902
G0 F7800 X47.489 Y115.372
G1 F720 X50.271 Y118.154 E244.7717
G0 F7800 X50.064 Y118.371
G1 F720 X47.489 Y115.796 E244.88525
G0 F7800 X47.489 Y116.22
G1 F720 X49.872 Y118.603 E244.99033
G0 F7800 X49.711 Y118.866
G1 F720 X47.489 Y116.645 E245.08829
G0 F7800 X47.489 Y117.069
G1 F720 X49.561 Y119.141 E245.17966
G0 F7800 X49.439 Y119.443
G1 F720 X47.489 Y117.493 E245.26565
G0 F7800 X47.489 Y117.917
G1 F720 X49.348 Y119.776 E245.34763
G0 F7800 X49.286 Y120.138
G1 F720 X47.489 Y118.342 E245.42685
G0 F7800 X47.489 Y118.766
G1 F720 X49.262 Y120.538 E245.50501
G0 F7800 X49.296 Y120.997
G1 F720 X47.489 Y119.19 E245.5847
G0 F7800 X47.489 Y119.614
G1 F720 X49.446 Y121.571 E245.67099
G0 F7800 X50.002 Y122.551
G1 F720 X47.489 Y120.039 E245.78179
G0 F7800 X47.489 Y120.463
G1 F720 X55.535 Y128.508 E246.13657
G0 F7800 X55.959 Y128.508
G1 F720 X50.476 Y123.025 E246.37836
G0 F7800 X51.432 Y123.557
G1 F720 X56.383 Y128.508 E246.59668
G0 F7800 X56.808 Y128.508
G1 F720 X51.993 Y123.694 E246.80899
G0 F7800 X52.459 Y123.735
G1 F720 X57.232 Y128.508 E247.01946
G0 F7800 X57.656 Y128.508
G1 F720 X52.868 Y123.72 E247.2306
G0 F7800 X53.223 Y123.651
G1 F720 X58.081 Y128.508 E247.4448
G0 F7800 X58.505 Y128.508
G1 F720 X53.552 Y123.556 E247.66319
G0 F7800 X53.86 Y123.439
G1 F720 X58.929 Y128.508 E247.88672
G0 F7800 X59.353 Y128.508
G1 F720 X54.135 Y123.29 E248.11682
G0 F7800 X54.391 Y123.122
G1 F720 X59.778 Y128.508 E248.35435
G0 F7800 X60.202 Y128.508
G1 F720 X54.631 Y122.938 E248.59999
G0 F7800 X54.843 Y122.725
G1 F720 X60.626 Y128.508 E248.855
G0 F7800 X61.05 Y128.508
G1 F720 X55.044 Y122.502 E249.11985
G0 F7800 X55.219 Y122.253
G1 F720 X61.475 Y128.508 E249.3957
G0 F7800 X61.899 Y128.508
G1 F720 X55.372 Y121.982 E249.6835
G0 F7800 X55.511 Y121.696
G1 F720 X62.323 Y128.508 E249.98389
G0 F7800 X62.747 Y128.508
G1 F720 X55.614 Y121.375 E250.29844
G0 F7800 X55.69 Y121.026
G1 F720 X63.172 Y128.508 E250.62837
G0 F7800 X63.596 Y128.508
G1 F720 X55.733 Y120.645 E250.97511
G0 F7800 X55.727 Y120.215
G1 F720 X64.02 Y128.508 E251.3408
G0 F7800 X64.445 Y128.508
G1 F720 X55.641 Y119.705 E251.72901
G0 F7800 X55.372 Y119.011
G1 F720 X64.869 Y128.508 E252.1478
G0 F7800 X55.111 Y128.508
G1 F720 X47.489 Y120.887 E252.48389
G0 F7800 X47.489 Y121.311
G1 F720 X54.686 Y128.508 E252.80126
G0 F7800 X54.262 Y128.508
G1 F720 X47.489 Y121.736 E253.0999
G0 F7800 X47.489 Y122.16
G1 F720 X53.838 Y128.508 E253.37985
G0 F7800 X53.414 Y128.508
G1 F720 X47.489 Y122.584 E253.64111
G0 F7800 X47.489 Y123.009
G1 F720 X52.989 Y128.508 E253.88362
G0 F7800 X52.565 Y128.508
G1 F720 X47.489 Y123.433 E254.10743
G0 F7800 X47.489 Y123.857
G1 F720 X52.141 Y128.508 E254.31255
G0 F7800 X51.717 Y128.508
G1 F720 X47.489 Y124.281 E254.49897
G0 F7800 X47.489 Y124.706
G1 F720 X51.292 Y128.508 E254.66665
G0 F7800 X50.868 Y128.508
G1 F720 X47.489 Y125.13 E254.81563
G0 F7800 X47.489 Y125.554
G1 F720 X50.444 Y128.508 E254.94592
G0 F7800 X50.02 Y128.508
G1 F720 X47.489 Y125.978 E255.05751
G0 F7800 X47.489 Y126.403
G1 F720 X49.595 Y128.508 E255.15035
G0 F7800 X49.171 Y128.508
G1 F720 X47.489 Y126.827 E255.2245
G0 F7800 X47.489 Y127.251
G1 F720 X48.747 Y128.508 E255.27996
G0 F7800 X48.322 Y128.508
G1 F720 X47.489 Y127.675 E255.31669
G0 F7800 X47.489 Y128.1
G1 F720 X47.898 Y128.508 E255.3347
G0 F7800 X92.77 Y120.772
G0 X92.77 Y120.772
G1 F720 X47.489 Y75.491 E257.33146
G0 F7800 X47.489 Y75.067
G1 F720 X50.126 Y77.703 E257.44773
G0 F7800 X50.209 Y77.786
G1 F720 X92.768 Y120.346 E259.32448
G0 F7800 X92.82 Y119.973
G1 F720 X51.393 Y78.546 E261.15129
G0 F7800 X51.962 Y78.691
G1 F720 X92.901 Y119.63 E262.95658
G0 F7800 X92.895 Y121.321
G0 X92.895 Y121.321
G1 F720 X47.489 Y75.915 E264.95886
G0 F7800 X47.489 Y76.339
G1 F720 X93.391 Y122.241 E266.983
G0 F7800 X94.05 Y122.158
G0 X94.583 Y122.556
G0 X95.033 Y122.701
G0 X95.49 Y122.751
G0 X95.746 Y122.736
G0 X96.183 Y122.643
G0 X96.432 Y122.546
G0 X96.82 Y122.321
G0 X97.171 Y122.007
G0 X97.289 Y121.752
G0 X102.817 Y121.06
G0 X102.817 Y121.06
G1 F720 X53.245 Y71.489 E269.16896
G0 F7800 X52.821 Y71.489
G1 F720 X53.928 Y72.595 E269.21776
G0 F7800 X53.262 Y72.354
G1 F720 X52.397 Y71.489 E269.2559
G0 F7800 X51.973 Y71.489
G1 F720 X52.757 Y72.273 E269.29047
G0 F7800 X52.325 Y72.265
G1 F720 X51.548 Y71.489 E269.32471
G0 F7800 X51.124 Y71.489
G1 F720 X51.945 Y72.31 E269.36092
G0 F7800 X51.603 Y72.392
G1 F720 X50.7 Y71.489 E269.40074
G0 F7800 X50.275 Y71.489
G1 F720 X51.287 Y72.501 E269.44536
G0 F7800 X50.993 Y72.631
G1 F720 X49.851 Y71.489 E269.49572
G0 F7800 X49.427 Y71.489
G1 F720 X50.731 Y72.793 E269.55322
G0 F7800 X50.481 Y72.967
G1 F720 X49.003 Y71.489 E269.6184
G0 F7800 X48.578 Y71.489
G1 F720 X50.257 Y73.167 E269.69242
G0 F7800 X50.052 Y73.387
G1 F720 X48.154 Y71.489 E269.77611
G0 F7800 X47.73 Y71.489
G1 F720 X49.86 Y73.619 E269.87004
G0 F7800 X49.701 Y73.884
G1 F720 X47.489 Y71.673 E269.96756
G0 F7800 X47.489 Y72.097
G1 F720 X49.554 Y74.161 E270.0586
G0 F7800 X49.431 Y74.463
G1 F720 X47.489 Y72.521 E270.14424
G0 F7800 X47.489 Y72.945
G1 F720 X49.344 Y74.799 E270.22601
G0 F7800 X49.283 Y75.164
G1 F720 X47.489 Y73.37 E270.30513
G0 F7800 X47.489 Y73.794
G1 F720 X49.264 Y75.568 E270.38338
G0 F7800 X49.305 Y76.033
G1 F720 X47.489 Y74.218 E270.46343
G0 F7800 X47.489 Y74.642
G1 F720 X49.464 Y76.617 E270.55053
G0 F7800 X49.99 Y76.597
G0 X50.252 Y77.083
G0 X50.512 Y77.4
G0 X50.83 Y77.686
G0 X51.192 Y77.918
G0 X51.565 Y78.086
G0 X51.976 Y78.2
G0 X52.384 Y78.248
G0 X52.811 Y78.233
G0 X53.231 Y78.151
G0 X53.618 Y78.014
G0 X53.995 Y77.809
G0 X54.32 Y77.561
G0 X54.617 Y77.254
G0 X54.866 Y76.904
G0 X55.047 Y76.537
G0 X55.073 Y76.414
G0 X55.607 Y76.396
G0 X55.607 Y76.396
G1 F720 X107.72 Y128.509 E272.84856
G0 F7800 X108.144 Y128.509
G1 F720 X55.686 Y76.051 E275.16181
G0 F7800 X55.733 Y75.673
G1 F720 X108.569 Y128.509 E277.49172
G0 F7800 X108.993 Y128.509
G1 F720 X55.732 Y75.248 E279.84038
G0 F7800 X55.653 Y74.745
G1 F720 X109.417 Y128.509 E282.21122
G0 F7800 X109.841 Y128.509
G1 F720 X104.28 Y122.948 E282.45644
G0 F7800 X104.941 Y123.184
G1 F720 X110.266 Y128.509 E282.69126
G0 F7800 X110.69 Y128.509
G1 F720 X105.416 Y123.235 E282.92383
G0 F7800 X105.824 Y123.219
G1 F720 X111.114 Y128.509 E283.1571
G0 F7800 X111.539 Y128.509
G1 F720 X106.175 Y123.146 E283.39361
G0 F7800 X106.499 Y123.045
G1 F720 X111.963 Y128.509 E283.63456
G0 F7800 X112.387 Y128.509
G1 F720 X106.785 Y122.907 E283.88159
G0 F7800 X107.055 Y122.753
G1 F720 X112.811 Y128.509 E284.13542
G0 F7800 X113.236 Y128.509
G1 F720 X107.287 Y122.561 E284.39773
G0 F7800 X107.511 Y122.36
G1 F720 X113.66 Y128.509 E284.66888
G0 F7800 X114.084 Y128.509
G1 F720 X107.695 Y122.12 E284.95062
G0 F7800 X107.871 Y121.872
G1 F720 X114.508 Y128.509 E285.24329
G0 F7800 X114.933 Y128.509
G1 F720 X108.012 Y121.589 E285.54847
G0 F7800 X108.119 Y121.271
G1 F720 X115.357 Y128.509 E285.86764
G0 F7800 X115.781 Y128.509
G1 F720 X108.2 Y120.927 E286.20196
G0 F7800 X108.24 Y120.544
G1 F720 X116.205 Y128.509 E286.5532
G0 F7800 X116.63 Y128.509
G1 F720 X108.201 Y120.08 E286.92489
G0 F7800 X108.05 Y119.505
G1 F720 X117.054 Y128.509 E287.32194
G0 F7800 X117.478 Y128.509
G1 F720 X65.149 Y76.18 E289.6295
G0 F7800 X65.045 Y76.5
G1 F720 X106.5 Y117.956 E291.45757
G0 F7800 X105.918 Y117.797
G1 F720 X64.908 Y76.787 E293.26599
G0 F7800 X64.753 Y77.056
G1 F720 X105.464 Y117.768 E295.06125
G0 F7800 X105.067 Y117.795
G1 F720 X64.568 Y77.295 E296.84716
G0 F7800 X64.353 Y77.505
G1 F720 X104.726 Y117.878 E298.6275
G0 F7800 X104.405 Y117.982
G1 F720 X64.128 Y77.705 E300.4036
G0 F7800 X63.863 Y77.864
G1 F720 X104.126 Y118.127 E302.17908
G0 F7800 X103.877 Y118.302
G1 F720 X63.587 Y78.012 E303.95575
G0 F7800 X63.276 Y78.125
G1 F720 X103.637 Y118.486 E305.73556
G0 F7800 X103.436 Y118.709
G1 F720 X62.926 Y78.199 E307.52193
G0 F7800 X62.532 Y78.23
G1 F720 X103.244 Y118.942 E309.31721
G0 F7800 X103.09 Y119.212
G1 F720 X62.078 Y78.2 E311.12572
G0 F7800 X61.502 Y78.049
G1 F720 X102.951 Y119.498 E312.95351
G0 F7800 X102.852 Y119.823
G1 F720 X54.518 Y71.489 E315.0849
G0 F7800 X54.094 Y71.489
G1 F720 X102.777 Y120.172 E317.23168
G0 F7800 X102.769 Y120.588
G1 F720 X53.67 Y71.489 E319.3968
G0 F7800 X54.942 Y71.489
G1 F720 X59.953 Y76.499 E319.61775
G0 F7800 X59.794 Y75.916
G1 F720 X55.367 Y71.489 E319.81297
G0 F7800 X55.791 Y71.489
G1 F720 X59.759 Y75.457 E319.98795
G0 F7800 X59.8 Y75.073
G1 F720 X56.215 Y71.489 E320.14601
G0 F7800 X56.639 Y71.489
G1 F720 X59.879 Y74.729 E320.28889
G0 F7800 X59.983 Y74.408
G1 F720 X57.064 Y71.489 E320.41761
G0 F7800 X57.488 Y71.489
G1 F720 X60.135 Y74.135 E320.53431
G0 F7800 X60.293 Y73.87
G1 F720 X57.912 Y71.489 E320.6393
G0 F7800 X58.337 Y71.489
G1 F720 X60.494 Y73.646 E320.73442
G0 F7800 X60.702 Y73.43
G1 F720 X58.761 Y71.489 E320.82001
G0 F7800 X59.185 Y71.489
G1 F720 X60.947 Y73.251 E320.89771
G0 F7800 X61.206 Y73.085
G1 F720 X59.609 Y71.489 E320.96811
G0 F7800 X60.034 Y71.489
G1 F720 X61.499 Y72.954 E321.03272
G0 F7800 X61.82 Y72.851
G1 F720 X60.458 Y71.489 E321.09278
G0 F7800 X60.882 Y71.489
G1 F720 X62.182 Y72.788 E321.15008
G0 F7800 X62.58 Y72.762
G1 F720 X61.306 Y71.489 E321.20624
G0 F7800 X61.731 Y71.489
G1 F720 X63.056 Y72.815 E321.26469
G0 F7800 X63.722 Y73.056
G1 F720 X62.155 Y71.489 E321.33379
G0 F7800 X62.579 Y71.489
G1 F720 X119.6 Y128.509 E323.84823
G0 F7800 X120.024 Y128.509
G1 F720 X63.003 Y71.489 E326.36267
G0 F7800 X63.428 Y71.489
G1 F720 X120.448 Y128.509 E328.87709
G0 F7800 X120.872 Y128.509
G1 F720 X63.852 Y71.489 E331.39151
G0 F7800 X64.276 Y71.489
G1 F720 X121.297 Y128.509 E333.90595
G0 F7800 X121.721 Y128.509
G1 F720 X64.7 Y71.489 E336.42039
G0 F7800 X65.125 Y71.489
G1 F720 X122.145 Y128.509 E338.9348
G0 F7800 X122.569 Y128.509
G1 F720 X65.549 Y71.489 E341.44922
G0 F7800 X65.973 Y71.489
G1 F720 X122.994 Y128.509 E343.96366
G0 F7800 X123.418 Y128.509
G1 F720 X66.398 Y71.489 E346.47808
G0 F7800 X66.822 Y71.489
G1 F720 X123.842 Y128.509 E348.9925
G0 F7800 X124.266 Y128.509
G1 F720 X67.246 Y71.489 E351.50692
G0 F7800 X67.67 Y71.489
G1 F720 X124.691 Y128.509 E354.02136
G0 F7800 X125.115 Y128.509
G1 F720 X68.095 Y71.489 E356.53578
G0 F7800 X68.519 Y71.489
G1 F720 X125.539 Y128.509 E359.05019
G0 F7800 X125.964 Y128.509
G1 F720 X68.943 Y71.489 E361.56463
G0 F7800 X69.367 Y71.489
G1 F720 X126.388 Y128.51 E364.0791
G0 F7800 X126.813 Y128.51
G1 F720 X69.792 Y71.489 E366.59356
G0 F7800 X70.216 Y71.489
G1 F720 X127.237 Y128.51 E369.10802
G0 F7800 X127.661 Y128.51
G1 F720 X70.64 Y71.489 E371.62248
G0 F7800 X71.064 Y71.489
G1 F720 X128.086 Y128.51 E374.13697
G0 F7800 X128.51 Y128.51
G1 F720 X71.489 Y71.489 E376.65143
G0 F7800 X71.913 Y71.489
G1 F720 X128.934 Y128.51 E379.16589
G0 F7800 X129.358 Y128.51
G1 F720 X72.337 Y71.489 E381.68035
G0 F7800 X72.761 Y71.489
G1 F720 X129.783 Y128.51 E384.19484
G0 F7800 X130.207 Y128.51
G1 F720 X73.186 Y71.489 E386.7093
G0 F7800 X73.61 Y71.489
G1 F720 X130.631 Y128.51 E389.22376
G0 F7800 X131.055 Y128.51
G1 F720 X74.034 Y71.489 E391.73822
G0 F7800 X74.459 Y71.489
G1 F720 X131.48 Y128.51 E394.25269
G0 F7800 X131.904 Y128.51
G1 F720 X74.883 Y71.489 E396.76715
G0 F7800 X75.307 Y71.489
G1 F720 X132.328 Y128.51 E399.28161
G0 F7800 X132.752 Y128.51
G1 F720 X75.731 Y71.489 E401.79607
G0 F7800 X76.156 Y71.489
G1 F720 X133.177 Y128.51 E404.31054
G0 F7800 X133.601 Y128.51
G1 F720 X76.58 Y71.489 E406.825
G0 F7800 X77.004 Y71.489
G1 F720 X134.025 Y128.51 E409.33946
G0 F7800 X134.449 Y128.51
G1 F720 X77.428 Y71.489 E411.85392
G0 F7800 X77.853 Y71.489
G1 F720 X134.874 Y128.51 E414.36838
G0 F7800 X135.298 Y128.51
G1 F720 X78.277 Y71.489 E416.88285
G0 F7800 X78.701 Y71.489
G1 F720 X135.722 Y128.51 E419.39731
G0 F7800 X136.147 Y128.51
G1 F720 X79.125 Y71.489 E421.91179
G0 F7800 X79.55 Y71.489
G1 F720 X136.571 Y128.51 E424.42626
G0 F7800 X136.995 Y128.51
G1 F720 X79.974 Y71.489 E426.94072
G0 F7800 X80.398 Y71.489
G1 F720 X137.419 Y128.51 E429.45518
G0 F7800 X137.844 Y128.51
G1 F720 X80.823 Y71.489 E431.96964
G0 F7800 X81.247 Y71.489
G1 F720 X138.268 Y128.51 E434.4841
G0 F7800 X138.692 Y128.51
G1 F720 X81.671 Y71.489 E436.99857
G0 F7800 X82.095 Y71.489
G1 F720 X139.116 Y128.51 E439.51303
G0 F7800 X139.541 Y128.51
G1 F720 X82.52 Y71.489 E442.02749
G0 F7800 X82.944 Y71.489
G1 F720 X139.965 Y128.51 E444.54195
G0 F7800 X140.389 Y128.51
G1 F720 X83.368 Y71.489 E447.05641
G0 F7800 X83.792 Y71.489
G1 F720 X140.813 Y128.51 E449.57088
G0 F7800 X141.238 Y128.51
G1 F720 X84.217 Y71.489 E452.08534
G0 F7800 X84.641 Y71.489
G1 F720 X141.662 Y128.51 E454.5998
G0 F7800 X142.086 Y128.51
G1 F720 X85.065 Y71.489 E457.11426
G0 F7800 X85.489 Y71.489
G1 F720 X142.511 Y128.51 E459.62875
G0 F7800 X142.935 Y128.51
G1 F720 X137.456 Y123.031 E459.87036
G0 F7800 X138.046 Y123.197
G1 F720 X143.359 Y128.51 E460.10464
G0 F7800 X143.783 Y128.51
G1 F720 X138.514 Y123.24 E460.33701
G0 F7800 X138.901 Y123.204
G1 F720 X144.208 Y128.51 E460.57102
G0 F7800 X144.632 Y128.51
G1 F720 X139.252 Y123.13 E460.80826
G0 F7800 X139.566 Y123.02
G1 F720 X145.056 Y128.51 E461.05035
G0 F7800 X145.48 Y128.51
G1 F720 X139.845 Y122.874 E461.29886
G0 F7800 X140.113 Y122.718
G1 F720 X145.905 Y128.51 E461.55427
G0 F7800 X146.329 Y128.51
G1 F720 X140.336 Y122.517 E461.81855
G0 F7800 X140.555 Y122.311
G1 F720 X146.753 Y128.51 E462.09188
G0 F7800 X147.177 Y128.51
G1 F720 X140.734 Y122.067 E462.376
G0 F7800 X140.902 Y121.81
G1 F720 X147.602 Y128.51 E462.67145
G0 F7800 X148.026 Y128.51
G1 F720 X141.037 Y121.521 E462.97964
G0 F7800 X141.141 Y121.2
G1 F720 X148.45 Y128.51 E463.30197
G0 F7800 X148.874 Y128.51
G1 F720 X141.207 Y120.843 E463.64007
G0 F7800 X141.238 Y120.449
G1 F720 X149.299 Y128.51 E463.99553
G0 F7800 X149.723 Y128.51
G1 F720 X141.175 Y119.962 E464.37247
G0 F7800 X140.987 Y119.35
G1 F720 X150.147 Y128.51 E464.7764
G0 F7800 X150.572 Y128.51
G1 F720 X98.171 Y76.11 E467.08712
G0 F7800 X98.067 Y76.429
G1 F720 X139.67 Y118.033 E468.92171
G0 F7800 X139.036 Y117.823
G1 F720 X97.941 Y76.728 E470.73388
G0 F7800 X97.786 Y76.997
G1 F720 X138.557 Y117.768 E472.53177
G0 F7800 X138.147 Y117.782
G1 F720 X97.609 Y77.244 E474.31937
G0 F7800 X97.401 Y77.461
G1 F720 X137.797 Y117.857 E476.10072
G0 F7800 X137.476 Y117.96
G1 F720 X97.177 Y77.661 E477.87779
G0 F7800 X96.922 Y77.83
G1 F720 X137.187 Y118.095 E479.65336
G0 F7800 X136.931 Y118.263
G1 F720 X96.653 Y77.986 E481.42948
G0 F7800 X96.349 Y78.106
G1 F720 X136.685 Y118.441 E483.20816
G0 F7800 X136.48 Y118.661
G1 F720 X96.003 Y78.184 E484.99308
G0 F7800 X95.625 Y78.23
G1 F720 X136.279 Y118.884 E486.78581
G0 F7800 X136.123 Y119.153
G1 F720 X95.196 Y78.225 E488.59059
G0 F7800 X94.655 Y78.109
G1 F720 X135.976 Y119.43 E490.41273
G0 F7800 X135.869 Y119.747
G1 F720 X93.474 Y77.352 E492.28223
G0 F7800 X93.456 Y77.334
G1 F720 X87.611 Y71.489 E492.53998
G0 F7800 X88.035 Y71.489
G1 F720 X92.906 Y76.359 E492.75475
G0 F7800 X92.774 Y75.803
G1 F720 X88.459 Y71.489 E492.94501
G0 F7800 X88.884 Y71.489
G1 F720 X92.768 Y75.373 E493.11628
G0 F7800 X92.814 Y74.995
G1 F720 X89.308 Y71.489 E493.27089
G0 F7800 X89.732 Y71.489
G1 F720 X92.89 Y74.647 E493.41014
G0 F7800 X93.02 Y74.352
G1 F720 X90.156 Y71.489 E493.53642
G0 F7800 X90.581 Y71.489
G1 F720 X93.163 Y74.071 E493.65028
G0 F7800 X93.337 Y73.821
G1 F720 X91.005 Y71.489 E493.75311
G0 F7800 X91.429 Y71.489
G1 F720 X93.538 Y73.598 E493.84611
G0 F7800 X93.756 Y73.392
G1 F720 X91.853 Y71.489 E493.93003
G0 F7800 X92.278 Y71.489
G1 F720 X94.001 Y73.212 E494.00601
G0 F7800 X94.267 Y73.054
G1 F720 X92.702 Y71.489 E494.07502
G0 F7800 X93.126 Y71.489
G1 F720 X94.568 Y72.93 E494.13859
G0 F7800 X94.889 Y72.827
G1 F720 X93.55 Y71.489 E494.19761
G0 F7800 X93.975 Y71.489
G1 F720 X95.257 Y72.771 E494.25414
G0 F7800 X95.684 Y72.774
G1 F720 X94.399 Y71.489 E494.31081
G0 F7800 X94.823 Y71.489
G1 F720 X96.184 Y72.85 E494.37082
G0 F7800 X96.909 Y73.15
G1 F720 X95.247 Y71.489 E494.44409
G0 F7800 X95.672 Y71.489
G1 F720 X145.329 Y121.146 E496.63382
G0 F7800 X145.27 Y120.662
G1 F720 X96.096 Y71.489 E498.80223
G0 F7800 X96.52 Y71.489
G1 F720 X145.275 Y120.244 E500.95219
G0 F7800 X145.325 Y119.869
G1 F720 X96.945 Y71.489 E503.08561
G0 F7800 X97.369 Y71.489
G1 F720 X145.405 Y119.525 E505.20385
G0 F7800 X145.526 Y119.222
G1 F720 X104.217 Y77.913 E507.02546
G0 F7800 X104.891 Y78.162
G1 F720 X145.666 Y118.938 E508.82355
G0 F7800 X145.824 Y118.671
G1 F720 X105.383 Y78.23 E510.60688
G0 F7800 X105.802 Y78.225
G1 F720 X146.011 Y118.434 E512.37998
G0 F7800 X146.209 Y118.207
G1 F720 X106.153 Y78.152 E514.14631
G0 F7800 X106.48 Y78.054
G1 F720 X146.434 Y118.008 E515.90817
G0 F7800 X146.677 Y117.827
G1 F720 X106.768 Y77.918 E517.66804
G0 F7800 X107.038 Y77.764
G1 F720 X146.935 Y117.661 E519.42738
G0 F7800 X147.225 Y117.527
G1 F720 X107.273 Y77.575 E521.18915
G0 F7800 X107.497 Y77.375
G1 F720 X147.534 Y117.411 E522.95465
G0 F7800 X147.867 Y117.32
G1 F720 X107.689 Y77.142 E524.72638
G0 F7800 X107.852 Y76.881
G1 F720 X148.245 Y117.274 E526.5076
G0 F7800 X148.664 Y117.269
G1 F720 X108.008 Y76.612 E528.30043
G0 F7800 X108.112 Y76.292
G1 F720 X149.152 Y117.332 E530.11018
G0 F7800 X149.763 Y117.519
G1 F720 X108.196 Y75.952 E531.94316
G0 F7800 X108.237 Y75.569
G1 F720 X152.509 Y119.841 E533.89543
G0 F7800 X152.509 Y120.265
G1 F720 X151.477 Y119.233 E533.94094
G0 F7800 X151.671 Y119.851
G1 F720 X152.509 Y120.689 E533.97789
G0 F7800 X152.509 Y121.113
G1 F720 X151.732 Y120.336 E534.01215
G0 F7800 X151.73 Y120.758
G1 F720 X152.509 Y121.538 E534.04653
G0 F7800 X152.509 Y121.962
G1 F720 X151.674 Y121.127 E534.08335
G0 F7800 X151.585 Y121.462
G1 F720 X152.509 Y122.386 E534.12409
G0 F7800 X152.509 Y122.811
G1 F720 X151.474 Y121.775 E534.16976
G0 F7800 X151.333 Y122.059
G1 F720 X152.509 Y123.235 E534.22162
G0 F7800 X152.509 Y123.659
G1 F720 X151.17 Y122.32 E534.28066
G0 F7800 X150.994 Y122.569
G1 F720 X152.509 Y124.083 E534.34745
G0 F7800 X152.509 Y124.508
G1 F720 X150.785 Y122.784 E534.42347
G0 F7800 X150.565 Y122.988
G1 F720 X152.509 Y124.932 E534.5092
G0 F7800 X152.509 Y125.356
G1 F720 X150.325 Y123.173 E534.60548
G0 F7800 X150.059 Y123.33
G1 F720 X152.509 Y125.78 E534.71352
G0 F7800 X152.509 Y126.205
G1 F720 X149.78 Y123.475 E534.83388
G0 F7800 X149.467 Y123.587
G1 F720 X152.509 Y126.629 E534.96803
G0 F7800 X152.509 Y127.053
G1 F720 X149.126 Y123.67 E535.11721
G0 F7800 X148.757 Y123.726
G1 F720 X152.509 Y127.477 E535.28264
G0 F7800 X152.509 Y127.902
G1 F720 X148.345 Y123.738 E535.46626
G0 F7800 X147.859 Y123.676
G1 F720 X152.509 Y128.326 E535.67131
G0 F7800 X152.269 Y128.51
G1 F720 X147.235 Y123.476 E535.89329
G0 F7800 X145.521 Y121.763
G0 X145.521 Y121.763
G1 F720 X97.819 Y74.06 E537.99684
G0 F7800 X98.142 Y74.808
G1 F720 X151.844 Y128.51 E540.36494
G0 F7800 X151.42 Y128.51
G1 F720 X98.229 Y75.319 E542.71051
G0 F7800 X98.219 Y75.733
G1 F720 X150.996 Y128.51 E545.03782
G0 F7800 X152.509 Y119.416
G0 X152.509 Y119.416
G1 F720 X108.207 Y75.114 E546.99142
G0 F7800 X108.065 Y74.548
G1 F720 X152.509 Y118.992 E548.95127
G0 F7800 X152.509 Y118.568
G1 F720 X105.431 Y71.489 E551.02729
G0 F7800 X105.855 Y71.489
G1 F720 X152.509 Y118.144 E553.08462
G0 F7800 X152.509 Y117.719
G1 F720 X106.279 Y71.489 E555.12323
G0 F7800 X106.703 Y71.489
G1 F720 X152.509 Y117.295 E557.14315
G0 F7800 X152.509 Y116.871
G1 F720 X107.128 Y71.489 E559.14434
G0 F7800 X107.552 Y71.489
G1 F720 X152.509 Y116.447 E561.12684
G0 F7800 X152.509 Y116.022
G1 F720 X107.976 Y71.489 E563.09061
G0 F7800 X108.4 Y71.489
G1 F720 X152.509 Y115.598 E565.0357
G0 F7800 X152.509 Y115.174
G1 F720 X108.825 Y71.489 E566.96206
G0 F7800 X109.249 Y71.489
G1 F720 X152.509 Y114.749 E568.8697
G0 F7800 X152.509 Y114.325
G1 F720 X109.673 Y71.489 E570.75864
G0 F7800 X110.097 Y71.489
G1 F720 X152.509 Y113.901 E572.62889
G0 F7800 X152.509 Y113.477
G1 F720 X110.522 Y71.489 E574.48042
G0 F7800 X110.946 Y71.489
G1 F720 X152.509 Y113.052 E576.31323
G0 F7800 X152.509 Y112.628
G1 F720 X111.37 Y71.489 E578.12734
G0 F7800 X111.794 Y71.489
G1 F720 X152.509 Y112.204 E579.92275
G0 F7800 X152.509 Y111.78
G1 F720 X112.219 Y71.489 E581.69945
G0 F7800 X112.643 Y71.489
G1 F720 X152.509 Y111.355 E583.45742
G0 F7800 X152.509 Y110.931
G1 F720 X113.067 Y71.489 E585.1967
G0 F7800 X113.492 Y71.489
G1 F720 X152.509 Y110.507 E586.91726
G0 F7800 X152.509 Y110.083
G1 F720 X113.916 Y71.489 E588.61912
G0 F7800 X114.34 Y71.489
G1 F720 X152.509 Y109.658 E590.30227
G0 F7800 X152.509 Y109.234
G1 F720 X114.764 Y71.489 E591.96671
G0 F7800 X115.189 Y71.489
G1 F720 X152.509 Y108.81 E593.61244
G0 F7800 X152.509 Y108.386
G1 F720 X115.613 Y71.489 E595.23947
G0 F7800 X116.037 Y71.489
G1 F720 X152.509 Y107.961 E596.84778
G0 F7800 X152.509 Y107.537
G1 F720 X116.461 Y71.489 E598.43739
G0 F7800 X116.886 Y71.489
G1 F720 X152.509 Y107.113 E600.00829
G0 F7800 X152.509 Y106.688
G1 F720 X117.31 Y71.489 E601.56046
G0 F7800 X117.734 Y71.489
G1 F720 X152.509 Y106.264 E603.09394
G0 F7800 X152.509 Y105.84
G1 F720 X118.158 Y71.489 E604.60872
G0 F7800 X118.583 Y71.489
G1 F720 X152.509 Y105.416 E606.10478
G0 F7800 X152.509 Y104.991
G1 F720 X119.007 Y71.489 E607.58212
G0 F7800 X119.431 Y71.489
G1 F720 X152.509 Y104.567 E609.04077
G0 F7800 X152.509 Y104.143
G1 F720 X119.856 Y71.489 E610.48069
G0 F7800 X120.28 Y71.489
G1 F720 X152.509 Y103.719 E611.90192
G0 F7800 X152.509 Y103.294
G1 F720 X120.704 Y71.489 E613.30443
G0 F7800 X121.128 Y71.489
G1 F720 X152.509 Y102.87 E614.68824
G0 F7800 X152.509 Y102.446
G1 F720 X121.553 Y71.489 E616.05334
G0 F7800 X121.977 Y71.489
G1 F720 X152.509 Y102.022 E617.39973
G0 F7800 X152.509 Y101.597
G1 F720 X122.401 Y71.489 E618.72741
G0 F7800 X122.825 Y71.489
G1 F720 X152.509 Y101.173 E620.03639
G0 F7800 X152.509 Y100.749
G1 F720 X123.25 Y71.489 E621.32665
G0 F7800 X123.674 Y71.489
G1 F720 X152.509 Y100.325 E622.59821
G0 F7800 X152.508 Y99.9
G1 F720 X124.098 Y71.489 E623.85103
G0 F7800 X124.522 Y71.489
G1 F720 X152.508 Y99.475 E625.08513
G0 F7800 X152.508 Y99.051
G1 F720 X124.947 Y71.489 E626.30052
G0 F7800 X125.371 Y71.489
G1 F720 X152.508 Y98.627 E627.4972
G0 F7800 X152.508 Y98.202
G1 F720 X125.795 Y71.489 E628.67517
G0 F7800 X126.219 Y71.489
G1 F720 X152.508 Y97.778 E629.83444
G0 F7800 X152.508 Y97.354
G1 F720 X126.644 Y71.489 E630.97499
G0 F7800 X127.068 Y71.489
G1 F720 X152.508 Y96.93 E632.09684
G0 F7800 X152.508 Y96.505
G1 F720 X127.492 Y71.489 E633.19997
G0 F7800 X127.917 Y71.489
G1 F720 X152.508 Y96.081 E634.28439
G0 F7800 X152.508 Y95.657
G1 F720 X128.341 Y71.489 E635.35011
G0 F7800 X128.765 Y71.489
G1 F720 X152.508 Y95.233 E636.39713
G0 F7800 X152.508 Y94.808
G1 F720 X129.189 Y71.489 E637.42543
G0 F7800 X129.614 Y71.489
G1 F720 X152.508 Y94.384 E638.43501
G0 F7800 X152.508 Y93.96
G1 F720 X130.038 Y71.489 E639.42589
G0 F7800 X130.462 Y71.489
G1 F720 X152.508 Y93.536 E640.39808
G0 F7800 X152.508 Y93.111
G1 F720 X137.412 Y78.015 E641.06377
G0 F7800 X138.007 Y78.186
G1 F720 X152.508 Y92.687 E641.70322
G0 F7800 X152.508 Y92.263
G1 F720 X138.476 Y78.23 E642.32202
G0 F7800 X138.88 Y78.21
G1 F720 X152.508 Y91.839 E642.92299
G0 F7800 X152.508 Y91.414
G1 F720 X139.23 Y78.136 E643.50851
G0 F7800 X139.547 Y78.029
G1 F720 X152.508 Y90.99 E644.08006
G0 F7800 X152.508 Y90.566
G1 F720 X139.828 Y77.885 E644.63923
G0 F7800 X140.096 Y77.73
G1 F720 X152.508 Y90.141 E645.18654
G0 F7800 X152.508 Y89.717
G1 F720 X140.323 Y77.532 E645.72387
G0 F7800 X140.542 Y77.327
G1 F720 X152.508 Y89.293 E646.25153
G0 F7800 X152.508 Y88.869
G1 F720 X140.731 Y77.091 E646.77089
G0 F7800 X140.886 Y76.822
G1 F720 X152.508 Y88.444 E647.28338
G0 F7800 X152.508 Y88.02
G1 F720 X141.031 Y76.542 E647.78951
G0 F7800 X141.135 Y76.223
G1 F720 X152.508 Y87.596 E648.29102
G0 F7800 X152.508 Y87.172
G1 F720 X141.205 Y75.869 E648.78945
G0 F7800 X141.239 Y75.478
G1 F720 X152.508 Y86.747 E649.28638
G0 F7800 X152.508 Y86.323
G1 F720 X141.183 Y74.997 E649.78581
G0 F7800 X141.006 Y74.396
G1 F720 X152.508 Y85.899 E650.29303
G0 F7800 X152.508 Y85.475
G1 F720 X138.523 Y71.489 E650.90975
G0 F7800 X138.099 Y71.489
G1 F720 X139.622 Y73.013 E650.97694
G0 F7800 X138.991 Y72.806
G1 F720 X137.675 Y71.489 E651.03499
G0 F7800 X137.25 Y71.489
G1 F720 X138.518 Y72.757 E651.09091
G0 F7800 X138.124 Y72.787
G1 F720 X136.826 Y71.489 E651.14814
G0 F7800 X136.402 Y71.489
G1 F720 X137.776 Y72.864 E651.20875
G0 F7800 X137.455 Y72.967
G1 F720 X135.978 Y71.489 E651.27391
G0 F7800 X135.553 Y71.489
G1 F720 X137.169 Y73.105 E651.34517
G0 F7800 X136.915 Y73.276
G1 F720 X135.129 Y71.489 E651.42395
G0 F7800 X134.705 Y71.489
G1 F720 X136.67 Y73.454 E651.5106
G0 F7800 X136.468 Y73.676
G1 F720 X134.28 Y71.489 E651.60706
G0 F7800 X133.856 Y71.489
G1 F720 X136.271 Y73.904 E651.71356
G0 F7800 X136.105 Y74.162
G1 F720 X133.432 Y71.489 E651.83143
G0 F7800 X133.008 Y71.489
G1 F720 X135.974 Y74.456 E651.96224
G0 F7800 X135.862 Y74.768
G1 F720 X132.583 Y71.489 E652.10684
G0 F7800 X132.159 Y71.489
G1 F720 X135.788 Y75.118 E652.26687
G0 F7800 X135.768 Y75.522
G1 F720 X131.735 Y71.489 E652.44471
G0 F7800 X131.311 Y71.489
G1 F720 X135.804 Y75.982 E652.64284
G0 F7800 X135.978 Y76.581
G1 F720 X130.886 Y71.489 E652.86738
G0 F7800 X138.947 Y71.489
G1 F720 X152.508 Y85.05 E653.46538
G0 F7800 X152.508 Y84.626
G1 F720 X139.372 Y71.489 E654.04466
G0 F7800 X139.796 Y71.489
G1 F720 X152.508 Y84.202 E654.60525
G0 F7800 X152.508 Y83.778
G1 F720 X147.186 Y78.455 E654.83995
G0 F7800 X147.822 Y78.667
G1 F720 X152.508 Y83.353 E655.04659
G0 F7800 X152.508 Y82.929
G1 F720 X148.314 Y78.735 E655.23154
G0 F7800 X148.732 Y78.728
G1 F720 X152.508 Y82.505 E655.39807
G0 F7800 X152.508 Y82.08
G1 F720 X149.104 Y78.676 E655.54818
G0 F7800 X149.447 Y78.595
G1 F720 X152.508 Y81.656 E655.68316
G0 F7800 X152.508 Y81.232
G1 F720 X149.76 Y78.483 E655.80436
G0 F7800 X150.042 Y78.341
G1 F720 X152.508 Y80.808 E655.91312
G0 F7800 X152.508 Y80.383
G1 F720 X150.31 Y78.185 E656.01005
G0 F7800 X150.55 Y78.001
G1 F720 X152.508 Y79.959 E656.09639
G0 F7800 X152.508 Y79.535
G1 F720 X150.772 Y77.798 E656.17297
G0 F7800 X150.981 Y77.583
G1 F720 X152.508 Y79.111 E656.24032
G0 F7800 X152.508 Y78.686
G1 F720 X151.159 Y77.337 E656.29981
G0 F7800 X151.325 Y77.078
G1 F720 X152.508 Y78.262 E656.352
G0 F7800 X152.508 Y77.838
G1 F720 X151.465 Y76.794 E656.39802
G0 F7800 X151.578 Y76.483
G1 F720 X152.508 Y77.414 E656.43905
G0 F7800 X152.508 Y76.989
G1 F720 X151.67 Y76.151 E656.476
G0 F7800 X151.726 Y75.783
G1 F720 X152.508 Y76.565 E656.51049
G0 F7800 X152.508 Y76.141
G1 F720 X151.732 Y75.364 E656.54473
G0 F7800 X151.676 Y74.884
G1 F720 X152.508 Y75.716 E656.58142
G0 F7800 X152.508 Y75.292
G1 F720 X151.504 Y74.288 E656.62569
G0 F7800 X152.508 Y74.444
G1 F720 X149.554 Y71.489 E656.75597
G0 F7800 X149.13 Y71.489
G1 F720 X152.508 Y74.868 E656.90496
G0 F7800 X152.508 Y74.019
G1 F720 X149.978 Y71.489 E657.01652
G0 F7800 X150.403 Y71.489
G1 F720 X152.508 Y73.595 E657.10937
G0 F7800 X152.508 Y73.171
G1 F720 X150.827 Y71.489 E657.18352
G0 F7800 X151.251 Y71.489
G1 F720 X152.508 Y72.747 E657.23897
G0 F7800 X152.508 Y72.322
G1 F720 X151.675 Y71.489 E657.2757
G0 F7800 X152.1 Y71.489
G1 F720 X152.508 Y71.898 E657.29372
G0 F7800 X149.721 Y72.505
G0 X149.721 Y72.505
G1 F720 X148.705 Y71.489 E657.33852
G0 F7800 X148.281 Y71.489
G1 F720 X149.118 Y72.327 E657.37545
G0 F7800 X148.637 Y72.269
G1 F720 X147.857 Y71.489 E657.40985
G0 F7800 X147.433 Y71.489
G1 F720 X148.221 Y72.278 E657.44462
G0 F7800 X147.846 Y72.327
G1 F720 X147.008 Y71.489 E657.48157
G0 F7800 X146.584 Y71.489
G1 F720 X147.513 Y72.418 E657.52254
G0 F7800 X147.207 Y72.537
G1 F720 X146.16 Y71.489 E657.56873
G0 F7800 X145.736 Y71.489
G1 F720 X146.919 Y72.672 E657.6209
G0 F7800 X146.661 Y72.839
G1 F720 X145.311 Y71.489 E657.68043
G0 F7800 X144.887 Y71.489
G1 F720 X146.419 Y73.022 E657.74801
G0 F7800 X146.195 Y73.221
G1 F720 X144.463 Y71.489 E657.82438
G0 F7800 X144.039 Y71.489
G1 F720 X145.999 Y73.45 E657.91083
G0 F7800 X145.814 Y73.689
G1 F720 X143.614 Y71.489 E658.00785
G0 F7800 X143.19 Y71.489
G1 F720 X145.656 Y73.956 E658.11661
G0 F7800 X145.519 Y74.242
G1 F720 X142.766 Y71.489 E658.23801
G0 F7800 X142.342 Y71.489
G1 F720 X145.4 Y74.548 E658.37288
G0 F7800 X145.32 Y74.892
G1 F720 X141.917 Y71.489 E658.52295
G0 F7800 X141.493 Y71.489
G1 F720 X145.273 Y75.27 E658.68966
G0 F7800 X145.271 Y75.692
G1 F720 X141.069 Y71.489 E658.87497
G0 F7800 X140.644 Y71.489
G1 F720 X145.337 Y76.182 E659.08192
G0 F7800 X145.539 Y76.808
G1 F720 X140.22 Y71.489 E659.31647
G0 F7800 X106.453 Y72.936
G0 X106.453 Y72.936
G1 F720 X105.006 Y71.489 E659.38028
G0 F7800 X104.582 Y71.489
G1 F720 X105.888 Y72.795 E659.43787
G0 F7800 X105.43 Y72.761
G1 F720 X104.158 Y71.489 E659.49397
G0 F7800 X103.733 Y71.489
G1 F720 X105.044 Y72.8 E659.55178
G0 F7800 X104.706 Y72.886
G1 F720 X103.309 Y71.489 E659.61338
G0 F7800 X102.885 Y71.489
G1 F720 X104.388 Y72.992 E659.67966
G0 F7800 X104.108 Y73.137
G1 F720 X102.461 Y71.489 E659.75231
G0 F7800 X102.036 Y71.489
G1 F720 X103.861 Y73.314 E659.83279
G0 F7800 X103.625 Y73.502
G1 F720 X101.612 Y71.489 E659.92155
G0 F7800 X101.188 Y71.489
G1 F720 X103.424 Y73.725 E660.02015
G0 F7800 X103.234 Y73.96
G1 F720 X100.764 Y71.489 E660.1291
G0 F7800 X100.339 Y71.489
G1 F720 X103.077 Y74.227 E660.24983
G0 F7800 X102.946 Y74.52
G1 F720 X99.914 Y71.489 E660.38351
G0 F7800 X99.49 Y71.489
G1 F720 X102.847 Y74.845 E660.53153
G0 F7800 X102.772 Y75.195
G1 F720 X99.066 Y71.489 E660.69495
G0 F7800 X98.642 Y71.489
G1 F720 X102.768 Y75.615 E660.8769
G0 F7800 X102.821 Y76.093
G1 F720 X98.217 Y71.489 E661.07992
G0 F7800 X97.793 Y71.489
G1 F720 X103.073 Y76.769 E661.31275
G0 F7800 X97.654 Y74.967
G0 X97.548 Y74.57
G0 X97.316 Y74.172
G0 X96.999 Y73.823
G0 X96.627 Y73.552
G0 X96.206 Y73.364
G0 X95.948 Y73.296
G0 X95.515 Y73.249
G0 X95.261 Y73.263
G0 X95.019 Y73.303
G0 X94.595 Y73.44
G0 X94.357 Y73.562
G0 X94.106 Y73.788
G0 X87.186 Y71.489
G0 X87.186 Y71.489
G1 F720 X135.793 Y120.095 E663.45616
G0 F7800 X135.768 Y120.494
G1 F720 X86.762 Y71.489 E665.61716
G0 F7800 X86.338 Y71.489
G1 F720 X135.798 Y120.949 E667.7982
G0 F7800 X135.965 Y121.54
G1 F720 X85.914 Y71.489 E670.00531
G0 F7800 X65.168 Y74.926
G0 X65.168 Y74.926
G1 F720 X118.751 Y128.509 E672.36817
G0 F7800 X118.327 Y128.509
G1 F720 X65.236 Y75.418 E674.70933
G0 F7800 X65.211 Y75.818
G1 F720 X117.902 Y128.509 E677.03285
G0 F7800 X119.175 Y128.509
G1 F720 X64.949 Y74.283 E679.42406
G0 F7800 X64.332 Y74.268
G0 X63.999 Y73.823
G0 X63.627 Y73.552
G0 X63.206 Y73.364
G0 X62.948 Y73.296
G0 X62.502 Y73.248
G0 X62.034 Y73.299
G0 X61.597 Y73.44
G0 X61.358 Y73.562
G0 X60.995 Y73.827
G0 X60.734 Y74.186
G0 X55.397 Y74.065
G0 X55.397 Y74.065
G1 F720 X103.045 Y121.713 E681.5252
; Layer Change GCode
; LAYER:1
G4 P0
M106 S89
G0 F7800 X46.997 Y129.074 Z0.45
G0 X46.6 Y129.126
G0 X46.81 Y129.1
G0 X46.81 Y129.1
G0 X46.65 Y129.35
G0 X46.65 Y129.35
G0 X47.25 Y128.75
; TYPE:WALL-INNER
G1 F1800 X47.25 Y71.25 E682.95954
G1 X152.75 Y71.25 E685.59125
G1 X152.75 Y128.75 E687.02559
G1 X47.25 Y128.75 E689.6573
G0 F7800 X46.95 Y129.05
G1 F1800 X46.95 Y70.95 E691.10661
G1 X153.05 Y70.95 E693.75329
G1 X153.05 Y129.05 E695.2026
G1 X46.95 Y129.05 E697.84927
G0 F7800 X46.65 Y129.35
; TYPE:WALL-OUTER
G1 F1260 X46.65 Y70.65 E699.31355
G1 X153.35 Y70.65 E701.97519
G1 X153.35 Y129.35 E703.43947
G1 X46.65 Y129.35 E706.10111
G0 F7800 X46.81 Y129.1
G0 X50.671 Y122.88
G0 X50.671 Y122.88
; TYPE:WALL-INNER
G1 F1800 X51.077 Y123.142 E706.11317
G1 X51.467 Y123.317 E706.12383
G1 X51.927 Y123.446 E706.13575
G1 X52.35 Y123.496 E706.14637
G1 X52.831 Y123.484 E706.15837
G1 X53.305 Y123.391 E706.17042
G1 X53.706 Y123.249 E706.18103
G1 X54.129 Y123.022 E706.19301
G1 X54.468 Y122.763 E706.20365
G1 X54.804 Y122.425 E706.21554
G1 X55.085 Y122.028 E706.22767
G1 X55.273 Y121.646 E706.23829
G1 X55.422 Y121.19 E706.25026
G1 X55.495 Y120.714 E706.26227
G1 X55.495 Y120.285 E706.27297
G1 X55.423 Y119.812 E706.28491
G1 X55.294 Y119.406 E706.29554
G1 X55.087 Y118.975 E706.30746
G1 X54.808 Y118.579 E706.31955
G1 X54.512 Y118.272 E706.33018
G1 X54.133 Y117.98 E706.34212
G1 X53.758 Y117.775 E706.35278
G1 X53.31 Y117.609 E706.3647
G1 X52.836 Y117.516 E706.37675
G1 X52.407 Y117.499 E706.38746
G1 X51.932 Y117.552 E706.39938
G1 X51.521 Y117.665 E706.41001
G1 X51.082 Y117.854 E706.42194
G1 X50.675 Y118.116 E706.43401
G1 X50.355 Y118.401 E706.4447
G1 X50.047 Y118.769 E706.45667
G1 X49.802 Y119.184 E706.46869
G1 X49.643 Y119.58 E706.47934
G1 X49.533 Y120.045 E706.49126
G1 X49.5 Y120.471 E706.50191
G1 X49.532 Y120.95 E706.51389
G1 X49.643 Y121.419 E706.52591
G1 X49.802 Y121.815 E706.53656
G1 X50.046 Y122.228 E706.54852
G1 X50.317 Y122.557 E706.55916
G1 X50.671 Y122.88 E706.57111
G0 F7800 X50.854 Y122.642
G1 F1800 X51.221 Y122.878 E706.58199
G1 X51.569 Y123.034 E706.59151
G1 X51.985 Y123.151 E706.60229
G1 X52.364 Y123.196 E706.61181
G1 X52.798 Y123.185 E706.62264
G1 X53.225 Y123.101 E706.63349
G1 X53.584 Y122.974 E706.64299
G1 X53.966 Y122.769 E706.65381
G1 X54.269 Y122.537 E706.66333
G1 X54.574 Y122.231 E706.6741
G1 X54.826 Y121.874 E706.685
G1 X54.995 Y121.532 E706.69452
G1 X55.129 Y121.121 E706.7053
G1 X55.195 Y120.691 E706.71616
G1 X55.195 Y120.308 E706.72571
G1 X55.13 Y119.88 E706.73651
G1 X55.014 Y119.517 E706.74601
G1 X54.827 Y119.127 E706.7568
G1 X54.576 Y118.77 E706.76769
G1 X54.311 Y118.496 E706.7772
G1 X53.969 Y118.232 E706.78798
G1 X53.633 Y118.048 E706.79753
G1 X53.228 Y117.898 E706.80831
G1 X52.801 Y117.815 E706.81916
G1 X52.418 Y117.8 E706.82872
G1 X51.988 Y117.848 E706.83951
G1 X51.621 Y117.948 E706.849
G1 X51.224 Y118.119 E706.85978
G1 X50.857 Y118.356 E706.87068
G1 X50.571 Y118.61 E706.88022
G1 X50.293 Y118.943 E706.89104
G1 X50.072 Y119.317 E706.90188
G1 X49.93 Y119.671 E706.91139
G1 X49.83 Y120.091 E706.92216
G1 X49.801 Y120.473 E706.93172
G1 X49.829 Y120.905 E706.94252
G1 X49.93 Y121.328 E706.95337
G1 X50.072 Y121.682 E706.96288
G1 X50.292 Y122.055 E706.97368
G1 X50.535 Y122.35 E706.98322
G1 X50.854 Y122.642 E706.99401
G0 F7800 X51.336 Y122.803
G0 X51.977 Y123.199
G0 X52.362 Y123.244
G0 X52.271 Y123.115
G0 X52.35 Y123.142
G0 X52.35 Y123.142
G0 X52.378 Y122.895
; TYPE:WALL-OUTER
G1 F1260 X52.765 Y122.886 E707.00366
G1 X53.146 Y122.811 E707.01335
G1 X53.462 Y122.699 E707.02171
G1 X53.803 Y122.516 E707.03137
G1 X54.071 Y122.311 E707.03978
G1 X54.343 Y122.038 E707.0494
G1 X54.567 Y121.72 E707.0591
G1 X54.716 Y121.419 E707.06748
G1 X54.836 Y121.051 E707.07713
G1 X54.895 Y120.668 E707.0868
G1 X54.895 Y120.331 E707.09521
G1 X54.837 Y119.949 E707.10484
G1 X54.735 Y119.628 E707.11325
G1 X54.568 Y119.28 E707.12287
G1 X54.344 Y118.962 E707.13258
G1 X54.11 Y118.72 E707.14097
G1 X53.804 Y118.484 E707.15061
G1 X53.508 Y118.322 E707.15903
G1 X53.147 Y118.188 E707.16864
G1 X52.766 Y118.114 E707.17832
G1 X52.429 Y118.101 E707.18673
G1 X52.045 Y118.143 E707.19637
G1 X51.72 Y118.232 E707.20477
G1 X51.365 Y118.385 E707.21442
G1 X51.039 Y118.595 E707.22409
G1 X50.787 Y118.819 E707.2325
G1 X50.539 Y119.116 E707.24215
G1 X50.342 Y119.45 E707.25182
G1 X50.217 Y119.762 E707.26021
G1 X50.127 Y120.138 E707.26985
G1 X50.102 Y120.474 E707.27826
G1 X50.127 Y120.86 E707.28791
G1 X50.217 Y121.237 E707.29758
G1 X50.342 Y121.549 E707.30596
G1 X50.539 Y121.882 E707.31561
G1 X50.753 Y122.143 E707.32403
G1 X51.038 Y122.403 E707.33365
G1 X51.364 Y122.613 E707.34333
G1 X51.672 Y122.751 E707.35175
G1 X52.044 Y122.856 E707.36139
G1 X52.378 Y122.895 E707.36978
G0 F7800 X52.35 Y123.142
G0 X52.449 Y123.114
G0 X53.238 Y123.148
G0 X53.604 Y123.018
G0 X53.993 Y122.81
G0 X53.906 Y122.72
G0 X60.064 Y121.06
G0 X60.064 Y121.06
; TYPE:WALL-INNER
G1 F1800 X60.211 Y121.513 E707.38166
G1 X60.475 Y121.971 E707.39484
G1 X60.83 Y122.365 E707.40807
G1 X61.242 Y122.662 E707.42074
G1 X61.5 Y122.792 E707.42795
G1 X61.982 Y122.949 E707.44059
G1 X62.488 Y123.002 E707.45329
G1 X62.777 Y122.985 E707.46051
G1 X63.257 Y122.885 E707.47274
G1 X63.551 Y122.768 E707.48063
G1 X63.965 Y122.53 E707.49254
G1 X64.359 Y122.177 E707.50574
G1 X64.67 Y121.749 E707.51894
G1 X64.884 Y121.264 E707.53216
G1 X64.991 Y120.748 E707.54531
G1 X64.991 Y120.251 E707.5577
G1 X64.884 Y119.734 E707.57087
G1 X64.677 Y119.267 E707.58362
G1 X64.502 Y119.001 E707.59156
G1 X64.182 Y118.646 E707.60348
G1 X63.759 Y118.334 E707.61659
G1 X63.272 Y118.117 E707.62989
G1 X62.755 Y118.009 E707.64307
G1 X62.23 Y118.01 E707.65616
G1 X61.741 Y118.114 E707.66864
G1 X61.26 Y118.325 E707.68174
G1 X60.844 Y118.624 E707.69452
G1 X60.618 Y118.852 E707.70253
G1 X60.324 Y119.264 E707.71515
G1 X60.121 Y119.719 E707.72758
G1 X60.01 Y120.235 E707.74075
G1 X60.01 Y120.749 E707.75357
G1 X60.064 Y121.06 E707.76144
G0 F7800 X60.356 Y120.987
G1 F1800 X60.486 Y121.391 E707.77203
G1 X60.719 Y121.794 E707.78364
G1 X61.031 Y122.14 E707.79526
G1 X61.398 Y122.405 E707.80655
G1 X61.615 Y122.514 E707.81261
G1 X62.045 Y122.654 E707.82389
G1 X62.495 Y122.701 E707.83518
G1 X62.738 Y122.687 E707.84125
G1 X63.17 Y122.596 E707.85226
G1 X63.42 Y122.497 E707.85897
G1 X63.788 Y122.286 E707.86955
G1 X64.135 Y121.975 E707.88118
G1 X64.408 Y121.599 E707.89277
G1 X64.597 Y121.172 E707.90441
G1 X64.691 Y120.717 E707.916
G1 X64.691 Y120.282 E707.92686
G1 X64.597 Y119.827 E707.93845
G1 X64.412 Y119.411 E707.9498
G1 X64.264 Y119.185 E707.95654
G1 X63.98 Y118.87 E707.96712
G1 X63.607 Y118.595 E707.97868
G1 X63.179 Y118.404 E707.99037
G1 X62.724 Y118.309 E708.00197
G1 X62.262 Y118.31 E708.01349
G1 X61.834 Y118.401 E708.02441
G1 X61.409 Y118.587 E708.03598
G1 X61.04 Y118.853 E708.04733
G1 X60.848 Y119.046 E708.05412
G1 X60.585 Y119.414 E708.0654
G1 X60.408 Y119.813 E708.07629
G1 X60.31 Y120.267 E708.08788
G1 X60.31 Y120.723 E708.09925
G1 X60.356 Y120.987 E708.10593
G0 F7800 X60.409 Y121.028
G0 X60.442 Y121.41
G0 X60.68 Y121.822
G0 X60.999 Y122.177
G0 X61.374 Y122.446
G0 X61.596 Y122.559
G0 X62.035 Y122.701
G0 X62.495 Y122.751
G0 X62.52 Y122.682
G0 X62.476 Y122.648
G0 X62.476 Y122.648
G0 X62.502 Y122.4
; TYPE:WALL-OUTER
G1 F1260 X62.698 Y122.389 E708.11083
G1 X63.083 Y122.308 E708.12065
G1 X63.289 Y122.226 E708.12618
G1 X63.611 Y122.041 E708.13544
G1 X63.911 Y121.773 E708.14548
G1 X64.147 Y121.448 E708.15549
G1 X64.31 Y121.08 E708.16553
G1 X64.391 Y120.686 E708.17557
G1 X64.391 Y120.313 E708.18487
G1 X64.31 Y119.919 E708.19491
G1 X64.148 Y119.555 E708.20485
G1 X64.026 Y119.369 E708.21039
G1 X63.777 Y119.093 E708.21967
G1 X63.455 Y118.856 E708.22964
G1 X63.086 Y118.691 E708.23972
G1 X62.693 Y118.609 E708.24974
G1 X62.294 Y118.61 E708.25969
G1 X61.926 Y118.688 E708.26907
G1 X61.558 Y118.849 E708.27909
G1 X61.235 Y119.082 E708.28903
G1 X61.078 Y119.24 E708.29459
G1 X60.847 Y119.563 E708.30449
G1 X60.695 Y119.906 E708.31385
G1 X60.61 Y120.299 E708.32388
G1 X60.61 Y120.697 E708.33381
G1 X60.648 Y120.915 E708.33933
G1 X60.762 Y121.268 E708.34858
G1 X60.963 Y121.617 E708.35863
G1 X61.232 Y121.915 E708.36864
G1 X61.555 Y122.148 E708.37858
G1 X61.73 Y122.236 E708.38346
G1 X62.108 Y122.359 E708.39338
G1 X62.502 Y122.4 E708.40326
G1 F1800 E707.40326
G0 F7800 X62.476 Y122.648
G0 X62.865 Y122.623
G0 X63.264 Y122.598
G0 X93.009 Y120.749
G0 X93.009 Y120.749
; TYPE:WALL-INNER
G1 F1800 E708.40326
G1 X93.063 Y121.06 E708.41114
G1 X93.21 Y121.513 E708.42302
G1 X93.474 Y121.971 E708.4362
G1 X93.829 Y122.365 E708.44943
G1 X94.242 Y122.661 E708.46211
G1 X94.498 Y122.792 E708.46928
G1 X94.981 Y122.949 E708.48195
G1 X95.488 Y123.002 E708.49467
G1 X95.777 Y122.985 E708.50189
G1 X96.257 Y122.885 E708.51412
G1 X96.551 Y122.768 E708.52201
G1 X96.965 Y122.53 E708.53392
G1 X97.359 Y122.177 E708.54712
G1 X97.67 Y121.749 E708.56032
G1 X97.884 Y121.264 E708.57354
G1 X97.991 Y120.748 E708.58669
G1 X97.991 Y120.251 E708.59908
G1 X97.884 Y119.734 E708.61225
G1 X97.677 Y119.267 E708.625
G1 X97.502 Y119.001 E708.63294
G1 X97.182 Y118.646 E708.64486
G1 X96.759 Y118.334 E708.65797
G1 X96.272 Y118.117 E708.67127
G1 X95.755 Y118.009 E708.68445
G1 X95.226 Y118.01 E708.69764
G1 X94.711 Y118.124 E708.7108
G1 X94.258 Y118.326 E708.72317
G1 X93.844 Y118.623 E708.73588
G1 X93.617 Y118.852 E708.74393
G1 X93.323 Y119.264 E708.75655
G1 X93.12 Y119.719 E708.76898
G1 X93.009 Y120.235 E708.78215
G1 X93.009 Y120.749 E708.79497
G0 F7800 X93.309 Y120.723
G1 F1800 X93.355 Y120.987 E708.80165
G1 X93.485 Y121.391 E708.81224
G1 X93.718 Y121.794 E708.82385
G1 X94.03 Y122.14 E708.83547
G1 X94.398 Y122.404 E708.84677
G1 X94.613 Y122.514 E708.8528
G1 X95.044 Y122.654 E708.8641
G1 X95.495 Y122.701 E708.87541
G1 X95.738 Y122.687 E708.88148
G1 X96.17 Y122.596 E708.8925
G1 X96.42 Y122.497 E708.8992
G1 X96.788 Y122.286 E708.90979
G1 X97.135 Y121.975 E708.92141
G1 X97.408 Y121.599 E708.933
G1 X97.597 Y121.172 E708.94465
G1 X97.691 Y120.717 E708.95624
G1 X97.691 Y120.282 E708.96709
G1 X97.597 Y119.827 E708.97868
G1 X97.412 Y119.411 E708.99004
G1 X97.264 Y119.185 E708.99677
G1 X96.98 Y118.87 E709.00735
G1 X96.607 Y118.595 E709.01891
G1 X96.179 Y118.404 E709.03061
G1 X95.724 Y118.309 E709.0422
G1 X95.259 Y118.31 E709.0538
G1 X94.805 Y118.41 E709.0654
G1 X94.408 Y118.588 E709.07625
G1 X94.039 Y118.852 E709.08757
G1 X93.847 Y119.046 E709.09438
G1 X93.584 Y119.414 E709.10566
G1 X93.407 Y119.813 E709.11655
G1 X93.309 Y120.267 E709.12813
G1 X93.309 Y120.723 E709.13951
G0 F7800 X93.326 Y120.737
G0 X93.441 Y121.41
G0 X93.679 Y121.822
G0 X93.998 Y122.177
G0 X94.374 Y122.446
G0 X94.595 Y122.559
G0 X95.034 Y122.701
G0 X95.495 Y122.751
G0 X95.524 Y122.69
G0 X95.476 Y122.648
G0 X95.476 Y122.648
G0 X95.502 Y122.4
; TYPE:WALL-OUTER
G1 F1260 X95.698 Y122.389 E709.14441
G1 X96.083 Y122.308 E709.15422
G1 X96.289 Y122.226 E709.15975
G1 X96.611 Y122.041 E709.16901
G1 X96.911 Y121.773 E709.17905
G1 X97.147 Y121.448 E709.18907
G1 X97.31 Y121.08 E709.19911
G1 X97.391 Y120.686 E709.20914
G1 X97.391 Y120.313 E709.21845
G1 X97.31 Y119.919 E709.22848
G1 X97.148 Y119.555 E709.23842
G1 X97.026 Y119.369 E709.24397
G1 X96.777 Y119.093 E709.25324
G1 X96.455 Y118.856 E709.26321
G1 X96.086 Y118.691 E709.2733
G1 X95.693 Y118.609 E709.28331
G1 X95.292 Y118.61 E709.29332
G1 X94.9 Y118.697 E709.30333
G1 X94.558 Y118.849 E709.31267
G1 X94.234 Y119.081 E709.32261
G1 X94.077 Y119.24 E709.32818
G1 X93.846 Y119.563 E709.33809
G1 X93.694 Y119.906 E709.34745
G1 X93.609 Y120.299 E709.35748
G1 X93.609 Y120.697 E709.3674
G1 X93.647 Y120.915 E709.37292
G1 X93.761 Y121.268 E709.38218
G1 X93.962 Y121.617 E709.39222
G1 X94.231 Y121.915 E709.40224
G1 X94.555 Y122.147 E709.41218
G1 X94.728 Y122.236 E709.41703
G1 X95.107 Y122.359 E709.42697
G1 X95.502 Y122.4 E709.43688
G0 F7800 X95.476 Y122.648
G0 X95.601 Y122.621
G0 X96.441 Y122.542
G0 X96.273 Y122.48
G0 X103.063 Y121.06
G0 X103.063 Y121.06
; TYPE:WALL-INNER
G1 F1800 X103.21 Y121.513 E709.44876
G1 X103.474 Y121.971 E709.46195
G1 X103.829 Y122.365 E709.47517
G1 X104.242 Y122.661 E709.48785
G1 X104.498 Y122.792 E709.49502
G1 X104.981 Y122.949 E709.50769
G1 X105.488 Y123.002 E709.52041
G1 X105.777 Y122.985 E709.52763
G1 X106.257 Y122.885 E709.53986
G1 X106.551 Y122.768 E709.54775
G1 X106.965 Y122.53 E709.55967
G1 X107.359 Y122.177 E709.57286
G1 X107.67 Y121.749 E709.58606
G1 X107.884 Y121.264 E709.59928
G1 X107.991 Y120.748 E709.61243
G1 X107.991 Y120.251 E709.62483
G1 X107.884 Y119.734 E709.638
G1 X107.677 Y119.267 E709.65074
G1 X107.502 Y119.001 E709.65868
G1 X107.182 Y118.646 E709.6706
G1 X106.759 Y118.334 E709.68372
G1 X106.272 Y118.117 E709.69702
G1 X105.755 Y118.009 E709.71019
G1 X105.226 Y118.01 E709.72339
G1 X104.711 Y118.124 E709.73654
G1 X104.258 Y118.326 E709.74892
G1 X103.844 Y118.623 E709.76163
G1 X103.617 Y118.852 E709.76967
G1 X103.323 Y119.264 E709.7823
G1 X103.12 Y119.719 E709.79472
G1 X103.009 Y120.235 E709.80789
G1 X103.009 Y120.749 E709.82071
G1 X103.063 Y121.06 E709.82859
G0 F7800 X103.355 Y120.987
G1 F1800 X103.485 Y121.391 E709.83917
G1 X103.718 Y121.794 E709.85078
G1 X104.03 Y122.14 E709.86241
G1 X104.398 Y122.404 E709.8737
G1 X104.613 Y122.514 E709.87973
G1 X105.044 Y122.654 E709.89103
G1 X105.495 Y122.701 E709.90234
G1 X105.738 Y122.687 E709.90842
G1 X106.17 Y122.596 E709.91943
G1 X106.42 Y122.497 E709.92614
G1 X106.788 Y122.286 E709.93672
G1 X107.135 Y121.975 E709.94834
G1 X107.408 Y121.599 E709.95993
G1 X107.597 Y121.172 E709.97158
G1 X107.691 Y120.717 E709.98317
G1 X107.691 Y120.282 E709.99402
G1 X107.597 Y119.827 E710.00561
G1 X107.412 Y119.411 E710.01697
G1 X107.264 Y119.185 E710.02371
G1 X106.98 Y118.87 E710.03429
G1 X106.607 Y118.595 E710.04585
G1 X106.179 Y118.404 E710.05754
G1 X105.724 Y118.309 E710.06913
G1 X105.259 Y118.31 E710.08073
G1 X104.805 Y118.41 E710.09233
G1 X104.408 Y118.588 E710.10318
G1 X104.039 Y118.852 E710.1145
G1 X103.847 Y119.046 E710.12131
G1 X103.584 Y119.414 E710.13259
G1 X103.407 Y119.813 E710.14348
G1 X103.309 Y120.267 E710.15507
G1 X103.309 Y120.723 E710.16644
G1 X103.355 Y120.987 E710.17313
G0 F7800 X103.407 Y121.027
G0 X103.441 Y121.41
G0 X103.679 Y121.822
G0 X103.998 Y122.177
G0 X104.374 Y122.446
G0 X104.595 Y122.559
G0 X105.034 Y122.701
G0 X105.495 Y122.751
G0 X105.521 Y122.682
G0 X105.476 Y122.648
G0 X105.476 Y122.648
G0 X105.502 Y122.4
; TYPE:WALL-OUTER
G1 F1260 X105.698 Y122.389 E710.17802
G1 X106.083 Y122.308 E710.18784
G1 X106.289 Y122.226 E710.19337
G1 X106.611 Y122.041 E710.20263
G1 X106.911 Y121.773 E710.21267
G1 X107.147 Y121.448 E710.22269
G1 X107.31 Y121.08 E710.23273
G1 X107.391 Y120.686 E710.24276
G1 X107.391 Y120.313 E710.25206
G1 X107.31 Y119.919 E710.2621
G1 X107.148 Y119.555 E710.27204
G1 X107.026 Y119.369 E710.27759
G1 X106.777 Y119.093 E710.28686
G1 X106.455 Y118.856 E710.29683
G1 X106.086 Y118.691 E710.30691
G1 X105.693 Y118.609 E710.31693
G1 X105.292 Y118.61 E710.32693
G1 X104.9 Y118.697 E710.33695
G1 X104.558 Y118.849 E710.34628
G1 X104.234 Y119.081 E710.35622
G1 X104.077 Y119.24 E710.3618
G1 X103.846 Y119.563 E710.3717
G1 X103.694 Y119.906 E710.38106
G1 X103.609 Y120.299 E710.39109
G1 X103.609 Y120.697 E710.40102
G1 X103.647 Y120.915 E710.40654
G1 X103.761 Y121.268 E710.4158
G1 X103.962 Y121.617 E710.42584
G1 X104.231 Y121.915 E710.43586
G1 X104.555 Y122.147 E710.4458
G1 X104.728 Y122.236 E710.45065
G1 X105.107 Y122.359 E710.46059
G1 X105.502 Y122.4 E710.4705
G1 F1800 E709.4705
G0 F7800 X105.476 Y122.648
G0 X105.866 Y122.622
G0 X105.495 Y122.751
G0 X126.469 Y121.341
G0 X136.009 Y120.749
G0 X136.009 Y120.749
; TYPE:WALL-INNER
G1 F1800 E710.4705
G1 X136.063 Y121.06 E710.47837
G1 X136.21 Y121.513 E710.49025
G1 X136.474 Y121.971 E710.50344
G1 X136.829 Y122.365 E710.51667
G1 X137.242 Y122.661 E710.52934
G1 X137.498 Y122.792 E710.53651
G1 X137.981 Y122.949 E710.54918
G1 X138.488 Y123.002 E710.5619
G1 X138.777 Y122.985 E710.56912
G1 X139.257 Y122.885 E710.58135
G1 X139.551 Y122.768 E710.58925
G1 X139.965 Y122.53 E710.60116
G1 X140.359 Y122.177 E710.61435
G1 X140.67 Y121.749 E710.62755
G1 X140.884 Y121.264 E710.64077
G1 X140.991 Y120.748 E710.65392
G1 X140.991 Y120.251 E710.66632
G1 X140.884 Y119.734 E710.67949
G1 X140.677 Y119.267 E710.69223
G1 X140.502 Y119.001 E710.70017
G1 X140.182 Y118.646 E710.7121
G1 X139.759 Y118.334 E710.72521
G1 X139.272 Y118.117 E710.73851
G1 X138.755 Y118.009 E710.75168
G1 X138.226 Y118.01 E710.76488
G1 X137.711 Y118.124 E710.77804
G1 X137.258 Y118.326 E710.79041
G1 X136.844 Y118.623 E710.80312
G1 X136.617 Y118.852 E710.81116
G1 X136.323 Y119.264 E710.82379
G1 X136.12 Y119.719 E710.83622
G1 X136.009 Y120.235 E710.84938
G1 X136.009 Y120.749 E710.8622
G0 F7800 X136.309 Y120.723
G1 F1800 X136.355 Y120.987 E710.86889
G1 X136.485 Y121.391 E710.87947
